(G-CODE GENERATED BY FLATCAM v8.994 - www.flatcam.org - Version Date: 2020/11/7)

(Name: AllDrills_simplified_allAs0.5EtchedGuide_mill_mt_paint_cnc)
(Type: G-code from Geometry)
(Units: MM)

(Created on Samstag, 10 September 2022 at 01:18)

(This preprocessor is used with a motion controller loaded with GRBL firmware. )
(It is for the case when it is used together with a LASER connected on the SPINDLE connector.)

(Feedrate: 500.0 mm/min)
(Feedrate rapids: 1500.0 mm/min)

(Z Focus: 2.0 mm)
(Steps per circle: 64)
(Preprocessor Geometry: GRBL_laser)

(X range:   12.8795 ...  153.7353  mm)
(Y range:    8.6221 ...  143.6355  mm)

(Laser Power - Spindle Speed: 1000.0)

G21
G90
G17
G94

G01 F500.00

M5
G01 F500.00
G00 X13.1193 Y8.8221
G01 F60.00
M03 S1000.0
G01 F500.00
G01 X13.1191 Y8.8182 F500.00
G01 X13.1176 Y8.8106 F500.00
G01 X13.1146 Y8.8033 F500.00
G01 X13.1102 Y8.7969 F500.00
G01 X13.1047 Y8.7914 F500.00
G01 X13.1016 Y8.7890 F500.00
G01 X13.0983 Y8.7870 F500.00
G01 X13.0910 Y8.7840 F500.00
G01 X13.0834 Y8.7825 F500.00
G01 X13.0756 Y8.7825 F500.00
G01 X13.0680 Y8.7840 F500.00
G01 X13.0643 Y8.7854 F500.00
G01 X13.0574 Y8.7890 F500.00
G01 X13.0543 Y8.7914 F500.00
G01 X13.0488 Y8.7969 F500.00
G01 X13.0444 Y8.8033 F500.00
G01 X13.0414 Y8.8106 F500.00
G01 X13.0405 Y8.8143 F500.00
G01 X13.0397 Y8.8221 F500.00
G01 X13.0399 Y8.8260 F500.00
G01 X13.0414 Y8.8336 F500.00
G01 X13.0444 Y8.8409 F500.00
G01 X13.0464 Y8.8442 F500.00
G01 X13.0514 Y8.8502 F500.00
G01 X13.0574 Y8.8552 F500.00
G01 X13.0607 Y8.8572 F500.00
G01 X13.0680 Y8.8602 F500.00
G01 X13.0756 Y8.8617 F500.00
G01 X13.0795 Y8.8619 F500.00
G01 X13.0834 Y8.8617 F500.00
G01 X13.0910 Y8.8602 F500.00
G01 X13.0983 Y8.8572 F500.00
G01 X13.1016 Y8.8552 F500.00
G01 X13.1047 Y8.8528 F500.00
G01 X13.1102 Y8.8473 F500.00
G01 X13.1146 Y8.8409 F500.00
G01 X13.1176 Y8.8336 F500.00
G01 X13.1191 Y8.8260 F500.00
G01 X13.1193 Y8.8221 F500.00
G01 X13.1593 Y8.8221 F500.00
G01 X13.1589 Y8.8143 F500.00
G01 X13.1578 Y8.8065 F500.00
G01 X13.1559 Y8.7989 F500.00
G01 X13.1532 Y8.7916 F500.00
G01 X13.1499 Y8.7845 F500.00
G01 X13.1459 Y8.7778 F500.00
G01 X13.1412 Y8.7715 F500.00
G01 X13.1359 Y8.7657 F500.00
G01 X13.1301 Y8.7604 F500.00
G01 X13.1238 Y8.7557 F500.00
G01 X13.1171 Y8.7517 F500.00
G01 X13.1100 Y8.7484 F500.00
G01 X13.1027 Y8.7457 F500.00
G01 X13.0951 Y8.7438 F500.00
G01 X13.0873 Y8.7427 F500.00
G01 X13.0795 Y8.7423 F500.00
G01 X13.0717 Y8.7427 F500.00
G01 X13.0639 Y8.7438 F500.00
G01 X13.0563 Y8.7457 F500.00
G01 X13.0490 Y8.7484 F500.00
G01 X13.0419 Y8.7517 F500.00
G01 X13.0352 Y8.7557 F500.00
G01 X13.0289 Y8.7604 F500.00
G01 X13.0231 Y8.7657 F500.00
G01 X13.0178 Y8.7715 F500.00
G01 X13.0131 Y8.7778 F500.00
G01 X13.0091 Y8.7845 F500.00
G01 X13.0058 Y8.7916 F500.00
G01 X13.0031 Y8.7989 F500.00
G01 X13.0012 Y8.8065 F500.00
G01 X13.0001 Y8.8143 F500.00
G01 X12.9997 Y8.8221 F500.00
G01 X13.0001 Y8.8299 F500.00
G01 X13.0012 Y8.8377 F500.00
G01 X13.0031 Y8.8453 F500.00
G01 X13.0058 Y8.8526 F500.00
G01 X13.0091 Y8.8597 F500.00
G01 X13.0131 Y8.8664 F500.00
G01 X13.0178 Y8.8727 F500.00
G01 X13.0231 Y8.8785 F500.00
G01 X13.0289 Y8.8838 F500.00
G01 X13.0352 Y8.8885 F500.00
G01 X13.0419 Y8.8925 F500.00
G01 X13.0490 Y8.8958 F500.00
G01 X13.0563 Y8.8985 F500.00
G01 X13.0639 Y8.9004 F500.00
G01 X13.0717 Y8.9015 F500.00
G01 X13.0795 Y8.9019 F500.00
G01 X13.0873 Y8.9015 F500.00
G01 X13.0951 Y8.9004 F500.00
G01 X13.1027 Y8.8985 F500.00
G01 X13.1100 Y8.8958 F500.00
G01 X13.1171 Y8.8925 F500.00
G01 X13.1238 Y8.8885 F500.00
G01 X13.1301 Y8.8838 F500.00
G01 X13.1359 Y8.8785 F500.00
G01 X13.1412 Y8.8727 F500.00
G01 X13.1459 Y8.8664 F500.00
G01 X13.1499 Y8.8597 F500.00
G01 X13.1532 Y8.8526 F500.00
G01 X13.1559 Y8.8453 F500.00
G01 X13.1578 Y8.8377 F500.00
G01 X13.1589 Y8.8299 F500.00
G01 X13.1593 Y8.8221 F500.00
G01 X13.1994 Y8.8221 F500.00
G01 X13.1988 Y8.8104 F500.00
G01 X13.1971 Y8.7987 F500.00
G01 X13.1942 Y8.7873 F500.00
G01 X13.1902 Y8.7762 F500.00
G01 X13.1852 Y8.7656 F500.00
G01 X13.1792 Y8.7555 F500.00
G01 X13.1722 Y8.7461 F500.00
G01 X13.1643 Y8.7373 F500.00
G01 X13.1555 Y8.7294 F500.00
G01 X13.1461 Y8.7224 F500.00
G01 X13.1360 Y8.7164 F500.00
G01 X13.1254 Y8.7114 F500.00
G01 X13.1143 Y8.7074 F500.00
G01 X13.1029 Y8.7045 F500.00
G01 X13.0912 Y8.7028 F500.00
G01 X13.0795 Y8.7022 F500.00
G01 X13.0678 Y8.7028 F500.00
G01 X13.0561 Y8.7045 F500.00
G01 X13.0447 Y8.7074 F500.00
G01 X13.0336 Y8.7114 F500.00
G01 X13.0230 Y8.7164 F500.00
G01 X13.0129 Y8.7224 F500.00
G01 X13.0035 Y8.7294 F500.00
G01 X12.9947 Y8.7373 F500.00
G01 X12.9868 Y8.7461 F500.00
G01 X12.9798 Y8.7555 F500.00
G01 X12.9738 Y8.7656 F500.00
G01 X12.9688 Y8.7762 F500.00
G01 X12.9648 Y8.7873 F500.00
G01 X12.9619 Y8.7987 F500.00
G01 X12.9602 Y8.8104 F500.00
G01 X12.9596 Y8.8221 F500.00
G01 X12.9602 Y8.8338 F500.00
G01 X12.9619 Y8.8455 F500.00
G01 X12.9648 Y8.8569 F500.00
G01 X12.9688 Y8.8680 F500.00
G01 X12.9738 Y8.8786 F500.00
G01 X12.9798 Y8.8887 F500.00
G01 X12.9868 Y8.8981 F500.00
G01 X12.9947 Y8.9069 F500.00
G01 X13.0035 Y8.9148 F500.00
G01 X13.0129 Y8.9218 F500.00
G01 X13.0230 Y8.9278 F500.00
G01 X13.0336 Y8.9328 F500.00
G01 X13.0447 Y8.9368 F500.00
G01 X13.0561 Y8.9397 F500.00
G01 X13.0678 Y8.9414 F500.00
G01 X13.0795 Y8.9420 F500.00
G01 X13.0912 Y8.9414 F500.00
G01 X13.1029 Y8.9397 F500.00
G01 X13.1143 Y8.9368 F500.00
G01 X13.1254 Y8.9328 F500.00
G01 X13.1360 Y8.9278 F500.00
G01 X13.1461 Y8.9218 F500.00
G01 X13.1555 Y8.9148 F500.00
G01 X13.1643 Y8.9069 F500.00
G01 X13.1722 Y8.8981 F500.00
G01 X13.1792 Y8.8887 F500.00
G01 X13.1852 Y8.8786 F500.00
G01 X13.1902 Y8.8680 F500.00
G01 X13.1942 Y8.8569 F500.00
G01 X13.1971 Y8.8455 F500.00
G01 X13.1988 Y8.8338 F500.00
G01 X13.1994 Y8.8221 F500.00
G01 X13.2394 Y8.8221 F500.00
G01 X13.2387 Y8.8064 F500.00
G01 X13.2363 Y8.7909 F500.00
G01 X13.2325 Y8.7757 F500.00
G01 X13.2272 Y8.7609 F500.00
G01 X13.2205 Y8.7467 F500.00
G01 X13.2125 Y8.7333 F500.00
G01 X13.2031 Y8.7206 F500.00
G01 X13.1926 Y8.7090 F500.00
G01 X13.1810 Y8.6985 F500.00
G01 X13.1683 Y8.6891 F500.00
G01 X13.1549 Y8.6811 F500.00
G01 X13.1407 Y8.6744 F500.00
G01 X13.1259 Y8.6691 F500.00
G01 X13.1107 Y8.6653 F500.00
G01 X13.0952 Y8.6629 F500.00
G01 X13.0795 Y8.6622 F500.00
G01 X13.0638 Y8.6629 F500.00
G01 X13.0483 Y8.6653 F500.00
G01 X13.0331 Y8.6691 F500.00
G01 X13.0183 Y8.6744 F500.00
G01 X13.0041 Y8.6811 F500.00
G01 X12.9907 Y8.6891 F500.00
G01 X12.9780 Y8.6985 F500.00
G01 X12.9664 Y8.7090 F500.00
G01 X12.9559 Y8.7206 F500.00
G01 X12.9465 Y8.7333 F500.00
G01 X12.9385 Y8.7467 F500.00
G01 X12.9318 Y8.7609 F500.00
G01 X12.9265 Y8.7757 F500.00
G01 X12.9227 Y8.7909 F500.00
G01 X12.9203 Y8.8064 F500.00
G01 X12.9196 Y8.8221 F500.00
G01 X12.9203 Y8.8378 F500.00
G01 X12.9227 Y8.8533 F500.00
G01 X12.9265 Y8.8685 F500.00
G01 X12.9318 Y8.8833 F500.00
G01 X12.9385 Y8.8975 F500.00
G01 X12.9465 Y8.9109 F500.00
G01 X12.9559 Y8.9236 F500.00
G01 X12.9664 Y8.9352 F500.00
G01 X12.9780 Y8.9457 F500.00
G01 X12.9907 Y8.9551 F500.00
G01 X13.0041 Y8.9631 F500.00
G01 X13.0183 Y8.9698 F500.00
G01 X13.0331 Y8.9751 F500.00
G01 X13.0483 Y8.9789 F500.00
G01 X13.0638 Y8.9813 F500.00
G01 X13.0795 Y8.9820 F500.00
G01 X13.0952 Y8.9813 F500.00
G01 X13.1107 Y8.9789 F500.00
G01 X13.1259 Y8.9751 F500.00
G01 X13.1407 Y8.9698 F500.00
G01 X13.1549 Y8.9631 F500.00
G01 X13.1683 Y8.9551 F500.00
G01 X13.1810 Y8.9457 F500.00
G01 X13.1926 Y8.9352 F500.00
G01 X13.2031 Y8.9236 F500.00
G01 X13.2125 Y8.9109 F500.00
G01 X13.2205 Y8.8975 F500.00
G01 X13.2272 Y8.8833 F500.00
G01 X13.2325 Y8.8685 F500.00
G01 X13.2363 Y8.8533 F500.00
G01 X13.2387 Y8.8378 F500.00
G01 X13.2394 Y8.8221 F500.00
G01 X13.2795 Y8.8221 F500.00
G01 X13.2785 Y8.8025 F500.00
G01 X13.2756 Y8.7831 F500.00
G01 X13.2709 Y8.7641 F500.00
G01 X13.2642 Y8.7456 F500.00
G01 X13.2559 Y8.7278 F500.00
G01 X13.2458 Y8.7110 F500.00
G01 X13.2341 Y8.6952 F500.00
G01 X13.2209 Y8.6807 F500.00
G01 X13.2064 Y8.6675 F500.00
G01 X13.1906 Y8.6558 F500.00
G01 X13.1738 Y8.6457 F500.00
G01 X13.1560 Y8.6374 F500.00
G01 X13.1375 Y8.6307 F500.00
G01 X13.1185 Y8.6260 F500.00
G01 X13.0991 Y8.6231 F500.00
G01 X13.0795 Y8.6221 F500.00
G01 X13.0599 Y8.6231 F500.00
G01 X13.0405 Y8.6260 F500.00
G01 X13.0215 Y8.6307 F500.00
G01 X13.0030 Y8.6374 F500.00
G01 X12.9852 Y8.6457 F500.00
G01 X12.9684 Y8.6558 F500.00
G01 X12.9526 Y8.6675 F500.00
G01 X12.9381 Y8.6807 F500.00
G01 X12.9249 Y8.6952 F500.00
G01 X12.9132 Y8.7110 F500.00
G01 X12.9031 Y8.7278 F500.00
G01 X12.8948 Y8.7456 F500.00
G01 X12.8881 Y8.7641 F500.00
G01 X12.8834 Y8.7831 F500.00
G01 X12.8805 Y8.8025 F500.00
G01 X12.8795 Y8.8221 F500.00
G01 X12.8805 Y8.8417 F500.00
G01 X12.8834 Y8.8611 F500.00
G01 X12.8881 Y8.8801 F500.00
G01 X12.8948 Y8.8986 F500.00
G01 X12.9031 Y8.9164 F500.00
G01 X12.9132 Y8.9332 F500.00
G01 X12.9249 Y8.9490 F500.00
G01 X12.9381 Y8.9635 F500.00
G01 X12.9526 Y8.9767 F500.00
G01 X12.9684 Y8.9884 F500.00
G01 X12.9852 Y8.9985 F500.00
G01 X13.0030 Y9.0068 F500.00
G01 X13.0215 Y9.0135 F500.00
G01 X13.0405 Y9.0182 F500.00
G01 X13.0599 Y9.0211 F500.00
G01 X13.0795 Y9.0221 F500.00
G01 X13.0991 Y9.0211 F500.00
G01 X13.1185 Y9.0182 F500.00
G01 X13.1375 Y9.0135 F500.00
G01 X13.1560 Y9.0068 F500.00
G01 X13.1738 Y8.9985 F500.00
G01 X13.1906 Y8.9884 F500.00
G01 X13.2064 Y8.9767 F500.00
G01 X13.2209 Y8.9635 F500.00
G01 X13.2341 Y8.9490 F500.00
G01 X13.2458 Y8.9332 F500.00
G01 X13.2559 Y8.9164 F500.00
G01 X13.2642 Y8.8986 F500.00
G01 X13.2709 Y8.8801 F500.00
G01 X13.2756 Y8.8611 F500.00
G01 X13.2785 Y8.8417 F500.00
G01 X13.2795 Y8.8221 F500.00
M5
G00 X20.0298 Y28.5750
G01 F60.00
M03 S1000.0
G01 F500.00
G01 X20.0290 Y28.5672 F500.00
G01 X20.0281 Y28.5635 F500.00
G01 X20.0251 Y28.5562 F500.00
G01 X20.0207 Y28.5498 F500.00
G01 X20.0152 Y28.5443 F500.00
G01 X20.0121 Y28.5419 F500.00
G01 X20.0088 Y28.5399 F500.00
G01 X20.0015 Y28.5369 F500.00
G01 X19.9939 Y28.5354 F500.00
G01 X19.9861 Y28.5354 F500.00
G01 X19.9822 Y28.5360 F500.00
G01 X19.9748 Y28.5383 F500.00
G01 X19.9679 Y28.5419 F500.00
G01 X19.9648 Y28.5443 F500.00
G01 X19.9593 Y28.5498 F500.00
G01 X19.9549 Y28.5562 F500.00
G01 X19.9519 Y28.5635 F500.00
G01 X19.9510 Y28.5672 F500.00
G01 X19.9504 Y28.5711 F500.00
G01 X19.9504 Y28.5789 F500.00
G01 X19.9519 Y28.5865 F500.00
G01 X19.9549 Y28.5938 F500.00
G01 X19.9569 Y28.5971 F500.00
G01 X19.9619 Y28.6031 F500.00
G01 X19.9679 Y28.6081 F500.00
G01 X19.9712 Y28.6101 F500.00
G01 X19.9785 Y28.6131 F500.00
G01 X19.9822 Y28.6140 F500.00
G01 X19.9861 Y28.6146 F500.00
G01 X19.9939 Y28.6146 F500.00
G01 X20.0015 Y28.6131 F500.00
G01 X20.0088 Y28.6101 F500.00
G01 X20.0121 Y28.6081 F500.00
G01 X20.0152 Y28.6057 F500.00
G01 X20.0207 Y28.6002 F500.00
G01 X20.0231 Y28.5971 F500.00
G01 X20.0267 Y28.5902 F500.00
G01 X20.0290 Y28.5828 F500.00
G01 X20.0298 Y28.5750 F500.00
G01 X20.0698 Y28.5750 F500.00
G01 X20.0694 Y28.5672 F500.00
G01 X20.0683 Y28.5594 F500.00
G01 X20.0664 Y28.5518 F500.00
G01 X20.0637 Y28.5445 F500.00
G01 X20.0604 Y28.5374 F500.00
G01 X20.0564 Y28.5307 F500.00
G01 X20.0517 Y28.5244 F500.00
G01 X20.0464 Y28.5186 F500.00
G01 X20.0406 Y28.5133 F500.00
G01 X20.0343 Y28.5086 F500.00
G01 X20.0276 Y28.5046 F500.00
G01 X20.0205 Y28.5013 F500.00
G01 X20.0132 Y28.4986 F500.00
G01 X20.0056 Y28.4967 F500.00
G01 X19.9978 Y28.4956 F500.00
G01 X19.9900 Y28.4952 F500.00
G01 X19.9822 Y28.4956 F500.00
G01 X19.9744 Y28.4967 F500.00
G01 X19.9668 Y28.4986 F500.00
G01 X19.9595 Y28.5013 F500.00
G01 X19.9524 Y28.5046 F500.00
G01 X19.9457 Y28.5086 F500.00
G01 X19.9394 Y28.5133 F500.00
G01 X19.9336 Y28.5186 F500.00
G01 X19.9283 Y28.5244 F500.00
G01 X19.9236 Y28.5307 F500.00
G01 X19.9196 Y28.5374 F500.00
G01 X19.9163 Y28.5445 F500.00
G01 X19.9136 Y28.5518 F500.00
G01 X19.9117 Y28.5594 F500.00
G01 X19.9106 Y28.5672 F500.00
G01 X19.9102 Y28.5750 F500.00
G01 X19.9106 Y28.5828 F500.00
G01 X19.9117 Y28.5906 F500.00
G01 X19.9136 Y28.5982 F500.00
G01 X19.9163 Y28.6055 F500.00
G01 X19.9196 Y28.6126 F500.00
G01 X19.9236 Y28.6193 F500.00
G01 X19.9283 Y28.6256 F500.00
G01 X19.9336 Y28.6314 F500.00
G01 X19.9394 Y28.6367 F500.00
G01 X19.9457 Y28.6414 F500.00
G01 X19.9524 Y28.6454 F500.00
G01 X19.9595 Y28.6487 F500.00
G01 X19.9668 Y28.6514 F500.00
G01 X19.9744 Y28.6533 F500.00
G01 X19.9822 Y28.6544 F500.00
G01 X19.9900 Y28.6548 F500.00
G01 X19.9978 Y28.6544 F500.00
G01 X20.0056 Y28.6533 F500.00
G01 X20.0132 Y28.6514 F500.00
G01 X20.0205 Y28.6487 F500.00
G01 X20.0276 Y28.6454 F500.00
G01 X20.0343 Y28.6414 F500.00
G01 X20.0406 Y28.6367 F500.00
G01 X20.0464 Y28.6314 F500.00
G01 X20.0517 Y28.6256 F500.00
G01 X20.0564 Y28.6193 F500.00
G01 X20.0604 Y28.6126 F500.00
G01 X20.0637 Y28.6055 F500.00
G01 X20.0664 Y28.5982 F500.00
G01 X20.0683 Y28.5906 F500.00
G01 X20.0694 Y28.5828 F500.00
G01 X20.0698 Y28.5750 F500.00
G01 X20.1099 Y28.5750 F500.00
G01 X20.1093 Y28.5633 F500.00
G01 X20.1076 Y28.5516 F500.00
G01 X20.1047 Y28.5402 F500.00
G01 X20.1007 Y28.5291 F500.00
G01 X20.0957 Y28.5185 F500.00
G01 X20.0897 Y28.5084 F500.00
G01 X20.0827 Y28.4990 F500.00
G01 X20.0748 Y28.4902 F500.00
G01 X20.0660 Y28.4823 F500.00
G01 X20.0566 Y28.4753 F500.00
G01 X20.0465 Y28.4693 F500.00
G01 X20.0359 Y28.4643 F500.00
G01 X20.0248 Y28.4603 F500.00
G01 X20.0134 Y28.4574 F500.00
G01 X20.0017 Y28.4557 F500.00
G01 X19.9900 Y28.4551 F500.00
G01 X19.9783 Y28.4557 F500.00
G01 X19.9666 Y28.4574 F500.00
G01 X19.9552 Y28.4603 F500.00
G01 X19.9441 Y28.4643 F500.00
G01 X19.9335 Y28.4693 F500.00
G01 X19.9234 Y28.4753 F500.00
G01 X19.9140 Y28.4823 F500.00
G01 X19.9052 Y28.4902 F500.00
G01 X19.8973 Y28.4990 F500.00
G01 X19.8903 Y28.5084 F500.00
G01 X19.8843 Y28.5185 F500.00
G01 X19.8793 Y28.5291 F500.00
G01 X19.8753 Y28.5402 F500.00
G01 X19.8724 Y28.5516 F500.00
G01 X19.8707 Y28.5633 F500.00
G01 X19.8701 Y28.5750 F500.00
G01 X19.8707 Y28.5867 F500.00
G01 X19.8724 Y28.5984 F500.00
G01 X19.8753 Y28.6098 F500.00
G01 X19.8793 Y28.6209 F500.00
G01 X19.8843 Y28.6315 F500.00
G01 X19.8903 Y28.6416 F500.00
G01 X19.8973 Y28.6510 F500.00
G01 X19.9052 Y28.6598 F500.00
G01 X19.9140 Y28.6677 F500.00
G01 X19.9234 Y28.6747 F500.00
G01 X19.9335 Y28.6807 F500.00
G01 X19.9441 Y28.6857 F500.00
G01 X19.9552 Y28.6897 F500.00
G01 X19.9666 Y28.6926 F500.00
G01 X19.9783 Y28.6943 F500.00
G01 X19.9900 Y28.6949 F500.00
G01 X20.0017 Y28.6943 F500.00
G01 X20.0134 Y28.6926 F500.00
G01 X20.0248 Y28.6897 F500.00
G01 X20.0359 Y28.6857 F500.00
G01 X20.0465 Y28.6807 F500.00
G01 X20.0566 Y28.6747 F500.00
G01 X20.0660 Y28.6677 F500.00
G01 X20.0748 Y28.6598 F500.00
G01 X20.0827 Y28.6510 F500.00
G01 X20.0897 Y28.6416 F500.00
G01 X20.0957 Y28.6315 F500.00
G01 X20.1007 Y28.6209 F500.00
G01 X20.1047 Y28.6098 F500.00
G01 X20.1076 Y28.5984 F500.00
G01 X20.1093 Y28.5867 F500.00
G01 X20.1099 Y28.5750 F500.00
G01 X20.1499 Y28.5750 F500.00
G01 X20.1492 Y28.5593 F500.00
G01 X20.1468 Y28.5438 F500.00
G01 X20.1430 Y28.5286 F500.00
G01 X20.1377 Y28.5138 F500.00
G01 X20.1310 Y28.4996 F500.00
G01 X20.1230 Y28.4862 F500.00
G01 X20.1136 Y28.4735 F500.00
G01 X20.1031 Y28.4619 F500.00
G01 X20.0915 Y28.4514 F500.00
G01 X20.0788 Y28.4420 F500.00
G01 X20.0654 Y28.4340 F500.00
G01 X20.0512 Y28.4273 F500.00
G01 X20.0364 Y28.4220 F500.00
G01 X20.0212 Y28.4182 F500.00
G01 X20.0057 Y28.4158 F500.00
G01 X19.9900 Y28.4151 F500.00
G01 X19.9743 Y28.4158 F500.00
G01 X19.9588 Y28.4182 F500.00
G01 X19.9436 Y28.4220 F500.00
G01 X19.9288 Y28.4273 F500.00
G01 X19.9146 Y28.4340 F500.00
G01 X19.9012 Y28.4420 F500.00
G01 X19.8885 Y28.4514 F500.00
G01 X19.8769 Y28.4619 F500.00
G01 X19.8664 Y28.4735 F500.00
G01 X19.8570 Y28.4862 F500.00
G01 X19.8490 Y28.4996 F500.00
G01 X19.8423 Y28.5138 F500.00
G01 X19.8370 Y28.5286 F500.00
G01 X19.8332 Y28.5438 F500.00
G01 X19.8308 Y28.5593 F500.00
G01 X19.8301 Y28.5750 F500.00
G01 X19.8308 Y28.5907 F500.00
G01 X19.8332 Y28.6062 F500.00
G01 X19.8370 Y28.6214 F500.00
G01 X19.8423 Y28.6362 F500.00
G01 X19.8490 Y28.6504 F500.00
G01 X19.8570 Y28.6638 F500.00
G01 X19.8664 Y28.6765 F500.00
G01 X19.8769 Y28.6881 F500.00
G01 X19.8885 Y28.6986 F500.00
G01 X19.9012 Y28.7080 F500.00
G01 X19.9146 Y28.7160 F500.00
G01 X19.9288 Y28.7227 F500.00
G01 X19.9436 Y28.7280 F500.00
G01 X19.9588 Y28.7318 F500.00
