(G-CODE GENERATED BY FLATCAM v8.994 - www.flatcam.org - Version Date: 2020/11/7)

(Name: FINAL_0.8-1_AllDrills_simplified_edit_1_cnc)
(Type: G-code from Geometry)
(Units: MM)

(Created on Sonntag, 11 September 2022 at 11:50)

(This preprocessor is used with a motion controller loaded with GRBL firmware.)
(It is configured to be compatible with almost any version of GRBL firmware.)


(TOOLS DIAMETER: )
(Tool: 1 -> Dia: 0.8)
(Tool: 2 -> Dia: 1.0)

(FEEDRATE Z: )
(Tool: 1 -> Feedrate: 15.0)
(Tool: 2 -> Feedrate: 15.0)

(FEEDRATE RAPIDS: )
(Tool: 1 -> Feedrate Rapids: 1500)
(Tool: 2 -> Feedrate Rapids: 1500)

(Z_CUT: )
(Tool: 1 -> Z_Cut: -1.7)
(Tool: 2 -> Z_Cut: -1.7)

(Tools Offset: )
(Tool: 1 -> Offset Z: 0.0)
(Tool: 2 -> Offset Z: 0.0)

(Z_MOVE: )
(Tool: 1 -> Z_Move: 2)
(Tool: 2 -> Z_Move: 2)

(Z Toolchange: 30.0 mm)
(X,Y Toolchange: 0.0000, 0.0000 mm)
(Z Start: None mm)
(Z End: 10.0 mm)
(X,Y End: None mm)
(Steps per circle: 64)
(Steps per circle: 64)
(Preprocessor Excellon: GRBL_11_no_M6)

(X range:   12.5795 ...  154.0353  mm)
(Y range:    8.3221 ...  143.9355  mm)

(Spindle Speed: 12000 RPM)
G21
G90
G17
G94


G01 F15.00

M5             
G00 Z30.0000
G00 X0.0000 Y0.0000                
T1
(MSG, Change to Tool Dia = 0.8000 ||| Total drills for tool T1 = 30)
M0
G00 Z30.0000
        
G01 F15.00
M03 S12000
G00 X117.7800 Y101.6000
G01 Z-1.7000
G01 Z0
G00 Z2.0000
G00 X117.7800 Y101.6000
G01 Z-1.7000
G01 Z0
G00 Z2.0000
G00 X117.7800 Y99.0600
G01 Z-1.7000
G01 Z0
G00 Z2.0000
G00 X117.7800 Y104.1400
G01 Z-1.7000
G01 Z0
G00 Z2.0000
G00 X117.7800 Y106.6800
G01 Z-1.7000
G01 Z0
G00 Z2.0000
G00 X117.7800 Y109.2200
G01 Z-1.7000
G01 Z0
G00 Z2.0000
G00 X117.7800 Y111.7600
G01 Z-1.7000
G01 Z0
G00 Z2.0000
G00 X117.7800 Y114.3000
G01 Z-1.7000
G01 Z0
G00 Z2.0000
G00 X117.7800 Y116.8400
G01 Z-1.7000
G01 Z0
G00 Z2.0000
G00 X117.7800 Y119.3800
G01 Z-1.7000
G01 Z0
G00 Z2.0000
G00 X117.7800 Y121.9200
G01 Z-1.7000
G01 Z0
G00 Z2.0000
G00 X117.7800 Y124.4600
G01 Z-1.7000
G01 Z0
G00 Z2.0000
G00 X117.7800 Y127.0000
G01 Z-1.7000
G01 Z0
G00 Z2.0000
G00 X117.7800 Y129.5400
G01 Z-1.7000
G01 Z0
G00 Z2.0000
G00 X100.0000 Y137.1600
G01 Z-1.7000
G01 Z0
G00 Z2.0000
G00 X97.4600 Y137.1600
G01 Z-1.7000
G01 Z0
G00 Z2.0000
G00 X94.9200 Y137.1600
G01 Z-1.7000
G01 Z0
G00 Z2.0000
G00 X92.3800 Y137.1600
G01 Z-1.7000
G01 Z0
G00 Z2.0000
G00 X140.6400 Y129.5400
G01 Z-1.7000
G01 Z0
G00 Z2.0000
G00 X140.6400 Y127.0000
G01 Z-1.7000
G01 Z0
G00 Z2.0000
G00 X140.6400 Y124.4600
G01 Z-1.7000
G01 Z0
G00 Z2.0000
G00 X140.6400 Y121.9200
G01 Z-1.7000
G01 Z0
G00 Z2.0000
G00 X140.6400 Y119.3800
G01 Z-1.7000
G01 Z0
G00 Z2.0000
G00 X140.6400 Y116.8400
G01 Z-1.7000
G01 Z0
G00 Z2.0000
G00 X140.6400 Y114.3000
G01 Z-1.7000
G01 Z0
G00 Z2.0000
G00 X140.6400 Y111.7600
G01 Z-1.7000
G01 Z0
G00 Z2.0000
G00 X140.6400 Y109.2200
G01 Z-1.7000
G01 Z0
G00 Z2.0000
G00 X140.6400 Y106.6800
G01 Z-1.7000
G01 Z0
G00 Z2.0000
G00 X140.6400 Y104.1400
G01 Z-1.7000
G01 Z0
G00 Z2.0000
G00 X140.6400 Y101.6000
G01 Z-1.7000
G01 Z0
G00 Z2.0000
G00 X140.6400 Y99.0600
G01 Z-1.7000
G01 Z0
G00 Z2.0000
G01 F15.00

M5             
G00 Z30.0000
G00 X0.0000 Y0.0000                
T2
(MSG, Change to Tool Dia = 1.0000 ||| Total drills for tool T2 = 142)
M0
G00 Z30.0000
        
G01 F15.00
M03 S12000
G00 X49.1600 Y72.2700
G01 Z-1.7000
G01 Z0
G00 Z2.0000
G00 X49.1600 Y72.2700
G01 Z-1.7000
G01 Z0
G00 Z2.0000
G00 X46.6600 Y72.2700
G01 Z-1.7000
G01 Z0
G00 Z2.0000
G00 X44.1600 Y72.2700
G01 Z-1.7000
G01 Z0
G00 Z2.0000
G00 X40.5600 Y64.7700
G01 Z-1.7000
G01 Z0
G00 Z2.0000
G00 X44.1600 Y57.7700
G01 Z-1.7000
G01 Z0
G00 Z2.0000
G00 X49.1600 Y57.7700
G01 Z-1.7000
G01 Z0
G00 Z2.0000
G00 X49.2000 Y55.3400
G01 Z-1.7000
G01 Z0
G00 Z2.0000
G00 X47.0000 Y47.9800
G01 Z-1.7000
G01 Z0
G00 Z2.0000
G00 X44.1200 Y46.1800
G01 Z-1.7000
G01 Z0
G00 Z2.0000
G00 X45.9300 Y43.1800
G01 Z-1.7000
G01 Z0
G00 Z2.0000
G00 X49.2000 Y45.1800
G01 Z-1.7000
G01 Z0
G00 Z2.0000
G00 X56.0900 Y43.1800
G01 Z-1.7000
G01 Z0
G00 Z2.0000
G00 X58.7100 Y43.2200
G01 Z-1.7000
G01 Z0
G00 Z2.0000
G00 X58.7100 Y48.2200
G01 Z-1.7000
G01 Z0
G00 Z2.0000
G00 X65.7100 Y51.8200
G01 Z-1.7000
G01 Z0
G00 Z2.0000
G00 X73.2100 Y48.2200
G01 Z-1.7000
G01 Z0
G00 Z2.0000
G00 X73.2100 Y45.7200
G01 Z-1.7000
G01 Z0
G00 Z2.0000
G00 X73.2100 Y43.2200
G01 Z-1.7000
G01 Z0
G00 Z2.0000
G00 X73.3300 Y35.5600
G01 Z-1.7000
G01 Z0
G00 Z2.0000
G00 X65.7100 Y39.6200
G01 Z-1.7000
G01 Z0
G00 Z2.0000
G00 X63.1700 Y35.5600
G01 Z-1.7000
G01 Z0
G00 Z2.0000
G00 X63.8050 Y29.2100
G01 Z-1.7000
G01 Z0
G00 Z2.0000
G00 X63.8050 Y19.0500
G01 Z-1.7000
G01 Z0
G00 Z2.0000
G00 X52.7600 Y26.6700
G01 Z-1.7000
G01 Z0
G00 Z2.0000
G00 X49.1600 Y33.6700
G01 Z-1.7000
G01 Z0
G00 Z2.0000
G00 X44.1600 Y33.6700
G01 Z-1.7000
G01 Z0
G00 Z2.0000
G00 X44.1200 Y36.0200
G01 Z-1.7000
G01 Z0
G00 Z2.0000
G00 X40.5600 Y26.6700
G01 Z-1.7000
G01 Z0
G00 Z2.0000
G00 X36.5000 Y29.2100
G01 Z-1.7000
G01 Z0
G00 Z2.0000
G00 X30.1500 Y28.5750
G01 Z-1.7000
G01 Z0
G00 Z2.0000
G00 X19.9900 Y28.5750
G01 Z-1.7000
G01 Z0
G00 Z2.0000
G00 X27.6100 Y39.6200
G01 Z-1.7000
G01 Z0
G00 Z2.0000
G00 X34.6100 Y43.2200
G01 Z-1.7000
G01 Z0
G00 Z2.0000
G00 X34.6100 Y48.2200
G01 Z-1.7000
G01 Z0
G00 Z2.0000
G00 X36.8400 Y47.9800
G01 Z-1.7000
G01 Z0
G00 Z2.0000
G00 X27.6100 Y51.8200
G01 Z-1.7000
G01 Z0
G00 Z2.0000
G00 X30.1500 Y55.8800
G01 Z-1.7000
G01 Z0
G00 Z2.0000
G00 X29.5150 Y62.2300
G01 Z-1.7000
G01 Z0
G00 Z2.0000
G00 X29.5150 Y72.3900
G01 Z-1.7000
G01 Z0
G00 Z2.0000
G00 X19.9900 Y55.8800
G01 Z-1.7000
G01 Z0
G00 Z2.0000
G00 X20.1100 Y48.2200
G01 Z-1.7000
G01 Z0
G00 Z2.0000
G00 X20.1100 Y45.7200
G01 Z-1.7000
G01 Z0
G00 Z2.0000
G00 X20.1100 Y43.2200
G01 Z-1.7000
G01 Z0
G00 Z2.0000
G00 X36.5000 Y19.0500
G01 Z-1.7000
G01 Z0
G00 Z2.0000
G00 X44.1600 Y19.1700
G01 Z-1.7000
G01 Z0
G00 Z2.0000
G00 X46.6600 Y19.1700
G01 Z-1.7000
G01 Z0
G00 Z2.0000
G00 X49.1600 Y19.1700
G01 Z-1.7000
G01 Z0
G00 Z2.0000
G00 X13.0795 Y8.8221
G01 Z-1.7000
G01 Z0
G00 Z2.0000
G00 X52.7600 Y64.7700
G01 Z-1.7000
G01 Z0
G00 Z2.0000
G00 X56.6500 Y62.0450
G01 Z-1.7000
G01 Z0
G00 Z2.0000
G00 X63.1700 Y62.8650
G01 Z-1.7000
G01 Z0
G00 Z2.0000
G00 X73.3300 Y62.8650
G01 Z-1.7000
G01 Z0
G00 Z2.0000
G00 X56.6500 Y72.2050
G01 Z-1.7000
G01 Z0
G00 Z2.0000
G00 X54.0110 Y98.7870
G01 Z-1.7000
G01 Z0
G00 Z2.0000
G00 X48.7450 Y100.1090
G01 Z-1.7000
G01 Z0
G00 Z2.0000
G00 X46.2050 Y100.1090
G01 Z-1.7000
G01 Z0
G00 Z2.0000
G00 X43.6650 Y100.1090
G01 Z-1.7000
G01 Z0
G00 Z2.0000
G00 X37.9570 Y98.2790
G01 Z-1.7000
G01 Z0
G00 Z2.0000
G00 X42.7980 Y113.1840
G01 Z-1.7000
G01 Z0
G00 Z2.0000
G00 X45.3380 Y113.1840
G01 Z-1.7000
G01 Z0
G00 Z2.0000
G00 X47.8780 Y113.1840
G01 Z-1.7000
G01 Z0
G00 Z2.0000
G00 X50.4180 Y113.1840
G01 Z-1.7000
G01 Z0
G00 Z2.0000
G00 X54.0110 Y114.5870
G01 Z-1.7000
G01 Z0
G00 Z2.0000
G00 X37.9570 Y114.3330
G01 Z-1.7000
G01 Z0
G00 Z2.0000
G00 X13.0795 Y143.4355
G01 Z-1.7000
G01 Z0
G00 Z2.0000
G00 X92.3800 Y104.1000
G01 Z-1.7000
G01 Z0
G00 Z2.0000
G00 X92.3800 Y101.6000
G01 Z-1.7000
G01 Z0
G00 Z2.0000
G00 X92.3800 Y99.1000
G01 Z-1.7000
G01 Z0
G00 Z2.0000
G00 X96.1900 Y101.6000
G01 Z-1.7000
G01 Z0
G00 Z2.0000
G00 X100.0000 Y101.6000
G01 Z-1.7000
G01 Z0
G00 Z2.0000
G00 X100.0000 Y99.1000
G01 Z-1.7000
G01 Z0
G00 Z2.0000
G00 X103.8100 Y101.6000
G01 Z-1.7000
G01 Z0
G00 Z2.0000
G00 X107.6200 Y101.6000
G01 Z-1.7000
G01 Z0
G00 Z2.0000
G00 X107.6200 Y104.1000
G01 Z-1.7000
G01 Z0
G00 Z2.0000
G00 X107.6200 Y99.1000
G01 Z-1.7000
G01 Z0
G00 Z2.0000
G00 X103.8100 Y91.4400
G01 Z-1.7000
G01 Z0
G00 Z2.0000
G00 X96.1900 Y91.4400
G01 Z-1.7000
G01 Z0
G00 Z2.0000
G00 X93.6500 Y85.0900
G01 Z-1.7000
G01 Z0
G00 Z2.0000
G00 X96.1900 Y80.0100
G01 Z-1.7000
G01 Z0
G00 Z2.0000
G00 X100.0000 Y82.5500
G01 Z-1.7000
G01 Z0
G00 Z2.0000
G00 X100.0000 Y74.9300
G01 Z-1.7000
G01 Z0
G00 Z2.0000
G00 X92.3800 Y74.9300
G01 Z-1.7000
G01 Z0
G00 Z2.0000
G00 X93.6500 Y66.0400
G01 Z-1.7000
G01 Z0
G00 Z2.0000
G00 X96.1900 Y60.9600
G01 Z-1.7000
G01 Z0
G00 Z2.0000
G00 X100.0000 Y63.5000
G01 Z-1.7000
G01 Z0
G00 Z2.0000
G00 X100.0000 Y55.8800
G01 Z-1.7000
G01 Z0
G00 Z2.0000
G00 X92.3800 Y55.8800
G01 Z-1.7000
G01 Z0
G00 Z2.0000
G00 X93.6500 Y46.9900
G01 Z-1.7000
G01 Z0
G00 Z2.0000
G00 X96.1900 Y41.9100
G01 Z-1.7000
G01 Z0
G00 Z2.0000
G00 X100.0000 Y44.4500
G01 Z-1.7000
G01 Z0
G00 Z2.0000
G00 X100.0000 Y36.8300
G01 Z-1.7000
G01 Z0
G00 Z2.0000
G00 X92.3800 Y36.8300
G01 Z-1.7000
G01 Z0
G00 Z2.0000
G00 X93.6500 Y27.9400
G01 Z-1.7000
G01 Z0
G00 Z2.0000
G00 X96.1900 Y22.8600
G01 Z-1.7000
G01 Z0
G00 Z2.0000
G00 X100.0000 Y25.4000
G01 Z-1.7000
G01 Z0
G00 Z2.0000
G00 X100.0000 Y17.7800
G01 Z-1.7000
G01 Z0
G00 Z2.0000
G00 X92.3800 Y17.7800
G01 Z-1.7000
G01 Z0
G00 Z2.0000
G00 X111.4300 Y17.7800
G01 Z-1.7000
G01 Z0
G00 Z2.0000
G00 X115.2400 Y22.8600
G01 Z-1.7000
G01 Z0
G00 Z2.0000
G00 X119.0500 Y25.4000
G01 Z-1.7000
G01 Z0
G00 Z2.0000
G00 X112.7000 Y27.9400
G01 Z-1.7000
G01 Z0
G00 Z2.0000
G00 X111.4300 Y36.8300
G01 Z-1.7000
G01 Z0
G00 Z2.0000
G00 X115.2400 Y41.9100
G01 Z-1.7000
G01 Z0
G00 Z2.0000
G00 X119.0500 Y44.4500
G01 Z-1.7000
G01 Z0
G00 Z2.0000
G00 X112.7000 Y46.9900
G01 Z-1.7000
G01 Z0
G00 Z2.0000
G00 X111.4300 Y55.8800
G01 Z-1.7000
G01 Z0
G00 Z2.0000
G00 X115.2400 Y60.9600
G01 Z-1.7000
G01 Z0
G00 Z2.0000
G00 X119.0500 Y63.5000
G01 Z-1.7000
G01 Z0
G00 Z2.0000
G00 X112.7000 Y66.0400
G01 Z-1.7000
G01 Z0
G00 Z2.0000
G00 X111.4300 Y74.9300
G01 Z-1.7000
G01 Z0
G00 Z2.0000
G00 X115.2400 Y80.0100
G01 Z-1.7000
G01 Z0
G00 Z2.0000
G00 X119.0500 Y82.5500
G01 Z-1.7000
G01 Z0
G00 Z2.0000
G00 X112.7000 Y85.0900
G01 Z-1.7000
G01 Z0
G00 Z2.0000
G00 X118.9230 Y93.9800
G01 Z-1.7000
G01 Z0
G00 Z2.0000
G00 X131.7500 Y85.0900
G01 Z-1.7000
G01 Z0
G00 Z2.0000
G00 X134.2900 Y80.0100
G01 Z-1.7000
G01 Z0
G00 Z2.0000
G00 X138.1000 Y82.5500
G01 Z-1.7000
G01 Z0
G00 Z2.0000
G00 X138.1000 Y74.9300
G01 Z-1.7000
G01 Z0
G00 Z2.0000
G00 X130.4800 Y74.9300
G01 Z-1.7000
G01 Z0
G00 Z2.0000
G00 X131.7500 Y66.0400
G01 Z-1.7000
G01 Z0
G00 Z2.0000
G00 X134.2900 Y60.9600
G01 Z-1.7000
G01 Z0
G00 Z2.0000
G00 X138.1000 Y63.5000
G01 Z-1.7000
G01 Z0
G00 Z2.0000
G00 X138.1000 Y55.8800
G01 Z-1.7000
G01 Z0
G00 Z2.0000
G00 X130.4800 Y55.8800
G01 Z-1.7000
G01 Z0
G00 Z2.0000
G00 X131.7500 Y46.9900
G01 Z-1.7000
G01 Z0
G00 Z2.0000
G00 X134.2900 Y41.9100
G01 Z-1.7000
G01 Z0
G00 Z2.0000
G00 X138.1000 Y44.4500
G01 Z-1.7000
G01 Z0
G00 Z2.0000
G00 X138.1000 Y36.8300
G01 Z-1.7000
G01 Z0
G00 Z2.0000
G00 X130.4800 Y36.8300
G01 Z-1.7000
G01 Z0
G00 Z2.0000
G00 X131.7500 Y27.9400
G01 Z-1.7000
G01 Z0
G00 Z2.0000
G00 X134.2900 Y22.8600
G01 Z-1.7000
G01 Z0
G00 Z2.0000
G00 X138.1000 Y25.4000
G01 Z-1.7000
G01 Z0
G00 Z2.0000
G00 X138.1000 Y17.7800
G01 Z-1.7000
G01 Z0
G00 Z2.0000
G00 X130.4800 Y17.7800
G01 Z-1.7000
G01 Z0
G00 Z2.0000
G00 X119.0500 Y17.7800
G01 Z-1.7000
G01 Z0
G00 Z2.0000
G00 X119.0500 Y36.8300
G01 Z-1.7000
G01 Z0
G00 Z2.0000
G00 X119.0500 Y55.8800
G01 Z-1.7000
G01 Z0
G00 Z2.0000
G00 X119.0500 Y74.9300
G01 Z-1.7000
G01 Z0
G00 Z2.0000
G00 X100.0000 Y104.1000
G01 Z-1.7000
G01 Z0
G00 Z2.0000
G00 X139.8780 Y132.0800
G01 Z-1.7000
G01 Z0
G00 Z2.0000
G00 X153.5353 Y143.4355
G01 Z-1.7000
G01 Z0
G00 Z2.0000
G00 X153.5353 Y8.8221
G01 Z-1.7000
G01 Z0
G00 Z2.0000
M05
G00 Z10.00


