(G-CODE GENERATED BY FLATCAM v8.994 - www.flatcam.org - Version Date: 2020/11/7)

(Name: SingleGeoMillHoles_cnc)
(Type: G-code from Geometry)
(Units: MM)

(Created on Freitag, 09 September 2022 at 16:44)

(This preprocessor is the default preprocessor used by FlatCAM.)
(It is made to work with MACH3 compatible motion controllers.)

(TOOL DIAMETER: 0.8 mm)
(Feedrate_XY: 30.0 mm/min)
(Feedrate_Z: 15.0 mm/min)
(Feedrate rapids 1500.0 mm/min)

(Z_Cut: -2.4 mm)
(Z_Move: 2.0 mm)
(Z Start: None mm)
(Z End: 15.0 mm)
(X,Y End: None mm)
(Steps per circle: 64)
(Preprocessor Geometry: default)

(X range:   13.0795 ...  153.5353  mm)
(Y range:    8.8221 ...  143.4355  mm)

(Spindle Speed: 12000.0 RPM)
G21
G90
G94

G01 F30.00

M5
G00 Z15.0000
G00 X0.0000 Y0.0000
T1
M6    
(MSG, Change to Tool Dia = 0.8000)
M0
G00 Z15.0000

M03 S12000.0
G01 F30.00
G00 X13.0795 Y8.8221
G01 F15.00
G01 Z-2.4000
G01 F30.00
G01 X13.0795 Y8.8221
G01 X13.0795 Y8.8221
G01 X13.0795 Y8.8221
G01 X13.0795 Y8.8221
G00 Z2.0000
G00 X20.1490 Y28.5750
G01 F15.00
G01 Z-2.4000
G01 F30.00
G01 X20.1482 Y28.5594
G01 X20.1459 Y28.5440
G01 X20.1422 Y28.5288
G01 X20.1369 Y28.5142
G01 X20.1302 Y28.5000
G01 X20.1222 Y28.4867
G01 X20.1129 Y28.4741
G01 X20.1024 Y28.4626
G01 X20.0909 Y28.4521
G01 X20.0783 Y28.4428
G01 X20.0650 Y28.4348
G01 X20.0508 Y28.4281
G01 X20.0362 Y28.4228
G01 X20.0210 Y28.4191
G01 X20.0056 Y28.4168
G01 X19.9900 Y28.4160
G01 X19.9744 Y28.4168
G01 X19.9590 Y28.4191
G01 X19.9438 Y28.4228
G01 X19.9292 Y28.4281
G01 X19.9150 Y28.4348
G01 X19.9017 Y28.4428
G01 X19.8891 Y28.4521
G01 X19.8776 Y28.4626
G01 X19.8671 Y28.4741
G01 X19.8578 Y28.4867
G01 X19.8498 Y28.5000
G01 X19.8431 Y28.5142
G01 X19.8378 Y28.5288
G01 X19.8341 Y28.5440
G01 X19.8318 Y28.5594
G01 X19.8310 Y28.5750
G01 X19.8318 Y28.5906
G01 X19.8341 Y28.6060
G01 X19.8378 Y28.6212
G01 X19.8431 Y28.6358
G01 X19.8498 Y28.6500
G01 X19.8578 Y28.6633
G01 X19.8671 Y28.6759
G01 X19.8776 Y28.6874
G01 X19.8891 Y28.6979
G01 X19.9017 Y28.7072
G01 X19.9150 Y28.7152
G01 X19.9292 Y28.7219
G01 X19.9438 Y28.7272
G01 X19.9590 Y28.7309
G01 X19.9744 Y28.7332
G01 X19.9900 Y28.7340
G01 X20.0056 Y28.7332
G01 X20.0210 Y28.7309
G01 X20.0362 Y28.7272
G01 X20.0508 Y28.7219
G01 X20.0650 Y28.7152
G01 X20.0783 Y28.7072
G01 X20.0909 Y28.6979
G01 X20.1024 Y28.6874
G01 X20.1129 Y28.6759
G01 X20.1222 Y28.6633
G01 X20.1302 Y28.6500
G01 X20.1369 Y28.6358
G01 X20.1422 Y28.6212
G01 X20.1459 Y28.6060
G01 X20.1482 Y28.5906
G01 X20.1490 Y28.5750
G00 Z2.0000
G00 X30.3090 Y28.5750
G01 F15.00
G01 Z-2.4000
G01 F30.00
G01 X30.3082 Y28.5594
G01 X30.3059 Y28.5440
G01 X30.3022 Y28.5288
G01 X30.2969 Y28.5142
G01 X30.2902 Y28.5000
G01 X30.2822 Y28.4867
G01 X30.2729 Y28.4741
G01 X30.2624 Y28.4626
G01 X30.2509 Y28.4521
G01 X30.2383 Y28.4428
G01 X30.2250 Y28.4348
G01 X30.2108 Y28.4281
G01 X30.1962 Y28.4228
G01 X30.1810 Y28.4191
G01 X30.1656 Y28.4168
G01 X30.1500 Y28.4160
G01 X30.1344 Y28.4168
G01 X30.1190 Y28.4191
G01 X30.1038 Y28.4228
G01 X30.0892 Y28.4281
G01 X30.0750 Y28.4348
G01 X30.0617 Y28.4428
G01 X30.0491 Y28.4521
G01 X30.0376 Y28.4626
G01 X30.0271 Y28.4741
G01 X30.0178 Y28.4867
G01 X30.0098 Y28.5000
G01 X30.0031 Y28.5142
G01 X29.9978 Y28.5288
G01 X29.9941 Y28.5440
G01 X29.9918 Y28.5594
G01 X29.9910 Y28.5750
G01 X29.9918 Y28.5906
G01 X29.9941 Y28.6060
G01 X29.9978 Y28.6212
G01 X30.0031 Y28.6358
G01 X30.0098 Y28.6500
G01 X30.0178 Y28.6633
G01 X30.0271 Y28.6759
G01 X30.0376 Y28.6874
G01 X30.0491 Y28.6979
G01 X30.0617 Y28.7072
G01 X30.0750 Y28.7152
G01 X30.0892 Y28.7219
G01 X30.1038 Y28.7272
G01 X30.1190 Y28.7309
G01 X30.1344 Y28.7332
G01 X30.1500 Y28.7340
G01 X30.1656 Y28.7332
G01 X30.1810 Y28.7309
G01 X30.1962 Y28.7272
G01 X30.2108 Y28.7219
G01 X30.2250 Y28.7152
G01 X30.2383 Y28.7072
G01 X30.2509 Y28.6979
G01 X30.2624 Y28.6874
G01 X30.2729 Y28.6759
G01 X30.2822 Y28.6633
G01 X30.2902 Y28.6500
G01 X30.2969 Y28.6358
G01 X30.3022 Y28.6212
G01 X30.3059 Y28.6060
G01 X30.3082 Y28.5906
G01 X30.3090 Y28.5750
G00 Z2.0000
G00 X36.6590 Y29.2100
G01 F15.00
G01 Z-2.4000
G01 F30.00
G01 X36.6582 Y29.1944
G01 X36.6559 Y29.1790
G01 X36.6522 Y29.1638
G01 X36.6469 Y29.1492
G01 X36.6402 Y29.1350
G01 X36.6322 Y29.1217
G01 X36.6229 Y29.1091
G01 X36.6124 Y29.0976
G01 X36.6009 Y29.0871
G01 X36.5883 Y29.0778
G01 X36.5750 Y29.0698
G01 X36.5608 Y29.0631
G01 X36.5462 Y29.0578
G01 X36.5310 Y29.0541
G01 X36.5156 Y29.0518
G01 X36.5000 Y29.0510
G01 X36.4844 Y29.0518
G01 X36.4690 Y29.0541
G01 X36.4538 Y29.0578
G01 X36.4392 Y29.0631
G01 X36.4250 Y29.0698
G01 X36.4117 Y29.0778
G01 X36.3991 Y29.0871
G01 X36.3876 Y29.0976
G01 X36.3771 Y29.1091
G01 X36.3678 Y29.1217
G01 X36.3598 Y29.1350
G01 X36.3531 Y29.1492
G01 X36.3478 Y29.1638
G01 X36.3441 Y29.1790
G01 X36.3418 Y29.1944
G01 X36.3410 Y29.2100
G01 X36.3418 Y29.2256
G01 X36.3441 Y29.2410
G01 X36.3478 Y29.2562
G01 X36.3531 Y29.2708
G01 X36.3598 Y29.2850
G01 X36.3678 Y29.2983
G01 X36.3771 Y29.3109
G01 X36.3876 Y29.3224
G01 X36.3991 Y29.3329
G01 X36.4117 Y29.3422
G01 X36.4250 Y29.3502
G01 X36.4392 Y29.3569
G01 X36.4538 Y29.3622
G01 X36.4690 Y29.3659
G01 X36.4844 Y29.3682
G01 X36.5000 Y29.3690
G01 X36.5156 Y29.3682
G01 X36.5310 Y29.3659
G01 X36.5462 Y29.3622
G01 X36.5608 Y29.3569
G01 X36.5750 Y29.3502
G01 X36.5883 Y29.3422
G01 X36.6009 Y29.3329
G01 X36.6124 Y29.3224
G01 X36.6229 Y29.3109
G01 X36.6322 Y29.2983
G01 X36.6402 Y29.2850
G01 X36.6469 Y29.2708
G01 X36.6522 Y29.2562
G01 X36.6559 Y29.2410
G01 X36.6582 Y29.2256
G01 X36.6590 Y29.2100
G00 Z2.0000
G00 X41.2600 Y26.6700
G01 F15.00
G01 Z-2.4000
G01 F30.00
G01 X41.2566 Y26.6014
G01 X41.2465 Y26.5334
G01 X41.2299 Y26.4668
G01 X41.2067 Y26.4021
G01 X41.1773 Y26.3400
G01 X41.1420 Y26.2811
G01 X41.1011 Y26.2259
G01 X41.0550 Y26.1750
G01 X41.0041 Y26.1289
G01 X40.9489 Y26.0880
G01 X40.8900 Y26.0527
G01 X40.8279 Y26.0233
G01 X40.7632 Y26.0001
G01 X40.6966 Y25.9835
G01 X40.6286 Y25.9734
G01 X40.5600 Y25.9700
G01 X40.4914 Y25.9734
G01 X40.4234 Y25.9835
G01 X40.3568 Y26.0001
G01 X40.2921 Y26.0233
G01 X40.2300 Y26.0527
G01 X40.1711 Y26.0880
G01 X40.1159 Y26.1289
G01 X40.0650 Y26.1750
G01 X40.0189 Y26.2259
G01 X39.9780 Y26.2811
G01 X39.9427 Y26.3400
G01 X39.9133 Y26.4021
G01 X39.8901 Y26.4668
G01 X39.8735 Y26.5334
G01 X39.8634 Y26.6014
G01 X39.8600 Y26.6700
G01 X39.8634 Y26.7386
G01 X39.8735 Y26.8066
G01 X39.8901 Y26.8732
G01 X39.9133 Y26.9379
G01 X39.9427 Y27.0000
G01 X39.9780 Y27.0589
G01 X40.0189 Y27.1141
G01 X40.0650 Y27.1650
G01 X40.1159 Y27.2111
G01 X40.1711 Y27.2520
G01 X40.2300 Y27.2873
G01 X40.2921 Y27.3167
G01 X40.3568 Y27.3399
G01 X40.4234 Y27.3565
G01 X40.4914 Y27.3666
G01 X40.5600 Y27.3700
G01 X40.6286 Y27.3666
G01 X40.6966 Y27.3565
G01 X40.7632 Y27.3399
G01 X40.8279 Y27.3167
G01 X40.8900 Y27.2873
G01 X40.9489 Y27.2520
G01 X41.0041 Y27.2111
G01 X41.0550 Y27.1650
G01 X41.1011 Y27.1141
G01 X41.1420 Y27.0589
G01 X41.1773 Y27.0000
G01 X41.2067 Y26.9379
G01 X41.2299 Y26.8732
G01 X41.2465 Y26.8066
G01 X41.2566 Y26.7386
G01 X41.2600 Y26.6700
G00 Z2.0000
G00 X44.2600 Y33.6700
G01 F15.00
G01 Z-2.4000
G01 F30.00
G01 X44.2595 Y33.6602
G01 X44.2581 Y33.6505
G01 X44.2557 Y33.6410
G01 X44.2524 Y33.6317
G01 X44.2482 Y33.6229
G01 X44.2431 Y33.6144
G01 X44.2373 Y33.6066
G01 X44.2307 Y33.5993
G01 X44.2234 Y33.5927
G01 X44.2156 Y33.5869
G01 X44.2071 Y33.5818
G01 X44.1983 Y33.5776
G01 X44.1890 Y33.5743
G01 X44.1795 Y33.5719
G01 X44.1698 Y33.5705
G01 X44.1600 Y33.5700
G01 X44.1502 Y33.5705
G01 X44.1405 Y33.5719
G01 X44.1310 Y33.5743
G01 X44.1217 Y33.5776
G01 X44.1129 Y33.5818
G01 X44.1044 Y33.5869
G01 X44.0966 Y33.5927
G01 X44.0893 Y33.5993
G01 X44.0827 Y33.6066
G01 X44.0769 Y33.6144
G01 X44.0718 Y33.6229
G01 X44.0676 Y33.6317
G01 X44.0643 Y33.6410
G01 X44.0619 Y33.6505
G01 X44.0605 Y33.6602
G01 X44.0600 Y33.6700
G01 X44.0605 Y33.6798
G01 X44.0619 Y33.6895
G01 X44.0643 Y33.6990
G01 X44.0676 Y33.7083
G01 X44.0718 Y33.7171
G01 X44.0769 Y33.7256
G01 X44.0827 Y33.7334
G01 X44.0893 Y33.7407
G01 X44.0966 Y33.7473
G01 X44.1044 Y33.7531
G01 X44.1129 Y33.7582
G01 X44.1217 Y33.7624
G01 X44.1310 Y33.7657
G01 X44.1405 Y33.7681
G01 X44.1502 Y33.7695
G01 X44.1600 Y33.7700
G01 X44.1698 Y33.7695
G01 X44.1795 Y33.7681
G01 X44.1890 Y33.7657
G01 X44.1983 Y33.7624
G01 X44.2071 Y33.7582
G01 X44.2156 Y33.7531
G01 X44.2234 Y33.7473
G01 X44.2307 Y33.7407
G01 X44.2373 Y33.7334
G01 X44.2431 Y33.7256
G01 X44.2482 Y33.7171
G01 X44.2524 Y33.7083
G01 X44.2557 Y33.6990
G01 X44.2581 Y33.6895
G01 X44.2595 Y33.6798
G01 X44.2600 Y33.6700
G00 Z2.0000
G00 X44.2790 Y36.0200
G01 F15.00
G01 Z-2.4000
G01 F30.00
G01 X44.2782 Y36.0044
G01 X44.2759 Y35.9890
G01 X44.2722 Y35.9738
G01 X44.2669 Y35.9592
G01 X44.2602 Y35.9450
G01 X44.2522 Y35.9317
G01 X44.2429 Y35.9191
G01 X44.2324 Y35.9076
G01 X44.2209 Y35.8971
G01 X44.2083 Y35.8878
G01 X44.1950 Y35.8798
G01 X44.1808 Y35.8731
G01 X44.1662 Y35.8678
G01 X44.1510 Y35.8641
G01 X44.1356 Y35.8618
G01 X44.1200 Y35.8610
G01 X44.1044 Y35.8618
G01 X44.0890 Y35.8641
G01 X44.0738 Y35.8678
G01 X44.0592 Y35.8731
G01 X44.0450 Y35.8798
G01 X44.0317 Y35.8878
G01 X44.0191 Y35.8971
G01 X44.0076 Y35.9076
G01 X43.9971 Y35.9191
G01 X43.9878 Y35.9317
G01 X43.9798 Y35.9450
G01 X43.9731 Y35.9592
G01 X43.9678 Y35.9738
G01 X43.9641 Y35.9890
G01 X43.9618 Y36.0044
G01 X43.9610 Y36.0200
G01 X43.9618 Y36.0356
G01 X43.9641 Y36.0510
G01 X43.9678 Y36.0662
G01 X43.9731 Y36.0808
G01 X43.9798 Y36.0950
G01 X43.9878 Y36.1083
G01 X43.9971 Y36.1209
G01 X44.0076 Y36.1324
G01 X44.0191 Y36.1429
G01 X44.0317 Y36.1522
G01 X44.0450 Y36.1602
G01 X44.0592 Y36.1669
G01 X44.0738 Y36.1722
G01 X44.0890 Y36.1759
G01 X44.1044 Y36.1782
G01 X44.1200 Y36.1790
G01 X44.1356 Y36.1782
G01 X44.1510 Y36.1759
G01 X44.1662 Y36.1722
G01 X44.1808 Y36.1669
G01 X44.1950 Y36.1602
G01 X44.2083 Y36.1522
G01 X44.2209 Y36.1429
G01 X44.2324 Y36.1324
G01 X44.2429 Y36.1209
G01 X44.2522 Y36.1083
G01 X44.2602 Y36.0950
G01 X44.2669 Y36.0808
G01 X44.2722 Y36.0662
G01 X44.2759 Y36.0510
G01 X44.2782 Y36.0356
G01 X44.2790 Y36.0200
G00 Z2.0000
G00 X49.2600 Y33.6700
G01 F15.00
G01 Z-2.4000
G01 F30.00
G01 X49.2595 Y33.6602
G01 X49.2581 Y33.6505
G01 X49.2557 Y33.6410
G01 X49.2524 Y33.6317
G01 X49.2482 Y33.6229
G01 X49.2431 Y33.6144
G01 X49.2373 Y33.6066
G01 X49.2307 Y33.5993
G01 X49.2234 Y33.5927
G01 X49.2156 Y33.5869
G01 X49.2071 Y33.5818
G01 X49.1983 Y33.5776
G01 X49.1890 Y33.5743
G01 X49.1795 Y33.5719
G01 X49.1698 Y33.5705
G01 X49.1600 Y33.5700
G01 X49.1502 Y33.5705
G01 X49.1405 Y33.5719
G01 X49.1310 Y33.5743
G01 X49.1217 Y33.5776
G01 X49.1129 Y33.5818
G01 X49.1044 Y33.5869
G01 X49.0966 Y33.5927
G01 X49.0893 Y33.5993
G01 X49.0827 Y33.6066
G01 X49.0769 Y33.6144
G01 X49.0718 Y33.6229
G01 X49.0676 Y33.6317
G01 X49.0643 Y33.6410
G01 X49.0619 Y33.6505
G01 X49.0605 Y33.6602
G01 X49.0600 Y33.6700
G01 X49.0605 Y33.6798
G01 X49.0619 Y33.6895
G01 X49.0643 Y33.6990
G01 X49.0676 Y33.7083
G01 X49.0718 Y33.7171
G01 X49.0769 Y33.7256
G01 X49.0827 Y33.7334
G01 X49.0893 Y33.7407
G01 X49.0966 Y33.7473
G01 X49.1044 Y33.7531
G01 X49.1129 Y33.7582
G01 X49.1217 Y33.7624
G01 X49.1310 Y33.7657
G01 X49.1405 Y33.7681
G01 X49.1502 Y33.7695
G01 X49.1600 Y33.7700
G01 X49.1698 Y33.7695
G01 X49.1795 Y33.7681
G01 X49.1890 Y33.7657
G01 X49.1983 Y33.7624
G01 X49.2071 Y33.7582
G01 X49.2156 Y33.7531
G01 X49.2234 Y33.7473
G01 X49.2307 Y33.7407
G01 X49.2373 Y33.7334
G01 X49.2431 Y33.7256
G01 X49.2482 Y33.7171
G01 X49.2524 Y33.7083
G01 X49.2557 Y33.6990
G01 X49.2581 Y33.6895
G01 X49.2595 Y33.6798
G01 X49.2600 Y33.6700
G00 Z2.0000
G00 X53.4600 Y26.6700
G01 F15.00
G01 Z-2.4000
G01 F30.00
G01 X53.4566 Y26.6014
G01 X53.4465 Y26.5334
G01 X53.4299 Y26.4668
G01 X53.4067 Y26.4021
G01 X53.3773 Y26.3400
G01 X53.3420 Y26.2811
G01 X53.3011 Y26.2259
G01 X53.2550 Y26.1750
G01 X53.2041 Y26.1289
G01 X53.1489 Y26.0880
G01 X53.0900 Y26.0527
G01 X53.0279 Y26.0233
G01 X52.9632 Y26.0001
G01 X52.8966 Y25.9835
G01 X52.8286 Y25.9734
G01 X52.7600 Y25.9700
G01 X52.6914 Y25.9734
G01 X52.6234 Y25.9835
G01 X52.5568 Y26.0001
G01 X52.4921 Y26.0233
G01 X52.4300 Y26.0527
G01 X52.3711 Y26.0880
G01 X52.3159 Y26.1289
G01 X52.2650 Y26.1750
G01 X52.2189 Y26.2259
G01 X52.1780 Y26.2811
G01 X52.1427 Y26.3400
G01 X52.1133 Y26.4021
G01 X52.0901 Y26.4668
G01 X52.0735 Y26.5334
G01 X52.0634 Y26.6014
G01 X52.0600 Y26.6700
G01 X52.0634 Y26.7386
G01 X52.0735 Y26.8066
G01 X52.0901 Y26.8732
G01 X52.1133 Y26.9379
G01 X52.1427 Y27.0000
G01 X52.1780 Y27.0589
G01 X52.2189 Y27.1141
G01 X52.2650 Y27.1650
G01 X52.3159 Y27.2111
G01 X52.3711 Y27.2520
G01 X52.4300 Y27.2873
G01 X52.4921 Y27.3167
G01 X52.5568 Y27.3399
G01 X52.6234 Y27.3565
G01 X52.6914 Y27.3666
G01 X52.7600 Y27.3700
G01 X52.8286 Y27.3666
G01 X52.8966 Y27.3565
G01 X52.9632 Y27.3399
G01 X53.0279 Y27.3167
G01 X53.0900 Y27.2873
G01 X53.1489 Y27.2520
G01 X53.2041 Y27.2111
G01 X53.2550 Y27.1650
G01 X53.3011 Y27.1141
G01 X53.3420 Y27.0589
G01 X53.3773 Y27.0000
G01 X53.4067 Y26.9379
G01 X53.4299 Y26.8732
G01 X53.4465 Y26.8066
G01 X53.4566 Y26.7386
G01 X53.4600 Y26.6700
G00 Z2.0000
G00 X49.2600 Y19.1700
G01 F15.00
G01 Z-2.4000
G01 F30.00
G01 X49.2595 Y19.1602
G01 X49.2581 Y19.1505
G01 X49.2557 Y19.1410
G01 X49.2524 Y19.1317
G01 X49.2482 Y19.1229
G01 X49.2431 Y19.1144
G01 X49.2373 Y19.1066
G01 X49.2307 Y19.0993
G01 X49.2234 Y19.0927
G01 X49.2156 Y19.0869
G01 X49.2071 Y19.0818
G01 X49.1983 Y19.0776
G01 X49.1890 Y19.0743
G01 X49.1795 Y19.0719
G01 X49.1698 Y19.0705
G01 X49.1600 Y19.0700
G01 X49.1502 Y19.0705
G01 X49.1405 Y19.0719
G01 X49.1310 Y19.0743
G01 X49.1217 Y19.0776
G01 X49.1129 Y19.0818
G01 X49.1044 Y19.0869
G01 X49.0966 Y19.0927
G01 X49.0893 Y19.0993
G01 X49.0827 Y19.1066
G01 X49.0769 Y19.1144
G01 X49.0718 Y19.1229
G01 X49.0676 Y19.1317
G01 X49.0643 Y19.1410
G01 X49.0619 Y19.1505
G01 X49.0605 Y19.1602
G01 X49.0600 Y19.1700
G01 X49.0605 Y19.1798
G01 X49.0619 Y19.1895
G01 X49.0643 Y19.1990
G01 X49.0676 Y19.2083
G01 X49.0718 Y19.2171
G01 X49.0769 Y19.2256
G01 X49.0827 Y19.2334
G01 X49.0893 Y19.2407
G01 X49.0966 Y19.2473
G01 X49.1044 Y19.2531
G01 X49.1129 Y19.2582
G01 X49.1217 Y19.2624
G01 X49.1310 Y19.2657
G01 X49.1405 Y19.2681
G01 X49.1502 Y19.2695
G01 X49.1600 Y19.2700
G01 X49.1698 Y19.2695
G01 X49.1795 Y19.2681
G01 X49.1890 Y19.2657
G01 X49.1983 Y19.2624
G01 X49.2071 Y19.2582
G01 X49.2156 Y19.2531
G01 X49.2234 Y19.2473
G01 X49.2307 Y19.2407
G01 X49.2373 Y19.2334
G01 X49.2431 Y19.2256
G01 X49.2482 Y19.2171
G01 X49.2524 Y19.2083
G01 X49.2557 Y19.1990
G01 X49.2581 Y19.1895
G01 X49.2595 Y19.1798
G01 X49.2600 Y19.1700
G00 Z2.0000
G00 X46.7600 Y19.1700
G01 F15.00
G01 Z-2.4000
G01 F30.00
G01 X46.7595 Y19.1602
G01 X46.7581 Y19.1505
G01 X46.7557 Y19.1410
G01 X46.7524 Y19.1317
G01 X46.7482 Y19.1229
G01 X46.7431 Y19.1144
G01 X46.7373 Y19.1066
G01 X46.7307 Y19.0993
G01 X46.7234 Y19.0927
G01 X46.7156 Y19.0869
G01 X46.7071 Y19.0818
G01 X46.6983 Y19.0776
G01 X46.6890 Y19.0743
G01 X46.6795 Y19.0719
G01 X46.6698 Y19.0705
G01 X46.6600 Y19.0700
G01 X46.6502 Y19.0705
G01 X46.6405 Y19.0719
G01 X46.6310 Y19.0743
G01 X46.6217 Y19.0776
G01 X46.6129 Y19.0818
G01 X46.6044 Y19.0869
G01 X46.5966 Y19.0927
G01 X46.5893 Y19.0993
G01 X46.5827 Y19.1066
G01 X46.5769 Y19.1144
G01 X46.5718 Y19.1229
G01 X46.5676 Y19.1317
G01 X46.5643 Y19.1410
G01 X46.5619 Y19.1505
G01 X46.5605 Y19.1602
G01 X46.5600 Y19.1700
G01 X46.5605 Y19.1798
G01 X46.5619 Y19.1895
G01 X46.5643 Y19.1990
G01 X46.5676 Y19.2083
G01 X46.5718 Y19.2171
G01 X46.5769 Y19.2256
G01 X46.5827 Y19.2334
G01 X46.5893 Y19.2407
G01 X46.5966 Y19.2473
G01 X46.6044 Y19.2531
G01 X46.6129 Y19.2582
G01 X46.6217 Y19.2624
G01 X46.6310 Y19.2657
G01 X46.6405 Y19.2681
G01 X46.6502 Y19.2695
G01 X46.6600 Y19.2700
G01 X46.6698 Y19.2695
G01 X46.6795 Y19.2681
G01 X46.6890 Y19.2657
G01 X46.6983 Y19.2624
G01 X46.7071 Y19.2582
G01 X46.7156 Y19.2531
G01 X46.7234 Y19.2473
G01 X46.7307 Y19.2407
G01 X46.7373 Y19.2334
G01 X46.7431 Y19.2256
G01 X46.7482 Y19.2171
G01 X46.7524 Y19.2083
G01 X46.7557 Y19.1990
G01 X46.7581 Y19.1895
G01 X46.7595 Y19.1798
G01 X46.7600 Y19.1700
G00 Z2.0000
G00 X44.2600 Y19.1700
G01 F15.00
G01 Z-2.4000
G01 F30.00
G01 X44.2595 Y19.1602
G01 X44.2581 Y19.1505
G01 X44.2557 Y19.1410
G01 X44.2524 Y19.1317
G01 X44.2482 Y19.1229
G01 X44.2431 Y19.1144
G01 X44.2373 Y19.1066
G01 X44.2307 Y19.0993
