(Exported by FreeCAD)
(Post Processor: grbl_post)
(Output Time:2022-09-02 22:07:57.491504)
(begin preamble)
G17 G90
G21
(begin operation: T2: Mill Bit standard)
(Path: T2: Mill Bit standard)
(T2: Mill Bit standard)
(begin toolchange)
; M6 T2
M3 S0.0000
(finish operation: T2: Mill Bit standard)
(begin operation: MillColFace)
(Path: MillColFace)
(MillColFace)
G0 Z20.8000
G0 X11.9851 Y11.9851
G0 Z18.8000
G1 X11.9851 Y11.9851 Z15.3000
G2 X-0.0507 Y-16.9475 Z15.3000 I-11.9843 J-11.9843
G1 X-0.0000 Y-15.3983 Z15.3000
G1 X0.0507 Y-15.3967 Z15.3000
G1 X-0.0000 Y-13.8475 Z15.3000
G2 X-13.8475 Y0.0000 Z15.3000 I-0.0000 J13.8475
G2 X-0.0000 Y13.8475 Z15.3000 I13.8475 J-0.0000
G2 X0.0507 Y-13.8458 Z15.3000 I0.0008 J-13.8467
G1 X-0.0000 Y-13.8475 Z15.3000
G1 X0.0507 Y-15.3967 Z15.3000
G3 X0.0000 Y15.3983 Z15.3000 I-0.0499 J15.3975
G3 X-15.3983 Y0.0000 Z15.3000 I-0.0000 J-15.3983
G3 X-0.0000 Y-15.3983 Z15.3000 I15.3983 J-0.0000
G1 X-0.0507 Y-16.9475 Z15.3000
G2 X-0.0000 Y16.9492 Z15.3000 I0.0499 J16.9483
G2 X11.9851 Y11.9851 Z15.3000 I0.0008 J-16.9484
G0 X11.9851 Y11.9851 Z20.8000
G0 X8.6953 Y8.6953 Z20.8000
G1 X8.6953 Y8.6953 Z15.3000
G2 X0.0507 Y-12.2950 Z15.3000 I-8.6945 J-8.6945
G1 X-0.0000 Y-10.7458 Z15.3000
G2 X-10.7458 Y0.0000 Z15.3000 I-0.0000 J10.7458
G2 X-0.0000 Y10.7458 Z15.3000 I10.7458 J-0.0000
G2 X0.0507 Y-10.7442 Z15.3000 I0.0008 J-10.7451
G1 X-0.0000 Y-9.1950 Z15.3000
G2 X-0.6014 Y9.1753 Z15.3000 I-0.0000 J9.1950
G2 X9.1769 Y0.5768 Z15.3000 I0.6021 J-9.1745
G2 X0.5507 Y-9.1770 Z15.3000 I-9.1762 J-0.5760
G1 X0.4999 Y-7.6278 Z15.3000
G2 X-0.9978 Y7.5788 Z15.3000 I-0.4999 J7.6278
G2 X7.5820 Y0.9734 Z15.3000 I0.9984 J-7.5780
G2 X0.9473 Y-7.5838 Z15.3000 I-7.5813 J-0.9725
G1 X0.4999 Y-7.6278 Z15.3000
G1 X0.5507 Y-9.1770 Z15.3000
G1 X-0.0000 Y-9.1950 Z15.3000
G1 X0.0507 Y-10.7442 Z15.3000
G1 X-0.0000 Y-10.7458 Z15.3000
G1 X0.0507 Y-12.2950 Z15.3000
G1 X-0.0000 Y-12.2967 Z15.3000
G2 X-12.2967 Y0.0000 Z15.3000 I-0.0000 J12.2967
G2 X-0.0000 Y12.2967 Z15.3000 I12.2967 J-0.0000
G2 X8.6953 Y8.6953 Z15.3000 I0.0008 J-12.2959
G0 X8.6953 Y8.6953 Z20.8000
G0 X4.3088 Y4.3089 Z20.8000
G1 X4.3088 Y4.3089 Z15.3000
G2 X1.1387 Y-5.9845 Z15.3000 I-4.3082 J-4.3081
G1 X0.8862 Y-4.4552 Z15.3000
G2 X-0.8862 Y4.4552 Z15.3000 I-0.8862 J4.4552
G2 X0.9356 Y-4.4437 Z15.3000 I0.8867 J-4.4544
G1 X0.8862 Y-4.4552 Z15.3000
G1 X1.1387 Y-5.9845 Z15.3000
G1 X0.7953 Y-6.0412 Z15.3000
G1 X0.9473 Y-7.5838 Z15.3000
G1 X0.7953 Y-6.0412 Z15.3000
G2 X-6.0412 Y-0.7953 Z15.3000 I-0.7953 J6.0412
G2 X-0.7953 Y6.0412 Z15.3000 I6.0412 J0.7953
G2 X4.3088 Y4.3089 Z15.3000 I0.7960 J-6.0404
G0 X4.3088 Y4.3089 Z20.8000
G0 X2.1155 Y2.1157 Z20.8000
G1 X2.1155 Y2.1157 Z15.3000
G3 X-0.5836 Y2.9342 Z15.3000 I-2.1150 J-2.1150
G3 X0.5836 Y-2.9342 Z15.3000 I0.5836 J-2.9342
G1 X0.9356 Y-4.4437 Z15.3000
G1 X0.5836 Y-2.9342 Z15.3000
G1 X0.6331 Y-2.9227 Z15.3000
G3 X2.1155 Y2.1157 Z15.3000 I-0.6326 J2.9234
G0 X2.1155 Y2.1157 Z20.8000
G0 X1.0188 Y1.0189 Z20.8000
G1 X1.0188 Y1.0189 Z15.3000
G2 X0.2811 Y-1.4132 Z15.3000 I-1.0188 J-1.0189
G2 X-0.2811 Y1.4132 Z15.3000 I-0.2811 J1.4132
G2 X1.0188 Y1.0189 Z15.3000 I0.2811 J-1.4132
G0 X1.0188 Y1.0189 Z20.8000
G0 X0.2811 Y-1.4132 Z20.8000
G1 X0.2811 Y-1.4132 Z15.3000
G1 X0.6331 Y-2.9227 Z15.3000
G1 X0.2811 Y-1.4132 Z15.3000
G0 X0.2811 Y-1.4132 Z20.8000
G0 X-0.0000 Y-12.2967 Z20.8000
G1 X-0.0000 Y-12.2967 Z15.3000
G1 X0.0507 Y-13.8458 Z15.3000
G1 X-0.0000 Y-12.2967 Z15.3000
G1 X-0.0000 Y-12.2967 Z14.8000
G2 X-12.2967 Y0.0000 Z14.8000 I-0.0000 J12.2967
G2 X-0.0000 Y12.2967 Z14.8000 I12.2967 J-0.0000
G2 X0.0507 Y-12.2950 Z14.8000 I0.0008 J-12.2959
G1 X-0.0000 Y-10.7458 Z14.8000
G2 X-10.7458 Y0.0000 Z14.8000 I-0.0000 J10.7458
G2 X-0.0000 Y10.7458 Z14.8000 I10.7458 J-0.0000
G2 X0.0507 Y-10.7442 Z14.8000 I0.0008 J-10.7451
G1 X-0.0000 Y-9.1950 Z14.8000
G2 X-0.6014 Y9.1753 Z14.8000 I-0.0000 J9.1950
G2 X9.1769 Y0.5768 Z14.8000 I0.6021 J-9.1745
G2 X0.5507 Y-9.1770 Z14.8000 I-9.1762 J-0.5760
G1 X0.4999 Y-7.6278 Z14.8000
G2 X-0.9978 Y7.5788 Z14.8000 I-0.4999 J7.6278
G2 X7.5820 Y0.9734 Z14.8000 I0.9984 J-7.5780
G2 X0.9473 Y-7.5838 Z14.8000 I-7.5813 J-0.9725
G1 X0.4999 Y-7.6278 Z14.8000
G1 X0.5507 Y-9.1770 Z14.8000
G1 X-0.0000 Y-9.1950 Z14.8000
G1 X0.0507 Y-10.7442 Z14.8000
G1 X-0.0000 Y-10.7458 Z14.8000
G1 X0.0507 Y-12.2950 Z14.8000
G1 X-0.0000 Y-12.2967 Z14.8000
G1 X-0.0000 Y-12.2967 Z14.8000
G1 X0.0507 Y-13.8458 Z14.8000
G1 X-0.0000 Y-12.2967 Z14.8000
G0 X-0.0000 Y-12.2967 Z20.8000
G0 X0.0507 Y-13.8458 Z20.8000
G1 X0.0507 Y-13.8458 Z14.8000
G1 X-0.0000 Y-13.8475 Z14.8000
G1 X0.0507 Y-15.3967 Z14.8000
G3 X0.0000 Y15.3983 Z14.8000 I-0.0499 J15.3975
G3 X-15.3983 Y0.0000 Z14.8000 I-0.0000 J-15.3983
G3 X-0.0000 Y-15.3983 Z14.8000 I15.3983 J-0.0000
G1 X-0.0507 Y-16.9475 Z14.8000
G2 X-0.0000 Y16.9492 Z14.8000 I0.0499 J16.9483
G2 X16.9492 Y-0.0246 Z14.8000 I0.0008 J-16.9484
G2 X-0.0507 Y-16.9475 Z14.8000 I-16.9484 J0.0254
G1 X-0.0000 Y-15.3983 Z14.8000
G1 X0.0507 Y-15.3967 Z14.8000
G1 X-0.0000 Y-13.8475 Z14.8000
G2 X-13.8475 Y0.0000 Z14.8000 I-0.0000 J13.8475
G2 X-0.0000 Y13.8475 Z14.8000 I13.8475 J-0.0000
G2 X0.0507 Y-13.8458 Z14.8000 I0.0008 J-13.8467
G0 X0.0507 Y-13.8458 Z20.8000
G0 X0.9473 Y-7.5838 Z20.8000
G1 X0.9473 Y-7.5838 Z14.8000
G1 X0.7953 Y-6.0412 Z14.8000
G2 X-6.0412 Y-0.7953 Z14.8000 I-0.7953 J6.0412
G2 X-0.7953 Y6.0412 Z14.8000 I6.0412 J0.7953
G2 X1.1387 Y-5.9845 Z14.8000 I0.7960 J-6.0404
G1 X0.8862 Y-4.4552 Z14.8000
G2 X-0.8862 Y4.4552 Z14.8000 I-0.8862 J4.4552
G2 X0.9356 Y-4.4437 Z14.8000 I0.8867 J-4.4544
G1 X0.8862 Y-4.4552 Z14.8000
G1 X1.1387 Y-5.9845 Z14.8000
G1 X0.7953 Y-6.0412 Z14.8000
G1 X0.9473 Y-7.5838 Z14.8000
G0 X0.9473 Y-7.5838 Z20.8000
G0 X0.9356 Y-4.4437 Z20.8000
G1 X0.9356 Y-4.4437 Z14.8000
G1 X0.5836 Y-2.9342 Z14.8000
G1 X0.6331 Y-2.9227 Z14.8000
G3 X-0.5836 Y2.9342 Z14.8000 I-0.6326 J2.9234
G3 X0.5836 Y-2.9342 Z14.8000 I0.5836 J-2.9342
G1 X0.9356 Y-4.4437 Z14.8000
G0 X0.9356 Y-4.4437 Z20.8000
G0 X0.6331 Y-2.9227 Z20.8000
G1 X0.6331 Y-2.9227 Z14.8000
G1 X0.2811 Y-1.4132 Z14.8000
G1 X0.6331 Y-2.9227 Z14.8000
G0 X0.6331 Y-2.9227 Z20.8000
G0 X0.3050 Y-1.4082 Z20.8000
G1 X0.3050 Y-1.4082 Z14.8000
G2 X0.2811 Y-1.4132 Z14.8000 I-0.3050 J1.4082
G2 X-0.2811 Y1.4132 Z14.8000 I-0.2811 J1.4132
G2 X0.3050 Y-1.4082 Z14.8000 I0.2811 J-1.4132
G1 X0.3050 Y-1.4082 Z14.3000
G2 X0.2811 Y-1.4132 Z14.3000 I-0.3050 J1.4082
G2 X-0.2811 Y1.4132 Z14.3000 I-0.2811 J1.4132
G2 X0.3050 Y-1.4082 Z14.3000 I0.2811 J-1.4132
G0 X0.3050 Y-1.4082 Z20.8000
G0 X0.2811 Y-1.4132 Z20.8000
G1 X0.2811 Y-1.4132 Z14.3000
G1 X0.6331 Y-2.9227 Z14.3000
G1 X0.2811 Y-1.4132 Z14.3000
G0 X0.2811 Y-1.4132 Z20.8000
G0 X0.6331 Y-2.9227 Z20.8000
G1 X0.6331 Y-2.9227 Z14.3000
G3 X-0.5836 Y2.9342 Z14.3000 I-0.6326 J2.9234
G3 X0.5836 Y-2.9342 Z14.3000 I0.5836 J-2.9342
G1 X0.9356 Y-4.4437 Z14.3000
G1 X0.5836 Y-2.9342 Z14.3000
G1 X0.6331 Y-2.9227 Z14.3000
G0 X0.6331 Y-2.9227 Z20.8000
G0 X0.9610 Y-4.4383 Z20.8000
G1 X0.9610 Y-4.4383 Z14.3000
G2 X0.9356 Y-4.4437 Z14.3000 I-0.9604 J4.4391
G1 X0.8862 Y-4.4552 Z14.3000
G1 X1.1387 Y-5.9845 Z14.3000
G1 X0.7953 Y-6.0412 Z14.3000
G1 X0.9473 Y-7.5838 Z14.3000
G1 X0.7953 Y-6.0412 Z14.3000
G2 X-6.0412 Y-0.7953 Z14.3000 I-0.7953 J6.0412
G2 X-0.7953 Y6.0412 Z14.3000 I6.0412 J0.7953
G2 X1.1387 Y-5.9845 Z14.3000 I0.7960 J-6.0404
G1 X0.8862 Y-4.4552 Z14.3000
G2 X-0.8862 Y4.4552 Z14.3000 I-0.8862 J4.4552
G2 X0.9610 Y-4.4383 Z14.3000 I0.8867 J-4.4544
G0 X0.9610 Y-4.4383 Z20.8000
G0 X1.6168 Y-7.4698 Z20.8000
G1 X1.6168 Y-7.4698 Z14.3000
G2 X0.9473 Y-7.5838 Z14.3000 I-1.6162 J7.4706
G1 X0.4999 Y-7.6278 Z14.3000
G1 X0.5507 Y-9.1770 Z14.3000
G1 X-0.0000 Y-9.1950 Z14.3000
G1 X0.0507 Y-10.7442 Z14.3000
G1 X-0.0000 Y-10.7458 Z14.3000
G1 X0.0507 Y-12.2950 Z14.3000
G1 X-0.0000 Y-12.2967 Z14.3000
G2 X-12.2967 Y0.0000 Z14.3000 I-0.0000 J12.2967
G2 X-0.0000 Y12.2967 Z14.3000 I12.2967 J-0.0000
G2 X0.0507 Y-12.2950 Z14.3000 I0.0008 J-12.2959
G1 X-0.0000 Y-10.7458 Z14.3000
G2 X-10.7458 Y0.0000 Z14.3000 I-0.0000 J10.7458
G2 X-0.0000 Y10.7458 Z14.3000 I10.7458 J-0.0000
G2 X0.0507 Y-10.7442 Z14.3000 I0.0008 J-10.7451
G1 X-0.0000 Y-9.1950 Z14.3000
G2 X-0.6014 Y9.1753 Z14.3000 I-0.0000 J9.1950
G2 X9.1769 Y0.5768 Z14.3000 I0.6021 J-9.1745
G2 X0.5507 Y-9.1770 Z14.3000 I-9.1762 J-0.5760
G1 X0.4999 Y-7.6278 Z14.3000
G2 X-0.9978 Y7.5788 Z14.3000 I-0.4999 J7.6278
G2 X1.6168 Y-7.4698 Z14.3000 I0.9984 J-7.5780
G0 X1.6168 Y-7.4698 Z20.8000
G0 X-0.0000 Y-12.2967 Z20.8000
G1 X-0.0000 Y-12.2967 Z14.3000
G1 X0.0507 Y-13.8458 Z14.3000
G1 X-0.0000 Y-12.2967 Z14.3000
G0 X-0.0000 Y-12.2967 Z20.8000
G0 X0.0507 Y-13.8458 Z20.8000
G1 X0.0507 Y-13.8458 Z14.3000
G1 X-0.0000 Y-13.8475 Z14.3000
G1 X0.0507 Y-15.3967 Z14.3000
G3 X0.0000 Y15.3983 Z14.3000 I-0.0499 J15.3975
G3 X-15.3983 Y0.0000 Z14.3000 I-0.0000 J-15.3983
G3 X-0.0000 Y-15.3983 Z14.3000 I15.3983 J-0.0000
G1 X-0.0507 Y-16.9475 Z14.3000
G2 X-0.0000 Y16.9492 Z14.3000 I0.0499 J16.9483
G2 X16.9492 Y-0.0246 Z14.3000 I0.0008 J-16.9484
G2 X-0.0507 Y-16.9475 Z14.3000 I-16.9484 J0.0254
G1 X-0.0000 Y-15.3983 Z14.3000
G1 X0.0507 Y-15.3967 Z14.3000
G1 X-0.0000 Y-13.8475 Z14.3000
G2 X-13.8475 Y0.0000 Z14.3000 I-0.0000 J13.8475
G2 X-0.0000 Y13.8475 Z14.3000 I13.8475 J-0.0000
G2 X0.0507 Y-13.8458 Z14.3000 I0.0008 J-13.8467
G1 X0.0507 Y-13.8458 Z13.8000
G1 X-0.0000 Y-13.8475 Z13.8000
G1 X0.0507 Y-15.3967 Z13.8000
G3 X0.0000 Y15.3983 Z13.8000 I-0.0499 J15.3975
G3 X-15.3983 Y0.0000 Z13.8000 I-0.0000 J-15.3983
G3 X-0.0000 Y-15.3983 Z13.8000 I15.3983 J-0.0000
G1 X-0.0507 Y-16.9475 Z13.8000
G2 X-0.0000 Y16.9492 Z13.8000 I0.0499 J16.9483
G2 X16.9492 Y-0.0246 Z13.8000 I0.0008 J-16.9484
G2 X-0.0507 Y-16.9475 Z13.8000 I-16.9484 J0.0254
G1 X-0.0000 Y-15.3983 Z13.8000
G1 X0.0507 Y-15.3967 Z13.8000
G1 X-0.0000 Y-13.8475 Z13.8000
G2 X-13.8475 Y0.0000 Z13.8000 I-0.0000 J13.8475
G2 X-0.0000 Y13.8475 Z13.8000 I13.8475 J-0.0000
G2 X0.0507 Y-13.8458 Z13.8000 I0.0008 J-13.8467
G1 X0.0507 Y-13.8458 Z13.8000
G1 X-0.0000 Y-12.2967 Z13.8000
G1 X0.0507 Y-13.8458 Z13.8000
G0 X0.0507 Y-13.8458 Z20.8000
G0 X-0.0000 Y-12.2967 Z20.8000
G1 X-0.0000 Y-12.2967 Z13.8000
G2 X-12.2967 Y0.0000 Z13.8000 I-0.0000 J12.2967
G2 X-0.0000 Y12.2967 Z13.8000 I12.2967 J-0.0000
G2 X0.0507 Y-12.2950 Z13.8000 I0.0008 J-12.2959
G1 X-0.0000 Y-10.7458 Z13.8000
G2 X-10.7458 Y0.0000 Z13.8000 I-0.0000 J10.7458
G2 X-0.0000 Y10.7458 Z13.8000 I10.7458 J-0.0000
G2 X0.0507 Y-10.7442 Z13.8000 I0.0008 J-10.7451
G1 X-0.0000 Y-9.1950 Z13.8000
G2 X-0.6014 Y9.1753 Z13.8000 I-0.0000 J9.1950
G2 X9.1769 Y0.5768 Z13.8000 I0.6021 J-9.1745
G2 X0.5507 Y-9.1770 Z13.8000 I-9.1762 J-0.5760
G1 X0.4999 Y-7.6278 Z13.8000
G2 X-0.9978 Y7.5788 Z13.8000 I-0.4999 J7.6278
G2 X7.5820 Y0.9734 Z13.8000 I0.9984 J-7.5780
G2 X0.9473 Y-7.5838 Z13.8000 I-7.5813 J-0.9725
G1 X0.4999 Y-7.6278 Z13.8000
G1 X0.5507 Y-9.1770 Z13.8000
G1 X-0.0000 Y-9.1950 Z13.8000
G1 X0.0507 Y-10.7442 Z13.8000
G1 X-0.0000 Y-10.7458 Z13.8000
G1 X0.0507 Y-12.2950 Z13.8000
G1 X-0.0000 Y-12.2967 Z13.8000
G0 X-0.0000 Y-12.2967 Z20.8000
G0 X0.9473 Y-7.5838 Z20.8000
G1 X0.9473 Y-7.5838 Z13.8000
G1 X0.7953 Y-6.0412 Z13.8000
G2 X-6.0412 Y-0.7953 Z13.8000 I-0.7953 J6.0412
G2 X-0.7953 Y6.0412 Z13.8000 I6.0412 J0.7953
G2 X1.1387 Y-5.9845 Z13.8000 I0.7960 J-6.0404
G1 X0.8862 Y-4.4552 Z13.8000
G2 X-0.8862 Y4.4552 Z13.8000 I-0.8862 J4.4552
G2 X0.9356 Y-4.4437 Z13.8000 I0.8867 J-4.4544
G1 X0.8862 Y-4.4552 Z13.8000
G1 X1.1387 Y-5.9845 Z13.8000
G1 X0.7953 Y-6.0412 Z13.8000
G1 X0.9473 Y-7.5838 Z13.8000
G0 X0.9473 Y-7.5838 Z20.8000
G0 X0.9356 Y-4.4437 Z20.8000
G1 X0.9356 Y-4.4437 Z13.8000
G1 X0.5836 Y-2.9342 Z13.8000
G1 X0.6331 Y-2.9227 Z13.8000
G3 X-0.5836 Y2.9342 Z13.8000 I-0.6326 J2.9234
G3 X0.5836 Y-2.9342 Z13.8000 I0.5836 J-2.9342
G1 X0.9356 Y-4.4437 Z13.8000
G0 X0.9356 Y-4.4437 Z20.8000
G0 X0.6331 Y-2.9227 Z20.8000
G1 X0.6331 Y-2.9227 Z13.8000
G1 X0.2811 Y-1.4132 Z13.8000
G1 X0.6331 Y-2.9227 Z13.8000
G0 X0.6331 Y-2.9227 Z20.8000
G0 X0.3050 Y-1.4082 Z20.8000
G1 X0.3050 Y-1.4082 Z13.8000
G2 X0.2811 Y-1.4132 Z13.8000 I-0.3050 J1.4082
G2 X-0.2811 Y1.4132 Z13.8000 I-0.2811 J1.4132
G2 X0.3050 Y-1.4082 Z13.8000 I0.2811 J-1.4132
G1 X0.3050 Y-1.4082 Z13.3000
G2 X0.2811 Y-1.4132 Z13.3000 I-0.3050 J1.4082
G2 X-0.2811 Y1.4132 Z13.3000 I-0.2811 J1.4132
G2 X0.3050 Y-1.4082 Z13.3000 I0.2811 J-1.4132
G0 X0.3050 Y-1.4082 Z20.8000
G0 X0.2811 Y-1.4132 Z20.8000
G1 X0.2811 Y-1.4132 Z13.3000
G1 X0.6331 Y-2.9227 Z13.3000
G1 X0.2811 Y-1.4132 Z13.3000
G0 X0.2811 Y-1.4132 Z20.8000
G0 X0.6331 Y-2.9227 Z20.8000
G1 X0.6331 Y-2.9227 Z13.3000
G3 X-0.5836 Y2.9342 Z13.3000 I-0.6326 J2.9234
G3 X0.5836 Y-2.9342 Z13.3000 I0.5836 J-2.9342
G1 X0.9356 Y-4.4437 Z13.3000
G1 X0.5836 Y-2.9342 Z13.3000
G1 X0.6331 Y-2.9227 Z13.3000
G0 X0.6331 Y-2.9227 Z20.8000
G0 X0.9610 Y-4.4383 Z20.8000
G1 X0.9610 Y-4.4383 Z13.3000
G2 X0.9356 Y-4.4437 Z13.3000 I-0.9604 J4.4391
G1 X0.8862 Y-4.4552 Z13.3000
G1 X1.1387 Y-5.9845 Z13.3000
G1 X0.7953 Y-6.0412 Z13.3000
G1 X0.9473 Y-7.5838 Z13.3000
G1 X0.7953 Y-6.0412 Z13.3000
G2 X-6.0412 Y-0.7953 Z13.3000 I-0.7953 J6.0412
G2 X-0.7953 Y6.0412 Z13.3000 I6.0412 J0.7953
G2 X1.1387 Y-5.9845 Z13.3000 I0.7960 J-6.0404
G1 X0.8862 Y-4.4552 Z13.3000
G2 X-0.8862 Y4.4552 Z13.3000 I-0.8862 J4.4552
G2 X0.9610 Y-4.4383 Z13.3000 I0.8867 J-4.4544
G0 X0.9610 Y-4.4383 Z20.8000
G0 X1.6168 Y-7.4698 Z20.8000
G1 X1.6168 Y-7.4698 Z13.3000
G2 X0.9473 Y-7.5838 Z13.3000 I-1.6162 J7.4706
G1 X0.4999 Y-7.6278 Z13.3000
G1 X0.5507 Y-9.1770 Z13.3000
G1 X-0.0000 Y-9.1950 Z13.3000
G1 X0.0507 Y-10.7442 Z13.3000
G1 X-0.0000 Y-10.7458 Z13.3000
G1 X0.0507 Y-12.2950 Z13.3000
G1 X-0.0000 Y-12.2967 Z13.3000
G2 X-12.2967 Y0.0000 Z13.3000 I-0.0000 J12.2967
G2 X-0.0000 Y12.2967 Z13.3000 I12.2967 J-0.0000
G2 X0.0507 Y-12.2950 Z13.3000 I0.0008 J-12.2959
G1 X-0.0000 Y-10.7458 Z13.3000
G2 X-10.7458 Y0.0000 Z13.3000 I-0.0000 J10.7458
G2 X-0.0000 Y10.7458 Z13.3000 I10.7458 J-0.0000
G2 X0.0507 Y-10.7442 Z13.3000 I0.0008 J-10.7451
G1 X-0.0000 Y-9.1950 Z13.3000
G2 X-0.6014 Y9.1753 Z13.3000 I-0.0000 J9.1950
G2 X9.1769 Y0.5768 Z13.3000 I0.6021 J-9.1745
G2 X0.5507 Y-9.1770 Z13.3000 I-9.1762 J-0.5760
G1 X0.4999 Y-7.6278 Z13.3000
G2 X-0.9978 Y7.5788 Z13.3000 I-0.4999 J7.6278
G2 X1.6168 Y-7.4698 Z13.3000 I0.9984 J-7.5780
G0 X1.6168 Y-7.4698 Z20.8000
G0 X-0.0000 Y-12.2967 Z20.8000
G1 X-0.0000 Y-12.2967 Z13.3000
G1 X0.0507 Y-13.8458 Z13.3000
G1 X-0.0000 Y-12.2967 Z13.3000
G0 X-0.0000 Y-12.2967 Z20.8000
G0 X0.0507 Y-13.8458 Z20.8000
G1 X0.0507 Y-13.8458 Z13.3000
G1 X-0.0000 Y-13.8475 Z13.3000
G1 X0.0507 Y-15.3967 Z13.3000
G3 X0.0000 Y15.3983 Z13.3000 I-0.0499 J15.3975
G3 X-15.3983 Y0.0000 Z13.3000 I-0.0000 J-15.3983
G3 X-0.0000 Y-15.3983 Z13.3000 I15.3983 J-0.0000
G1 X-0.0507 Y-16.9475 Z13.3000
G2 X-0.0000 Y16.9492 Z13.3000 I0.0499 J16.9483
G2 X16.9492 Y-0.0246 Z13.3000 I0.0008 J-16.9484
G2 X-0.0507 Y-16.9475 Z13.3000 I-16.9484 J0.0254
G1 X-0.0000 Y-15.3983 Z13.3000
G1 X0.0507 Y-15.3967 Z13.3000
G1 X-0.0000 Y-13.8475 Z13.3000
G2 X-13.8475 Y0.0000 Z13.3000 I-0.0000 J13.8475
G2 X-0.0000 Y13.8475 Z13.3000 I13.8475 J-0.0000
G2 X0.0507 Y-13.8458 Z13.3000 I0.0008 J-13.8467
G1 X0.0507 Y-13.8458 Z12.8000
G1 X-0.0000 Y-13.8475 Z12.8000
G1 X0.0507 Y-15.3967 Z12.8000
G3 X0.0000 Y15.3983 Z12.8000 I-0.0499 J15.3975
G3 X-15.3983 Y0.0000 Z12.8000 I-0.0000 J-15.3983
G3 X-0.0000 Y-15.3983 Z12.8000 I15.3983 J-0.0000
G1 X-0.0507 Y-16.9475 Z12.8000
G2 X-0.0000 Y16.9492 Z12.8000 I0.0499 J16.9483
G2 X16.9492 Y-0.0246 Z12.8000 I0.0008 J-16.9484
G2 X-0.0507 Y-16.9475 Z12.8000 I-16.9484 J0.0254
G1 X-0.0000 Y-15.3983 Z12.8000
G1 X0.0507 Y-15.3967 Z12.8000
G1 X-0.0000 Y-13.8475 Z12.8000
G2 X-13.8475 Y0.0000 Z12.8000 I-0.0000 J13.8475
G2 X-0.0000 Y13.8475 Z12.8000 I13.8475 J-0.0000
G2 X0.0507 Y-13.8458 Z12.8000 I0.0008 J-13.8467
G1 X0.0507 Y-13.8458 Z12.8000
G1 X-0.0000 Y-12.2967 Z12.8000
G1 X0.0507 Y-13.8458 Z12.8000
G0 X0.0507 Y-13.8458 Z20.8000
G0 X-0.0000 Y-12.2967 Z20.8000
G1 X-0.0000 Y-12.2967 Z12.8000
G2 X-12.2967 Y0.0000 Z12.8000 I-0.0000 J12.2967
G2 X-0.0000 Y12.2967 Z12.8000 I12.2967 J-0.0000
G2 X0.0507 Y-12.2950 Z12.8000 I0.0008 J-12.2959
G1 X-0.0000 Y-10.7458 Z12.8000
G2 X-10.7458 Y0.0000 Z12.8000 I-0.0000 J10.7458
G2 X-0.0000 Y10.7458 Z12.8000 I10.7458 J-0.0000
G2 X0.0507 Y-10.7442 Z12.8000 I0.0008 J-10.7451
G1 X-0.0000 Y-9.1950 Z12.8000
G2 X-0.6014 Y9.1753 Z12.8000 I-0.0000 J9.1950
G2 X9.1769 Y0.5768 Z12.8000 I0.6021 J-9.1745
G2 X0.5507 Y-9.1770 Z12.8000 I-9.1762 J-0.5760
G1 X0.4999 Y-7.6278 Z12.8000
G2 X-0.9978 Y7.5788 Z12.8000 I-0.4999 J7.6278
G2 X7.5820 Y0.9734 Z12.8000 I0.9984 J-7.5780
G2 X0.9473 Y-7.5838 Z12.8000 I-7.5813 J-0.9725
G1 X0.4999 Y-7.6278 Z12.8000
G1 X0.5507 Y-9.1770 Z12.8000
G1 X-0.0000 Y-9.1950 Z12.8000
G1 X0.0507 Y-10.7442 Z12.8000
G1 X-0.0000 Y-10.7458 Z12.8000
G1 X0.0507 Y-12.2950 Z12.8000
G1 X-0.0000 Y-12.2967 Z12.8000
G0 X-0.0000 Y-12.2967 Z20.8000
G0 X0.9473 Y-7.5838 Z20.8000
G1 X0.9473 Y-7.5838 Z12.8000
G1 X0.7953 Y-6.0412 Z12.8000
G2 X-6.0412 Y-0.7953 Z12.8000 I-0.7953 J6.0412
G2 X-0.7953 Y6.0412 Z12.8000 I6.0412 J0.7953
G2 X1.1387 Y-5.9845 Z12.8000 I0.7960 J-6.0404
G1 X0.8862 Y-4.4552 Z12.8000
G2 X-0.8862 Y4.4552 Z12.8000 I-0.8862 J4.4552
G2 X0.9356 Y-4.4437 Z12.8000 I0.8867 J-4.4544
G1 X0.8862 Y-4.4552 Z12.8000
G1 X1.1387 Y-5.9845 Z12.8000
G1 X0.7953 Y-6.0412 Z12.8000
G1 X0.9473 Y-7.5838 Z12.8000
G0 X0.9473 Y-7.5838 Z20.8000
G0 X0.9356 Y-4.4437 Z20.8000
G1 X0.9356 Y-4.4437 Z12.8000
G1 X0.5836 Y-2.9342 Z12.8000
G1 X0.6331 Y-2.9227 Z12.8000
G3 X-0.5836 Y2.9342 Z12.8000 I-0.6326 J2.9234
G3 X0.5836 Y-2.9342 Z12.8000 I0.5836 J-2.9342
G1 X0.9356 Y-4.4437 Z12.8000
G0 X0.9356 Y-4.4437 Z20.8000
G0 X0.6331 Y-2.9227 Z20.8000
G1 X0.6331 Y-2.9227 Z12.8000
G1 X0.2811 Y-1.4132 Z12.8000
G1 X0.6331 Y-2.9227 Z12.8000
G0 X0.6331 Y-2.9227 Z20.8000
G0 X0.3050 Y-1.4082 Z20.8000
G1 X0.3050 Y-1.4082 Z12.8000
G2 X0.2811 Y-1.4132 Z12.8000 I-0.3050 J1.4082
G2 X-0.2811 Y1.4132 Z12.8000 I-0.2811 J1.4132
G2 X0.3050 Y-1.4082 Z12.8000 I0.2811 J-1.4132
G1 X0.3050 Y-1.4082 Z12.3000
G2 X0.2811 Y-1.4132 Z12.3000 I-0.3050 J1.4082
G2 X-0.2811 Y1.4132 Z12.3000 I-0.2811 J1.4132
G2 X0.3050 Y-1.4082 Z12.3000 I0.2811 J-1.4132
G0 X0.3050 Y-1.4082 Z20.8000
G0 X0.2811 Y-1.4132 Z20.8000
G1 X0.2811 Y-1.4132 Z12.3000
G1 X0.6331 Y-2.9227 Z12.3000
G1 X0.2811 Y-1.4132 Z12.3000
G0 X0.2811 Y-1.4132 Z20.8000
G0 X0.6331 Y-2.9227 Z20.8000
G1 X0.6331 Y-2.9227 Z12.3000
G3 X-0.5836 Y2.9342 Z12.3000 I-0.6326 J2.9234
G3 X0.5836 Y-2.9342 Z12.3000 I0.5836 J-2.9342
G1 X0.9356 Y-4.4437 Z12.3000
G1 X0.5836 Y-2.9342 Z12.3000
G1 X0.6331 Y-2.9227 Z12.3000
G0 X0.6331 Y-2.9227 Z20.8000
G0 X0.9610 Y-4.4383 Z20.8000
G1 X0.9610 Y-4.4383 Z12.3000
G2 X0.9356 Y-4.4437 Z12.3000 I-0.9604 J4.4391
G1 X0.8862 Y-4.4552 Z12.3000
G1 X1.1387 Y-5.9845 Z12.3000
G1 X0.7953 Y-6.0412 Z12.3000
G1 X0.9473 Y-7.5838 Z12.3000
G1 X0.7953 Y-6.0412 Z12.3000
G2 X-6.0412 Y-0.7953 Z12.3000 I-0.7953 J6.0412
G2 X-0.7953 Y6.0412 Z12.3000 I6.0412 J0.7953
G2 X1.1387 Y-5.9845 Z12.3000 I0.7960 J-6.0404
G1 X0.8862 Y-4.4552 Z12.3000
G2 X-0.8862 Y4.4552 Z12.3000 I-0.8862 J4.4552
G2 X0.9610 Y-4.4383 Z12.3000 I0.8867 J-4.4544
G0 X0.9610 Y-4.4383 Z20.8000
G0 X1.6168 Y-7.4698 Z20.8000
G1 X1.6168 Y-7.4698 Z12.3000
G2 X0.9473 Y-7.5838 Z12.3000 I-1.6162 J7.4706
G1 X0.4999 Y-7.6278 Z12.3000
G1 X0.5507 Y-9.1770 Z12.3000
G1 X-0.0000 Y-9.1950 Z12.3000
G1 X0.0507 Y-10.7442 Z12.3000
G1 X-0.0000 Y-10.7458 Z12.3000
G1 X0.0507 Y-12.2950 Z12.3000
G1 X-0.0000 Y-12.2967 Z12.3000
G2 X-12.2967 Y0.0000 Z12.3000 I-0.0000 J12.2967
G2 X-0.0000 Y12.2967 Z12.3000 I12.2967 J-0.0000
G2 X0.0507 Y-12.2950 Z12.3000 I0.0008 J-12.2959
G1 X-0.0000 Y-10.7458 Z12.3000
G2 X-10.7458 Y0.0000 Z12.3000 I-0.0000 J10.7458
G2 X-0.0000 Y10.7458 Z12.3000 I10.7458 J-0.0000
G2 X0.0507 Y-10.7442 Z12.3000 I0.0008 J-10.7451
G1 X-0.0000 Y-9.1950 Z12.3000
G2 X-0.6014 Y9.1753 Z12.3000 I-0.0000 J9.1950
G2 X9.1769 Y0.5768 Z12.3000 I0.6021 J-9.1745
G2 X0.5507 Y-9.1770 Z12.3000 I-9.1762 J-0.5760
G1 X0.4999 Y-7.6278 Z12.3000
G2 X-0.9978 Y7.5788 Z12.3000 I-0.4999 J7.6278
G2 X1.6168 Y-7.4698 Z12.3000 I0.9984 J-7.5780
G0 X1.6168 Y-7.4698 Z20.8000
G0 X-0.0000 Y-12.2967 Z20.8000
G1 X-0.0000 Y-12.2967 Z12.3000
G1 X0.0507 Y-13.8458 Z12.3000
G1 X-0.0000 Y-12.2967 Z12.3000
G0 X-0.0000 Y-12.2967 Z20.8000
G0 X0.0507 Y-13.8458 Z20.8000
G1 X0.0507 Y-13.8458 Z12.3000
G1 X-0.0000 Y-13.8475 Z12.3000
G1 X0.0507 Y-15.3967 Z12.3000
G3 X0.0000 Y15.3983 Z12.3000 I-0.0499 J15.3975
G3 X-15.3983 Y0.0000 Z12.3000 I-0.0000 J-15.3983
G3 X-0.0000 Y-15.3983 Z12.3000 I15.3983 J-0.0000
G1 X-0.0507 Y-16.9475 Z12.3000
G2 X-0.0000 Y16.9492 Z12.3000 I0.0499 J16.9483
G2 X16.9492 Y-0.0246 Z12.3000 I0.0008 J-16.9484
G2 X-0.0507 Y-16.9475 Z12.3000 I-16.9484 J0.0254
G1 X-0.0000 Y-15.3983 Z12.3000
G1 X0.0507 Y-15.3967 Z12.3000
G1 X-0.0000 Y-13.8475 Z12.3000
G2 X-13.8475 Y0.0000 Z12.3000 I-0.0000 J13.8475
G2 X-0.0000 Y13.8475 Z12.3000 I13.8475 J-0.0000
G2 X0.0507 Y-13.8458 Z12.3000 I0.0008 J-13.8467
G1 X0.0507 Y-13.8458 Z11.8000
G1 X-0.0000 Y-12.2967 Z11.8000
G1 X0.0507 Y-13.8458 Z11.8000
G1 X0.0507 Y-13.8458 Z11.8000
G1 X-0.0000 Y-13.8475 Z11.8000
G1 X0.0507 Y-15.3967 Z11.8000
G3 X0.0000 Y15.3983 Z11.8000 I-0.0499 J15.3975
G3 X-15.3983 Y0.0000 Z11.8000 I-0.0000 J-15.3983
G3 X-0.0000 Y-15.3983 Z11.8000 I15.3983 J-0.0000
G1 X-0.0507 Y-16.9475 Z11.8000
G2 X-0.0000 Y16.9492 Z11.8000 I0.0499 J16.9483
G2 X16.9492 Y-0.0246 Z11.8000 I0.0008 J-16.9484
G2 X-0.0507 Y-16.9475 Z11.8000 I-16.9484 J0.0254
G1 X-0.0000 Y-15.3983 Z11.8000
G1 X0.0507 Y-15.3967 Z11.8000
G1 X-0.0000 Y-13.8475 Z11.8000
G2 X-13.8475 Y0.0000 Z11.8000 I-0.0000 J13.8475
G2 X-0.0000 Y13.8475 Z11.8000 I13.8475 J-0.0000
G2 X0.0507 Y-13.8458 Z11.8000 I0.0008 J-13.8467
G0 X0.0507 Y-13.8458 Z20.8000
G0 X-0.0000 Y-12.2967 Z20.8000
G1 X-0.0000 Y-12.2967 Z11.8000
G2 X-12.2967 Y0.0000 Z11.8000 I-0.0000 J12.2967
G2 X-0.0000 Y12.2967 Z11.8000 I12.2967 J-0.0000
G2 X0.0507 Y-12.2950 Z11.8000 I0.0008 J-12.2959
G1 X-0.0000 Y-10.7458 Z11.8000
G2 X-10.7458 Y0.0000 Z11.8000 I-0.0000 J10.7458
G2 X-0.0000 Y10.7458 Z11.8000 I10.7458 J-0.0000
G2 X0.0507 Y-10.7442 Z11.8000 I0.0008 J-10.7451
G1 X-0.0000 Y-9.1950 Z11.8000
G2 X-0.6014 Y9.1753 Z11.8000 I-0.0000 J9.1950
G2 X9.1769 Y0.5768 Z11.8000 I0.6021 J-9.1745
G2 X0.5507 Y-9.1770 Z11.8000 I-9.1762 J-0.5760
G1 X0.4999 Y-7.6278 Z11.8000
G2 X-0.9978 Y7.5788 Z11.8000 I-0.4999 J7.6278
G2 X7.5820 Y0.9734 Z11.8000 I0.9984 J-7.5780
G2 X0.9473 Y-7.5838 Z11.8000 I-7.5813 J-0.9725
G1 X0.4999 Y-7.6278 Z11.8000
G1 X0.5507 Y-9.1770 Z11.8000
G1 X-0.0000 Y-9.1950 Z11.8000
G1 X0.0507 Y-10.7442 Z11.8000
G1 X-0.0000 Y-10.7458 Z11.8000
G1 X0.0507 Y-12.2950 Z11.8000
G1 X-0.0000 Y-12.2967 Z11.8000
G0 X-0.0000 Y-12.2967 Z20.8000
G0 X0.9473 Y-7.5838 Z20.8000
G1 X0.9473 Y-7.5838 Z11.8000
G1 X0.7953 Y-6.0412 Z11.8000
G2 X-6.0412 Y-0.7953 Z11.8000 I-0.7953 J6.0412
G2 X-0.7953 Y6.0412 Z11.8000 I6.0412 J0.7953
G2 X1.1387 Y-5.9845 Z11.8000 I0.7960 J-6.0404
G1 X0.8862 Y-4.4552 Z11.8000
G2 X-0.8862 Y4.4552 Z11.8000 I-0.8862 J4.4552
G2 X0.9356 Y-4.4437 Z11.8000 I0.8867 J-4.4544
G1 X0.8862 Y-4.4552 Z11.8000
G1 X1.1387 Y-5.9845 Z11.8000
G1 X0.7953 Y-6.0412 Z11.8000
G1 X0.9473 Y-7.5838 Z11.8000
G0 X0.9473 Y-7.5838 Z20.8000
G0 X0.9356 Y-4.4437 Z20.8000
G1 X0.9356 Y-4.4437 Z11.8000
G1 X0.5836 Y-2.9342 Z11.8000
G1 X0.6331 Y-2.9227 Z11.8000
G3 X-0.5836 Y2.9342 Z11.8000 I-0.6326 J2.9234
G3 X0.5836 Y-2.9342 Z11.8000 I0.5836 J-2.9342
G1 X0.9356 Y-4.4437 Z11.8000
G0 X0.9356 Y-4.4437 Z20.8000
G0 X0.6331 Y-2.9227 Z20.8000
G1 X0.6331 Y-2.9227 Z11.8000
G1 X0.2811 Y-1.4132 Z11.8000
G1 X0.6331 Y-2.9227 Z11.8000
G0 X0.6331 Y-2.9227 Z20.8000
G0 X0.3050 Y-1.4082 Z20.8000
G1 X0.3050 Y-1.4082 Z11.8000
G2 X0.2811 Y-1.4132 Z11.8000 I-0.3050 J1.4082
G2 X-0.2811 Y1.4132 Z11.8000 I-0.2811 J1.4132
G2 X0.3050 Y-1.4082 Z11.8000 I0.2811 J-1.4132
G1 X0.3050 Y-1.4082 Z11.3000
G2 X0.2811 Y-1.4132 Z11.3000 I-0.3050 J1.4082
G2 X-0.2811 Y1.4132 Z11.3000 I-0.2811 J1.4132
G2 X0.3050 Y-1.4082 Z11.3000 I0.2811 J-1.4132
G0 X0.3050 Y-1.4082 Z20.8000
G0 X0.2811 Y-1.4132 Z20.8000
G1 X0.2811 Y-1.4132 Z11.3000
G1 X0.6331 Y-2.9227 Z11.3000
G1 X0.2811 Y-1.4132 Z11.3000
G0 X0.2811 Y-1.4132 Z20.8000
G0 X0.6331 Y-2.9227 Z20.8000
G1 X0.6331 Y-2.9227 Z11.3000
G3 X-0.5836 Y2.9342 Z11.3000 I-0.6326 J2.9234
G3 X0.5836 Y-2.9342 Z11.3000 I0.5836 J-2.9342
G1 X0.9356 Y-4.4437 Z11.3000
G1 X0.5836 Y-2.9342 Z11.3000
G1 X0.6331 Y-2.9227 Z11.3000
G0 X0.6331 Y-2.9227 Z20.8000
G0 X0.9610 Y-4.4383 Z20.8000
G1 X0.9610 Y-4.4383 Z11.3000
G2 X0.9356 Y-4.4437 Z11.3000 I-0.9604 J4.4391
G1 X0.8862 Y-4.4552 Z11.3000
G1 X1.1387 Y-5.9845 Z11.3000
G1 X0.7953 Y-6.0412 Z11.3000
G1 X0.9473 Y-7.5838 Z11.3000
G1 X0.7953 Y-6.0412 Z11.3000
G2 X-6.0412 Y-0.7953 Z11.3000 I-0.7953 J6.0412
G2 X-0.7953 Y6.0412 Z11.3000 I6.0412 J0.7953
G2 X1.1387 Y-5.9845 Z11.3000 I0.7960 J-6.0404
G1 X0.8862 Y-4.4552 Z11.3000
G2 X-0.8862 Y4.4552 Z11.3000 I-0.8862 J4.4552
G2 X0.9610 Y-4.4383 Z11.3000 I0.8867 J-4.4544
G0 X0.9610 Y-4.4383 Z20.8000
G0 X1.6168 Y-7.4698 Z20.8000
G1 X1.6168 Y-7.4698 Z11.3000
G2 X0.9473 Y-7.5838 Z11.3000 I-1.6162 J7.4706
G1 X0.4999 Y-7.6278 Z11.3000
G1 X0.5507 Y-9.1770 Z11.3000
G1 X-0.0000 Y-9.1950 Z11.3000
G1 X0.0507 Y-10.7442 Z11.3000
G1 X-0.0000 Y-10.7458 Z11.3000
G1 X0.0507 Y-12.2950 Z11.3000
G1 X-0.0000 Y-12.2967 Z11.3000
G2 X-12.2967 Y0.0000 Z11.3000 I-0.0000 J12.2967
G2 X-0.0000 Y12.2967 Z11.3000 I12.2967 J-0.0000
G2 X0.0507 Y-12.2950 Z11.3000 I0.0008 J-12.2959
G1 X-0.0000 Y-10.7458 Z11.3000
G2 X-10.7458 Y0.0000 Z11.3000 I-0.0000 J10.7458
G2 X-0.0000 Y10.7458 Z11.3000 I10.7458 J-0.0000
G2 X0.0507 Y-10.7442 Z11.3000 I0.0008 J-10.7451
G1 X-0.0000 Y-9.1950 Z11.3000
G2 X-0.6014 Y9.1753 Z11.3000 I-0.0000 J9.1950
G2 X9.1769 Y0.5768 Z11.3000 I0.6021 J-9.1745
G2 X0.5507 Y-9.1770 Z11.3000 I-9.1762 J-0.5760
G1 X0.4999 Y-7.6278 Z11.3000
G2 X-0.9978 Y7.5788 Z11.3000 I-0.4999 J7.6278
G2 X1.6168 Y-7.4698 Z11.3000 I0.9984 J-7.5780
G0 X1.6168 Y-7.4698 Z20.8000
G0 X-0.0000 Y-12.2967 Z20.8000
G1 X-0.0000 Y-12.2967 Z11.3000
G1 X0.0507 Y-13.8458 Z11.3000
G1 X-0.0000 Y-12.2967 Z11.3000
G0 X-0.0000 Y-12.2967 Z20.8000
G0 X0.0507 Y-13.8458 Z20.8000
G1 X0.0507 Y-13.8458 Z11.3000
G1 X-0.0000 Y-13.8475 Z11.3000
G1 X0.0507 Y-15.3967 Z11.3000
G3 X0.0000 Y15.3983 Z11.3000 I-0.0499 J15.3975
G3 X-15.3983 Y0.0000 Z11.3000 I-0.0000 J-15.3983
G3 X-0.0000 Y-15.3983 Z11.3000 I15.3983 J-0.0000
G1 X-0.0507 Y-16.9475 Z11.3000
G2 X-0.0000 Y16.9492 Z11.3000 I0.0499 J16.9483
G2 X16.9492 Y-0.0246 Z11.3000 I0.0008 J-16.9484
G2 X-0.0507 Y-16.9475 Z11.3000 I-16.9484 J0.0254
G1 X-0.0000 Y-15.3983 Z11.3000
G1 X0.0507 Y-15.3967 Z11.3000
G1 X-0.0000 Y-13.8475 Z11.3000
G2 X-13.8475 Y0.0000 Z11.3000 I-0.0000 J13.8475
G2 X-0.0000 Y13.8475 Z11.3000 I13.8475 J-0.0000
G2 X0.0507 Y-13.8458 Z11.3000 I0.0008 J-13.8467
G1 X0.0507 Y-13.8458 Z10.8000
G1 X-0.0000 Y-13.8475 Z10.8000
G1 X0.0507 Y-15.3967 Z10.8000
G3 X0.0000 Y15.3983 Z10.8000 I-0.0499 J15.3975
G3 X-15.3983 Y0.0000 Z10.8000 I-0.0000 J-15.3983
G3 X-0.0000 Y-15.3983 Z10.8000 I15.3983 J-0.0000
G1 X-0.0507 Y-16.9475 Z10.8000
G2 X-0.0000 Y16.9492 Z10.8000 I0.0499 J16.9483
G2 X16.9492 Y-0.0246 Z10.8000 I0.0008 J-16.9484
G2 X-0.0507 Y-16.9475 Z10.8000 I-16.9484 J0.0254
G1 X-0.0000 Y-15.3983 Z10.8000
G1 X0.0507 Y-15.3967 Z10.8000
G1 X-0.0000 Y-13.8475 Z10.8000
G2 X-13.8475 Y0.0000 Z10.8000 I-0.0000 J13.8475
G2 X-0.0000 Y13.8475 Z10.8000 I13.8475 J-0.0000
G2 X0.0507 Y-13.8458 Z10.8000 I0.0008 J-13.8467
G1 X0.0507 Y-13.8458 Z10.8000
G1 X-0.0000 Y-12.2967 Z10.8000
G1 X0.0507 Y-13.8458 Z10.8000
G0 X0.0507 Y-13.8458 Z20.8000
G0 X-0.0000 Y-12.2967 Z20.8000
G1 X-0.0000 Y-12.2967 Z10.8000
G2 X-12.2967 Y0.0000 Z10.8000 I-0.0000 J12.2967
G2 X-0.0000 Y12.2967 Z10.8000 I12.2967 J-0.0000
G2 X0.0507 Y-12.2950 Z10.8000 I0.0008 J-12.2959
G1 X-0.0000 Y-10.7458 Z10.8000
G2 X-10.7458 Y0.0000 Z10.8000 I-0.0000 J10.7458
G2 X-0.0000 Y10.7458 Z10.8000 I10.7458 J-0.0000
G2 X0.0507 Y-10.7442 Z10.8000 I0.0008 J-10.7451
G1 X-0.0000 Y-9.1950 Z10.8000
G2 X-0.6014 Y9.1753 Z10.8000 I-0.0000 J9.1950
G2 X9.1769 Y0.5768 Z10.8000 I0.6021 J-9.1745
G2 X0.5507 Y-9.1770 Z10.8000 I-9.1762 J-0.5760
G1 X0.4999 Y-7.6278 Z10.8000
G2 X-0.9978 Y7.5788 Z10.8000 I-0.4999 J7.6278
G2 X7.5820 Y0.9734 Z10.8000 I0.9984 J-7.5780
G2 X0.9473 Y-7.5838 Z10.8000 I-7.5813 J-0.9725
G1 X0.4999 Y-7.6278 Z10.8000
G1 X0.5507 Y-9.1770 Z10.8000
G1 X-0.0000 Y-9.1950 Z10.8000
G1 X0.0507 Y-10.7442 Z10.8000
G1 X-0.0000 Y-10.7458 Z10.8000
G1 X0.0507 Y-12.2950 Z10.8000
G1 X-0.0000 Y-12.2967 Z10.8000
G0 X-0.0000 Y-12.2967 Z20.8000
G0 X0.9473 Y-7.5838 Z20.8000
G1 X0.9473 Y-7.5838 Z10.8000
G1 X0.7953 Y-6.0412 Z10.8000
G2 X-6.0412 Y-0.7953 Z10.8000 I-0.7953 J6.0412
G2 X-0.7953 Y6.0412 Z10.8000 I6.0412 J0.7953
G2 X1.1387 Y-5.9845 Z10.8000 I0.7960 J-6.0404
G1 X0.8862 Y-4.4552 Z10.8000
G2 X-0.8862 Y4.4552 Z10.8000 I-0.8862 J4.4552
G2 X0.9356 Y-4.4437 Z10.8000 I0.8867 J-4.4544
G1 X0.8862 Y-4.4552 Z10.8000
G1 X1.1387 Y-5.9845 Z10.8000
G1 X0.7953 Y-6.0412 Z10.8000
G1 X0.9473 Y-7.5838 Z10.8000
G0 X0.9473 Y-7.5838 Z20.8000
G0 X0.9356 Y-4.4437 Z20.8000
G1 X0.9356 Y-4.4437 Z10.8000
G1 X0.5836 Y-2.9342 Z10.8000
G1 X0.6331 Y-2.9227 Z10.8000
G3 X-0.5836 Y2.9342 Z10.8000 I-0.6326 J2.9234
G3 X0.5836 Y-2.9342 Z10.8000 I0.5836 J-2.9342
G1 X0.9356 Y-4.4437 Z10.8000
G0 X0.9356 Y-4.4437 Z20.8000
G0 X0.6331 Y-2.9227 Z20.8000
G1 X0.6331 Y-2.9227 Z10.8000
G1 X0.2811 Y-1.4132 Z10.8000
G1 X0.6331 Y-2.9227 Z10.8000
G0 X0.6331 Y-2.9227 Z20.8000
G0 X0.3050 Y-1.4082 Z20.8000
G1 X0.3050 Y-1.4082 Z10.8000
G2 X0.2811 Y-1.4132 Z10.8000 I-0.3050 J1.4082
G2 X-0.2811 Y1.4132 Z10.8000 I-0.2811 J1.4132
G2 X0.3050 Y-1.4082 Z10.8000 I0.2811 J-1.4132
G1 X0.3050 Y-1.4082 Z10.3000
G2 X0.2811 Y-1.4132 Z10.3000 I-0.3050 J1.4082
G2 X-0.2811 Y1.4132 Z10.3000 I-0.2811 J1.4132
G2 X0.3050 Y-1.4082 Z10.3000 I0.2811 J-1.4132
G0 X0.3050 Y-1.4082 Z20.8000
G0 X0.2811 Y-1.4132 Z20.8000
G1 X0.2811 Y-1.4132 Z10.3000
G1 X0.6331 Y-2.9227 Z10.3000
G1 X0.2811 Y-1.4132 Z10.3000
G0 X0.2811 Y-1.4132 Z20.8000
G0 X0.6331 Y-2.9227 Z20.8000
G1 X0.6331 Y-2.9227 Z10.3000
G3 X-0.5836 Y2.9342 Z10.3000 I-0.6326 J2.9234
G3 X0.5836 Y-2.9342 Z10.3000 I0.5836 J-2.9342
G1 X0.9356 Y-4.4437 Z10.3000
G1 X0.5836 Y-2.9342 Z10.3000
G1 X0.6331 Y-2.9227 Z10.3000
G0 X0.6331 Y-2.9227 Z20.8000
G0 X0.9610 Y-4.4383 Z20.8000
G1 X0.9610 Y-4.4383 Z10.3000
G2 X0.9356 Y-4.4437 Z10.3000 I-0.9604 J4.4391
G1 X0.8862 Y-4.4552 Z10.3000
G1 X1.1387 Y-5.9845 Z10.3000
G1 X0.7953 Y-6.0412 Z10.3000
G1 X0.9473 Y-7.5838 Z10.3000
G1 X0.7953 Y-6.0412 Z10.3000
G2 X-6.0412 Y-0.7953 Z10.3000 I-0.7953 J6.0412
G2 X-0.7953 Y6.0412 Z10.3000 I6.0412 J0.7953
G2 X1.1387 Y-5.9845 Z10.3000 I0.7960 J-6.0404
G1 X0.8862 Y-4.4552 Z10.3000
G2 X-0.8862 Y4.4552 Z10.3000 I-0.8862 J4.4552
G2 X0.9610 Y-4.4383 Z10.3000 I0.8867 J-4.4544
G0 X0.9610 Y-4.4383 Z20.8000
G0 X1.6168 Y-7.4698 Z20.8000
G1 X1.6168 Y-7.4698 Z10.3000
G2 X0.9473 Y-7.5838 Z10.3000 I-1.6162 J7.4706
G1 X0.4999 Y-7.6278 Z10.3000
G1 X0.5507 Y-9.1770 Z10.3000
G1 X-0.0000 Y-9.1950 Z10.3000
G1 X0.0507 Y-10.7442 Z10.3000
G1 X-0.0000 Y-10.7458 Z10.3000
G1 X0.0507 Y-12.2950 Z10.3000
G1 X-0.0000 Y-12.2967 Z10.3000
G2 X-12.2967 Y0.0000 Z10.3000 I-0.0000 J12.2967
G2 X-0.0000 Y12.2967 Z10.3000 I12.2967 J-0.0000
G2 X0.0507 Y-12.2950 Z10.3000 I0.0008 J-12.2959
G1 X-0.0000 Y-10.7458 Z10.3000
G2 X-10.7458 Y0.0000 Z10.3000 I-0.0000 J10.7458
G2 X-0.0000 Y10.7458 Z10.3000 I10.7458 J-0.0000
G2 X0.0507 Y-10.7442 Z10.3000 I0.0008 J-10.7451
G1 X-0.0000 Y-9.1950 Z10.3000
G2 X-0.6014 Y9.1753 Z10.3000 I-0.0000 J9.1950
G2 X9.1769 Y0.5768 Z10.3000 I0.6021 J-9.1745
G2 X0.5507 Y-9.1770 Z10.3000 I-9.1762 J-0.5760
G1 X0.4999 Y-7.6278 Z10.3000
G2 X-0.9978 Y7.5788 Z10.3000 I-0.4999 J7.6278
G2 X1.6168 Y-7.4698 Z10.3000 I0.9984 J-7.5780
G0 X1.6168 Y-7.4698 Z20.8000
G0 X-0.0000 Y-12.2967 Z20.8000
G1 X-0.0000 Y-12.2967 Z10.3000
G1 X0.0507 Y-13.8458 Z10.3000
G1 X-0.0000 Y-12.2967 Z10.3000
G0 X-0.0000 Y-12.2967 Z20.8000
G0 X0.0507 Y-13.8458 Z20.8000
G1 X0.0507 Y-13.8458 Z10.3000
G1 X-0.0000 Y-13.8475 Z10.3000
G1 X0.0507 Y-15.3967 Z10.3000
G3 X0.0000 Y15.3983 Z10.3000 I-0.0499 J15.3975
G3 X-15.3983 Y0.0000 Z10.3000 I-0.0000 J-15.3983
G3 X-0.0000 Y-15.3983 Z10.3000 I15.3983 J-0.0000
G1 X-0.0507 Y-16.9475 Z10.3000
G2 X-0.0000 Y16.9492 Z10.3000 I0.0499 J16.9483
G2 X16.9492 Y-0.0246 Z10.3000 I0.0008 J-16.9484
G2 X-0.0507 Y-16.9475 Z10.3000 I-16.9484 J0.0254
G1 X-0.0000 Y-15.3983 Z10.3000
G1 X0.0507 Y-15.3967 Z10.3000
G1 X-0.0000 Y-13.8475 Z10.3000
G2 X-13.8475 Y0.0000 Z10.3000 I-0.0000 J13.8475
G2 X-0.0000 Y13.8475 Z10.3000 I13.8475 J-0.0000
G2 X0.0507 Y-13.8458 Z10.3000 I0.0008 J-13.8467
G1 X0.0507 Y-13.8458 Z9.8000
G1 X-0.0000 Y-12.2967 Z9.8000
G1 X0.0507 Y-13.8458 Z9.8000
G1 X0.0507 Y-13.8458 Z9.8000
G1 X-0.0000 Y-13.8475 Z9.8000
G1 X0.0507 Y-15.3967 Z9.8000
G3 X0.0000 Y15.3983 Z9.8000 I-0.0499 J15.3975
G3 X-15.3983 Y0.0000 Z9.8000 I-0.0000 J-15.3983
G3 X-0.0000 Y-15.3983 Z9.8000 I15.3983 J-0.0000
G1 X-0.0507 Y-16.9475 Z9.8000
G2 X-0.0000 Y16.9492 Z9.8000 I0.0499 J16.9483
G2 X16.9492 Y-0.0246 Z9.8000 I0.0008 J-16.9484
G2 X-0.0507 Y-16.9475 Z9.8000 I-16.9484 J0.0254
G1 X-0.0000 Y-15.3983 Z9.8000
G1 X0.0507 Y-15.3967 Z9.8000
G1 X-0.0000 Y-13.8475 Z9.8000
G2 X-13.8475 Y0.0000 Z9.8000 I-0.0000 J13.8475
G2 X-0.0000 Y13.8475 Z9.8000 I13.8475 J-0.0000
G2 X0.0507 Y-13.8458 Z9.8000 I0.0008 J-13.8467
G0 X0.0507 Y-13.8458 Z20.8000
G0 X-0.0000 Y-12.2967 Z20.8000
G1 X-0.0000 Y-12.2967 Z9.8000
G2 X-12.2967 Y0.0000 Z9.8000 I-0.0000 J12.2967
G2 X-0.0000 Y12.2967 Z9.8000 I12.2967 J-0.0000
G2 X0.0507 Y-12.2950 Z9.8000 I0.0008 J-12.2959
G1 X-0.0000 Y-10.7458 Z9.8000
G2 X-10.7458 Y0.0000 Z9.8000 I-0.0000 J10.7458
G2 X-0.0000 Y10.7458 Z9.8000 I10.7458 J-0.0000
G2 X0.0507 Y-10.7442 Z9.8000 I0.0008 J-10.7451
G1 X-0.0000 Y-9.1950 Z9.8000
G2 X-0.6014 Y9.1753 Z9.8000 I-0.0000 J9.1950
G2 X9.1769 Y0.5768 Z9.8000 I0.6021 J-9.1745
G2 X0.5507 Y-9.1770 Z9.8000 I-9.1762 J-0.5760
G1 X0.4999 Y-7.6278 Z9.8000
G2 X-0.9978 Y7.5788 Z9.8000 I-0.4999 J7.6278
G2 X7.5820 Y0.9734 Z9.8000 I0.9984 J-7.5780
G2 X0.9473 Y-7.5838 Z9.8000 I-7.5813 J-0.9725
G1 X0.4999 Y-7.6278 Z9.8000
G1 X0.5507 Y-9.1770 Z9.8000
G1 X-0.0000 Y-9.1950 Z9.8000
G1 X0.0507 Y-10.7442 Z9.8000
G1 X-0.0000 Y-10.7458 Z9.8000
G1 X0.0507 Y-12.2950 Z9.8000
G1 X-0.0000 Y-12.2967 Z9.8000
G0 X-0.0000 Y-12.2967 Z20.8000
G0 X0.9473 Y-7.5838 Z20.8000
G1 X0.9473 Y-7.5838 Z9.8000
G1 X0.7953 Y-6.0412 Z9.8000
G2 X-6.0412 Y-0.7953 Z9.8000 I-0.7953 J6.0412
G2 X-0.7953 Y6.0412 Z9.8000 I6.0412 J0.7953
G2 X1.1387 Y-5.9845 Z9.8000 I0.7960 J-6.0404
G1 X0.8862 Y-4.4552 Z9.8000
G2 X-0.8862 Y4.4552 Z9.8000 I-0.8862 J4.4552
G2 X0.9356 Y-4.4437 Z9.8000 I0.8867 J-4.4544
G1 X0.8862 Y-4.4552 Z9.8000
G1 X1.1387 Y-5.9845 Z9.8000
G1 X0.7953 Y-6.0412 Z9.8000
G1 X0.9473 Y-7.5838 Z9.8000
G0 X0.9473 Y-7.5838 Z20.8000
G0 X0.9356 Y-4.4437 Z20.8000
G1 X0.9356 Y-4.4437 Z9.8000
G1 X0.5836 Y-2.9342 Z9.8000
G1 X0.6331 Y-2.9227 Z9.8000
G3 X-0.5836 Y2.9342 Z9.8000 I-0.6326 J2.9234
G3 X0.5836 Y-2.9342 Z9.8000 I0.5836 J-2.9342
G1 X0.9356 Y-4.4437 Z9.8000
G0 X0.9356 Y-4.4437 Z20.8000
G0 X0.6331 Y-2.9227 Z20.8000
G1 X0.6331 Y-2.9227 Z9.8000
G1 X0.2811 Y-1.4132 Z9.8000
G1 X0.6331 Y-2.9227 Z9.8000
G0 X0.6331 Y-2.9227 Z20.8000
G0 X0.3050 Y-1.4082 Z20.8000
G1 X0.3050 Y-1.4082 Z9.8000
G2 X0.2811 Y-1.4132 Z9.8000 I-0.3050 J1.4082
G2 X-0.2811 Y1.4132 Z9.8000 I-0.2811 J1.4132
G2 X0.3050 Y-1.4082 Z9.8000 I0.2811 J-1.4132
G1 X0.3050 Y-1.4082 Z9.3000
G2 X0.2811 Y-1.4132 Z9.3000 I-0.3050 J1.4082
G2 X-0.2811 Y1.4132 Z9.3000 I-0.2811 J1.4132
G2 X0.3050 Y-1.4082 Z9.3000 I0.2811 J-1.4132
G0 X0.3050 Y-1.4082 Z20.8000
G0 X0.2811 Y-1.4132 Z20.8000
G1 X0.2811 Y-1.4132 Z9.3000
G1 X0.6331 Y-2.9227 Z9.3000
G1 X0.2811 Y-1.4132 Z9.3000
G0 X0.2811 Y-1.4132 Z20.8000
G0 X0.6331 Y-2.9227 Z20.8000
G1 X0.6331 Y-2.9227 Z9.3000
G3 X-0.5836 Y2.9342 Z9.3000 I-0.6326 J2.9234
G3 X0.5836 Y-2.9342 Z9.3000 I0.5836 J-2.9342
G1 X0.9356 Y-4.4437 Z9.3000
G1 X0.5836 Y-2.9342 Z9.3000
G1 X0.6331 Y-2.9227 Z9.3000
G0 X0.6331 Y-2.9227 Z20.8000
G0 X0.9610 Y-4.4383 Z20.8000
G1 X0.9610 Y-4.4383 Z9.3000
G2 X0.9356 Y-4.4437 Z9.3000 I-0.9604 J4.4391
G1 X0.8862 Y-4.4552 Z9.3000
G1 X1.1387 Y-5.9845 Z9.3000
G1 X0.7953 Y-6.0412 Z9.3000
G1 X0.9473 Y-7.5838 Z9.3000
G1 X0.7953 Y-6.0412 Z9.3000
G2 X-6.0412 Y-0.7953 Z9.3000 I-0.7953 J6.0412
G2 X-0.7953 Y6.0412 Z9.3000 I6.0412 J0.7953
G2 X1.1387 Y-5.9845 Z9.3000 I0.7960 J-6.0404
G1 X0.8862 Y-4.4552 Z9.3000
G2 X-0.8862 Y4.4552 Z9.3000 I-0.8862 J4.4552
G2 X0.9610 Y-4.4383 Z9.3000 I0.8867 J-4.4544
G0 X0.9610 Y-4.4383 Z20.8000
G0 X1.6168 Y-7.4698 Z20.8000
G1 X1.6168 Y-7.4698 Z9.3000
G2 X0.9473 Y-7.5838 Z9.3000 I-1.6162 J7.4706
G1 X0.4999 Y-7.6278 Z9.3000
G1 X0.5507 Y-9.1770 Z9.3000
G1 X-0.0000 Y-9.1950 Z9.3000
G1 X0.0507 Y-10.7442 Z9.3000
G1 X-0.0000 Y-10.7458 Z9.3000
G1 X0.0507 Y-12.2950 Z9.3000
G1 X-0.0000 Y-12.2967 Z9.3000
G2 X-12.2967 Y0.0000 Z9.3000 I-0.0000 J12.2967
G2 X-0.0000 Y12.2967 Z9.3000 I12.2967 J-0.0000
G2 X0.0507 Y-12.2950 Z9.3000 I0.0008 J-12.2959
G1 X-0.0000 Y-10.7458 Z9.3000
G2 X-10.7458 Y0.0000 Z9.3000 I-0.0000 J10.7458
G2 X-0.0000 Y10.7458 Z9.3000 I10.7458 J-0.0000
G2 X0.0507 Y-10.7442 Z9.3000 I0.0008 J-10.7451
G1 X-0.0000 Y-9.1950 Z9.3000
G2 X-0.6014 Y9.1753 Z9.3000 I-0.0000 J9.1950
G2 X9.1769 Y0.5768 Z9.3000 I0.6021 J-9.1745
G2 X0.5507 Y-9.1770 Z9.3000 I-9.1762 J-0.5760
G1 X0.4999 Y-7.6278 Z9.3000
G2 X-0.9978 Y7.5788 Z9.3000 I-0.4999 J7.6278
G2 X1.6168 Y-7.4698 Z9.3000 I0.9984 J-7.5780
G0 X1.6168 Y-7.4698 Z20.8000
G0 X-0.0000 Y-12.2967 Z20.8000
G1 X-0.0000 Y-12.2967 Z9.3000
G1 X0.0507 Y-13.8458 Z9.3000
G1 X-0.0000 Y-12.2967 Z9.3000
G0 X-0.0000 Y-12.2967 Z20.8000
G0 X0.0507 Y-13.8458 Z20.8000
G1 X0.0507 Y-13.8458 Z9.3000
G1 X-0.0000 Y-13.8475 Z9.3000
G1 X0.0507 Y-15.3967 Z9.3000
G3 X0.0000 Y15.3983 Z9.3000 I-0.0499 J15.3975
G3 X-15.3983 Y0.0000 Z9.3000 I-0.0000 J-15.3983
G3 X-0.0000 Y-15.3983 Z9.3000 I15.3983 J-0.0000
G1 X-0.0507 Y-16.9475 Z9.3000
G2 X-0.0000 Y16.9492 Z9.3000 I0.0499 J16.9483
G2 X16.9492 Y-0.0246 Z9.3000 I0.0008 J-16.9484
G2 X-0.0507 Y-16.9475 Z9.3000 I-16.9484 J0.0254
G1 X-0.0000 Y-15.3983 Z9.3000
G1 X0.0507 Y-15.3967 Z9.3000
G1 X-0.0000 Y-13.8475 Z9.3000
G2 X-13.8475 Y0.0000 Z9.3000 I-0.0000 J13.8475
G2 X-0.0000 Y13.8475 Z9.3000 I13.8475 J-0.0000
G2 X0.0507 Y-13.8458 Z9.3000 I0.0008 J-13.8467
G1 X0.0507 Y-13.8458 Z8.8000
G1 X-0.0000 Y-12.2967 Z8.8000
G1 X0.0507 Y-13.8458 Z8.8000
G1 X0.0507 Y-13.8458 Z8.8000
G1 X-0.0000 Y-13.8475 Z8.8000
G1 X0.0507 Y-15.3967 Z8.8000
G3 X0.0000 Y15.3983 Z8.8000 I-0.0499 J15.3975
G3 X-15.3983 Y0.0000 Z8.8000 I-0.0000 J-15.3983
G3 X-0.0000 Y-15.3983 Z8.8000 I15.3983 J-0.0000
G1 X-0.0507 Y-16.9475 Z8.8000
G2 X-0.0000 Y16.9492 Z8.8000 I0.0499 J16.9483
G2 X16.9492 Y-0.0246 Z8.8000 I0.0008 J-16.9484
G2 X-0.0507 Y-16.9475 Z8.8000 I-16.9484 J0.0254
G1 X-0.0000 Y-15.3983 Z8.8000
G1 X0.0507 Y-15.3967 Z8.8000
G1 X-0.0000 Y-13.8475 Z8.8000
G2 X-13.8475 Y0.0000 Z8.8000 I-0.0000 J13.8475
G2 X-0.0000 Y13.8475 Z8.8000 I13.8475 J-0.0000
G2 X0.0507 Y-13.8458 Z8.8000 I0.0008 J-13.8467
G0 X0.0507 Y-13.8458 Z20.8000
G0 X-0.0000 Y-12.2967 Z20.8000
G1 X-0.0000 Y-12.2967 Z8.8000
G2 X-12.2967 Y0.0000 Z8.8000 I-0.0000 J12.2967
G2 X-0.0000 Y12.2967 Z8.8000 I12.2967 J-0.0000
G2 X0.0507 Y-12.2950 Z8.8000 I0.0008 J-12.2959
G1 X-0.0000 Y-10.7458 Z8.8000
G2 X-10.7458 Y0.0000 Z8.8000 I-0.0000 J10.7458
G2 X-0.0000 Y10.7458 Z8.8000 I10.7458 J-0.0000
G2 X0.0507 Y-10.7442 Z8.8000 I0.0008 J-10.7451
G1 X-0.0000 Y-9.1950 Z8.8000
G2 X-0.6014 Y9.1753 Z8.8000 I-0.0000 J9.1950
G2 X9.1769 Y0.5768 Z8.8000 I0.6021 J-9.1745
G2 X0.5507 Y-9.1770 Z8.8000 I-9.1762 J-0.5760
G1 X0.4999 Y-7.6278 Z8.8000
G2 X-0.9978 Y7.5788 Z8.8000 I-0.4999 J7.6278
G2 X7.5820 Y0.9734 Z8.8000 I0.9984 J-7.5780
G2 X0.9473 Y-7.5838 Z8.8000 I-7.5813 J-0.9725
G1 X0.4999 Y-7.6278 Z8.8000
G1 X0.5507 Y-9.1770 Z8.8000
G1 X-0.0000 Y-9.1950 Z8.8000
G1 X0.0507 Y-10.7442 Z8.8000
G1 X-0.0000 Y-10.7458 Z8.8000
G1 X0.0507 Y-12.2950 Z8.8000
G1 X-0.0000 Y-12.2967 Z8.8000
G0 X-0.0000 Y-12.2967 Z20.8000
G0 X0.9473 Y-7.5838 Z20.8000
G1 X0.9473 Y-7.5838 Z8.8000
G1 X0.7953 Y-6.0412 Z8.8000
G2 X-6.0412 Y-0.7953 Z8.8000 I-0.7953 J6.0412
G2 X-0.7953 Y6.0412 Z8.8000 I6.0412 J0.7953
G2 X1.1387 Y-5.9845 Z8.8000 I0.7960 J-6.0404
G1 X0.8862 Y-4.4552 Z8.8000
G2 X-0.8862 Y4.4552 Z8.8000 I-0.8862 J4.4552
G2 X0.9356 Y-4.4437 Z8.8000 I0.8867 J-4.4544
G1 X0.8862 Y-4.4552 Z8.8000
G1 X1.1387 Y-5.9845 Z8.8000
G1 X0.7953 Y-6.0412 Z8.8000
G1 X0.9473 Y-7.5838 Z8.8000
G0 X0.9473 Y-7.5838 Z20.8000
G0 X0.9356 Y-4.4437 Z20.8000
G1 X0.9356 Y-4.4437 Z8.8000
G1 X0.5836 Y-2.9342 Z8.8000
G1 X0.6331 Y-2.9227 Z8.8000
G3 X-0.5836 Y2.9342 Z8.8000 I-0.6326 J2.9234
G3 X0.5836 Y-2.9342 Z8.8000 I0.5836 J-2.9342
G1 X0.9356 Y-4.4437 Z8.8000
G0 X0.9356 Y-4.4437 Z20.8000
G0 X0.6331 Y-2.9227 Z20.8000
G1 X0.6331 Y-2.9227 Z8.8000
G1 X0.2811 Y-1.4132 Z8.8000
G1 X0.6331 Y-2.9227 Z8.8000
G0 X0.6331 Y-2.9227 Z20.8000
G0 X0.3050 Y-1.4082 Z20.8000
G1 X0.3050 Y-1.4082 Z8.8000
G2 X0.2811 Y-1.4132 Z8.8000 I-0.3050 J1.4082
G2 X-0.2811 Y1.4132 Z8.8000 I-0.2811 J1.4132
G2 X0.3050 Y-1.4082 Z8.8000 I0.2811 J-1.4132
G1 X0.3050 Y-1.4082 Z8.3000
G2 X0.2811 Y-1.4132 Z8.3000 I-0.3050 J1.4082
G2 X-0.2811 Y1.4132 Z8.3000 I-0.2811 J1.4132
G2 X0.3050 Y-1.4082 Z8.3000 I0.2811 J-1.4132
G0 X0.3050 Y-1.4082 Z20.8000
G0 X0.2811 Y-1.4132 Z20.8000
G1 X0.2811 Y-1.4132 Z8.3000
G1 X0.6331 Y-2.9227 Z8.3000
G1 X0.2811 Y-1.4132 Z8.3000
G0 X0.2811 Y-1.4132 Z20.8000
G0 X0.6331 Y-2.9227 Z20.8000
G1 X0.6331 Y-2.9227 Z8.3000
G3 X-0.5836 Y2.9342 Z8.3000 I-0.6326 J2.9234
G3 X0.5836 Y-2.9342 Z8.3000 I0.5836 J-2.9342
G1 X0.9356 Y-4.4437 Z8.3000
G1 X0.5836 Y-2.9342 Z8.3000
G1 X0.6331 Y-2.9227 Z8.3000
G0 X0.6331 Y-2.9227 Z20.8000
G0 X0.9610 Y-4.4383 Z20.8000
G1 X0.9610 Y-4.4383 Z8.3000
G2 X0.9356 Y-4.4437 Z8.3000 I-0.9604 J4.4391
G1 X0.8862 Y-4.4552 Z8.3000
G1 X1.1387 Y-5.9845 Z8.3000
G1 X0.7953 Y-6.0412 Z8.3000
G1 X0.9473 Y-7.5838 Z8.3000
G1 X0.7953 Y-6.0412 Z8.3000
G2 X-6.0412 Y-0.7953 Z8.3000 I-0.7953 J6.0412
G2 X-0.7953 Y6.0412 Z8.3000 I6.0412 J0.7953
G2 X1.1387 Y-5.9845 Z8.3000 I0.7960 J-6.0404
G1 X0.8862 Y-4.4552 Z8.3000
G2 X-0.8862 Y4.4552 Z8.3000 I-0.8862 J4.4552
G2 X0.9610 Y-4.4383 Z8.3000 I0.8867 J-4.4544
G0 X0.9610 Y-4.4383 Z20.8000
G0 X1.6168 Y-7.4698 Z20.8000
G1 X1.6168 Y-7.4698 Z8.3000
G2 X0.9473 Y-7.5838 Z8.3000 I-1.6162 J7.4706
G1 X0.4999 Y-7.6278 Z8.3000
G1 X0.5507 Y-9.1770 Z8.3000
G1 X-0.0000 Y-9.1950 Z8.3000
G1 X0.0507 Y-10.7442 Z8.3000
G1 X-0.0000 Y-10.7458 Z8.3000
G1 X0.0507 Y-12.2950 Z8.3000
G1 X-0.0000 Y-12.2967 Z8.3000
G2 X-12.2967 Y0.0000 Z8.3000 I-0.0000 J12.2967
G2 X-0.0000 Y12.2967 Z8.3000 I12.2967 J-0.0000
G2 X0.0507 Y-12.2950 Z8.3000 I0.0008 J-12.2959
G1 X-0.0000 Y-10.7458 Z8.3000
G2 X-10.7458 Y0.0000 Z8.3000 I-0.0000 J10.7458
G2 X-0.0000 Y10.7458 Z8.3000 I10.7458 J-0.0000
G2 X0.0507 Y-10.7442 Z8.3000 I0.0008 J-10.7451
G1 X-0.0000 Y-9.1950 Z8.3000
G2 X-0.6014 Y9.1753 Z8.3000 I-0.0000 J9.1950
G2 X9.1769 Y0.5768 Z8.3000 I0.6021 J-9.1745
G2 X0.5507 Y-9.1770 Z8.3000 I-9.1762 J-0.5760
G1 X0.4999 Y-7.6278 Z8.3000
G2 X-0.9978 Y7.5788 Z8.3000 I-0.4999 J7.6278
G2 X1.6168 Y-7.4698 Z8.3000 I0.9984 J-7.5780
G0 X1.6168 Y-7.4698 Z20.8000
G0 X-0.0000 Y-12.2967 Z20.8000
G1 X-0.0000 Y-12.2967 Z8.3000
G1 X0.0507 Y-13.8458 Z8.3000
G1 X-0.0000 Y-12.2967 Z8.3000
G0 X-0.0000 Y-12.2967 Z20.8000
G0 X0.0507 Y-13.8458 Z20.8000
G1 X0.0507 Y-13.8458 Z8.3000
G1 X-0.0000 Y-13.8475 Z8.3000
G1 X0.0507 Y-15.3967 Z8.3000
G3 X0.0000 Y15.3983 Z8.3000 I-0.0499 J15.3975
G3 X-15.3983 Y0.0000 Z8.3000 I-0.0000 J-15.3983
G3 X-0.0000 Y-15.3983 Z8.3000 I15.3983 J-0.0000
G1 X-0.0507 Y-16.9475 Z8.3000
G2 X-0.0000 Y16.9492 Z8.3000 I0.0499 J16.9483
G2 X16.9492 Y-0.0246 Z8.3000 I0.0008 J-16.9484
G2 X-0.0507 Y-16.9475 Z8.3000 I-16.9484 J0.0254
G1 X-0.0000 Y-15.3983 Z8.3000
G1 X0.0507 Y-15.3967 Z8.3000
G1 X-0.0000 Y-13.8475 Z8.3000
G2 X-13.8475 Y0.0000 Z8.3000 I-0.0000 J13.8475
G2 X-0.0000 Y13.8475 Z8.3000 I13.8475 J-0.0000
G2 X0.0507 Y-13.8458 Z8.3000 I0.0008 J-13.8467
G1 X0.0507 Y-13.8458 Z7.8000
G1 X-0.0000 Y-13.8475 Z7.8000
G1 X0.0507 Y-15.3967 Z7.8000
G3 X0.0000 Y15.3983 Z7.8000 I-0.0499 J15.3975
G3 X-15.3983 Y0.0000 Z7.8000 I-0.0000 J-15.3983
G3 X-0.0000 Y-15.3983 Z7.8000 I15.3983 J-0.0000
G1 X-0.0507 Y-16.9475 Z7.8000
G2 X-0.0000 Y16.9492 Z7.8000 I0.0499 J16.9483
G2 X16.9492 Y-0.0246 Z7.8000 I0.0008 J-16.9484
G2 X-0.0507 Y-16.9475 Z7.8000 I-16.9484 J0.0254
G1 X-0.0000 Y-15.3983 Z7.8000
G1 X0.0507 Y-15.3967 Z7.8000
G1 X-0.0000 Y-13.8475 Z7.8000
G2 X-13.8475 Y0.0000 Z7.8000 I-0.0000 J13.8475
G2 X-0.0000 Y13.8475 Z7.8000 I13.8475 J-0.0000
G2 X0.0507 Y-13.8458 Z7.8000 I0.0008 J-13.8467
G1 X0.0507 Y-13.8458 Z7.8000
G1 X-0.0000 Y-12.2967 Z7.8000
G1 X0.0507 Y-13.8458 Z7.8000
G0 X0.0507 Y-13.8458 Z20.8000
G0 X-0.0000 Y-12.2967 Z20.8000
G1 X-0.0000 Y-12.2967 Z7.8000
G2 X-12.2967 Y0.0000 Z7.8000 I-0.0000 J12.2967
G2 X-0.0000 Y12.2967 Z7.8000 I12.2967 J-0.0000
G2 X0.0507 Y-12.2950 Z7.8000 I0.0008 J-12.2959
G1 X-0.0000 Y-10.7458 Z7.8000
G2 X-10.7458 Y0.0000 Z7.8000 I-0.0000 J10.7458
G2 X-0.0000 Y10.7458 Z7.8000 I10.7458 J-0.0000
G2 X0.0507 Y-10.7442 Z7.8000 I0.0008 J-10.7451
G1 X-0.0000 Y-9.1950 Z7.8000
G2 X-0.6014 Y9.1753 Z7.8000 I-0.0000 J9.1950
G2 X9.1769 Y0.5768 Z7.8000 I0.6021 J-9.1745
G2 X0.5507 Y-9.1770 Z7.8000 I-9.1762 J-0.5760
G1 X0.4999 Y-7.6278 Z7.8000
G2 X-0.9978 Y7.5788 Z7.8000 I-0.4999 J7.6278
G2 X7.5820 Y0.9734 Z7.8000 I0.9984 J-7.5780
G2 X0.9473 Y-7.5838 Z7.8000 I-7.5813 J-0.9725
G1 X0.4999 Y-7.6278 Z7.8000
G1 X0.5507 Y-9.1770 Z7.8000
G1 X-0.0000 Y-9.1950 Z7.8000
G1 X0.0507 Y-10.7442 Z7.8000
G1 X-0.0000 Y-10.7458 Z7.8000
G1 X0.0507 Y-12.2950 Z7.8000
G1 X-0.0000 Y-12.2967 Z7.8000
G0 X-0.0000 Y-12.2967 Z20.8000
G0 X0.9473 Y-7.5838 Z20.8000
G1 X0.9473 Y-7.5838 Z7.8000
G1 X0.7953 Y-6.0412 Z7.8000
G2 X-6.0412 Y-0.7953 Z7.8000 I-0.7953 J6.0412
G2 X-0.7953 Y6.0412 Z7.8000 I6.0412 J0.7953
G2 X1.1387 Y-5.9845 Z7.8000 I0.7960 J-6.0404
G1 X0.8862 Y-4.4552 Z7.8000
G2 X-0.8862 Y4.4552 Z7.8000 I-0.8862 J4.4552
G2 X0.9356 Y-4.4437 Z7.8000 I0.8867 J-4.4544
G1 X0.8862 Y-4.4552 Z7.8000
G1 X1.1387 Y-5.9845 Z7.8000
G1 X0.7953 Y-6.0412 Z7.8000
G1 X0.9473 Y-7.5838 Z7.8000
G0 X0.9473 Y-7.5838 Z20.8000
G0 X0.9356 Y-4.4437 Z20.8000
G1 X0.9356 Y-4.4437 Z7.8000
G1 X0.5836 Y-2.9342 Z7.8000
G1 X0.6331 Y-2.9227 Z7.8000
G3 X-0.5836 Y2.9342 Z7.8000 I-0.6326 J2.9234
G3 X0.5836 Y-2.9342 Z7.8000 I0.5836 J-2.9342
G1 X0.9356 Y-4.4437 Z7.8000
G0 X0.9356 Y-4.4437 Z20.8000
G0 X0.6331 Y-2.9227 Z20.8000
G1 X0.6331 Y-2.9227 Z7.8000
G1 X0.2811 Y-1.4132 Z7.8000
G1 X0.6331 Y-2.9227 Z7.8000
G0 X0.6331 Y-2.9227 Z20.8000
G0 X0.3050 Y-1.4082 Z20.8000
G1 X0.3050 Y-1.4082 Z7.8000
G2 X0.2811 Y-1.4132 Z7.8000 I-0.3050 J1.4082
G2 X-0.2811 Y1.4132 Z7.8000 I-0.2811 J1.4132
G2 X0.3050 Y-1.4082 Z7.8000 I0.2811 J-1.4132
G1 X0.3050 Y-1.4082 Z7.3000
G2 X0.2811 Y-1.4132 Z7.3000 I-0.3050 J1.4082
G2 X-0.2811 Y1.4132 Z7.3000 I-0.2811 J1.4132
G2 X0.3050 Y-1.4082 Z7.3000 I0.2811 J-1.4132
G0 X0.3050 Y-1.4082 Z20.8000
G0 X0.2811 Y-1.4132 Z20.8000
G1 X0.2811 Y-1.4132 Z7.3000
G1 X0.6331 Y-2.9227 Z7.3000
G1 X0.2811 Y-1.4132 Z7.3000
G0 X0.2811 Y-1.4132 Z20.8000
G0 X0.6331 Y-2.9227 Z20.8000
G1 X0.6331 Y-2.9227 Z7.3000
G3 X-0.5836 Y2.9342 Z7.3000 I-0.6326 J2.9234
G3 X0.5836 Y-2.9342 Z7.3000 I0.5836 J-2.9342
G1 X0.9356 Y-4.4437 Z7.3000
G1 X0.5836 Y-2.9342 Z7.3000
G1 X0.6331 Y-2.9227 Z7.3000
G0 X0.6331 Y-2.9227 Z20.8000
G0 X0.9610 Y-4.4383 Z20.8000
G1 X0.9610 Y-4.4383 Z7.3000
G2 X0.9356 Y-4.4437 Z7.3000 I-0.9604 J4.4391
G1 X0.8862 Y-4.4552 Z7.3000
G1 X1.1387 Y-5.9845 Z7.3000
G1 X0.7953 Y-6.0412 Z7.3000
G1 X0.9473 Y-7.5838 Z7.3000
G1 X0.7953 Y-6.0412 Z7.3000
G2 X-6.0412 Y-0.7953 Z7.3000 I-0.7953 J6.0412
G2 X-0.7953 Y6.0412 Z7.3000 I6.0412 J0.7953
G2 X1.1387 Y-5.9845 Z7.3000 I0.7960 J-6.0404
G1 X0.8862 Y-4.4552 Z7.3000
G2 X-0.8862 Y4.4552 Z7.3000 I-0.8862 J4.4552
G2 X0.9610 Y-4.4383 Z7.3000 I0.8867 J-4.4544
G0 X0.9610 Y-4.4383 Z20.8000
G0 X1.6168 Y-7.4698 Z20.8000
G1 X1.6168 Y-7.4698 Z7.3000
G2 X0.9473 Y-7.5838 Z7.3000 I-1.6162 J7.4706
G1 X0.4999 Y-7.6278 Z7.3000
G1 X0.5507 Y-9.1770 Z7.3000
G1 X-0.0000 Y-9.1950 Z7.3000
G1 X0.0507 Y-10.7442 Z7.3000
G1 X-0.0000 Y-10.7458 Z7.3000
G1 X0.0507 Y-12.2950 Z7.3000
G1 X-0.0000 Y-12.2967 Z7.3000
G2 X-12.2967 Y0.0000 Z7.3000 I-0.0000 J12.2967
G2 X-0.0000 Y12.2967 Z7.3000 I12.2967 J-0.0000
G2 X0.0507 Y-12.2950 Z7.3000 I0.0008 J-12.2959
G1 X-0.0000 Y-10.7458 Z7.3000
G2 X-10.7458 Y0.0000 Z7.3000 I-0.0000 J10.7458
G2 X-0.0000 Y10.7458 Z7.3000 I10.7458 J-0.0000
G2 X0.0507 Y-10.7442 Z7.3000 I0.0008 J-10.7451
G1 X-0.0000 Y-9.1950 Z7.3000
G2 X-0.6014 Y9.1753 Z7.3000 I-0.0000 J9.1950
G2 X9.1769 Y0.5768 Z7.3000 I0.6021 J-9.1745
G2 X0.5507 Y-9.1770 Z7.3000 I-9.1762 J-0.5760
G1 X0.4999 Y-7.6278 Z7.3000
G2 X-0.9978 Y7.5788 Z7.3000 I-0.4999 J7.6278
G2 X1.6168 Y-7.4698 Z7.3000 I0.9984 J-7.5780
G0 X1.6168 Y-7.4698 Z20.8000
G0 X-0.0000 Y-12.2967 Z20.8000
G1 X-0.0000 Y-12.2967 Z7.3000
G1 X0.0507 Y-13.8458 Z7.3000
G1 X-0.0000 Y-12.2967 Z7.3000
G0 X-0.0000 Y-12.2967 Z20.8000
G0 X0.0507 Y-13.8458 Z20.8000
G1 X0.0507 Y-13.8458 Z7.3000
G1 X-0.0000 Y-13.8475 Z7.3000
G1 X0.0507 Y-15.3967 Z7.3000
G3 X0.0000 Y15.3983 Z7.3000 I-0.0499 J15.3975
G3 X-15.3983 Y0.0000 Z7.3000 I-0.0000 J-15.3983
G3 X-0.0000 Y-15.3983 Z7.3000 I15.3983 J-0.0000
G1 X-0.0507 Y-16.9475 Z7.3000
G2 X-0.0000 Y16.9492 Z7.3000 I0.0499 J16.9483
G2 X16.9492 Y-0.0246 Z7.3000 I0.0008 J-16.9484
G2 X-0.0507 Y-16.9475 Z7.3000 I-16.9484 J0.0254
G1 X-0.0000 Y-15.3983 Z7.3000
G1 X0.0507 Y-15.3967 Z7.3000
G1 X-0.0000 Y-13.8475 Z7.3000
G2 X-13.8475 Y0.0000 Z7.3000 I-0.0000 J13.8475
G2 X-0.0000 Y13.8475 Z7.3000 I13.8475 J-0.0000
G2 X0.0507 Y-13.8458 Z7.3000 I0.0008 J-13.8467
G1 X0.0507 Y-13.8458 Z6.8000
G1 X-0.0000 Y-13.8475 Z6.8000
G1 X0.0507 Y-15.3967 Z6.8000
G3 X0.0000 Y15.3983 Z6.8000 I-0.0499 J15.3975
G3 X-15.3983 Y0.0000 Z6.8000 I-0.0000 J-15.3983
G3 X-0.0000 Y-15.3983 Z6.8000 I15.3983 J-0.0000
G1 X-0.0507 Y-16.9475 Z6.8000
G2 X-0.0000 Y16.9492 Z6.8000 I0.0499 J16.9483
G2 X16.9492 Y-0.0246 Z6.8000 I0.0008 J-16.9484
G2 X-0.0507 Y-16.9475 Z6.8000 I-16.9484 J0.0254
G1 X-0.0000 Y-15.3983 Z6.8000
G1 X0.0507 Y-15.3967 Z6.8000
G1 X-0.0000 Y-13.8475 Z6.8000
G2 X-13.8475 Y0.0000 Z6.8000 I-0.0000 J13.8475
G2 X-0.0000 Y13.8475 Z6.8000 I13.8475 J-0.0000
G2 X0.0507 Y-13.8458 Z6.8000 I0.0008 J-13.8467
G1 X0.0507 Y-13.8458 Z6.8000
G1 X-0.0000 Y-12.2967 Z6.8000
G1 X0.0507 Y-13.8458 Z6.8000
G0 X0.0507 Y-13.8458 Z20.8000
G0 X-0.0000 Y-12.2967 Z20.8000
G1 X-0.0000 Y-12.2967 Z6.8000
G2 X-12.2967 Y0.0000 Z6.8000 I-0.0000 J12.2967
G2 X-0.0000 Y12.2967 Z6.8000 I12.2967 J-0.0000
G2 X0.0507 Y-12.2950 Z6.8000 I0.0008 J-12.2959
G1 X-0.0000 Y-10.7458 Z6.8000
G2 X-10.7458 Y0.0000 Z6.8000 I-0.0000 J10.7458
G2 X-0.0000 Y10.7458 Z6.8000 I10.7458 J-0.0000
G2 X0.0507 Y-10.7442 Z6.8000 I0.0008 J-10.7451
G1 X-0.0000 Y-9.1950 Z6.8000
G2 X-0.6014 Y9.1753 Z6.8000 I-0.0000 J9.1950
G2 X9.1769 Y0.5768 Z6.8000 I0.6021 J-9.1745
G2 X0.5507 Y-9.1770 Z6.8000 I-9.1762 J-0.5760
G1 X0.4999 Y-7.6278 Z6.8000
G2 X-0.9978 Y7.5788 Z6.8000 I-0.4999 J7.6278
G2 X7.5820 Y0.9734 Z6.8000 I0.9984 J-7.5780
G2 X0.9473 Y-7.5838 Z6.8000 I-7.5813 J-0.9725
G1 X0.4999 Y-7.6278 Z6.8000
G1 X0.5507 Y-9.1770 Z6.8000
G1 X-0.0000 Y-9.1950 Z6.8000
G1 X0.0507 Y-10.7442 Z6.8000
G1 X-0.0000 Y-10.7458 Z6.8000
G1 X0.0507 Y-12.2950 Z6.8000
G1 X-0.0000 Y-12.2967 Z6.8000
G0 X-0.0000 Y-12.2967 Z20.8000
G0 X0.9473 Y-7.5838 Z20.8000
G1 X0.9473 Y-7.5838 Z6.8000
G1 X0.7953 Y-6.0412 Z6.8000
G2 X-6.0412 Y-0.7953 Z6.8000 I-0.7953 J6.0412
G2 X-0.7953 Y6.0412 Z6.8000 I6.0412 J0.7953
G2 X1.1387 Y-5.9845 Z6.8000 I0.7960 J-6.0404
G1 X0.8862 Y-4.4552 Z6.8000
G2 X-0.8862 Y4.4552 Z6.8000 I-0.8862 J4.4552
G2 X0.9356 Y-4.4437 Z6.8000 I0.8867 J-4.4544
G1 X0.8862 Y-4.4552 Z6.8000
G1 X1.1387 Y-5.9845 Z6.8000
G1 X0.7953 Y-6.0412 Z6.8000
G1 X0.9473 Y-7.5838 Z6.8000
G0 X0.9473 Y-7.5838 Z20.8000
G0 X0.9356 Y-4.4437 Z20.8000
G1 X0.9356 Y-4.4437 Z6.8000
G1 X0.5836 Y-2.9342 Z6.8000
G1 X0.6331 Y-2.9227 Z6.8000
G3 X-0.5836 Y2.9342 Z6.8000 I-0.6326 J2.9234
G3 X0.5836 Y-2.9342 Z6.8000 I0.5836 J-2.9342
G1 X0.9356 Y-4.4437 Z6.8000
G0 X0.9356 Y-4.4437 Z20.8000
G0 X0.6331 Y-2.9227 Z20.8000
G1 X0.6331 Y-2.9227 Z6.8000
G1 X0.2811 Y-1.4132 Z6.8000
G1 X0.6331 Y-2.9227 Z6.8000
G0 X0.6331 Y-2.9227 Z20.8000
G0 X0.3050 Y-1.4082 Z20.8000
G1 X0.3050 Y-1.4082 Z6.8000
G2 X0.2811 Y-1.4132 Z6.8000 I-0.3050 J1.4082
G2 X-0.2811 Y1.4132 Z6.8000 I-0.2811 J1.4132
G2 X0.3050 Y-1.4082 Z6.8000 I0.2811 J-1.4132
G1 X0.3050 Y-1.4082 Z6.3000
G2 X0.2811 Y-1.4132 Z6.3000 I-0.3050 J1.4082
G2 X-0.2811 Y1.4132 Z6.3000 I-0.2811 J1.4132
G2 X0.3050 Y-1.4082 Z6.3000 I0.2811 J-1.4132
G0 X0.3050 Y-1.4082 Z20.8000
G0 X0.2811 Y-1.4132 Z20.8000
G1 X0.2811 Y-1.4132 Z6.3000
G1 X0.6331 Y-2.9227 Z6.3000
G1 X0.2811 Y-1.4132 Z6.3000
G0 X0.2811 Y-1.4132 Z20.8000
G0 X0.6331 Y-2.9227 Z20.8000
G1 X0.6331 Y-2.9227 Z6.3000
G3 X-0.5836 Y2.9342 Z6.3000 I-0.6326 J2.9234
G3 X0.5836 Y-2.9342 Z6.3000 I0.5836 J-2.9342
G1 X0.9356 Y-4.4437 Z6.3000
G1 X0.5836 Y-2.9342 Z6.3000
G1 X0.6331 Y-2.9227 Z6.3000
G0 X0.6331 Y-2.9227 Z20.8000
G0 X0.9610 Y-4.4383 Z20.8000
G1 X0.9610 Y-4.4383 Z6.3000
G2 X0.9356 Y-4.4437 Z6.3000 I-0.9604 J4.4391
G1 X0.8862 Y-4.4552 Z6.3000
G1 X1.1387 Y-5.9845 Z6.3000
G1 X0.7953 Y-6.0412 Z6.3000
G1 X0.9473 Y-7.5838 Z6.3000
G1 X0.7953 Y-6.0412 Z6.3000
G2 X-6.0412 Y-0.7953 Z6.3000 I-0.7953 J6.0412
G2 X-0.7953 Y6.0412 Z6.3000 I6.0412 J0.7953
G2 X1.1387 Y-5.9845 Z6.3000 I0.7960 J-6.0404
G1 X0.8862 Y-4.4552 Z6.3000
G2 X-0.8862 Y4.4552 Z6.3000 I-0.8862 J4.4552
G2 X0.9610 Y-4.4383 Z6.3000 I0.8867 J-4.4544
G0 X0.9610 Y-4.4383 Z20.8000
G0 X1.6168 Y-7.4698 Z20.8000
G1 X1.6168 Y-7.4698 Z6.3000
G2 X0.9473 Y-7.5838 Z6.3000 I-1.6162 J7.4706
G1 X0.4999 Y-7.6278 Z6.3000
G1 X0.5507 Y-9.1770 Z6.3000
G1 X-0.0000 Y-9.1950 Z6.3000
G1 X0.0507 Y-10.7442 Z6.3000
G1 X-0.0000 Y-10.7458 Z6.3000
G1 X0.0507 Y-12.2950 Z6.3000
G1 X-0.0000 Y-12.2967 Z6.3000
G2 X-12.2967 Y0.0000 Z6.3000 I-0.0000 J12.2967
G2 X-0.0000 Y12.2967 Z6.3000 I12.2967 J-0.0000
G2 X0.0507 Y-12.2950 Z6.3000 I0.0008 J-12.2959
G1 X-0.0000 Y-10.7458 Z6.3000
G2 X-10.7458 Y0.0000 Z6.3000 I-0.0000 J10.7458
G2 X-0.0000 Y10.7458 Z6.3000 I10.7458 J-0.0000
G2 X0.0507 Y-10.7442 Z6.3000 I0.0008 J-10.7451
G1 X-0.0000 Y-9.1950 Z6.3000
G2 X-0.6014 Y9.1753 Z6.3000 I-0.0000 J9.1950
G2 X9.1769 Y0.5768 Z6.3000 I0.6021 J-9.1745
G2 X0.5507 Y-9.1770 Z6.3000 I-9.1762 J-0.5760
G1 X0.4999 Y-7.6278 Z6.3000
G2 X-0.9978 Y7.5788 Z6.3000 I-0.4999 J7.6278
G2 X1.6168 Y-7.4698 Z6.3000 I0.9984 J-7.5780
G0 X1.6168 Y-7.4698 Z20.8000
G0 X-0.0000 Y-12.2967 Z20.8000
G1 X-0.0000 Y-12.2967 Z6.3000
G1 X0.0507 Y-13.8458 Z6.3000
G1 X-0.0000 Y-12.2967 Z6.3000
G0 X-0.0000 Y-12.2967 Z20.8000
G0 X0.0507 Y-13.8458 Z20.8000
G1 X0.0507 Y-13.8458 Z6.3000
G1 X-0.0000 Y-13.8475 Z6.3000
G1 X0.0507 Y-15.3967 Z6.3000
G3 X0.0000 Y15.3983 Z6.3000 I-0.0499 J15.3975
G3 X-15.3983 Y0.0000 Z6.3000 I-0.0000 J-15.3983
G3 X-0.0000 Y-15.3983 Z6.3000 I15.3983 J-0.0000
G1 X-0.0507 Y-16.9475 Z6.3000
G2 X-0.0000 Y16.9492 Z6.3000 I0.0499 J16.9483
G2 X16.9492 Y-0.0246 Z6.3000 I0.0008 J-16.9484
G2 X-0.0507 Y-16.9475 Z6.3000 I-16.9484 J0.0254
G1 X-0.0000 Y-15.3983 Z6.3000
G1 X0.0507 Y-15.3967 Z6.3000
G1 X-0.0000 Y-13.8475 Z6.3000
G2 X-13.8475 Y0.0000 Z6.3000 I-0.0000 J13.8475
G2 X-0.0000 Y13.8475 Z6.3000 I13.8475 J-0.0000
G2 X0.0507 Y-13.8458 Z6.3000 I0.0008 J-13.8467
G1 X0.0507 Y-13.8458 Z5.8000
G1 X-0.0000 Y-12.2967 Z5.8000
G1 X0.0507 Y-13.8458 Z5.8000
G1 X0.0507 Y-13.8458 Z5.8000
G1 X-0.0000 Y-13.8475 Z5.8000
G1 X0.0507 Y-15.3967 Z5.8000
G3 X0.0000 Y15.3983 Z5.8000 I-0.0499 J15.3975
G3 X-15.3983 Y0.0000 Z5.8000 I-0.0000 J-15.3983
G3 X-0.0000 Y-15.3983 Z5.8000 I15.3983 J-0.0000
G1 X-0.0507 Y-16.9475 Z5.8000
G2 X-0.0000 Y16.9492 Z5.8000 I0.0499 J16.9483
G2 X16.9492 Y-0.0246 Z5.8000 I0.0008 J-16.9484
G2 X-0.0507 Y-16.9475 Z5.8000 I-16.9484 J0.0254
G1 X-0.0000 Y-15.3983 Z5.8000
G1 X0.0507 Y-15.3967 Z5.8000
G1 X-0.0000 Y-13.8475 Z5.8000
G2 X-13.8475 Y0.0000 Z5.8000 I-0.0000 J13.8475
G2 X-0.0000 Y13.8475 Z5.8000 I13.8475 J-0.0000
G2 X0.0507 Y-13.8458 Z5.8000 I0.0008 J-13.8467
G0 X0.0507 Y-13.8458 Z20.8000
G0 X-0.0000 Y-12.2967 Z20.8000
G1 X-0.0000 Y-12.2967 Z5.8000
G2 X-12.2967 Y0.0000 Z5.8000 I-0.0000 J12.2967
G2 X-0.0000 Y12.2967 Z5.8000 I12.2967 J-0.0000
G2 X0.0507 Y-12.2950 Z5.8000 I0.0008 J-12.2959
G1 X-0.0000 Y-10.7458 Z5.8000
G2 X-10.7458 Y0.0000 Z5.8000 I-0.0000 J10.7458
G2 X-0.0000 Y10.7458 Z5.8000 I10.7458 J-0.0000
G2 X0.0507 Y-10.7442 Z5.8000 I0.0008 J-10.7451
G1 X-0.0000 Y-9.1950 Z5.8000
G2 X-0.6014 Y9.1753 Z5.8000 I-0.0000 J9.1950
G2 X9.1769 Y0.5768 Z5.8000 I0.6021 J-9.1745
G2 X0.5507 Y-9.1770 Z5.8000 I-9.1762 J-0.5760
G1 X0.4999 Y-7.6278 Z5.8000
G2 X-0.9978 Y7.5788 Z5.8000 I-0.4999 J7.6278
G2 X7.5820 Y0.9734 Z5.8000 I0.9984 J-7.5780
G2 X0.9473 Y-7.5838 Z5.8000 I-7.5813 J-0.9725
G1 X0.4999 Y-7.6278 Z5.8000
G1 X0.5507 Y-9.1770 Z5.8000
G1 X-0.0000 Y-9.1950 Z5.8000
G1 X0.0507 Y-10.7442 Z5.8000
G1 X-0.0000 Y-10.7458 Z5.8000
G1 X0.0507 Y-12.2950 Z5.8000
G1 X-0.0000 Y-12.2967 Z5.8000
G0 X-0.0000 Y-12.2967 Z20.8000
G0 X0.9473 Y-7.5838 Z20.8000
G1 X0.9473 Y-7.5838 Z5.8000
G1 X0.7953 Y-6.0412 Z5.8000
G2 X-6.0412 Y-0.7953 Z5.8000 I-0.7953 J6.0412
G2 X-0.7953 Y6.0412 Z5.8000 I6.0412 J0.7953
G2 X1.1387 Y-5.9845 Z5.8000 I0.7960 J-6.0404
G1 X0.8862 Y-4.4552 Z5.8000
G2 X-0.8862 Y4.4552 Z5.8000 I-0.8862 J4.4552
G2 X0.9356 Y-4.4437 Z5.8000 I0.8867 J-4.4544
G1 X0.8862 Y-4.4552 Z5.8000
G1 X1.1387 Y-5.9845 Z5.8000
G1 X0.7953 Y-6.0412 Z5.8000
G1 X0.9473 Y-7.5838 Z5.8000
G0 X0.9473 Y-7.5838 Z20.8000
G0 X0.9356 Y-4.4437 Z20.8000
G1 X0.9356 Y-4.4437 Z5.8000
G1 X0.5836 Y-2.9342 Z5.8000
G1 X0.6331 Y-2.9227 Z5.8000
G3 X-0.5836 Y2.9342 Z5.8000 I-0.6326 J2.9234
G3 X0.5836 Y-2.9342 Z5.8000 I0.5836 J-2.9342
G1 X0.9356 Y-4.4437 Z5.8000
G0 X0.9356 Y-4.4437 Z20.8000
G0 X0.6331 Y-2.9227 Z20.8000
G1 X0.6331 Y-2.9227 Z5.8000
G1 X0.2811 Y-1.4132 Z5.8000
G1 X0.6331 Y-2.9227 Z5.8000
G0 X0.6331 Y-2.9227 Z20.8000
G0 X0.3050 Y-1.4082 Z20.8000
G1 X0.3050 Y-1.4082 Z5.8000
G2 X0.2811 Y-1.4132 Z5.8000 I-0.3050 J1.4082
G2 X-0.2811 Y1.4132 Z5.8000 I-0.2811 J1.4132
G2 X0.3050 Y-1.4082 Z5.8000 I0.2811 J-1.4132
G1 X0.3050 Y-1.4082 Z5.3000
G2 X0.2811 Y-1.4132 Z5.3000 I-0.3050 J1.4082
G2 X-0.2811 Y1.4132 Z5.3000 I-0.2811 J1.4132
G2 X0.3050 Y-1.4082 Z5.3000 I0.2811 J-1.4132
G0 X0.3050 Y-1.4082 Z20.8000
G0 X0.2811 Y-1.4132 Z20.8000
G1 X0.2811 Y-1.4132 Z5.3000
G1 X0.6331 Y-2.9227 Z5.3000
G1 X0.2811 Y-1.4132 Z5.3000
G0 X0.2811 Y-1.4132 Z20.8000
G0 X0.6331 Y-2.9227 Z20.8000
G1 X0.6331 Y-2.9227 Z5.3000
G3 X-0.5836 Y2.9342 Z5.3000 I-0.6326 J2.9234
G3 X0.5836 Y-2.9342 Z5.3000 I0.5836 J-2.9342
G1 X0.9356 Y-4.4437 Z5.3000
G1 X0.5836 Y-2.9342 Z5.3000
G1 X0.6331 Y-2.9227 Z5.3000
G0 X0.6331 Y-2.9227 Z20.8000
G0 X0.9610 Y-4.4383 Z20.8000
G1 X0.9610 Y-4.4383 Z5.3000
G2 X0.9356 Y-4.4437 Z5.3000 I-0.9604 J4.4391
G1 X0.8862 Y-4.4552 Z5.3000
G1 X1.1387 Y-5.9845 Z5.3000
G1 X0.7953 Y-6.0412 Z5.3000
G1 X0.9473 Y-7.5838 Z5.3000
G1 X0.7953 Y-6.0412 Z5.3000
G2 X-6.0412 Y-0.7953 Z5.3000 I-0.7953 J6.0412
G2 X-0.7953 Y6.0412 Z5.3000 I6.0412 J0.7953
G2 X1.1387 Y-5.9845 Z5.3000 I0.7960 J-6.0404
G1 X0.8862 Y-4.4552 Z5.3000
G2 X-0.8862 Y4.4552 Z5.3000 I-0.8862 J4.4552
G2 X0.9610 Y-4.4383 Z5.3000 I0.8867 J-4.4544
G0 X0.9610 Y-4.4383 Z20.8000
G0 X1.6168 Y-7.4698 Z20.8000
G1 X1.6168 Y-7.4698 Z5.3000
G2 X0.9473 Y-7.5838 Z5.3000 I-1.6162 J7.4706
G1 X0.4999 Y-7.6278 Z5.3000
G1 X0.5507 Y-9.1770 Z5.3000
G1 X-0.0000 Y-9.1950 Z5.3000
G1 X0.0507 Y-10.7442 Z5.3000
G1 X-0.0000 Y-10.7458 Z5.3000
G1 X0.0507 Y-12.2950 Z5.3000
G1 X-0.0000 Y-12.2967 Z5.3000
G2 X-12.2967 Y0.0000 Z5.3000 I-0.0000 J12.2967
G2 X-0.0000 Y12.2967 Z5.3000 I12.2967 J-0.0000
G2 X0.0507 Y-12.2950 Z5.3000 I0.0008 J-12.2959
G1 X-0.0000 Y-10.7458 Z5.3000
G2 X-10.7458 Y0.0000 Z5.3000 I-0.0000 J10.7458
G2 X-0.0000 Y10.7458 Z5.3000 I10.7458 J-0.0000
G2 X0.0507 Y-10.7442 Z5.3000 I0.0008 J-10.7451
G1 X-0.0000 Y-9.1950 Z5.3000
G2 X-0.6014 Y9.1753 Z5.3000 I-0.0000 J9.1950
G2 X9.1769 Y0.5768 Z5.3000 I0.6021 J-9.1745
G2 X0.5507 Y-9.1770 Z5.3000 I-9.1762 J-0.5760
G1 X0.4999 Y-7.6278 Z5.3000
G2 X-0.9978 Y7.5788 Z5.3000 I-0.4999 J7.6278
G2 X1.6168 Y-7.4698 Z5.3000 I0.9984 J-7.5780
G0 X1.6168 Y-7.4698 Z20.8000
G0 X-0.0000 Y-12.2967 Z20.8000
G1 X-0.0000 Y-12.2967 Z5.3000
G1 X0.0507 Y-13.8458 Z5.3000
G1 X-0.0000 Y-12.2967 Z5.3000
G0 X-0.0000 Y-12.2967 Z20.8000
G0 X0.0507 Y-13.8458 Z20.8000
G1 X0.0507 Y-13.8458 Z5.3000
G1 X-0.0000 Y-13.8475 Z5.3000
G1 X0.0507 Y-15.3967 Z5.3000
G3 X0.0000 Y15.3983 Z5.3000 I-0.0499 J15.3975
G3 X-15.3983 Y0.0000 Z5.3000 I-0.0000 J-15.3983
G3 X-0.0000 Y-15.3983 Z5.3000 I15.3983 J-0.0000
G1 X-0.0507 Y-16.9475 Z5.3000
G2 X-0.0000 Y16.9492 Z5.3000 I0.0499 J16.9483
G2 X16.9492 Y-0.0246 Z5.3000 I0.0008 J-16.9484
G2 X-0.0507 Y-16.9475 Z5.3000 I-16.9484 J0.0254
G1 X-0.0000 Y-15.3983 Z5.3000
G1 X0.0507 Y-15.3967 Z5.3000
G1 X-0.0000 Y-13.8475 Z5.3000
G2 X-13.8475 Y0.0000 Z5.3000 I-0.0000 J13.8475
G2 X-0.0000 Y13.8475 Z5.3000 I13.8475 J-0.0000
G2 X0.0507 Y-13.8458 Z5.3000 I0.0008 J-13.8467
G1 X0.0507 Y-13.8458 Z4.8000
G1 X-0.0000 Y-13.8475 Z4.8000
G1 X0.0507 Y-15.3967 Z4.8000
G3 X0.0000 Y15.3983 Z4.8000 I-0.0499 J15.3975
G3 X-15.3983 Y0.0000 Z4.8000 I-0.0000 J-15.3983
G3 X-0.0000 Y-15.3983 Z4.8000 I15.3983 J-0.0000
G1 X-0.0507 Y-16.9475 Z4.8000
G2 X-0.0000 Y16.9492 Z4.8000 I0.0499 J16.9483
G2 X16.9492 Y-0.0246 Z4.8000 I0.0008 J-16.9484
G2 X-0.0507 Y-16.9475 Z4.8000 I-16.9484 J0.0254
G1 X-0.0000 Y-15.3983 Z4.8000
G1 X0.0507 Y-15.3967 Z4.8000
G1 X-0.0000 Y-13.8475 Z4.8000
G2 X-13.8475 Y0.0000 Z4.8000 I-0.0000 J13.8475
G2 X-0.0000 Y13.8475 Z4.8000 I13.8475 J-0.0000
G2 X0.0507 Y-13.8458 Z4.8000 I0.0008 J-13.8467
G1 X0.0507 Y-13.8458 Z4.8000
G1 X-0.0000 Y-12.2967 Z4.8000
G1 X0.0507 Y-13.8458 Z4.8000
G0 X0.0507 Y-13.8458 Z20.8000
G0 X-0.0000 Y-12.2967 Z20.8000
G1 X-0.0000 Y-12.2967 Z4.8000
G2 X-12.2967 Y0.0000 Z4.8000 I-0.0000 J12.2967
G2 X-0.0000 Y12.2967 Z4.8000 I12.2967 J-0.0000
G2 X0.0507 Y-12.2950 Z4.8000 I0.0008 J-12.2959
G1 X-0.0000 Y-10.7458 Z4.8000
G2 X-10.7458 Y0.0000 Z4.8000 I-0.0000 J10.7458
G2 X-0.0000 Y10.7458 Z4.8000 I10.7458 J-0.0000
G2 X0.0507 Y-10.7442 Z4.8000 I0.0008 J-10.7451
G1 X-0.0000 Y-9.1950 Z4.8000
G2 X-0.6014 Y9.1753 Z4.8000 I-0.0000 J9.1950
G2 X9.1769 Y0.5768 Z4.8000 I0.6021 J-9.1745
G2 X0.5507 Y-9.1770 Z4.8000 I-9.1762 J-0.5760
G1 X0.4999 Y-7.6278 Z4.8000
G2 X-0.9978 Y7.5788 Z4.8000 I-0.4999 J7.6278
G2 X7.5820 Y0.9734 Z4.8000 I0.9984 J-7.5780
G2 X0.9473 Y-7.5838 Z4.8000 I-7.5813 J-0.9725
G1 X0.4999 Y-7.6278 Z4.8000
G1 X0.5507 Y-9.1770 Z4.8000
G1 X-0.0000 Y-9.1950 Z4.8000
G1 X0.0507 Y-10.7442 Z4.8000
G1 X-0.0000 Y-10.7458 Z4.8000
G1 X0.0507 Y-12.2950 Z4.8000
G1 X-0.0000 Y-12.2967 Z4.8000
G0 X-0.0000 Y-12.2967 Z20.8000
G0 X0.9473 Y-7.5838 Z20.8000
G1 X0.9473 Y-7.5838 Z4.8000
G1 X0.7953 Y-6.0412 Z4.8000
G2 X-6.0412 Y-0.7953 Z4.8000 I-0.7953 J6.0412
G2 X-0.7953 Y6.0412 Z4.8000 I6.0412 J0.7953
G2 X1.1387 Y-5.9845 Z4.8000 I0.7960 J-6.0404
G1 X0.8862 Y-4.4552 Z4.8000
G2 X-0.8862 Y4.4552 Z4.8000 I-0.8862 J4.4552
G2 X0.9356 Y-4.4437 Z4.8000 I0.8867 J-4.4544
G1 X0.8862 Y-4.4552 Z4.8000
G1 X1.1387 Y-5.9845 Z4.8000
G1 X0.7953 Y-6.0412 Z4.8000
G1 X0.9473 Y-7.5838 Z4.8000
G0 X0.9473 Y-7.5838 Z20.8000
G0 X0.9356 Y-4.4437 Z20.8000
G1 X0.9356 Y-4.4437 Z4.8000
G1 X0.5836 Y-2.9342 Z4.8000
G1 X0.6331 Y-2.9227 Z4.8000
G3 X-0.5836 Y2.9342 Z4.8000 I-0.6326 J2.9234
G3 X0.5836 Y-2.9342 Z4.8000 I0.5836 J-2.9342
G1 X0.9356 Y-4.4437 Z4.8000
G0 X0.9356 Y-4.4437 Z20.8000
G0 X0.6331 Y-2.9227 Z20.8000
G1 X0.6331 Y-2.9227 Z4.8000
G1 X0.2811 Y-1.4132 Z4.8000
G1 X0.6331 Y-2.9227 Z4.8000
G0 X0.6331 Y-2.9227 Z20.8000
G0 X0.3050 Y-1.4082 Z20.8000
G1 X0.3050 Y-1.4082 Z4.8000
G2 X0.2811 Y-1.4132 Z4.8000 I-0.3050 J1.4082
G2 X-0.2811 Y1.4132 Z4.8000 I-0.2811 J1.4132
G2 X0.3050 Y-1.4082 Z4.8000 I0.2811 J-1.4132
G1 X0.3050 Y-1.4082 Z4.3000
G2 X0.2811 Y-1.4132 Z4.3000 I-0.3050 J1.4082
G2 X-0.2811 Y1.4132 Z4.3000 I-0.2811 J1.4132
G2 X0.3050 Y-1.4082 Z4.3000 I0.2811 J-1.4132
G0 X0.3050 Y-1.4082 Z20.8000
G0 X0.2811 Y-1.4132 Z20.8000
G1 X0.2811 Y-1.4132 Z4.3000
G1 X0.6331 Y-2.9227 Z4.3000
G1 X0.2811 Y-1.4132 Z4.3000
G0 X0.2811 Y-1.4132 Z20.8000
G0 X0.6331 Y-2.9227 Z20.8000
G1 X0.6331 Y-2.9227 Z4.3000
G3 X-0.5836 Y2.9342 Z4.3000 I-0.6326 J2.9234
G3 X0.5836 Y-2.9342 Z4.3000 I0.5836 J-2.9342
G1 X0.9356 Y-4.4437 Z4.3000
G1 X0.5836 Y-2.9342 Z4.3000
G1 X0.6331 Y-2.9227 Z4.3000
G0 X0.6331 Y-2.9227 Z20.8000
G0 X0.9610 Y-4.4383 Z20.8000
G1 X0.9610 Y-4.4383 Z4.3000
G2 X0.9356 Y-4.4437 Z4.3000 I-0.9604 J4.4391
G1 X0.8862 Y-4.4552 Z4.3000
G1 X1.1387 Y-5.9845 Z4.3000
G1 X0.7953 Y-6.0412 Z4.3000
G1 X0.9473 Y-7.5838 Z4.3000
G1 X0.7953 Y-6.0412 Z4.3000
G2 X-6.0412 Y-0.7953 Z4.3000 I-0.7953 J6.0412
G2 X-0.7953 Y6.0412 Z4.3000 I6.0412 J0.7953
G2 X1.1387 Y-5.9845 Z4.3000 I0.7960 J-6.0404
G1 X0.8862 Y-4.4552 Z4.3000
G2 X-0.8862 Y4.4552 Z4.3000 I-0.8862 J4.4552
G2 X0.9610 Y-4.4383 Z4.3000 I0.8867 J-4.4544
G0 X0.9610 Y-4.4383 Z20.8000
G0 X1.6168 Y-7.4698 Z20.8000
G1 X1.6168 Y-7.4698 Z4.3000
G2 X0.9473 Y-7.5838 Z4.3000 I-1.6162 J7.4706
G1 X0.4999 Y-7.6278 Z4.3000
G1 X0.5507 Y-9.1770 Z4.3000
G1 X-0.0000 Y-9.1950 Z4.3000
G1 X0.0507 Y-10.7442 Z4.3000
G1 X-0.0000 Y-10.7458 Z4.3000
G1 X0.0507 Y-12.2950 Z4.3000
G1 X-0.0000 Y-12.2967 Z4.3000
G2 X-12.2967 Y0.0000 Z4.3000 I-0.0000 J12.2967
G2 X-0.0000 Y12.2967 Z4.3000 I12.2967 J-0.0000
G2 X0.0507 Y-12.2950 Z4.3000 I0.0008 J-12.2959
G1 X-0.0000 Y-10.7458 Z4.3000
G2 X-10.7458 Y0.0000 Z4.3000 I-0.0000 J10.7458
G2 X-0.0000 Y10.7458 Z4.3000 I10.7458 J-0.0000
G2 X0.0507 Y-10.7442 Z4.3000 I0.0008 J-10.7451
G1 X-0.0000 Y-9.1950 Z4.3000
G2 X-0.6014 Y9.1753 Z4.3000 I-0.0000 J9.1950
G2 X9.1769 Y0.5768 Z4.3000 I0.6021 J-9.1745
G2 X0.5507 Y-9.1770 Z4.3000 I-9.1762 J-0.5760
G1 X0.4999 Y-7.6278 Z4.3000
G2 X-0.9978 Y7.5788 Z4.3000 I-0.4999 J7.6278
G2 X1.6168 Y-7.4698 Z4.3000 I0.9984 J-7.5780
G0 X1.6168 Y-7.4698 Z20.8000
G0 X-0.0000 Y-12.2967 Z20.8000
G1 X-0.0000 Y-12.2967 Z4.3000
G1 X0.0507 Y-13.8458 Z4.3000
G1 X-0.0000 Y-12.2967 Z4.3000
G0 X-0.0000 Y-12.2967 Z20.8000
G0 X0.0507 Y-13.8458 Z20.8000
G1 X0.0507 Y-13.8458 Z4.3000
G1 X-0.0000 Y-13.8475 Z4.3000
G1 X0.0507 Y-15.3967 Z4.3000
G3 X0.0000 Y15.3983 Z4.3000 I-0.0499 J15.3975
G3 X-15.3983 Y0.0000 Z4.3000 I-0.0000 J-15.3983
G3 X-0.0000 Y-15.3983 Z4.3000 I15.3983 J-0.0000
G1 X-0.0507 Y-16.9475 Z4.3000
G2 X-0.0000 Y16.9492 Z4.3000 I0.0499 J16.9483
G2 X16.9492 Y-0.0246 Z4.3000 I0.0008 J-16.9484
G2 X-0.0507 Y-16.9475 Z4.3000 I-16.9484 J0.0254
G1 X-0.0000 Y-15.3983 Z4.3000
G1 X0.0507 Y-15.3967 Z4.3000
G1 X-0.0000 Y-13.8475 Z4.3000
G2 X-13.8475 Y0.0000 Z4.3000 I-0.0000 J13.8475
G2 X-0.0000 Y13.8475 Z4.3000 I13.8475 J-0.0000
G2 X0.0507 Y-13.8458 Z4.3000 I0.0008 J-13.8467
G1 X0.0507 Y-13.8458 Z3.8000
G1 X-0.0000 Y-12.2967 Z3.8000
G1 X0.0507 Y-13.8458 Z3.8000
G1 X0.0507 Y-13.8458 Z3.8000
G1 X-0.0000 Y-13.8475 Z3.8000
G1 X0.0507 Y-15.3967 Z3.8000
G3 X0.0000 Y15.3983 Z3.8000 I-0.0499 J15.3975
G3 X-15.3983 Y0.0000 Z3.8000 I-0.0000 J-15.3983
G3 X-0.0000 Y-15.3983 Z3.8000 I15.3983 J-0.0000
G1 X-0.0507 Y-16.9475 Z3.8000
G2 X-0.0000 Y16.9492 Z3.8000 I0.0499 J16.9483
G2 X16.9492 Y-0.0246 Z3.8000 I0.0008 J-16.9484
G2 X-0.0507 Y-16.9475 Z3.8000 I-16.9484 J0.0254
G1 X-0.0000 Y-15.3983 Z3.8000
G1 X0.0507 Y-15.3967 Z3.8000
G1 X-0.0000 Y-13.8475 Z3.8000
G2 X-13.8475 Y0.0000 Z3.8000 I-0.0000 J13.8475
G2 X-0.0000 Y13.8475 Z3.8000 I13.8475 J-0.0000
G2 X0.0507 Y-13.8458 Z3.8000 I0.0008 J-13.8467
G0 X0.0507 Y-13.8458 Z20.8000
G0 X-0.0000 Y-12.2967 Z20.8000
G1 X-0.0000 Y-12.2967 Z3.8000
G2 X-12.2967 Y0.0000 Z3.8000 I-0.0000 J12.2967
G2 X-0.0000 Y12.2967 Z3.8000 I12.2967 J-0.0000
G2 X0.0507 Y-12.2950 Z3.8000 I0.0008 J-12.2959
G1 X-0.0000 Y-10.7458 Z3.8000
G2 X-10.7458 Y0.0000 Z3.8000 I-0.0000 J10.7458
G2 X-0.0000 Y10.7458 Z3.8000 I10.7458 J-0.0000
G2 X0.0507 Y-10.7442 Z3.8000 I0.0008 J-10.7451
G1 X-0.0000 Y-9.1950 Z3.8000
G2 X-0.6014 Y9.1753 Z3.8000 I-0.0000 J9.1950
G2 X9.1769 Y0.5768 Z3.8000 I0.6021 J-9.1745
G2 X0.5507 Y-9.1770 Z3.8000 I-9.1762 J-0.5760
G1 X0.4999 Y-7.6278 Z3.8000
G2 X-0.9978 Y7.5788 Z3.8000 I-0.4999 J7.6278
G2 X7.5820 Y0.9734 Z3.8000 I0.9984 J-7.5780
G2 X0.9473 Y-7.5838 Z3.8000 I-7.5813 J-0.9725
G1 X0.4999 Y-7.6278 Z3.8000
G1 X0.5507 Y-9.1770 Z3.8000
G1 X-0.0000 Y-9.1950 Z3.8000
G1 X0.0507 Y-10.7442 Z3.8000
G1 X-0.0000 Y-10.7458 Z3.8000
G1 X0.0507 Y-12.2950 Z3.8000
G1 X-0.0000 Y-12.2967 Z3.8000
G0 X-0.0000 Y-12.2967 Z20.8000
G0 X0.9473 Y-7.5838 Z20.8000
G1 X0.9473 Y-7.5838 Z3.8000
G1 X0.7953 Y-6.0412 Z3.8000
G2 X-6.0412 Y-0.7953 Z3.8000 I-0.7953 J6.0412
G2 X-0.7953 Y6.0412 Z3.8000 I6.0412 J0.7953
G2 X1.1387 Y-5.9845 Z3.8000 I0.7960 J-6.0404
G1 X0.8862 Y-4.4552 Z3.8000
G2 X-0.8862 Y4.4552 Z3.8000 I-0.8862 J4.4552
G2 X0.9356 Y-4.4437 Z3.8000 I0.8867 J-4.4544
G1 X0.8862 Y-4.4552 Z3.8000
G1 X1.1387 Y-5.9845 Z3.8000
G1 X0.7953 Y-6.0412 Z3.8000
G1 X0.9473 Y-7.5838 Z3.8000
G0 X0.9473 Y-7.5838 Z20.8000
G0 X0.9356 Y-4.4437 Z20.8000
G1 X0.9356 Y-4.4437 Z3.8000
G1 X0.5836 Y-2.9342 Z3.8000
G1 X0.6331 Y-2.9227 Z3.8000
G3 X-0.5836 Y2.9342 Z3.8000 I-0.6326 J2.9234
G3 X0.5836 Y-2.9342 Z3.8000 I0.5836 J-2.9342
G1 X0.9356 Y-4.4437 Z3.8000
G0 X0.9356 Y-4.4437 Z20.8000
G0 X0.6331 Y-2.9227 Z20.8000
G1 X0.6331 Y-2.9227 Z3.8000
G1 X0.2811 Y-1.4132 Z3.8000
G1 X0.6331 Y-2.9227 Z3.8000
G0 X0.6331 Y-2.9227 Z20.8000
G0 X0.3050 Y-1.4082 Z20.8000
G1 X0.3050 Y-1.4082 Z3.8000
G2 X0.2811 Y-1.4132 Z3.8000 I-0.3050 J1.4082
G2 X-0.2811 Y1.4132 Z3.8000 I-0.2811 J1.4132
G2 X0.3050 Y-1.4082 Z3.8000 I0.2811 J-1.4132
G1 X0.3050 Y-1.4082 Z3.3000
G2 X0.2811 Y-1.4132 Z3.3000 I-0.3050 J1.4082
G2 X-0.2811 Y1.4132 Z3.3000 I-0.2811 J1.4132
G2 X0.3050 Y-1.4082 Z3.3000 I0.2811 J-1.4132
G0 X0.3050 Y-1.4082 Z20.8000
G0 X0.2811 Y-1.4132 Z20.8000
G1 X0.2811 Y-1.4132 Z3.3000
G1 X0.6331 Y-2.9227 Z3.3000
G1 X0.2811 Y-1.4132 Z3.3000
G0 X0.2811 Y-1.4132 Z20.8000
G0 X0.6331 Y-2.9227 Z20.8000
G1 X0.6331 Y-2.9227 Z3.3000
G3 X-0.5836 Y2.9342 Z3.3000 I-0.6326 J2.9234
G3 X0.5836 Y-2.9342 Z3.3000 I0.5836 J-2.9342
G1 X0.9356 Y-4.4437 Z3.3000
G1 X0.5836 Y-2.9342 Z3.3000
G1 X0.6331 Y-2.9227 Z3.3000
G0 X0.6331 Y-2.9227 Z20.8000
G0 X0.9610 Y-4.4383 Z20.8000
G1 X0.9610 Y-4.4383 Z3.3000
G2 X0.9356 Y-4.4437 Z3.3000 I-0.9604 J4.4391
G1 X0.8862 Y-4.4552 Z3.3000
G1 X1.1387 Y-5.9845 Z3.3000
G1 X0.7953 Y-6.0412 Z3.3000
G1 X0.9473 Y-7.5838 Z3.3000
G1 X0.7953 Y-6.0412 Z3.3000
G2 X-6.0412 Y-0.7953 Z3.3000 I-0.7953 J6.0412
G2 X-0.7953 Y6.0412 Z3.3000 I6.0412 J0.7953
G2 X1.1387 Y-5.9845 Z3.3000 I0.7960 J-6.0404
G1 X0.8862 Y-4.4552 Z3.3000
G2 X-0.8862 Y4.4552 Z3.3000 I-0.8862 J4.4552
G2 X0.9610 Y-4.4383 Z3.3000 I0.8867 J-4.4544
G0 X0.9610 Y-4.4383 Z20.8000
G0 X1.6168 Y-7.4698 Z20.8000
G1 X1.6168 Y-7.4698 Z3.3000
G2 X0.9473 Y-7.5838 Z3.3000 I-1.6162 J7.4706
G1 X0.4999 Y-7.6278 Z3.3000
G1 X0.5507 Y-9.1770 Z3.3000
G1 X-0.0000 Y-9.1950 Z3.3000
G1 X0.0507 Y-10.7442 Z3.3000
G1 X-0.0000 Y-10.7458 Z3.3000
G1 X0.0507 Y-12.2950 Z3.3000
G1 X-0.0000 Y-12.2967 Z3.3000
G2 X-12.2967 Y0.0000 Z3.3000 I-0.0000 J12.2967
G2 X-0.0000 Y12.2967 Z3.3000 I12.2967 J-0.0000
G2 X0.0507 Y-12.2950 Z3.3000 I0.0008 J-12.2959
G1 X-0.0000 Y-10.7458 Z3.3000
G2 X-10.7458 Y0.0000 Z3.3000 I-0.0000 J10.7458
G2 X-0.0000 Y10.7458 Z3.3000 I10.7458 J-0.0000
G2 X0.0507 Y-10.7442 Z3.3000 I0.0008 J-10.7451
G1 X-0.0000 Y-9.1950 Z3.3000
G2 X-0.6014 Y9.1753 Z3.3000 I-0.0000 J9.1950
G2 X9.1769 Y0.5768 Z3.3000 I0.6021 J-9.1745
G2 X0.5507 Y-9.1770 Z3.3000 I-9.1762 J-0.5760
G1 X0.4999 Y-7.6278 Z3.3000
G2 X-0.9978 Y7.5788 Z3.3000 I-0.4999 J7.6278
G2 X1.6168 Y-7.4698 Z3.3000 I0.9984 J-7.5780
G0 X1.6168 Y-7.4698 Z20.8000
G0 X-0.0000 Y-12.2967 Z20.8000
G1 X-0.0000 Y-12.2967 Z3.3000
G1 X0.0507 Y-13.8458 Z3.3000
G1 X-0.0000 Y-12.2967 Z3.3000
G0 X-0.0000 Y-12.2967 Z20.8000
G0 X0.0507 Y-13.8458 Z20.8000
G1 X0.0507 Y-13.8458 Z3.3000
G1 X-0.0000 Y-13.8475 Z3.3000
G1 X0.0507 Y-15.3967 Z3.3000
G3 X0.0000 Y15.3983 Z3.3000 I-0.0499 J15.3975
G3 X-15.3983 Y0.0000 Z3.3000 I-0.0000 J-15.3983
G3 X-0.0000 Y-15.3983 Z3.3000 I15.3983 J-0.0000
G1 X-0.0507 Y-16.9475 Z3.3000
G2 X-0.0000 Y16.9492 Z3.3000 I0.0499 J16.9483
G2 X16.9492 Y-0.0246 Z3.3000 I0.0008 J-16.9484
G2 X-0.0507 Y-16.9475 Z3.3000 I-16.9484 J0.0254
G1 X-0.0000 Y-15.3983 Z3.3000
G1 X0.0507 Y-15.3967 Z3.3000
G1 X-0.0000 Y-13.8475 Z3.3000
G2 X-13.8475 Y0.0000 Z3.3000 I-0.0000 J13.8475
G2 X-0.0000 Y13.8475 Z3.3000 I13.8475 J-0.0000
G2 X0.0507 Y-13.8458 Z3.3000 I0.0008 J-13.8467
G1 X0.0507 Y-13.8458 Z3.0000
G1 X-0.0000 Y-13.8475 Z3.0000
G1 X0.0507 Y-15.3967 Z3.0000
G3 X0.0000 Y15.3983 Z3.0000 I-0.0499 J15.3975
G3 X-15.3983 Y0.0000 Z3.0000 I-0.0000 J-15.3983
G3 X-0.0000 Y-15.3983 Z3.0000 I15.3983 J-0.0000
G1 X-0.0507 Y-16.9475 Z3.0000
G2 X-0.0000 Y16.9492 Z3.0000 I0.0499 J16.9483
G2 X16.9492 Y-0.0246 Z3.0000 I0.0008 J-16.9484
G2 X-0.0507 Y-16.9475 Z3.0000 I-16.9484 J0.0254
G1 X-0.0000 Y-15.3983 Z3.0000
G1 X0.0507 Y-15.3967 Z3.0000
G1 X-0.0000 Y-13.8475 Z3.0000
G2 X-13.8475 Y0.0000 Z3.0000 I-0.0000 J13.8475
G2 X-0.0000 Y13.8475 Z3.0000 I13.8475 J-0.0000
G2 X0.0507 Y-13.8458 Z3.0000 I0.0008 J-13.8467
G1 X0.0507 Y-13.8458 Z3.0000
G1 X-0.0000 Y-12.2967 Z3.0000
G1 X0.0507 Y-13.8458 Z3.0000
G0 X0.0507 Y-13.8458 Z20.8000
G0 X-0.0000 Y-12.2967 Z20.8000
G1 X-0.0000 Y-12.2967 Z3.0000
G2 X-12.2967 Y0.0000 Z3.0000 I-0.0000 J12.2967
G2 X-0.0000 Y12.2967 Z3.0000 I12.2967 J-0.0000
G2 X0.0507 Y-12.2950 Z3.0000 I0.0008 J-12.2959
G1 X-0.0000 Y-10.7458 Z3.0000
G2 X-10.7458 Y0.0000 Z3.0000 I-0.0000 J10.7458
G2 X-0.0000 Y10.7458 Z3.0000 I10.7458 J-0.0000
G2 X0.0507 Y-10.7442 Z3.0000 I0.0008 J-10.7451
G1 X-0.0000 Y-9.1950 Z3.0000
G2 X-0.6014 Y9.1753 Z3.0000 I-0.0000 J9.1950
G2 X9.1769 Y0.5768 Z3.0000 I0.6021 J-9.1745
G2 X0.5507 Y-9.1770 Z3.0000 I-9.1762 J-0.5760
G1 X0.4999 Y-7.6278 Z3.0000
G2 X-0.9978 Y7.5788 Z3.0000 I-0.4999 J7.6278
G2 X7.5820 Y0.9734 Z3.0000 I0.9984 J-7.5780
G2 X0.9473 Y-7.5838 Z3.0000 I-7.5813 J-0.9725
G1 X0.4999 Y-7.6278 Z3.0000
G1 X0.5507 Y-9.1770 Z3.0000
G1 X-0.0000 Y-9.1950 Z3.0000
G1 X0.0507 Y-10.7442 Z3.0000
G1 X-0.0000 Y-10.7458 Z3.0000
G1 X0.0507 Y-12.2950 Z3.0000
G1 X-0.0000 Y-12.2967 Z3.0000
G0 X-0.0000 Y-12.2967 Z20.8000
G0 X0.9473 Y-7.5838 Z20.8000
G1 X0.9473 Y-7.5838 Z3.0000
G1 X0.7953 Y-6.0412 Z3.0000
G2 X-6.0412 Y-0.7953 Z3.0000 I-0.7953 J6.0412
G2 X-0.7953 Y6.0412 Z3.0000 I6.0412 J0.7953
G2 X1.1387 Y-5.9845 Z3.0000 I0.7960 J-6.0404
G1 X0.8862 Y-4.4552 Z3.0000
G2 X-0.8862 Y4.4552 Z3.0000 I-0.8862 J4.4552
G2 X0.9356 Y-4.4437 Z3.0000 I0.8867 J-4.4544
G1 X0.8862 Y-4.4552 Z3.0000
G1 X1.1387 Y-5.9845 Z3.0000
G1 X0.7953 Y-6.0412 Z3.0000
G1 X0.9473 Y-7.5838 Z3.0000
G0 X0.9473 Y-7.5838 Z20.8000
G0 X0.9356 Y-4.4437 Z20.8000
G1 X0.9356 Y-4.4437 Z3.0000
G1 X0.5836 Y-2.9342 Z3.0000
G1 X0.6331 Y-2.9227 Z3.0000
G3 X-0.5836 Y2.9342 Z3.0000 I-0.6326 J2.9234
G3 X0.5836 Y-2.9342 Z3.0000 I0.5836 J-2.9342
G1 X0.9356 Y-4.4437 Z3.0000
G0 X0.9356 Y-4.4437 Z20.8000
G0 X0.6331 Y-2.9227 Z20.8000
G1 X0.6331 Y-2.9227 Z3.0000
G1 X0.2811 Y-1.4132 Z3.0000
G1 X0.6331 Y-2.9227 Z3.0000
G0 X0.6331 Y-2.9227 Z20.8000
G0 X0.3050 Y-1.4082 Z20.8000
G1 X0.3050 Y-1.4082 Z3.0000
G2 X0.2811 Y-1.4132 Z3.0000 I-0.3050 J1.4082
G2 X-0.2811 Y1.4132 Z3.0000 I-0.2811 J1.4132
G2 X0.3050 Y-1.4082 Z3.0000 I0.2811 J-1.4132
G0 Z20.8000
(finish operation: MillColFace)
(begin operation: Pocket_Shape_BigHole)
(Path: Pocket_Shape_BigHole)
(Pocket_Shape_BigHole)
G0 Z20.8000
G0 X10.7830 Y10.7830
G0 Z18.8000
G1 X10.7830 Y10.7830 Z15.3000
G2 X-0.9877 Y-15.2154 Z15.3000 I-10.7821 J-10.7822
G1 X-0.9348 Y-13.6663 Z15.3000
G3 X0.9348 Y13.6663 Z15.3000 I0.9348 J13.6663
G3 X-0.9348 Y-13.6663 Z15.3000 I-0.9348 J-13.6663
G1 X-0.9877 Y-15.2154 Z15.3000
G2 X-15.2153 Y1.0151 Z15.3000 I0.9869 J15.2163
G2 X1.0406 Y15.2135 Z15.3000 I15.2145 J-1.0142
G2 X10.7830 Y10.7830 Z15.3000 I-1.0397 J-15.2127
G0 X10.7830 Y10.7830 Z20.8000
G0 X9.6861 Y9.6861 Z20.8000
G1 X9.6861 Y9.6861 Z15.3000
G2 X-0.9348 Y-13.6663 Z15.3000 I-9.6861 J-9.6861
G2 X0.9348 Y13.6663 Z15.3000 I0.9348 J13.6663
G2 X9.6861 Y9.6861 Z15.3000 I-0.9348 J-13.6663
G1 X9.6861 Y9.6861 Z14.8000
G2 X-0.9348 Y-13.6663 Z14.8000 I-9.6861 J-9.6861
G2 X0.9348 Y13.6663 Z14.8000 I0.9348 J13.6663
G2 X9.6861 Y9.6861 Z14.8000 I-0.9348 J-13.6663
G1 X9.6861 Y9.6861 Z14.8000
G3 X0.9348 Y13.6663 Z14.8000 I-9.6861 J-9.6861
G3 X-0.9348 Y-13.6663 Z14.8000 I-0.9348 J-13.6663
G1 X-0.9877 Y-15.2154 Z14.8000
G2 X-15.2153 Y1.0151 Z14.8000 I0.9869 J15.2163
G2 X1.0406 Y15.2135 Z14.8000 I15.2145 J-1.0142
G2 X-0.9877 Y-15.2154 Z14.8000 I-1.0397 J-15.2127
G1 X-0.9348 Y-13.6663 Z14.8000
G3 X9.6861 Y9.6861 Z14.8000 I0.9348 J13.6663
G1 X9.6861 Y9.6861 Z14.3000
G2 X-0.9348 Y-13.6663 Z14.3000 I-9.6861 J-9.6861
G2 X0.9348 Y13.6663 Z14.3000 I0.9348 J13.6663
G2 X9.6861 Y9.6861 Z14.3000 I-0.9348 J-13.6663
G1 X9.6861 Y9.6861 Z14.3000
G3 X0.9348 Y13.6663 Z14.3000 I-9.6861 J-9.6861
G3 X-0.9348 Y-13.6663 Z14.3000 I-0.9348 J-13.6663
G1 X-0.9877 Y-15.2154 Z14.3000
G2 X-15.2153 Y1.0151 Z14.3000 I0.9869 J15.2163
G2 X1.0406 Y15.2135 Z14.3000 I15.2145 J-1.0142
G2 X-0.9877 Y-15.2154 Z14.3000 I-1.0397 J-15.2127
G1 X-0.9348 Y-13.6663 Z14.3000
G3 X9.6861 Y9.6861 Z14.3000 I0.9348 J13.6663
G1 X9.6861 Y9.6861 Z13.8000
G2 X-0.9348 Y-13.6663 Z13.8000 I-9.6861 J-9.6861
G2 X0.9348 Y13.6663 Z13.8000 I0.9348 J13.6663
G2 X9.6861 Y9.6861 Z13.8000 I-0.9348 J-13.6663
G1 X9.6861 Y9.6861 Z13.8000
G3 X0.9348 Y13.6663 Z13.8000 I-9.6861 J-9.6861
G3 X-0.9348 Y-13.6663 Z13.8000 I-0.9348 J-13.6663
G1 X-0.9877 Y-15.2154 Z13.8000
G2 X-15.2153 Y1.0151 Z13.8000 I0.9869 J15.2163
G2 X1.0406 Y15.2135 Z13.8000 I15.2145 J-1.0142
G2 X-0.9877 Y-15.2154 Z13.8000 I-1.0397 J-15.2127
G1 X-0.9348 Y-13.6663 Z13.8000
G3 X9.6861 Y9.6861 Z13.8000 I0.9348 J13.6663
G1 X9.6861 Y9.6861 Z13.3000
G2 X-0.9348 Y-13.6663 Z13.3000 I-9.6861 J-9.6861
G2 X0.9348 Y13.6663 Z13.3000 I0.9348 J13.6663
G2 X9.6861 Y9.6861 Z13.3000 I-0.9348 J-13.6663
G1 X9.6861 Y9.6861 Z13.3000
G3 X0.9348 Y13.6663 Z13.3000 I-9.6861 J-9.6861
G3 X-0.9348 Y-13.6663 Z13.3000 I-0.9348 J-13.6663
G1 X-0.9877 Y-15.2154 Z13.3000
G2 X-15.2153 Y1.0151 Z13.3000 I0.9869 J15.2163
G2 X1.0406 Y15.2135 Z13.3000 I15.2145 J-1.0142
G2 X-0.9877 Y-15.2154 Z13.3000 I-1.0397 J-15.2127
G1 X-0.9348 Y-13.6663 Z13.3000
G3 X9.6861 Y9.6861 Z13.3000 I0.9348 J13.6663
G1 X9.6861 Y9.6861 Z12.8000
G3 X0.9348 Y13.6663 Z12.8000 I-9.6861 J-9.6861
G3 X-0.9348 Y-13.6663 Z12.8000 I-0.9348 J-13.6663
G1 X-0.9877 Y-15.2154 Z12.8000
G2 X-15.2153 Y1.0151 Z12.8000 I0.9869 J15.2163
G2 X1.0406 Y15.2135 Z12.8000 I15.2145 J-1.0142
G2 X-0.9877 Y-15.2154 Z12.8000 I-1.0397 J-15.2127
G1 X-0.9348 Y-13.6663 Z12.8000
G3 X9.6861 Y9.6861 Z12.8000 I0.9348 J13.6663
G1 X9.6861 Y9.6861 Z12.8000
G2 X-0.9348 Y-13.6663 Z12.8000 I-9.6861 J-9.6861
G2 X0.9348 Y13.6663 Z12.8000 I0.9348 J13.6663
G2 X9.6861 Y9.6861 Z12.8000 I-0.9348 J-13.6663
G1 X9.6861 Y9.6861 Z12.3000
G2 X-0.9348 Y-13.6663 Z12.3000 I-9.6861 J-9.6861
G2 X0.9348 Y13.6663 Z12.3000 I0.9348 J13.6663
G2 X9.6861 Y9.6861 Z12.3000 I-0.9348 J-13.6663
G1 X9.6861 Y9.6861 Z12.3000
G3 X0.9348 Y13.6663 Z12.3000 I-9.6861 J-9.6861
G3 X-0.9348 Y-13.6663 Z12.3000 I-0.9348 J-13.6663
G1 X-0.9877 Y-15.2154 Z12.3000
G2 X-15.2153 Y1.0151 Z12.3000 I0.9869 J15.2163
G2 X1.0406 Y15.2135 Z12.3000 I15.2145 J-1.0142
G2 X-0.9877 Y-15.2154 Z12.3000 I-1.0397 J-15.2127
G1 X-0.9348 Y-13.6663 Z12.3000
G3 X9.6861 Y9.6861 Z12.3000 I0.9348 J13.6663
G1 X9.6861 Y9.6861 Z11.8000
G2 X-0.9348 Y-13.6663 Z11.8000 I-9.6861 J-9.6861
G2 X0.9348 Y13.6663 Z11.8000 I0.9348 J13.6663
G2 X9.6861 Y9.6861 Z11.8000 I-0.9348 J-13.6663
G1 X9.6861 Y9.6861 Z11.8000
G3 X0.9348 Y13.6663 Z11.8000 I-9.6861 J-9.6861
G3 X-0.9348 Y-13.6663 Z11.8000 I-0.9348 J-13.6663
G1 X-0.9877 Y-15.2154 Z11.8000
G2 X-15.2153 Y1.0151 Z11.8000 I0.9869 J15.2163
G2 X1.0406 Y15.2135 Z11.8000 I15.2145 J-1.0142
G2 X-0.9877 Y-15.2154 Z11.8000 I-1.0397 J-15.2127
G1 X-0.9348 Y-13.6663 Z11.8000
G3 X9.6861 Y9.6861 Z11.8000 I0.9348 J13.6663
G1 X9.6861 Y9.6861 Z11.3000
G3 X0.9348 Y13.6663 Z11.3000 I-9.6861 J-9.6861
G3 X-0.9348 Y-13.6663 Z11.3000 I-0.9348 J-13.6663
G1 X-0.9877 Y-15.2154 Z11.3000
G2 X-15.2153 Y1.0151 Z11.3000 I0.9869 J15.2163
G2 X1.0406 Y15.2135 Z11.3000 I15.2145 J-1.0142
G2 X-0.9877 Y-15.2154 Z11.3000 I-1.0397 J-15.2127
G1 X-0.9348 Y-13.6663 Z11.3000
G3 X9.6861 Y9.6861 Z11.3000 I0.9348 J13.6663
G1 X9.6861 Y9.6861 Z11.3000
G2 X-0.9348 Y-13.6663 Z11.3000 I-9.6861 J-9.6861
G2 X0.9348 Y13.6663 Z11.3000 I0.9348 J13.6663
G2 X9.6861 Y9.6861 Z11.3000 I-0.9348 J-13.6663
G1 X9.6861 Y9.6861 Z10.8000
G2 X-0.9348 Y-13.6663 Z10.8000 I-9.6861 J-9.6861
G2 X0.9348 Y13.6663 Z10.8000 I0.9348 J13.6663
G2 X9.6861 Y9.6861 Z10.8000 I-0.9348 J-13.6663
G1 X9.6861 Y9.6861 Z10.8000
G3 X0.9348 Y13.6663 Z10.8000 I-9.6861 J-9.6861
G3 X-0.9348 Y-13.6663 Z10.8000 I-0.9348 J-13.6663
G1 X-0.9877 Y-15.2154 Z10.8000
G2 X-15.2153 Y1.0151 Z10.8000 I0.9869 J15.2163
G2 X1.0406 Y15.2135 Z10.8000 I15.2145 J-1.0142
G2 X-0.9877 Y-15.2154 Z10.8000 I-1.0397 J-15.2127
G1 X-0.9348 Y-13.6663 Z10.8000
G3 X9.6861 Y9.6861 Z10.8000 I0.9348 J13.6663
G1 X9.6861 Y9.6861 Z10.3000
G3 X0.9348 Y13.6663 Z10.3000 I-9.6861 J-9.6861
G3 X-0.9348 Y-13.6663 Z10.3000 I-0.9348 J-13.6663
G1 X-0.9877 Y-15.2154 Z10.3000
G2 X-15.2153 Y1.0151 Z10.3000 I0.9869 J15.2163
G2 X1.0406 Y15.2135 Z10.3000 I15.2145 J-1.0142
G2 X-0.9877 Y-15.2154 Z10.3000 I-1.0397 J-15.2127
G1 X-0.9348 Y-13.6663 Z10.3000
G3 X9.6861 Y9.6861 Z10.3000 I0.9348 J13.6663
G1 X9.6861 Y9.6861 Z10.3000
G2 X-0.9348 Y-13.6663 Z10.3000 I-9.6861 J-9.6861
G2 X0.9348 Y13.6663 Z10.3000 I0.9348 J13.6663
G2 X9.6861 Y9.6861 Z10.3000 I-0.9348 J-13.6663
G1 X9.6861 Y9.6861 Z9.8000
G3 X0.9348 Y13.6663 Z9.8000 I-9.6861 J-9.6861
G3 X-0.9348 Y-13.6663 Z9.8000 I-0.9348 J-13.6663
G1 X-0.9877 Y-15.2154 Z9.8000
G2 X-15.2153 Y1.0151 Z9.8000 I0.9869 J15.2163
G2 X1.0406 Y15.2135 Z9.8000 I15.2145 J-1.0142
G2 X-0.9877 Y-15.2154 Z9.8000 I-1.0397 J-15.2127
G1 X-0.9348 Y-13.6663 Z9.8000
G3 X9.6861 Y9.6861 Z9.8000 I0.9348 J13.6663
G1 X9.6861 Y9.6861 Z9.8000
G2 X-0.9348 Y-13.6663 Z9.8000 I-9.6861 J-9.6861
G2 X0.9348 Y13.6663 Z9.8000 I0.9348 J13.6663
G2 X9.6861 Y9.6861 Z9.8000 I-0.9348 J-13.6663
G1 X9.6861 Y9.6861 Z9.3000
G3 X0.9348 Y13.6663 Z9.3000 I-9.6861 J-9.6861
G3 X-0.9348 Y-13.6663 Z9.3000 I-0.9348 J-13.6663
G1 X-0.9877 Y-15.2154 Z9.3000
G2 X-15.2153 Y1.0151 Z9.3000 I0.9869 J15.2163
G2 X1.0406 Y15.2135 Z9.3000 I15.2145 J-1.0142
G2 X-0.9877 Y-15.2154 Z9.3000 I-1.0397 J-15.2127
G1 X-0.9348 Y-13.6663 Z9.3000
G3 X9.6861 Y9.6861 Z9.3000 I0.9348 J13.6663
G1 X9.6861 Y9.6861 Z9.3000
G2 X-0.9348 Y-13.6663 Z9.3000 I-9.6861 J-9.6861
G2 X0.9348 Y13.6663 Z9.3000 I0.9348 J13.6663
G2 X9.6861 Y9.6861 Z9.3000 I-0.9348 J-13.6663
G1 X9.6861 Y9.6861 Z8.8000
G2 X-0.9348 Y-13.6663 Z8.8000 I-9.6861 J-9.6861
G2 X0.9348 Y13.6663 Z8.8000 I0.9348 J13.6663
G2 X9.6861 Y9.6861 Z8.8000 I-0.9348 J-13.6663
G1 X9.6861 Y9.6861 Z8.8000
G3 X0.9348 Y13.6663 Z8.8000 I-9.6861 J-9.6861
G3 X-0.9348 Y-13.6663 Z8.8000 I-0.9348 J-13.6663
G1 X-0.9877 Y-15.2154 Z8.8000
G2 X-15.2153 Y1.0151 Z8.8000 I0.9869 J15.2163
G2 X1.0406 Y15.2135 Z8.8000 I15.2145 J-1.0142
G2 X-0.9877 Y-15.2154 Z8.8000 I-1.0397 J-15.2127
G1 X-0.9348 Y-13.6663 Z8.8000
G3 X9.6861 Y9.6861 Z8.8000 I0.9348 J13.6663
G1 X9.6861 Y9.6861 Z8.3000
G3 X0.9348 Y13.6663 Z8.3000 I-9.6861 J-9.6861
G3 X-0.9348 Y-13.6663 Z8.3000 I-0.9348 J-13.6663
G1 X-0.9877 Y-15.2154 Z8.3000
G2 X-15.2153 Y1.0151 Z8.3000 I0.9869 J15.2163
G2 X1.0406 Y15.2135 Z8.3000 I15.2145 J-1.0142
G2 X-0.9877 Y-15.2154 Z8.3000 I-1.0397 J-15.2127
G1 X-0.9348 Y-13.6663 Z8.3000
G3 X9.6861 Y9.6861 Z8.3000 I0.9348 J13.6663
G1 X9.6861 Y9.6861 Z8.3000
G2 X-0.9348 Y-13.6663 Z8.3000 I-9.6861 J-9.6861
G2 X0.9348 Y13.6663 Z8.3000 I0.9348 J13.6663
G2 X9.6861 Y9.6861 Z8.3000 I-0.9348 J-13.6663
G1 X9.6861 Y9.6861 Z7.8000
G2 X-0.9348 Y-13.6663 Z7.8000 I-9.6861 J-9.6861
G2 X0.9348 Y13.6663 Z7.8000 I0.9348 J13.6663
G2 X9.6861 Y9.6861 Z7.8000 I-0.9348 J-13.6663
G1 X9.6861 Y9.6861 Z7.8000
G3 X0.9348 Y13.6663 Z7.8000 I-9.6861 J-9.6861
G3 X-0.9348 Y-13.6663 Z7.8000 I-0.9348 J-13.6663
G1 X-0.9877 Y-15.2154 Z7.8000
G2 X-15.2153 Y1.0151 Z7.8000 I0.9869 J15.2163
G2 X1.0406 Y15.2135 Z7.8000 I15.2145 J-1.0142
G2 X-0.9877 Y-15.2154 Z7.8000 I-1.0397 J-15.2127
G1 X-0.9348 Y-13.6663 Z7.8000
G3 X9.6861 Y9.6861 Z7.8000 I0.9348 J13.6663
G1 X9.6861 Y9.6861 Z7.3000
G2 X-0.9348 Y-13.6663 Z7.3000 I-9.6861 J-9.6861
G2 X0.9348 Y13.6663 Z7.3000 I0.9348 J13.6663
G2 X9.6861 Y9.6861 Z7.3000 I-0.9348 J-13.6663
G1 X9.6861 Y9.6861 Z7.3000
G3 X0.9348 Y13.6663 Z7.3000 I-9.6861 J-9.6861
G3 X-0.9348 Y-13.6663 Z7.3000 I-0.9348 J-13.6663
G1 X-0.9877 Y-15.2154 Z7.3000
G2 X-15.2153 Y1.0151 Z7.3000 I0.9869 J15.2163
G2 X1.0406 Y15.2135 Z7.3000 I15.2145 J-1.0142
G2 X-0.9877 Y-15.2154 Z7.3000 I-1.0397 J-15.2127
G1 X-0.9348 Y-13.6663 Z7.3000
G3 X9.6861 Y9.6861 Z7.3000 I0.9348 J13.6663
G1 X9.6861 Y9.6861 Z6.8000
G2 X-0.9348 Y-13.6663 Z6.8000 I-9.6861 J-9.6861
G2 X0.9348 Y13.6663 Z6.8000 I0.9348 J13.6663
G2 X9.6861 Y9.6861 Z6.8000 I-0.9348 J-13.6663
G1 X9.6861 Y9.6861 Z6.8000
G3 X0.9348 Y13.6663 Z6.8000 I-9.6861 J-9.6861
G3 X-0.9348 Y-13.6663 Z6.8000 I-0.9348 J-13.6663
G1 X-0.9877 Y-15.2154 Z6.8000
G2 X-15.2153 Y1.0151 Z6.8000 I0.9869 J15.2163
G2 X1.0406 Y15.2135 Z6.8000 I15.2145 J-1.0142
G2 X-0.9877 Y-15.2154 Z6.8000 I-1.0397 J-15.2127
G1 X-0.9348 Y-13.6663 Z6.8000
G3 X9.6861 Y9.6861 Z6.8000 I0.9348 J13.6663
G1 X9.6861 Y9.6861 Z6.3000
G3 X0.9348 Y13.6663 Z6.3000 I-9.6861 J-9.6861
G3 X-0.9348 Y-13.6663 Z6.3000 I-0.9348 J-13.6663
G1 X-0.9877 Y-15.2154 Z6.3000
G2 X-15.2153 Y1.0151 Z6.3000 I0.9869 J15.2163
G2 X1.0406 Y15.2135 Z6.3000 I15.2145 J-1.0142
G2 X-0.9877 Y-15.2154 Z6.3000 I-1.0397 J-15.2127
G1 X-0.9348 Y-13.6663 Z6.3000
G3 X9.6861 Y9.6861 Z6.3000 I0.9348 J13.6663
G1 X9.6861 Y9.6861 Z6.3000
G2 X-0.9348 Y-13.6663 Z6.3000 I-9.6861 J-9.6861
G2 X0.9348 Y13.6663 Z6.3000 I0.9348 J13.6663
G2 X9.6861 Y9.6861 Z6.3000 I-0.9348 J-13.6663
G1 X9.6861 Y9.6861 Z5.8000
G3 X0.9348 Y13.6663 Z5.8000 I-9.6861 J-9.6861
G3 X-0.9348 Y-13.6663 Z5.8000 I-0.9348 J-13.6663
G1 X-0.9877 Y-15.2154 Z5.8000
G2 X-15.2153 Y1.0151 Z5.8000 I0.9869 J15.2163
G2 X1.0406 Y15.2135 Z5.8000 I15.2145 J-1.0142
G2 X-0.9877 Y-15.2154 Z5.8000 I-1.0397 J-15.2127
G1 X-0.9348 Y-13.6663 Z5.8000
G3 X9.6861 Y9.6861 Z5.8000 I0.9348 J13.6663
G1 X9.6861 Y9.6861 Z5.8000
G2 X-0.9348 Y-13.6663 Z5.8000 I-9.6861 J-9.6861
G2 X0.9348 Y13.6663 Z5.8000 I0.9348 J13.6663
G2 X9.6861 Y9.6861 Z5.8000 I-0.9348 J-13.6663
G1 X9.6861 Y9.6861 Z5.3000
G2 X-0.9348 Y-13.6663 Z5.3000 I-9.6861 J-9.6861
G2 X0.9348 Y13.6663 Z5.3000 I0.9348 J13.6663
G2 X9.6861 Y9.6861 Z5.3000 I-0.9348 J-13.6663
G1 X9.6861 Y9.6861 Z5.3000
G3 X0.9348 Y13.6663 Z5.3000 I-9.6861 J-9.6861
G3 X-0.9348 Y-13.6663 Z5.3000 I-0.9348 J-13.6663
G1 X-0.9877 Y-15.2154 Z5.3000
G2 X-15.2153 Y1.0151 Z5.3000 I0.9869 J15.2163
G2 X1.0406 Y15.2135 Z5.3000 I15.2145 J-1.0142
G2 X-0.9877 Y-15.2154 Z5.3000 I-1.0397 J-15.2127
G1 X-0.9348 Y-13.6663 Z5.3000
G3 X9.6861 Y9.6861 Z5.3000 I0.9348 J13.6663
G1 X9.6861 Y9.6861 Z4.8000
G3 X0.9348 Y13.6663 Z4.8000 I-9.6861 J-9.6861
G3 X-0.9348 Y-13.6663 Z4.8000 I-0.9348 J-13.6663
G1 X-0.9877 Y-15.2154 Z4.8000
G2 X-15.2153 Y1.0151 Z4.8000 I0.9869 J15.2163
G2 X1.0406 Y15.2135 Z4.8000 I15.2145 J-1.0142
G2 X-0.9877 Y-15.2154 Z4.8000 I-1.0397 J-15.2127
G1 X-0.9348 Y-13.6663 Z4.8000
G3 X9.6861 Y9.6861 Z4.8000 I0.9348 J13.6663
G1 X9.6861 Y9.6861 Z4.8000
G2 X-0.9348 Y-13.6663 Z4.8000 I-9.6861 J-9.6861
G2 X0.9348 Y13.6663 Z4.8000 I0.9348 J13.6663
G2 X9.6861 Y9.6861 Z4.8000 I-0.9348 J-13.6663
G1 X9.6861 Y9.6861 Z4.3000
G2 X-0.9348 Y-13.6663 Z4.3000 I-9.6861 J-9.6861
G2 X0.9348 Y13.6663 Z4.3000 I0.9348 J13.6663
G2 X9.6861 Y9.6861 Z4.3000 I-0.9348 J-13.6663
G1 X9.6861 Y9.6861 Z4.3000
G3 X0.9348 Y13.6663 Z4.3000 I-9.6861 J-9.6861
G3 X-0.9348 Y-13.6663 Z4.3000 I-0.9348 J-13.6663
G1 X-0.9877 Y-15.2154 Z4.3000
G2 X-15.2153 Y1.0151 Z4.3000 I0.9869 J15.2163
G2 X1.0406 Y15.2135 Z4.3000 I15.2145 J-1.0142
G2 X-0.9877 Y-15.2154 Z4.3000 I-1.0397 J-15.2127
G1 X-0.9348 Y-13.6663 Z4.3000
G3 X9.6861 Y9.6861 Z4.3000 I0.9348 J13.6663
G1 X9.6861 Y9.6861 Z3.8000
G2 X-0.9348 Y-13.6663 Z3.8000 I-9.6861 J-9.6861
G2 X0.9348 Y13.6663 Z3.8000 I0.9348 J13.6663
G2 X9.6861 Y9.6861 Z3.8000 I-0.9348 J-13.6663
G1 X9.6861 Y9.6861 Z3.8000
G3 X0.9348 Y13.6663 Z3.8000 I-9.6861 J-9.6861
G3 X-0.9348 Y-13.6663 Z3.8000 I-0.9348 J-13.6663
G1 X-0.9877 Y-15.2154 Z3.8000
G2 X-15.2153 Y1.0151 Z3.8000 I0.9869 J15.2163
G2 X1.0406 Y15.2135 Z3.8000 I15.2145 J-1.0142
G2 X-0.9877 Y-15.2154 Z3.8000 I-1.0397 J-15.2127
G1 X-0.9348 Y-13.6663 Z3.8000
G3 X9.6861 Y9.6861 Z3.8000 I0.9348 J13.6663
G1 X9.6861 Y9.6861 Z3.3000
G2 X-0.9348 Y-13.6663 Z3.3000 I-9.6861 J-9.6861
G2 X0.9348 Y13.6663 Z3.3000 I0.9348 J13.6663
G2 X9.6861 Y9.6861 Z3.3000 I-0.9348 J-13.6663
G1 X9.6861 Y9.6861 Z3.3000
G3 X0.9348 Y13.6663 Z3.3000 I-9.6861 J-9.6861
G3 X-0.9348 Y-13.6663 Z3.3000 I-0.9348 J-13.6663
G1 X-0.9877 Y-15.2154 Z3.3000
G2 X-15.2153 Y1.0151 Z3.3000 I0.9869 J15.2163
G2 X1.0406 Y15.2135 Z3.3000 I15.2145 J-1.0142
G2 X-0.9877 Y-15.2154 Z3.3000 I-1.0397 J-15.2127
G1 X-0.9348 Y-13.6663 Z3.3000
G3 X9.6861 Y9.6861 Z3.3000 I0.9348 J13.6663
G1 X9.6861 Y9.6861 Z2.8000
G2 X-0.9348 Y-13.6663 Z2.8000 I-9.6861 J-9.6861
G2 X0.9348 Y13.6663 Z2.8000 I0.9348 J13.6663
G2 X9.6861 Y9.6861 Z2.8000 I-0.9348 J-13.6663
G1 X9.6861 Y9.6861 Z2.8000
G3 X0.9348 Y13.6663 Z2.8000 I-9.6861 J-9.6861
G3 X-0.9348 Y-13.6663 Z2.8000 I-0.9348 J-13.6663
G1 X-0.9877 Y-15.2154 Z2.8000
G2 X-15.2153 Y1.0151 Z2.8000 I0.9869 J15.2163
G2 X1.0406 Y15.2135 Z2.8000 I15.2145 J-1.0142
G2 X-0.9877 Y-15.2154 Z2.8000 I-1.0397 J-15.2127
G1 X-0.9348 Y-13.6663 Z2.8000
G3 X9.6861 Y9.6861 Z2.8000 I0.9348 J13.6663
G1 X9.6861 Y9.6861 Z2.3000
G2 X-0.9348 Y-13.6663 Z2.3000 I-9.6861 J-9.6861
G2 X0.9348 Y13.6663 Z2.3000 I0.9348 J13.6663
G2 X9.6861 Y9.6861 Z2.3000 I-0.9348 J-13.6663
G1 X9.6861 Y9.6861 Z2.3000
G3 X0.9348 Y13.6663 Z2.3000 I-9.6861 J-9.6861
G3 X-0.9348 Y-13.6663 Z2.3000 I-0.9348 J-13.6663
G1 X-0.9877 Y-15.2154 Z2.3000
G2 X-15.2153 Y1.0151 Z2.3000 I0.9869 J15.2163
G2 X1.0406 Y15.2135 Z2.3000 I15.2145 J-1.0142
G2 X-0.9877 Y-15.2154 Z2.3000 I-1.0397 J-15.2127
G1 X-0.9348 Y-13.6663 Z2.3000
G3 X9.6861 Y9.6861 Z2.3000 I0.9348 J13.6663
G1 X9.6861 Y9.6861 Z2.0000
G3 X0.9348 Y13.6663 Z2.0000 I-9.6861 J-9.6861
G3 X-0.9348 Y-13.6663 Z2.0000 I-0.9348 J-13.6663
G1 X-0.9877 Y-15.2154 Z2.0000
G2 X-15.2153 Y1.0151 Z2.0000 I0.9869 J15.2163
G2 X1.0406 Y15.2135 Z2.0000 I15.2145 J-1.0142
G2 X-0.9877 Y-15.2154 Z2.0000 I-1.0397 J-15.2127
G1 X-0.9348 Y-13.6663 Z2.0000
G3 X9.6861 Y9.6861 Z2.0000 I0.9348 J13.6663
G1 X9.6861 Y9.6861 Z2.0000
G2 X-0.9348 Y-13.6663 Z2.0000 I-9.6861 J-9.6861
G2 X0.9348 Y13.6663 Z2.0000 I0.9348 J13.6663
G2 X9.6861 Y9.6861 Z2.0000 I-0.9348 J-13.6663
G0 Z20.8000
(finish operation: Pocket_Shape_BigHole)
(begin operation: Profile_Faces_Lip)
(Path: Profile_Faces_Lip)
(Profile_Faces_Lip)
(Compensated Tool Path. Diameter: 3.1)
G0 Z20.8000
G0 X5.6205 Y5.6205
G0 Z18.8000
G1 X5.6205 Y5.6205 Z15.3000
G2 X7.8278 Y1.3802 Z15.3000 I-5.6205 J-5.6205
G2 X-7.8278 Y-1.3802 Z15.3000 I-7.8278 J-1.3802
G2 X5.6205 Y5.6205 Z15.3000 I7.8278 J1.3802
G1 X5.6205 Y5.6205 Z14.8000
G2 X7.8278 Y1.3802 Z14.8000 I-5.6205 J-5.6205
G2 X-7.8278 Y-1.3802 Z14.8000 I-7.8278 J-1.3802
G2 X5.6205 Y5.6205 Z14.8000 I7.8278 J1.3802
G1 X5.6205 Y5.6205 Z14.3000
G2 X7.8278 Y1.3802 Z14.3000 I-5.6205 J-5.6205
G2 X-7.8278 Y-1.3802 Z14.3000 I-7.8278 J-1.3802
G2 X5.6205 Y5.6205 Z14.3000 I7.8278 J1.3802
G1 X5.6205 Y5.6205 Z13.8000
G2 X7.8278 Y1.3802 Z13.8000 I-5.6205 J-5.6205
G2 X-7.8278 Y-1.3802 Z13.8000 I-7.8278 J-1.3802
G2 X5.6205 Y5.6205 Z13.8000 I7.8278 J1.3802
G1 X5.6205 Y5.6205 Z13.3000
G2 X7.8278 Y1.3802 Z13.3000 I-5.6205 J-5.6205
G2 X-7.8278 Y-1.3802 Z13.3000 I-7.8278 J-1.3802
G2 X5.6205 Y5.6205 Z13.3000 I7.8278 J1.3802
G1 X5.6205 Y5.6205 Z12.8000
G2 X7.8278 Y1.3802 Z12.8000 I-5.6205 J-5.6205
G2 X-7.8278 Y-1.3802 Z12.8000 I-7.8278 J-1.3802
G2 X5.6205 Y5.6205 Z12.8000 I7.8278 J1.3802
G1 X5.6205 Y5.6205 Z12.3000
G2 X7.8278 Y1.3802 Z12.3000 I-5.6205 J-5.6205
G2 X-7.8278 Y-1.3802 Z12.3000 I-7.8278 J-1.3802
G2 X5.6205 Y5.6205 Z12.3000 I7.8278 J1.3802
G1 X5.6205 Y5.6205 Z11.8000
G2 X7.8278 Y1.3802 Z11.8000 I-5.6205 J-5.6205
G2 X-7.8278 Y-1.3802 Z11.8000 I-7.8278 J-1.3802
G2 X5.6205 Y5.6205 Z11.8000 I7.8278 J1.3802
G1 X5.6205 Y5.6205 Z11.3000
G2 X7.8278 Y1.3802 Z11.3000 I-5.6205 J-5.6205
G2 X-7.8278 Y-1.3802 Z11.3000 I-7.8278 J-1.3802
G2 X5.6205 Y5.6205 Z11.3000 I7.8278 J1.3802
G1 X5.6205 Y5.6205 Z10.8000
G2 X7.8278 Y1.3802 Z10.8000 I-5.6205 J-5.6205
G2 X-7.8278 Y-1.3802 Z10.8000 I-7.8278 J-1.3802
G2 X5.6205 Y5.6205 Z10.8000 I7.8278 J1.3802
G1 X5.6205 Y5.6205 Z10.3000
G2 X7.8278 Y1.3802 Z10.3000 I-5.6205 J-5.6205
G2 X-7.8278 Y-1.3802 Z10.3000 I-7.8278 J-1.3802
G2 X5.6205 Y5.6205 Z10.3000 I7.8278 J1.3802
G1 X5.6205 Y5.6205 Z9.8000
G2 X7.8278 Y1.3802 Z9.8000 I-5.6205 J-5.6205
G2 X-7.8278 Y-1.3802 Z9.8000 I-7.8278 J-1.3802
G2 X5.6205 Y5.6205 Z9.8000 I7.8278 J1.3802
G1 X5.6205 Y5.6205 Z9.3000
G2 X7.8278 Y1.3802 Z9.3000 I-5.6205 J-5.6205
G2 X-7.8278 Y-1.3802 Z9.3000 I-7.8278 J-1.3802
G2 X5.6205 Y5.6205 Z9.3000 I7.8278 J1.3802
G1 X5.6205 Y5.6205 Z8.8000
G2 X7.8278 Y1.3802 Z8.8000 I-5.6205 J-5.6205
G2 X-7.8278 Y-1.3802 Z8.8000 I-7.8278 J-1.3802
G2 X5.6205 Y5.6205 Z8.8000 I7.8278 J1.3802
G1 X5.6205 Y5.6205 Z8.3000
G2 X7.8278 Y1.3802 Z8.3000 I-5.6205 J-5.6205
G2 X-7.8278 Y-1.3802 Z8.3000 I-7.8278 J-1.3802
G2 X5.6205 Y5.6205 Z8.3000 I7.8278 J1.3802
G1 X5.6205 Y5.6205 Z7.8000
G2 X7.8278 Y1.3802 Z7.8000 I-5.6205 J-5.6205
G2 X-7.8278 Y-1.3802 Z7.8000 I-7.8278 J-1.3802
G2 X5.6205 Y5.6205 Z7.8000 I7.8278 J1.3802
G1 X5.6205 Y5.6205 Z7.3000
G2 X7.8278 Y1.3802 Z7.3000 I-5.6205 J-5.6205
G2 X-7.8278 Y-1.3802 Z7.3000 I-7.8278 J-1.3802
G2 X5.6205 Y5.6205 Z7.3000 I7.8278 J1.3802
G1 X5.6205 Y5.6205 Z6.8000
G2 X7.8278 Y1.3802 Z6.8000 I-5.6205 J-5.6205
G2 X-7.8278 Y-1.3802 Z6.8000 I-7.8278 J-1.3802
G2 X5.6205 Y5.6205 Z6.8000 I7.8278 J1.3802
G1 X5.6205 Y5.6205 Z6.3000
G2 X7.8278 Y1.3802 Z6.3000 I-5.6205 J-5.6205
G2 X-7.8278 Y-1.3802 Z6.3000 I-7.8278 J-1.3802
G2 X5.6205 Y5.6205 Z6.3000 I7.8278 J1.3802
G1 X5.6205 Y5.6205 Z5.8000
G2 X7.8278 Y1.3802 Z5.8000 I-5.6205 J-5.6205
G2 X-7.8278 Y-1.3802 Z5.8000 I-7.8278 J-1.3802
G2 X5.6205 Y5.6205 Z5.8000 I7.8278 J1.3802
G1 X5.6205 Y5.6205 Z5.3000
G2 X7.8278 Y1.3802 Z5.3000 I-5.6205 J-5.6205
G2 X-7.8278 Y-1.3802 Z5.3000 I-7.8278 J-1.3802
G2 X5.6205 Y5.6205 Z5.3000 I7.8278 J1.3802
G1 X5.6205 Y5.6205 Z4.8000
G2 X7.8278 Y1.3802 Z4.8000 I-5.6205 J-5.6205
G2 X-7.8278 Y-1.3802 Z4.8000 I-7.8278 J-1.3802
G2 X5.6205 Y5.6205 Z4.8000 I7.8278 J1.3802
G1 X5.6205 Y5.6205 Z4.3000
G2 X7.8278 Y1.3802 Z4.3000 I-5.6205 J-5.6205
G2 X-7.8278 Y-1.3802 Z4.3000 I-7.8278 J-1.3802
G2 X5.6205 Y5.6205 Z4.3000 I7.8278 J1.3802
G1 X5.6205 Y5.6205 Z3.8000
G2 X7.8278 Y1.3802 Z3.8000 I-5.6205 J-5.6205
G2 X-7.8278 Y-1.3802 Z3.8000 I-7.8278 J-1.3802
G2 X5.6205 Y5.6205 Z3.8000 I7.8278 J1.3802
G1 X5.6205 Y5.6205 Z3.3000
G2 X7.8278 Y1.3802 Z3.3000 I-5.6205 J-5.6205
G2 X-7.8278 Y-1.3802 Z3.3000 I-7.8278 J-1.3802
G2 X5.6205 Y5.6205 Z3.3000 I7.8278 J1.3802
G1 X5.6205 Y5.6205 Z2.8000
G2 X7.8278 Y1.3802 Z2.8000 I-5.6205 J-5.6205
G2 X-7.8278 Y-1.3802 Z2.8000 I-7.8278 J-1.3802
G2 X5.6205 Y5.6205 Z2.8000 I7.8278 J1.3802
G1 X5.6205 Y5.6205 Z2.3000
G2 X7.8278 Y1.3802 Z2.3000 I-5.6205 J-5.6205
G2 X-7.8278 Y-1.3802 Z2.3000 I-7.8278 J-1.3802
G2 X5.6205 Y5.6205 Z2.3000 I7.8278 J1.3802
G1 X5.6205 Y5.6205 Z2.0000
G2 X7.8278 Y1.3802 Z2.0000 I-5.6205 J-5.6205
G2 X-7.8278 Y-1.3802 Z2.0000 I-7.8278 J-1.3802
G2 X5.6205 Y5.6205 Z2.0000 I7.8278 J1.3802
G0 Z20.8000
(finish operation: Profile_Faces_Lip)
(begin operation: Pocket_Shape001)
(Path: Pocket_Shape001)
(Pocket_Shape001)
G0 Z20.8000
G0 X14.4599 Y14.4599
G0 Z18.8000
G1 X14.4599 Y14.4599 Z12.7000
G3 X-2.4186 Y20.3058 Z12.7000 I-14.4599 J-14.4599
G3 X-20.3058 Y-2.4186 Z12.7000 I2.4186 J-20.3058
G3 X2.4186 Y-20.3058 Z12.7000 I20.3058 J2.4186
G3 X14.4599 Y14.4599 Z12.7000 I-2.4186 J20.3058
G0 X14.4599 Y14.4599 Z20.8000
G0 X14.1769 Y14.1769 Z20.8000
G1 X14.1769 Y14.1769 Z12.7000
G3 X2.6672 Y19.8710 Z12.7000 I-14.1769 J-14.1769
G3 X-2.6672 Y-19.8710 Z12.7000 I-2.6672 J-19.8710
G3 X14.1769 Y14.1769 Z12.7000 I2.6672 J19.8710
G1 X14.1769 Y14.1769 Z10.9000
G3 X2.6672 Y19.8710 Z10.9000 I-14.1769 J-14.1769
G3 X-2.6672 Y-19.8710 Z10.9000 I-2.6672 J-19.8710
G3 X14.1769 Y14.1769 Z10.9000 I2.6672 J19.8710
G0 X14.1769 Y14.1769 Z20.8000
G0 X14.4599 Y14.4599 Z20.8000
G1 X14.4599 Y14.4599 Z10.9000
G3 X-2.4186 Y20.3058 Z10.9000 I-14.4599 J-14.4599
G3 X-20.3058 Y-2.4186 Z10.9000 I2.4186 J-20.3058
G3 X2.4186 Y-20.3058 Z10.9000 I20.3058 J2.4186
G3 X14.4599 Y14.4599 Z10.9000 I-2.4186 J20.3058
G0 Z20.8000
(finish operation: Pocket_Shape001)
(begin operation: Contour)
(Path: Contour)
(Contour)
(Compensated Tool Path. Diameter: 3.1)
G0 Z20.8000
G0 X16.6519 Y16.6519
G0 Z18.8000
G1 X16.6519 Y16.6519 Z15.3000
G2 X2.8309 Y-23.3786 Z15.3000 I-16.6519 J-16.6519
G2 X-2.8309 Y23.3786 Z15.3000 I-2.8309 J23.3786
G2 X16.6519 Y16.6519 Z15.3000 I2.8309 J-23.3786
G1 X16.6519 Y16.6519 Z14.8000
G2 X2.8309 Y-23.3786 Z14.8000 I-16.6519 J-16.6519
G2 X-2.8309 Y23.3786 Z14.8000 I-2.8309 J23.3786
G2 X16.6519 Y16.6519 Z14.8000 I2.8309 J-23.3786
G1 X16.6519 Y16.6519 Z14.3000
G2 X2.8309 Y-23.3786 Z14.3000 I-16.6519 J-16.6519
G2 X-2.8309 Y23.3786 Z14.3000 I-2.8309 J23.3786
G2 X16.6519 Y16.6519 Z14.3000 I2.8309 J-23.3786
G1 X16.6519 Y16.6519 Z13.8000
G2 X2.8309 Y-23.3786 Z13.8000 I-16.6519 J-16.6519
G2 X-2.8309 Y23.3786 Z13.8000 I-2.8309 J23.3786
G2 X16.6519 Y16.6519 Z13.8000 I2.8309 J-23.3786
G1 X16.6519 Y16.6519 Z13.3000
G2 X2.8309 Y-23.3786 Z13.3000 I-16.6519 J-16.6519
G2 X-2.8309 Y23.3786 Z13.3000 I-2.8309 J23.3786
G2 X16.6519 Y16.6519 Z13.3000 I2.8309 J-23.3786
G1 X16.6519 Y16.6519 Z12.8000
G2 X2.8309 Y-23.3786 Z12.8000 I-16.6519 J-16.6519
G2 X-2.8309 Y23.3786 Z12.8000 I-2.8309 J23.3786
G2 X16.6519 Y16.6519 Z12.8000 I2.8309 J-23.3786
G1 X16.6519 Y16.6519 Z12.3000
G2 X2.8309 Y-23.3786 Z12.3000 I-16.6519 J-16.6519
G2 X-2.8309 Y23.3786 Z12.3000 I-2.8309 J23.3786
G2 X16.6519 Y16.6519 Z12.3000 I2.8309 J-23.3786
G1 X16.6519 Y16.6519 Z11.8000
G2 X2.8309 Y-23.3786 Z11.8000 I-16.6519 J-16.6519
G2 X-2.8309 Y23.3786 Z11.8000 I-2.8309 J23.3786
G2 X16.6519 Y16.6519 Z11.8000 I2.8309 J-23.3786
G1 X16.6519 Y16.6519 Z11.3000
G2 X2.8309 Y-23.3786 Z11.3000 I-16.6519 J-16.6519
G2 X-2.8309 Y23.3786 Z11.3000 I-2.8309 J23.3786
G2 X16.6519 Y16.6519 Z11.3000 I2.8309 J-23.3786
G1 X16.6519 Y16.6519 Z10.8000
G2 X2.8309 Y-23.3786 Z10.8000 I-16.6519 J-16.6519
G2 X-2.8309 Y23.3786 Z10.8000 I-2.8309 J23.3786
G2 X16.6519 Y16.6519 Z10.8000 I2.8309 J-23.3786
G1 X16.6519 Y16.6519 Z10.3000
G2 X2.8309 Y-23.3786 Z10.3000 I-16.6519 J-16.6519
G2 X-2.8309 Y23.3786 Z10.3000 I-2.8309 J23.3786
G2 X16.6519 Y16.6519 Z10.3000 I2.8309 J-23.3786
G1 X16.6519 Y16.6519 Z9.8000
G2 X2.8309 Y-23.3786 Z9.8000 I-16.6519 J-16.6519
G2 X-2.8309 Y23.3786 Z9.8000 I-2.8309 J23.3786
G2 X16.6519 Y16.6519 Z9.8000 I2.8309 J-23.3786
G1 X16.6519 Y16.6519 Z9.3000
G2 X2.8309 Y-23.3786 Z9.3000 I-16.6519 J-16.6519
G2 X-2.8309 Y23.3786 Z9.3000 I-2.8309 J23.3786
G2 X16.6519 Y16.6519 Z9.3000 I2.8309 J-23.3786
G1 X16.6519 Y16.6519 Z8.8000
G2 X2.8309 Y-23.3786 Z8.8000 I-16.6519 J-16.6519
G2 X-2.8309 Y23.3786 Z8.8000 I-2.8309 J23.3786
G2 X16.6519 Y16.6519 Z8.8000 I2.8309 J-23.3786
G1 X16.6519 Y16.6519 Z8.3000
G2 X2.8309 Y-23.3786 Z8.3000 I-16.6519 J-16.6519
G2 X-2.8309 Y23.3786 Z8.3000 I-2.8309 J23.3786
G2 X16.6519 Y16.6519 Z8.3000 I2.8309 J-23.3786
G1 X16.6519 Y16.6519 Z7.8000
G2 X2.8309 Y-23.3786 Z7.8000 I-16.6519 J-16.6519
G2 X-2.8309 Y23.3786 Z7.8000 I-2.8309 J23.3786
G2 X16.6519 Y16.6519 Z7.8000 I2.8309 J-23.3786
G1 X16.6519 Y16.6519 Z7.3000
G2 X2.8309 Y-23.3786 Z7.3000 I-16.6519 J-16.6519
G2 X-2.8309 Y23.3786 Z7.3000 I-2.8309 J23.3786
G2 X16.6519 Y16.6519 Z7.3000 I2.8309 J-23.3786
G1 X16.6519 Y16.6519 Z6.8000
G2 X2.8309 Y-23.3786 Z6.8000 I-16.6519 J-16.6519
G2 X-2.8309 Y23.3786 Z6.8000 I-2.8309 J23.3786
G2 X16.6519 Y16.6519 Z6.8000 I2.8309 J-23.3786
G1 X16.6519 Y16.6519 Z6.3000
G2 X2.8309 Y-23.3786 Z6.3000 I-16.6519 J-16.6519
G2 X-2.8309 Y23.3786 Z6.3000 I-2.8309 J23.3786
G2 X16.6519 Y16.6519 Z6.3000 I2.8309 J-23.3786
G1 X16.6519 Y16.6519 Z5.8000
G2 X2.8309 Y-23.3786 Z5.8000 I-16.6519 J-16.6519
G2 X-2.8309 Y23.3786 Z5.8000 I-2.8309 J23.3786
G2 X16.6519 Y16.6519 Z5.8000 I2.8309 J-23.3786
G1 X16.6519 Y16.6519 Z5.3000
G2 X2.8309 Y-23.3786 Z5.3000 I-16.6519 J-16.6519
G2 X-2.8309 Y23.3786 Z5.3000 I-2.8309 J23.3786
G2 X16.6519 Y16.6519 Z5.3000 I2.8309 J-23.3786
G1 X16.6519 Y16.6519 Z4.8000
G2 X2.8309 Y-23.3786 Z4.8000 I-16.6519 J-16.6519
G2 X-2.8309 Y23.3786 Z4.8000 I-2.8309 J23.3786
G2 X16.6519 Y16.6519 Z4.8000 I2.8309 J-23.3786
G1 X16.6519 Y16.6519 Z4.3000
G2 X2.8309 Y-23.3786 Z4.3000 I-16.6519 J-16.6519
G2 X-2.8309 Y23.3786 Z4.3000 I-2.8309 J23.3786
G2 X16.6519 Y16.6519 Z4.3000 I2.8309 J-23.3786
G1 X16.6519 Y16.6519 Z3.8000
G2 X2.8309 Y-23.3786 Z3.8000 I-16.6519 J-16.6519
G2 X-2.8309 Y23.3786 Z3.8000 I-2.8309 J23.3786
G2 X16.6519 Y16.6519 Z3.8000 I2.8309 J-23.3786
G1 X16.6519 Y16.6519 Z3.3000
G2 X2.8309 Y-23.3786 Z3.3000 I-16.6519 J-16.6519
G2 X-2.8309 Y23.3786 Z3.3000 I-2.8309 J23.3786
G2 X16.6519 Y16.6519 Z3.3000 I2.8309 J-23.3786
G1 X16.6519 Y16.6519 Z2.8000
