(G-CODE GENERATED BY FLATCAM v8.994 - www.flatcam.org - Version Date: 2020/11/7)

(Name: Combo_MultiGeo_Copper_Bottom_cutout_cnc)
(Type: G-code from Geometry)
(Units: MM)

(Created on Dienstag, 13 September 2022 at 13:27)

(This preprocessor is used with a motion controller loaded with GRBL firmware.)
(It is configured to be compatible with almost any version of GRBL firmware.)

(TOOL DIAMETER: 3.1 mm)
(Feedrate_XY: 180.0 mm/min)
(Feedrate_Z: 120.0 mm/min)
(Feedrate rapids 1500.0 mm/min)

(Z_Cut: -2.5 mm)
(DepthPerCut: 0.5 mm <=>5 passes)
(Z_Move: 2.0 mm)
(Z Start: None mm)
(Z End: 15.0 mm)
(X,Y End: 0.0000, 0.0000 mm)
(Steps per circle: 64)
(Steps per circle: 64)
(Preprocessor Geometry: GRBL_11_no_M6)

(X range:    3.5647 ...  162.9501  mm)
(Y range:   -0.6427 ...  152.9003  mm)

(Spindle Speed: 12000.0 RPM)
G21
G90
G17
G94


G01 F180.00

M5             
G00 Z15.0000
G00 X0.0000 Y0.0000                
T1
(MSG, Change to Tool Dia = 3.1000)
M0
G00 Z15.0000
        
M03 S12000.0
G01 F180.00
G00 X3.5647 Y30.6930
G01 F120.00
G01 Z-0.5000
G01 F180.00
G01 X3.5647 Y-0.6427 F180.00
G01 X36.3610 Y-0.6427 F180.00
G00 X36.3610 Y-0.6427
G01 F120.00
G01 Z-1.0000
G01 F180.00
G01 X3.5647 Y-0.6427 F180.00
G01 X3.5647 Y30.6930 F180.00
G00 X3.5647 Y30.6930
G01 F120.00
G01 Z-1.5000
G01 F180.00
G01 X3.5647 Y-0.6427 F180.00
G01 X36.3610 Y-0.6427 F180.00
G00 X36.3610 Y-0.6427
G01 F120.00
G01 Z-2.0000
G01 F180.00
G01 X3.5647 Y-0.6427 F180.00
G01 X3.5647 Y30.6930 F180.00
G00 X3.5647 Y30.6930
G01 F120.00
G01 Z-2.5000
G01 F180.00
G01 X3.5647 Y-0.6427 F180.00
G01 X36.3610 Y-0.6427 F180.00
G00 Z2.0000
G00 X48.4610 Y-0.6427
G01 F120.00
G01 Z-0.5000
G01 F180.00
G01 X114.0538 Y-0.6427 F180.00
G00 X114.0538 Y-0.6427
G01 F120.00
G01 Z-1.0000
G01 F180.00
G01 X48.4610 Y-0.6427 F180.00
G00 X48.4610 Y-0.6427
G01 F120.00
G01 Z-1.5000
G01 F180.00
G01 X114.0538 Y-0.6427 F180.00
G00 X114.0538 Y-0.6427
G01 F120.00
G01 Z-2.0000
G01 F180.00
G01 X48.4610 Y-0.6427 F180.00
G00 X48.4610 Y-0.6427
G01 F120.00
G01 Z-2.5000
G01 F180.00
G01 X114.0538 Y-0.6427 F180.00
G00 Z2.0000
G00 X126.1538 Y-0.6427
G01 F120.00
G01 Z-0.5000
G01 F180.00
G01 X162.9501 Y-0.6427 F180.00
G01 X162.9501 Y30.6930 F180.00
G00 X162.9501 Y30.6930
G01 F120.00
G01 Z-1.0000
G01 F180.00
G01 X162.9501 Y-0.6427 F180.00
G01 X126.1538 Y-0.6427 F180.00
G00 X126.1538 Y-0.6427
G01 F120.00
G01 Z-1.5000
G01 F180.00
G01 X162.9501 Y-0.6427 F180.00
G01 X162.9501 Y30.6930 F180.00
G00 X162.9501 Y30.6930
G01 F120.00
G01 Z-2.0000
G01 F180.00
G01 X162.9501 Y-0.6427 F180.00
G01 X126.1538 Y-0.6427 F180.00
G00 X126.1538 Y-0.6427
G01 F120.00
G01 Z-2.5000
G01 F180.00
G01 X162.9501 Y-0.6427 F180.00
G01 X162.9501 Y30.6930 F180.00
G00 Z2.0000
G00 X162.9501 Y42.7930
G01 F120.00
G01 Z-0.5000
G01 F180.00
G01 X162.9501 Y105.4646 F180.00
G00 X162.9501 Y105.4646
G01 F120.00
G01 Z-1.0000
G01 F180.00
G01 X162.9501 Y42.7930 F180.00
G00 X162.9501 Y42.7930
G01 F120.00
G01 Z-1.5000
G01 F180.00
G01 X162.9501 Y105.4646 F180.00
G00 X162.9501 Y105.4646
G01 F120.00
G01 Z-2.0000
G01 F180.00
G01 X162.9501 Y42.7930 F180.00
G00 X162.9501 Y42.7930
G01 F120.00
G01 Z-2.5000
G01 F180.00
G01 X162.9501 Y105.4646 F180.00
G00 Z2.0000
G00 X162.9501 Y117.5646
G01 F120.00
G01 Z-0.5000
G01 F180.00
G01 X162.9501 Y152.9003 F180.00
G01 X126.1538 Y152.9003 F180.00
G00 X126.1538 Y152.9003
G01 F120.00
G01 Z-1.0000
G01 F180.00
G01 X162.9501 Y152.9003 F180.00
G01 X162.9501 Y117.5646 F180.00
G00 X162.9501 Y117.5646
G01 F120.00
G01 Z-1.5000
G01 F180.00
G01 X162.9501 Y152.9003 F180.00
G01 X126.1538 Y152.9003 F180.00
G00 X126.1538 Y152.9003
G01 F120.00
G01 Z-2.0000
G01 F180.00
G01 X162.9501 Y152.9003 F180.00
G01 X162.9501 Y117.5646 F180.00
G00 X162.9501 Y117.5646
G01 F120.00
G01 Z-2.5000
G01 F180.00
G01 X162.9501 Y152.9003 F180.00
G01 X126.1538 Y152.9003 F180.00
G00 Z2.0000
G00 X114.0538 Y152.9003
G01 F120.00
G01 Z-0.5000
G01 F180.00
G01 X48.4610 Y152.9003 F180.00
G00 X48.4610 Y152.9003
G01 F120.00
G01 Z-1.0000
G01 F180.00
G01 X114.0538 Y152.9003 F180.00
G00 X114.0538 Y152.9003
G01 F120.00
G01 Z-1.5000
G01 F180.00
G01 X48.4610 Y152.9003 F180.00
G00 X48.4610 Y152.9003
G01 F120.00
G01 Z-2.0000
G01 F180.00
G01 X114.0538 Y152.9003 F180.00
G00 X114.0538 Y152.9003
G01 F120.00
G01 Z-2.5000
G01 F180.00
G01 X48.4610 Y152.9003 F180.00
G00 Z2.0000
G00 X36.3610 Y152.9003
G01 F120.00
G01 Z-0.5000
G01 F180.00
G01 X3.5647 Y152.9003 F180.00
G01 X3.5647 Y117.5646 F180.00
G00 X3.5647 Y117.5646
G01 F120.00
G01 Z-1.0000
G01 F180.00
G01 X3.5647 Y152.9003 F180.00
G01 X36.3610 Y152.9003 F180.00
G00 X36.3610 Y152.9003
G01 F120.00
G01 Z-1.5000
G01 F180.00
G01 X3.5647 Y152.9003 F180.00
G01 X3.5647 Y117.5646 F180.00
G00 X3.5647 Y117.5646
G01 F120.00
G01 Z-2.0000
G01 F180.00
G01 X3.5647 Y152.9003 F180.00
G01 X36.3610 Y152.9003 F180.00
G00 X36.3610 Y152.9003
G01 F120.00
G01 Z-2.5000
G01 F180.00
G01 X3.5647 Y152.9003 F180.00
G01 X3.5647 Y117.5646 F180.00
G00 Z2.0000
G00 X3.5647 Y105.4646
G01 F120.00
G01 Z-0.5000
G01 F180.00
G01 X3.5647 Y42.7930 F180.00
G00 X3.5647 Y42.7930
G01 F120.00
G01 Z-1.0000
G01 F180.00
G01 X3.5647 Y105.4646 F180.00
G00 X3.5647 Y105.4646
G01 F120.00
G01 Z-1.5000
G01 F180.00
G01 X3.5647 Y42.7930 F180.00
G00 X3.5647 Y42.7930
G01 F120.00
G01 Z-2.0000
G01 F180.00
G01 X3.5647 Y105.4646 F180.00
G00 X3.5647 Y105.4646
G01 F120.00
G01 Z-2.5000
G01 F180.00
G01 X3.5647 Y42.7930 F180.00
G00 Z2.0000
M05
G00 Z2.0000
G00 Z15.00
G00 X0.0 Y0.0


