(Exported by FreeCAD)
(Post Processor: grbl_post)
(Output Time:2022-08-24 13:47:17.603210)
(begin preamble)
G17 G90
G21
(begin operation: T2: Mill Bit standard)
(Path: T2: Mill Bit standard)
(T2: Mill Bit standard)
(begin toolchange)
; M6 T2
M3 S12000.0000
(finish operation: T2: Mill Bit standard)
(begin operation: Drilling)
(Path: Drilling)
(Drilling)
(Begin Drilling)
G0 Z9.0000
G90
; G98
G83 X0.0000 Y0.0000 Z0.0000 F60.00 Q0.5000 R2.0000
; G80
G0 Z9.0000
(finish operation: Drilling)
(begin operation: Drilling001)
(Path: Drilling001)
(Drilling001)
(Begin Drilling)
G0 Z9.0000
G90
; G98
G83 X-8.2500 Y-8.2500 Z0.0000 F60.00 Q0.5000 R2.0000
G83 X8.2500 Y-8.2500 Z0.0000 F60.00 Q0.5000 R2.0000
G83 X8.2500 Y8.2500 Z0.0000 F60.00 Q0.5000 R2.0000
G83 X-8.2500 Y8.2500 Z0.0000 F60.00 Q0.5000 R2.0000
; G80
G0 Z9.0000
(finish operation: Drilling001)
(begin operation: Pocket_3D002)
(Path: Pocket_3D002)
(Pocket_3D002)
G0 Z9.0000
G0 X9.5154 Y9.9384
G0 Z8.0000
G1 X9.5154 Y9.9384 Z5.7500 F60.00
G2 X9.9500 Y8.8491 Z5.7500 I-1.0288 J-1.0418 F60.00
G1 X9.9500 Y7.4325 Z5.7500 F60.00
G3 X9.0646 Y7.2541 Z5.7500 I-0.1882 J-1.3522 F60.00
G2 X7.3689 Y8.9715 Z5.7500 I-0.7577 J0.9477 F60.00
G3 X7.4367 Y10.3600 Z5.7500 I-1.3258 J0.7606 F60.00
G1 X8.4391 Y10.3600 Z5.7500 F60.00
G2 X9.5154 Y9.9384 Z5.7500 I0.0475 J-1.4634 F60.00
G0 X9.5154 Y9.9384 Z9.0000
G0 X9.9500 Y8.3603 Z9.0000
G1 X9.9500 Y8.3603 Z5.7500 F60.00
G1 X8.6361 Y7.0464 Z5.7500 F60.00
G2 X9.3858 Y7.3870 Z5.7500 I3.2726 J-6.2073 F60.00
G2 X9.9500 Y7.4325 Z5.7500 I0.3814 J-1.2112 F60.00
G1 X9.9500 Y8.3603 Z5.7500 F60.00
G1 X9.9500 Y8.8491 Z5.7500 F60.00
G3 X9.6353 Y9.7992 Z5.7500 I-1.4679 J0.0409 F60.00
G1 X7.3279 Y7.4918 Z5.7500 F60.00
G2 X7.2109 Y8.6940 Z5.7500 I0.9475 J0.6990 F60.00
G3 X7.5355 Y9.4531 Z5.7500 I-1.8712 J1.2492 F60.00
G1 X8.4422 Y10.3598 Z5.7500 F60.00
G3 X7.4367 Y10.3600 Z5.7500 I-0.5043 J-6.3870 F60.00
G2 X7.5355 Y9.4531 Z5.7500 I-1.2729 J-0.5976 F60.00
G0 X7.5355 Y9.4531 Z9.0000
G0 X3.9844 Y5.0051 Z9.0000
G1 X3.9844 Y5.0051 Z5.7500 F60.00
G2 X6.3907 Y0.0050 Z5.7500 I-3.9919 J-5.0001 F60.00
G2 X-6.4056 Y0.0050 Z5.7500 I-6.3981 J0.0000 F60.00
G2 X3.9844 Y5.0051 Z5.7500 I6.3981 J0.0000 F60.00
G0 X3.9844 Y5.0051 Z9.0000
G0 X5.6730 Y-2.9311 Z9.0000
G1 X5.6730 Y-2.9311 Z5.7500 F60.00
G2 X2.9286 Y-5.6755 Z5.7500 I-5.6252 J2.8808 F60.00
G1 X5.6730 Y-2.9311 Z5.7500 F60.00
G3 X6.3667 Y-0.4839 Z5.7500 I-5.4731 J2.8732 F60.00
G1 X0.4814 Y-6.3692 Z5.7500 F60.00
G2 X-1.1840 Y-6.2809 Z5.7500 I-0.5288 J5.7763 F60.00
G1 X6.2784 Y1.1815 Z5.7500 F60.00
G3 X5.8693 Y2.5260 Z5.7500 I-5.8060 J-1.0319 F60.00
G1 X-2.5285 Y-5.8718 Z5.7500 F60.00
G2 X-3.6557 Y-5.2454 Z5.7500 I2.1829 J5.2558 F60.00
G1 X5.2429 Y3.6533 Z5.7500 F60.00
G3 X4.4372 Y4.6012 Z5.7500 I-4.5984 J-3.0922 F60.00
G1 X-4.6037 Y-4.4397 Z5.7500 F60.00
G2 X-5.3797 Y-3.4621 Z5.7500 I3.9623 J3.9425 F60.00
G1 X3.4597 Y5.3773 Z5.7500 F60.00
G3 X2.2965 Y5.9678 Z5.7500 I-3.0840 J-4.6339 F60.00
G1 X-5.9702 Y-2.2990 Z5.7500 F60.00
G2 X-6.3324 Y-0.9076 Z5.7500 I5.0345 J2.0533 F60.00
G1 X0.9051 Y6.3299 Z5.7500 F60.00
G3 X-0.8361 Y6.3424 Z5.7500 I-0.9109 J-5.6354 F60.00
G1 X-6.3449 Y0.8336 Z5.7500 F60.00
G2 X-5.1974 Y3.7347 Z5.7500 I6.1320 J-0.7479 F60.00
G1 X-3.7371 Y5.1949 Z5.7500 F60.00
G3 X-5.1974 Y3.7347 Z5.7500 I3.3824 J-4.8426 F60.00
G0 X-5.1974 Y3.7347 Z9.0000
G0 X-7.6116 Y7.2080 Z9.0000
G1 X-7.6116 Y7.2080 Z5.7500 F60.00
G2 X-8.7809 Y7.0979 Z5.7500 I-0.6822 J0.9815 F60.00
G3 X-9.9500 Y7.4323 Z5.7500 I-1.0208 J-1.3580 F60.00
G1 X-9.9500 Y8.8491 Z5.7500 F60.00
G2 X-8.7261 Y10.3374 Z5.7500 I1.4573 J0.0490 F60.00
G2 X-7.4363 Y10.3600 Z5.7500 I0.7884 J-8.1829 F60.00
G3 X-7.3641 Y8.9632 Z5.7500 I1.3722 J-0.6294 F60.00
G2 X-7.0985 Y8.1951 Z5.7500 I-1.0404 J-0.7897 F60.00
G2 X-7.6116 Y7.2080 Z5.7500 I-1.1952 J-0.0056 F60.00
G0 X-7.6116 Y7.2080 Z9.0000
G0 X-7.2247 Y8.7219 Z9.0000
G1 X-7.2247 Y8.7219 Z5.7500 F60.00
G1 X-8.8246 Y7.1220 Z5.7500 F60.00
G3 X-7.2247 Y8.7219 Z5.7500 I0.5335 J1.0664 F60.00
G2 X-7.4896 Y10.2106 Z5.7500 I1.3108 J1.0011 F60.00
G1 X-9.9500 Y7.7502 Z5.7500 F60.00
G1 X-9.9500 Y8.8491 Z5.7500 F60.00
G2 X-9.5219 Y9.9319 Z5.7500 I1.4873 J0.0380 F60.00
G0 X-9.5219 Y9.9319 Z9.0000
G0 X-8.3900 Y-6.9915 Z9.0000
G1 X-8.3900 Y-6.9915 Z5.7500 F60.00
G2 X-7.0985 Y-8.1951 Z5.7500 I0.0808 J-1.2080 F60.00
G2 X-7.2166 Y-8.7077 Z5.7500 I-1.1816 J0.0021 F60.00
G3 X-7.4363 Y-10.3600 Z5.7500 I1.2595 J-1.0082 F60.00
G1 X-8.4391 Y-10.3600 Z5.7500 F60.00
G2 X-9.9500 Y-8.8491 Z5.7500 I-0.0475 J1.4634 F60.00
G1 X-9.9500 Y-7.4323 Z5.7500 F60.00
G3 X-9.0672 Y-7.2555 Z5.7500 I0.1893 J1.3468 F60.00
G2 X-8.3900 Y-6.9915 Z5.7500 I0.7581 J-0.9439 F60.00
G0 X-8.3900 Y-6.9915 Z9.0000
G0 X-9.9500 Y-8.0324 Z9.0000
G1 X-9.9500 Y-8.0324 Z5.7500 F60.00
G1 X-9.9500 Y-7.4323 Z5.7500 F60.00
G3 X-9.2472 Y-7.3296 Z5.7500 I0.1918 J1.1427 F60.00
G1 X-9.9500 Y-8.0324 Z5.7500 F60.00
G3 X-9.9274 Y-9.1361 Z5.7500 I7.0230 J-0.4083 F60.00
G3 X-9.7658 Y-9.6018 Z5.7500 I1.0508 J0.1037 F60.00
G1 X-7.4796 Y-7.3156 Z5.7500 F60.00
G2 X-7.3513 Y-8.9409 Z5.7500 I-0.8338 J-0.8835 F60.00
G1 X-8.7436 Y-10.3332 Z5.7500 F60.00
G3 X-7.4363 Y-10.3600 Z5.7500 I0.8059 J7.4174 F60.00
G2 X-7.3513 Y-8.9409 Z5.7500 I1.3933 J0.6286 F60.00
G0 X-7.3513 Y-8.9409 Z9.0000
G0 X7.0925 Y-8.2586 Z9.0000
G1 X7.0925 Y-8.2586 Z5.7500 F60.00
G2 X8.7851 Y-7.0996 Z5.7500 I1.2042 J0.0569 F60.00
G3 X9.9500 Y-7.4325 Z5.7500 I1.0167 J1.3532 F60.00
G1 X9.9500 Y-8.8491 Z5.7500 F60.00
G2 X8.7261 Y-10.3374 Z5.7500 I-1.4573 J-0.0490 F60.00
G2 X7.4367 Y-10.3600 Z5.7500 I-0.7882 J8.1804 F60.00
G3 X7.3689 Y-8.9715 Z5.7500 I-1.3747 J0.6288 F60.00
G2 X7.0925 Y-8.2586 Z5.7500 I0.9278 J0.7698 F60.00
G0 X7.0925 Y-8.2586 Z9.0000
G0 X7.1374 Y-8.4813 Z9.0000
G1 X7.1374 Y-8.4813 Z5.7500 F60.00
G2 X8.5870 Y-7.0317 Z5.7500 I1.1543 J0.2953 F60.00
G1 X7.1374 Y-8.4813 Z5.7500 F60.00
G3 X7.3689 Y-8.9715 Z5.7500 I1.4255 J0.3734 F60.00
G2 X7.5604 Y-9.8119 Z5.7500 I-1.1022 J-0.6932 F60.00
G1 X9.9392 Y-7.4331 Z5.7500 F60.00
G1 X9.9500 Y-7.4325 Z5.7500 F60.00
G1 X9.9500 Y-8.8491 Z5.7500 F60.00
G2 X9.9077 Y-9.2182 Z5.7500 I-1.1864 J-0.0510 F60.00
G2 X8.8082 Y-10.3177 Z5.7500 I-1.3894 J0.2899 F60.00
G1 X9.9077 Y-9.2182 Z5.7500 F60.00
G1 X9.9077 Y-9.2182 Z5.5000 F60.00
G1 X8.8082 Y-10.3177 Z5.5000 F60.00
G3 X9.9077 Y-9.2182 Z5.5000 I-0.2899 J1.3894 F60.00
G3 X9.9500 Y-8.8491 Z5.5000 I-1.1441 J0.3181 F60.00
G1 X9.9500 Y-7.4325 Z5.5000 F60.00
G1 X9.9392 Y-7.4331 Z5.5000 F60.00
G1 X7.5604 Y-9.8119 Z5.5000 F60.00
G3 X7.3689 Y-8.9715 Z5.5000 I-1.2937 J0.1471 F60.00
G2 X7.1374 Y-8.4813 Z5.5000 I1.1940 J0.8636 F60.00
G1 X8.5870 Y-7.0317 Z5.5000 F60.00
G3 X7.1374 Y-8.4813 Z5.5000 I-0.2953 J-1.1543 F60.00
G0 X7.1374 Y-8.4813 Z9.0000
G0 X7.1247 Y-8.4843 Z9.0000
G1 X7.1247 Y-8.4843 Z5.5000 F60.00
G2 X8.7851 Y-7.0996 Z5.5000 I1.1719 J0.2826 F60.00
G3 X9.9500 Y-7.4325 Z5.5000 I1.0167 J1.3532 F60.00
G1 X9.9500 Y-8.8491 Z5.5000 F60.00
G2 X8.7261 Y-10.3374 Z5.5000 I-1.4573 J-0.0490 F60.00
G2 X7.4367 Y-10.3600 Z5.5000 I-0.7882 J8.1804 F60.00
G3 X7.3689 Y-8.9715 Z5.5000 I-1.3747 J0.6288 F60.00
G2 X7.1247 Y-8.4843 Z5.5000 I0.9278 J0.7698 F60.00
G0 X7.1247 Y-8.4843 Z9.0000
G0 X4.1082 Y-4.8938 Z9.0000
G1 X4.1082 Y-4.8938 Z5.5000 F60.00
G2 X-6.4056 Y0.0050 Z5.5000 I-4.1156 J4.8988 F60.00
G2 X-0.0074 Y6.4031 Z5.5000 I6.3981 J0.0000 F60.00
G2 X6.3907 Y0.0050 Z5.5000 I-0.0000 J-6.3981 F60.00
G2 X4.1082 Y-4.8938 Z5.5000 I-6.3981 J0.0000 F60.00
G0 X4.1082 Y-4.8938 Z9.0000
G0 X5.6730 Y-2.9311 Z9.0000
G1 X5.6730 Y-2.9311 Z5.5000 F60.00
G2 X2.9286 Y-5.6755 Z5.5000 I-5.6252 J2.8808 F60.00
G1 X5.6730 Y-2.9311 Z5.5000 F60.00
G3 X6.3667 Y-0.4839 Z5.5000 I-5.4731 J2.8732 F60.00
G1 X0.4814 Y-6.3692 Z5.5000 F60.00
G2 X-1.1840 Y-6.2809 Z5.5000 I-0.5288 J5.7763 F60.00
G1 X6.2784 Y1.1815 Z5.5000 F60.00
G3 X5.8693 Y2.5260 Z5.5000 I-5.8060 J-1.0319 F60.00
G1 X-2.5285 Y-5.8718 Z5.5000 F60.00
G2 X-3.6557 Y-5.2454 Z5.5000 I2.1829 J5.2558 F60.00
G1 X5.2429 Y3.6533 Z5.5000 F60.00
G3 X4.4372 Y4.6012 Z5.5000 I-4.5984 J-3.0922 F60.00
G1 X-4.6037 Y-4.4397 Z5.5000 F60.00
G2 X-5.3797 Y-3.4621 Z5.5000 I3.9623 J3.9425 F60.00
G1 X3.4597 Y5.3773 Z5.5000 F60.00
G3 X2.2965 Y5.9678 Z5.5000 I-3.0840 J-4.6339 F60.00
G1 X-5.9702 Y-2.2990 Z5.5000 F60.00
G2 X-6.3324 Y-0.9076 Z5.5000 I5.0345 J2.0533 F60.00
G1 X0.9051 Y6.3299 Z5.5000 F60.00
G3 X-0.8361 Y6.3424 Z5.5000 I-0.9109 J-5.6354 F60.00
G1 X-6.3449 Y0.8336 Z5.5000 F60.00
G2 X-5.1974 Y3.7347 Z5.5000 I6.1320 J-0.7479 F60.00
G1 X-3.7371 Y5.1949 Z5.5000 F60.00
G3 X-5.1974 Y3.7347 Z5.5000 I3.3824 J-4.8426 F60.00
G0 X-5.1974 Y3.7347 Z9.0000
G0 X-7.6116 Y7.2080 Z9.0000
G1 X-7.6116 Y7.2080 Z5.5000 F60.00
G2 X-8.7809 Y7.0979 Z5.5000 I-0.6822 J0.9815 F60.00
G3 X-9.9500 Y7.4323 Z5.5000 I-1.0208 J-1.3580 F60.00
G1 X-9.9500 Y8.8491 Z5.5000 F60.00
G2 X-8.7261 Y10.3374 Z5.5000 I1.4573 J0.0490 F60.00
G2 X-7.4363 Y10.3600 Z5.5000 I0.7884 J-8.1829 F60.00
G3 X-7.3641 Y8.9632 Z5.5000 I1.3722 J-0.6294 F60.00
G2 X-7.0985 Y8.1951 Z5.5000 I-1.0404 J-0.7897 F60.00
G2 X-7.6116 Y7.2080 Z5.5000 I-1.1952 J-0.0056 F60.00
G0 X-7.6116 Y7.2080 Z9.0000
G0 X-7.2247 Y8.7219 Z9.0000
G1 X-7.2247 Y8.7219 Z5.5000 F60.00
G1 X-8.8246 Y7.1220 Z5.5000 F60.00
G3 X-7.2247 Y8.7219 Z5.5000 I0.5335 J1.0664 F60.00
G2 X-7.4896 Y10.2106 Z5.5000 I1.3108 J1.0011 F60.00
G1 X-9.9500 Y7.7502 Z5.5000 F60.00
G1 X-9.9500 Y8.8491 Z5.5000 F60.00
G2 X-9.5219 Y9.9319 Z5.5000 I1.4873 J0.0380 F60.00
G0 X-9.5219 Y9.9319 Z9.0000
G0 X7.0992 Y8.3190 Z9.0000
G1 X7.0992 Y8.3190 Z5.5000 F60.00
G2 X7.3689 Y8.9715 Z5.5000 I1.2077 J-0.1172 F60.00
G3 X7.4367 Y10.3600 Z5.5000 I-1.3258 J0.7606 F60.00
G1 X8.4391 Y10.3600 Z5.5000 F60.00
G2 X9.9500 Y8.8491 Z5.5000 I0.0475 J-1.4634 F60.00
G1 X9.9500 Y7.4325 Z5.5000 F60.00
G3 X9.0646 Y7.2541 Z5.5000 I-0.1882 J-1.3522 F60.00
G2 X7.0992 Y8.3190 Z5.5000 I-0.7577 J0.9477 F60.00
G0 X7.0992 Y8.3190 Z9.0000
G0 X7.5355 Y9.4531 Z9.0000
G1 X7.5355 Y9.4531 Z5.5000 F60.00
G3 X7.4367 Y10.3600 Z5.5000 I-1.3717 J0.3093 F60.00
G2 X8.4422 Y10.3598 Z5.5000 I0.5012 J-6.3873 F60.00
G1 X7.5355 Y9.4531 Z5.5000 F60.00
G2 X7.2109 Y8.6940 Z5.5000 I-2.1958 J0.4901 F60.00
G3 X7.3279 Y7.4918 Z5.5000 I1.0645 J-0.5032 F60.00
G1 X9.6353 Y9.7992 Z5.5000 F60.00
G2 X9.9500 Y8.8491 Z5.5000 I-1.1532 J-0.9092 F60.00
G1 X9.9500 Y8.3603 Z5.5000 F60.00
G1 X9.9500 Y7.4325 Z5.5000 F60.00
G3 X9.3858 Y7.3870 Z5.5000 I-0.1828 J-1.2566 F60.00
G3 X8.6361 Y7.0464 Z5.5000 I2.5228 J-6.5480 F60.00
G1 X9.9500 Y8.3603 Z5.5000 F60.00
G0 X9.9500 Y8.3603 Z9.0000
G0 X-7.4124 Y-7.3861 Z9.0000
G1 X-7.4124 Y-7.3861 Z5.5000 F60.00
G2 X-7.0985 Y-8.1951 Z5.5000 I-0.8968 J-0.8133 F60.00
G2 X-7.2166 Y-8.7077 Z5.5000 I-1.1816 J0.0021 F60.00
G3 X-7.4363 Y-10.3600 Z5.5000 I1.2595 J-1.0082 F60.00
G1 X-8.4391 Y-10.3600 Z5.5000 F60.00
G2 X-9.9500 Y-8.8491 Z5.5000 I-0.0475 J1.4634 F60.00
G1 X-9.9500 Y-7.4323 Z5.5000 F60.00
G3 X-9.0672 Y-7.2555 Z5.5000 I0.1893 J1.3468 F60.00
G2 X-7.4124 Y-7.3861 Z5.5000 I0.7581 J-0.9439 F60.00
G0 X-7.4124 Y-7.3861 Z9.0000
G0 X-7.3513 Y-8.9409 Z9.0000
G1 X-7.3513 Y-8.9409 Z5.5000 F60.00
G3 X-7.4363 Y-10.3600 Z5.5000 I1.3083 J-0.7905 F60.00
G2 X-8.7436 Y-10.3332 Z5.5000 I-0.5014 J7.4442 F60.00
G1 X-7.3513 Y-8.9409 Z5.5000 F60.00
G3 X-7.4796 Y-7.3156 Z5.5000 I-0.9621 J0.7418 F60.00
G1 X-9.7658 Y-9.6018 Z5.5000 F60.00
G2 X-9.9274 Y-9.1361 Z5.5000 I0.8892 J0.5695 F60.00
G2 X-9.9500 Y-8.0324 Z5.5000 I7.0004 J0.6953 F60.00
G1 X-9.2472 Y-7.3296 Z5.5000 F60.00
G2 X-9.9500 Y-7.4323 Z5.5000 I-0.5110 J1.0399 F60.00
G1 X-9.9500 Y-8.0324 Z5.5000 F60.00
G1 X-9.9500 Y-8.0324 Z5.2500 F60.00
G1 X-9.9500 Y-7.4323 Z5.2500 F60.00
G3 X-9.2472 Y-7.3296 Z5.2500 I0.1918 J1.1427 F60.00
G1 X-9.9500 Y-8.0324 Z5.2500 F60.00
G3 X-9.9274 Y-9.1361 Z5.2500 I7.0230 J-0.4083 F60.00
G3 X-9.7658 Y-9.6018 Z5.2500 I1.0508 J0.1037 F60.00
G1 X-7.4796 Y-7.3156 Z5.2500 F60.00
G2 X-7.3513 Y-8.9409 Z5.2500 I-0.8338 J-0.8835 F60.00
G1 X-8.7436 Y-10.3332 Z5.2500 F60.00
G3 X-7.4363 Y-10.3600 Z5.2500 I0.8059 J7.4174 F60.00
G2 X-7.3513 Y-8.9409 Z5.2500 I1.3933 J0.6286 F60.00
G0 X-7.3513 Y-8.9409 Z9.0000
G0 X-7.3672 Y-8.9321 Z9.0000
G1 X-7.3672 Y-8.9321 Z5.2500 F60.00
G3 X-7.4363 Y-10.3600 Z5.2500 I1.4101 J-0.7839 F60.00
G1 X-8.4391 Y-10.3600 Z5.2500 F60.00
G2 X-9.9500 Y-8.8491 Z5.2500 I-0.0475 J1.4634 F60.00
G1 X-9.9500 Y-7.4323 Z5.2500 F60.00
G3 X-9.0672 Y-7.2555 Z5.2500 I0.1893 J1.3468 F60.00
G2 X-7.0985 Y-8.1951 Z5.2500 I0.7581 J-0.9439 F60.00
G2 X-7.2166 Y-8.7077 Z5.2500 I-1.1816 J0.0021 F60.00
G3 X-7.3672 Y-8.9321 Z5.2500 I1.2595 J-1.0082 F60.00
G0 X-7.3672 Y-8.9321 Z9.0000
G0 X-4.0747 Y-4.9340 Z9.0000
G1 X-4.0747 Y-4.9340 Z5.2500 F60.00
G2 X-6.4056 Y0.0050 Z5.2500 I4.0673 J4.9390 F60.00
G2 X-0.0074 Y6.4031 Z5.2500 I6.3981 J0.0000 F60.00
G2 X6.3907 Y0.0050 Z5.2500 I-0.0000 J-6.3981 F60.00
G2 X-4.0747 Y-4.9340 Z5.2500 I-6.3981 J0.0000 F60.00
G0 X-4.0747 Y-4.9340 Z9.0000
G0 X-5.1974 Y3.7347 Z9.0000
G1 X-5.1974 Y3.7347 Z5.2500 F60.00
G2 X-3.7371 Y5.1949 Z5.2500 I4.8426 J-3.3824 F60.00
G1 X-5.1974 Y3.7347 Z5.2500 F60.00
G3 X-6.3449 Y0.8336 Z5.2500 I4.9846 J-3.6490 F60.00
G1 X-0.8361 Y6.3424 Z5.2500 F60.00
G2 X0.9051 Y6.3299 Z5.2500 I0.8303 J-5.6478 F60.00
G1 X-6.3324 Y-0.9076 Z5.2500 F60.00
G3 X-5.9702 Y-2.2990 Z5.2500 I5.3967 J0.6619 F60.00
G1 X2.2965 Y5.9678 Z5.2500 F60.00
G2 X3.4597 Y5.3773 Z5.2500 I-1.9209 J-5.2244 F60.00
G1 X-5.3797 Y-3.4621 Z5.2500 F60.00
G3 X-4.6037 Y-4.4397 Z5.2500 I4.7384 J2.9650 F60.00
G1 X4.4372 Y4.6012 Z5.2500 F60.00
G2 X5.2429 Y3.6533 Z5.2500 I-3.7927 J-4.0401 F60.00
G1 X-3.6557 Y-5.2454 Z5.2500 F60.00
G3 X-2.5285 Y-5.8718 Z5.2500 I3.3102 J4.6294 F60.00
G1 X5.8693 Y2.5260 Z5.2500 F60.00
G2 X6.2784 Y1.1815 Z5.2500 I-5.3970 J-2.3765 F60.00
G1 X-1.1840 Y-6.2809 Z5.2500 F60.00
G3 X0.4814 Y-6.3692 Z5.2500 I1.1366 J5.6880 F60.00
G1 X6.3667 Y-0.4839 Z5.2500 F60.00
G2 X5.6730 Y-2.9311 Z5.2500 I-6.1667 J0.4259 F60.00
G1 X2.9286 Y-5.6755 Z5.2500 F60.00
G3 X5.6730 Y-2.9311 Z5.2500 I-2.8808 J5.6252 F60.00
G0 X5.6730 Y-2.9311 Z9.0000
G0 X7.7594 Y-7.1225 Z9.0000
G1 X7.7594 Y-7.1225 Z5.2500 F60.00
G2 X8.7851 Y-7.0996 Z5.2500 I0.5372 J-1.0792 F60.00
G3 X9.9500 Y-7.4325 Z5.2500 I1.0167 J1.3532 F60.00
G1 X9.9500 Y-8.8491 Z5.2500 F60.00
G2 X8.7261 Y-10.3374 Z5.2500 I-1.4573 J-0.0490 F60.00
G2 X7.4367 Y-10.3600 Z5.2500 I-0.7882 J8.1804 F60.00
G3 X7.3689 Y-8.9715 Z5.2500 I-1.3747 J0.6288 F60.00
G2 X7.7594 Y-7.1225 Z5.2500 I0.9278 J0.7698 F60.00
G0 X7.7594 Y-7.1225 Z9.0000
G0 X7.1374 Y-8.4813 Z9.0000
G1 X7.1374 Y-8.4813 Z5.2500 F60.00
G2 X8.5870 Y-7.0317 Z5.2500 I1.1543 J0.2953 F60.00
G1 X7.1374 Y-8.4813 Z5.2500 F60.00
G3 X7.3689 Y-8.9715 Z5.2500 I1.4255 J0.3734 F60.00
G2 X7.5604 Y-9.8119 Z5.2500 I-1.1022 J-0.6932 F60.00
G1 X9.9392 Y-7.4331 Z5.2500 F60.00
G1 X9.9500 Y-7.4325 Z5.2500 F60.00
G1 X9.9500 Y-8.8491 Z5.2500 F60.00
G2 X9.9077 Y-9.2182 Z5.2500 I-1.1864 J-0.0510 F60.00
G2 X8.8082 Y-10.3177 Z5.2500 I-1.3894 J0.2899 F60.00
G1 X9.9077 Y-9.2182 Z5.2500 F60.00
G0 X9.9077 Y-9.2182 Z9.0000
G0 X8.4179 Y6.9935 Z9.0000
G1 X8.4179 Y6.9935 Z5.2500 F60.00
G2 X7.3689 Y8.9715 Z5.2500 I-0.1110 J1.2083 F60.00
G3 X7.4367 Y10.3600 Z5.2500 I-1.3258 J0.7606 F60.00
G1 X8.4391 Y10.3600 Z5.2500 F60.00
G2 X9.9500 Y8.8491 Z5.2500 I0.0475 J-1.4634 F60.00
G1 X9.9500 Y7.4325 Z5.2500 F60.00
G3 X9.0646 Y7.2541 Z5.2500 I-0.1882 J-1.3522 F60.00
G2 X8.4179 Y6.9935 Z5.2500 I-0.7577 J0.9477 F60.00
G0 X8.4179 Y6.9935 Z9.0000
G0 X9.9500 Y8.3603 Z9.0000
G1 X9.9500 Y8.3603 Z5.2500 F60.00
G1 X8.6361 Y7.0464 Z5.2500 F60.00
G2 X9.3858 Y7.3870 Z5.2500 I3.2726 J-6.2073 F60.00
G2 X9.9500 Y7.4325 Z5.2500 I0.3814 J-1.2112 F60.00
G1 X9.9500 Y8.3603 Z5.2500 F60.00
G1 X9.9500 Y8.8491 Z5.2500 F60.00
G3 X9.6353 Y9.7992 Z5.2500 I-1.4679 J0.0409 F60.00
G1 X7.3279 Y7.4918 Z5.2500 F60.00
G2 X7.2109 Y8.6940 Z5.2500 I0.9475 J0.6990 F60.00
G3 X7.5355 Y9.4531 Z5.2500 I-1.8712 J1.2492 F60.00
G1 X8.4422 Y10.3598 Z5.2500 F60.00
G3 X7.4367 Y10.3600 Z5.2500 I-0.5043 J-6.3870 F60.00
G2 X7.5355 Y9.4531 Z5.2500 I-1.2729 J-0.5976 F60.00
G0 X7.5355 Y9.4531 Z9.0000
G0 X-7.1025 Y8.2780 Z9.0000
G1 X-7.1025 Y8.2780 Z5.2500 F60.00
G2 X-7.0985 Y8.1951 Z5.2500 I-1.3020 J-0.1045 F60.00
G2 X-8.7809 Y7.0979 Z5.2500 I-1.1952 J-0.0056 F60.00
G3 X-9.9500 Y7.4323 Z5.2500 I-1.0208 J-1.3580 F60.00
G1 X-9.9500 Y8.8491 Z5.2500 F60.00
G2 X-8.7261 Y10.3374 Z5.2500 I1.4573 J0.0490 F60.00
G2 X-7.4363 Y10.3600 Z5.2500 I0.7884 J-8.1829 F60.00
G3 X-7.3641 Y8.9632 Z5.2500 I1.3722 J-0.6294 F60.00
G2 X-7.1025 Y8.2780 Z5.2500 I-1.0404 J-0.7897 F60.00
G0 X-7.1025 Y8.2780 Z9.0000
G0 X-7.2247 Y8.7219 Z9.0000
G1 X-7.2247 Y8.7219 Z5.2500 F60.00
G1 X-8.8246 Y7.1220 Z5.2500 F60.00
G3 X-7.2247 Y8.7219 Z5.2500 I0.5335 J1.0664 F60.00
G2 X-7.4896 Y10.2106 Z5.2500 I1.3108 J1.0011 F60.00
G1 X-9.9500 Y7.7502 Z5.2500 F60.00
G1 X-9.9500 Y8.8491 Z5.2500 F60.00
G2 X-9.5219 Y9.9319 Z5.2500 I1.4873 J0.0380 F60.00
G1 X-9.5219 Y9.9319 Z5.0000 F60.00
G3 X-9.9500 Y8.8491 Z5.0000 I1.0593 J-1.0448 F60.00
G1 X-9.9500 Y7.7502 Z5.0000 F60.00
G1 X-7.4896 Y10.2106 Z5.0000 F60.00
G3 X-7.2247 Y8.7219 Z5.0000 I1.5757 J-0.4876 F60.00
G2 X-8.8246 Y7.1220 Z5.0000 I-1.0664 J-0.5335 F60.00
G1 X-7.2247 Y8.7219 Z5.0000 F60.00
G0 X-7.2247 Y8.7219 Z9.0000
G0 X-7.2200 Y8.7240 Z9.0000
G1 X-7.2200 Y8.7240 Z5.0000 F60.00
G2 X-7.0985 Y8.1951 Z5.0000 I-1.1844 J-0.5506 F60.00
G2 X-8.7809 Y7.0979 Z5.0000 I-1.1952 J-0.0056 F60.00
G3 X-9.9500 Y7.4323 Z5.0000 I-1.0208 J-1.3580 F60.00
G1 X-9.9500 Y8.8491 Z5.0000 F60.00
G2 X-8.7261 Y10.3374 Z5.0000 I1.4573 J0.0490 F60.00
G2 X-7.4363 Y10.3600 Z5.0000 I0.7884 J-8.1829 F60.00
G3 X-7.3641 Y8.9632 Z5.0000 I1.3722 J-0.6294 F60.00
G2 X-7.2200 Y8.7240 Z5.0000 I-1.0404 J-0.7897 F60.00
G0 X-7.2200 Y8.7240 Z9.0000
G0 X-4.0856 Y4.9349 Z9.0000
G1 X-4.0856 Y4.9349 Z5.0000 F60.00
G2 X6.3907 Y0.0050 Z5.0000 I4.0782 J-4.9300 F60.00
G2 X-6.4056 Y0.0050 Z5.0000 I-6.3981 J0.0000 F60.00
G2 X-4.0856 Y4.9349 Z5.0000 I6.3981 J0.0000 F60.00
G0 X-4.0856 Y4.9349 Z9.0000
G0 X-5.1974 Y3.7347 Z9.0000
G1 X-5.1974 Y3.7347 Z5.0000 F60.00
G2 X-3.7371 Y5.1949 Z5.0000 I4.8426 J-3.3824 F60.00
G1 X-5.1974 Y3.7347 Z5.0000 F60.00
G3 X-6.3449 Y0.8336 Z5.0000 I4.9846 J-3.6490 F60.00
G1 X-0.8361 Y6.3424 Z5.0000 F60.00
G2 X0.9051 Y6.3299 Z5.0000 I0.8303 J-5.6478 F60.00
G1 X-6.3324 Y-0.9076 Z5.0000 F60.00
G3 X-5.9702 Y-2.2990 Z5.0000 I5.3967 J0.6619 F60.00
G1 X2.2965 Y5.9678 Z5.0000 F60.00
G2 X3.4597 Y5.3773 Z5.0000 I-1.9209 J-5.2244 F60.00
G1 X-5.3797 Y-3.4621 Z5.0000 F60.00
G3 X-4.6037 Y-4.4397 Z5.0000 I4.7384 J2.9650 F60.00
G1 X4.4372 Y4.6012 Z5.0000 F60.00
G2 X5.2429 Y3.6533 Z5.0000 I-3.7927 J-4.0401 F60.00
G1 X-3.6557 Y-5.2454 Z5.0000 F60.00
G3 X-2.5285 Y-5.8718 Z5.0000 I3.3102 J4.6294 F60.00
G1 X5.8693 Y2.5260 Z5.0000 F60.00
G2 X6.2784 Y1.1815 Z5.0000 I-5.3970 J-2.3765 F60.00
G1 X-1.1840 Y-6.2809 Z5.0000 F60.00
G3 X0.4814 Y-6.3692 Z5.0000 I1.1366 J5.6880 F60.00
G1 X6.3667 Y-0.4839 Z5.0000 F60.00
G2 X5.6730 Y-2.9311 Z5.0000 I-6.1667 J0.4259 F60.00
G1 X2.9286 Y-5.6755 Z5.0000 F60.00
G3 X5.6730 Y-2.9311 Z5.0000 I-2.8808 J5.6252 F60.00
G0 X5.6730 Y-2.9311 Z9.0000
G0 X7.7594 Y-7.1225 Z9.0000
G1 X7.7594 Y-7.1225 Z5.0000 F60.00
G2 X8.7851 Y-7.0996 Z5.0000 I0.5372 J-1.0792 F60.00
G3 X9.9500 Y-7.4325 Z5.0000 I1.0167 J1.3532 F60.00
G1 X9.9500 Y-8.8491 Z5.0000 F60.00
G2 X8.7261 Y-10.3374 Z5.0000 I-1.4573 J-0.0490 F60.00
G2 X7.4367 Y-10.3600 Z5.0000 I-0.7882 J8.1804 F60.00
G3 X7.3689 Y-8.9715 Z5.0000 I-1.3747 J0.6288 F60.00
G2 X7.7594 Y-7.1225 Z5.0000 I0.9278 J0.7698 F60.00
G0 X7.7594 Y-7.1225 Z9.0000
G0 X7.1374 Y-8.4813 Z9.0000
G1 X7.1374 Y-8.4813 Z5.0000 F60.00
G2 X8.5870 Y-7.0317 Z5.0000 I1.1543 J0.2953 F60.00
G1 X7.1374 Y-8.4813 Z5.0000 F60.00
G3 X7.3689 Y-8.9715 Z5.0000 I1.4255 J0.3734 F60.00
G2 X7.5604 Y-9.8119 Z5.0000 I-1.1022 J-0.6932 F60.00
G1 X9.9392 Y-7.4331 Z5.0000 F60.00
G1 X9.9500 Y-7.4325 Z5.0000 F60.00
G1 X9.9500 Y-8.8491 Z5.0000 F60.00
G2 X9.9077 Y-9.2182 Z5.0000 I-1.1864 J-0.0510 F60.00
G2 X8.8082 Y-10.3177 Z5.0000 I-1.3894 J0.2899 F60.00
G1 X9.9077 Y-9.2182 Z5.0000 F60.00
G0 X9.9077 Y-9.2182 Z9.0000
G0 X8.4179 Y6.9935 Z9.0000
G1 X8.4179 Y6.9935 Z5.0000 F60.00
G2 X7.3689 Y8.9715 Z5.0000 I-0.1110 J1.2083 F60.00
G3 X7.4367 Y10.3600 Z5.0000 I-1.3258 J0.7606 F60.00
G1 X8.4391 Y10.3600 Z5.0000 F60.00
G2 X9.9500 Y8.8491 Z5.0000 I0.0475 J-1.4634 F60.00
G1 X9.9500 Y7.4325 Z5.0000 F60.00
G3 X9.0646 Y7.2541 Z5.0000 I-0.1882 J-1.3522 F60.00
G2 X8.4179 Y6.9935 Z5.0000 I-0.7577 J0.9477 F60.00
G0 X8.4179 Y6.9935 Z9.0000
G0 X9.9500 Y8.3603 Z9.0000
G1 X9.9500 Y8.3603 Z5.0000 F60.00
G1 X8.6361 Y7.0464 Z5.0000 F60.00
G2 X9.3858 Y7.3870 Z5.0000 I3.2726 J-6.2073 F60.00
G2 X9.9500 Y7.4325 Z5.0000 I0.3814 J-1.2112 F60.00
G1 X9.9500 Y8.3603 Z5.0000 F60.00
G1 X9.9500 Y8.8491 Z5.0000 F60.00
G3 X9.6353 Y9.7992 Z5.0000 I-1.4679 J0.0409 F60.00
G1 X7.3279 Y7.4918 Z5.0000 F60.00
G2 X7.2109 Y8.6940 Z5.0000 I0.9475 J0.6990 F60.00
G3 X7.5355 Y9.4531 Z5.0000 I-1.8712 J1.2492 F60.00
G1 X8.4422 Y10.3598 Z5.0000 F60.00
G3 X7.4367 Y10.3600 Z5.0000 I-0.5043 J-6.3870 F60.00
G2 X7.5355 Y9.4531 Z5.0000 I-1.2729 J-0.5976 F60.00
G0 X7.5355 Y9.4531 Z9.0000
G0 X-7.5005 Y-7.2985 Z9.0000
G1 X-7.5005 Y-7.2985 Z5.0000 F60.00
G2 X-7.0985 Y-8.1951 Z5.0000 I-0.8087 J-0.9010 F60.00
G2 X-7.2166 Y-8.7077 Z5.0000 I-1.1816 J0.0021 F60.00
G3 X-7.4363 Y-10.3600 Z5.0000 I1.2595 J-1.0082 F60.00
G1 X-8.4391 Y-10.3600 Z5.0000 F60.00
G2 X-9.9500 Y-8.8491 Z5.0000 I-0.0475 J1.4634 F60.00
G1 X-9.9500 Y-7.4323 Z5.0000 F60.00
G3 X-9.0672 Y-7.2555 Z5.0000 I0.1893 J1.3468 F60.00
G2 X-7.5005 Y-7.2985 Z5.0000 I0.7581 J-0.9439 F60.00
G0 X-7.5005 Y-7.2985 Z9.0000
G0 X-7.3513 Y-8.9409 Z9.0000
G1 X-7.3513 Y-8.9409 Z5.0000 F60.00
G3 X-7.4363 Y-10.3600 Z5.0000 I1.3083 J-0.7905 F60.00
G2 X-8.7436 Y-10.3332 Z5.0000 I-0.5014 J7.4442 F60.00
G1 X-7.3513 Y-8.9409 Z5.0000 F60.00
G3 X-7.4796 Y-7.3156 Z5.0000 I-0.9621 J0.7418 F60.00
G1 X-9.7658 Y-9.6018 Z5.0000 F60.00
G2 X-9.9274 Y-9.1361 Z5.0000 I0.8892 J0.5695 F60.00
G2 X-9.9500 Y-8.0324 Z5.0000 I7.0004 J0.6953 F60.00
G1 X-9.2472 Y-7.3296 Z5.0000 F60.00
G2 X-9.9500 Y-7.4323 Z5.0000 I-0.5110 J1.0399 F60.00
G1 X-9.9500 Y-8.0324 Z5.0000 F60.00
G1 X-9.9500 Y-8.0324 Z4.7500 F60.00
G1 X-9.9500 Y-7.4323 Z4.7500 F60.00
G3 X-9.2472 Y-7.3296 Z4.7500 I0.1918 J1.1427 F60.00
G1 X-9.9500 Y-8.0324 Z4.7500 F60.00
G3 X-9.9274 Y-9.1361 Z4.7500 I7.0230 J-0.4083 F60.00
G3 X-9.7658 Y-9.6018 Z4.7500 I1.0508 J0.1037 F60.00
G1 X-7.4796 Y-7.3156 Z4.7500 F60.00
G2 X-7.3513 Y-8.9409 Z4.7500 I-0.8338 J-0.8835 F60.00
G1 X-8.7436 Y-10.3332 Z4.7500 F60.00
G3 X-7.4363 Y-10.3600 Z4.7500 I0.8059 J7.4174 F60.00
G2 X-7.3513 Y-8.9409 Z4.7500 I1.3933 J0.6286 F60.00
G0 X-7.3513 Y-8.9409 Z9.0000
G0 X-7.3672 Y-8.9321 Z9.0000
G1 X-7.3672 Y-8.9321 Z4.7500 F60.00
G3 X-7.4363 Y-10.3600 Z4.7500 I1.4101 J-0.7839 F60.00
G1 X-8.4391 Y-10.3600 Z4.7500 F60.00
G2 X-9.9500 Y-8.8491 Z4.7500 I-0.0475 J1.4634 F60.00
G1 X-9.9500 Y-7.4323 Z4.7500 F60.00
G3 X-9.0672 Y-7.2555 Z4.7500 I0.1893 J1.3468 F60.00
G2 X-7.0985 Y-8.1951 Z4.7500 I0.7581 J-0.9439 F60.00
G2 X-7.2166 Y-8.7077 Z4.7500 I-1.1816 J0.0021 F60.00
G3 X-7.3672 Y-8.9321 Z4.7500 I1.2595 J-1.0082 F60.00
G0 X-7.3672 Y-8.9321 Z9.0000
G0 X-4.0747 Y-4.9340 Z9.0000
G1 X-4.0747 Y-4.9340 Z4.7500 F60.00
G2 X-6.4056 Y0.0050 Z4.7500 I4.0673 J4.9390 F60.00
G2 X-0.0074 Y6.4031 Z4.7500 I6.3981 J0.0000 F60.00
G2 X6.3907 Y0.0050 Z4.7500 I-0.0000 J-6.3981 F60.00
G2 X-4.0747 Y-4.9340 Z4.7500 I-6.3981 J0.0000 F60.00
G0 X-4.0747 Y-4.9340 Z9.0000
G0 X-5.1974 Y3.7347 Z9.0000
G1 X-5.1974 Y3.7347 Z4.7500 F60.00
G2 X-3.7371 Y5.1949 Z4.7500 I4.8426 J-3.3824 F60.00
G1 X-5.1974 Y3.7347 Z4.7500 F60.00
G3 X-6.3449 Y0.8336 Z4.7500 I4.9846 J-3.6490 F60.00
G1 X-0.8361 Y6.3424 Z4.7500 F60.00
G2 X0.9051 Y6.3299 Z4.7500 I0.8303 J-5.6478 F60.00
G1 X-6.3324 Y-0.9076 Z4.7500 F60.00
G3 X-5.9702 Y-2.2990 Z4.7500 I5.3967 J0.6619 F60.00
G1 X2.2965 Y5.9678 Z4.7500 F60.00
G2 X3.4597 Y5.3773 Z4.7500 I-1.9209 J-5.2244 F60.00
G1 X-5.3797 Y-3.4621 Z4.7500 F60.00
G3 X-4.6037 Y-4.4397 Z4.7500 I4.7384 J2.9650 F60.00
G1 X4.4372 Y4.6012 Z4.7500 F60.00
G2 X5.2429 Y3.6533 Z4.7500 I-3.7927 J-4.0401 F60.00
G1 X-3.6557 Y-5.2454 Z4.7500 F60.00
G3 X-2.5285 Y-5.8718 Z4.7500 I3.3102 J4.6294 F60.00
G1 X5.8693 Y2.5260 Z4.7500 F60.00
G2 X6.2784 Y1.1815 Z4.7500 I-5.3970 J-2.3765 F60.00
G1 X-1.1840 Y-6.2809 Z4.7500 F60.00
G3 X0.4814 Y-6.3692 Z4.7500 I1.1366 J5.6880 F60.00
G1 X6.3667 Y-0.4839 Z4.7500 F60.00
G2 X5.6730 Y-2.9311 Z4.7500 I-6.1667 J0.4259 F60.00
G1 X2.9286 Y-5.6755 Z4.7500 F60.00
G3 X5.6730 Y-2.9311 Z4.7500 I-2.8808 J5.6252 F60.00
G0 X5.6730 Y-2.9311 Z9.0000
G0 X7.7594 Y-7.1225 Z9.0000
G1 X7.7594 Y-7.1225 Z4.7500 F60.00
G2 X8.7851 Y-7.0996 Z4.7500 I0.5372 J-1.0792 F60.00
G3 X9.9500 Y-7.4325 Z4.7500 I1.0167 J1.3532 F60.00
G1 X9.9500 Y-8.8491 Z4.7500 F60.00
G2 X8.7261 Y-10.3374 Z4.7500 I-1.4573 J-0.0490 F60.00
G2 X7.4367 Y-10.3600 Z4.7500 I-0.7882 J8.1804 F60.00
G3 X7.3689 Y-8.9715 Z4.7500 I-1.3747 J0.6288 F60.00
G2 X7.7594 Y-7.1225 Z4.7500 I0.9278 J0.7698 F60.00
G0 X7.7594 Y-7.1225 Z9.0000
G0 X7.1374 Y-8.4813 Z9.0000
G1 X7.1374 Y-8.4813 Z4.7500 F60.00
G2 X8.5870 Y-7.0317 Z4.7500 I1.1543 J0.2953 F60.00
G1 X7.1374 Y-8.4813 Z4.7500 F60.00
G3 X7.3689 Y-8.9715 Z4.7500 I1.4255 J0.3734 F60.00
G2 X7.5604 Y-9.8119 Z4.7500 I-1.1022 J-0.6932 F60.00
G1 X9.9392 Y-7.4331 Z4.7500 F60.00
G1 X9.9500 Y-7.4325 Z4.7500 F60.00
G1 X9.9500 Y-8.8491 Z4.7500 F60.00
G2 X9.9077 Y-9.2182 Z4.7500 I-1.1864 J-0.0510 F60.00
G2 X8.8082 Y-10.3177 Z4.7500 I-1.3894 J0.2899 F60.00
G1 X9.9077 Y-9.2182 Z4.7500 F60.00
G0 X9.9077 Y-9.2182 Z9.0000
G0 X8.4179 Y6.9935 Z9.0000
G1 X8.4179 Y6.9935 Z4.7500 F60.00
G2 X7.3689 Y8.9715 Z4.7500 I-0.1110 J1.2083 F60.00
G3 X7.4367 Y10.3600 Z4.7500 I-1.3258 J0.7606 F60.00
G1 X8.4391 Y10.3600 Z4.7500 F60.00
G2 X9.9500 Y8.8491 Z4.7500 I0.0475 J-1.4634 F60.00
G1 X9.9500 Y7.4325 Z4.7500 F60.00
G3 X9.0646 Y7.2541 Z4.7500 I-0.1882 J-1.3522 F60.00
G2 X8.4179 Y6.9935 Z4.7500 I-0.7577 J0.9477 F60.00
G0 X8.4179 Y6.9935 Z9.0000
G0 X9.9500 Y8.3603 Z9.0000
G1 X9.9500 Y8.3603 Z4.7500 F60.00
G1 X8.6361 Y7.0464 Z4.7500 F60.00
G2 X9.3858 Y7.3870 Z4.7500 I3.2726 J-6.2073 F60.00
G2 X9.9500 Y7.4325 Z4.7500 I0.3814 J-1.2112 F60.00
G1 X9.9500 Y8.3603 Z4.7500 F60.00
G1 X9.9500 Y8.8491 Z4.7500 F60.00
G3 X9.6353 Y9.7992 Z4.7500 I-1.4679 J0.0409 F60.00
G1 X7.3279 Y7.4918 Z4.7500 F60.00
G2 X7.2109 Y8.6940 Z4.7500 I0.9475 J0.6990 F60.00
G3 X7.5355 Y9.4531 Z4.7500 I-1.8712 J1.2492 F60.00
G1 X8.4422 Y10.3598 Z4.7500 F60.00
G3 X7.4367 Y10.3600 Z4.7500 I-0.5043 J-6.3870 F60.00
G2 X7.5355 Y9.4531 Z4.7500 I-1.2729 J-0.5976 F60.00
G0 X7.5355 Y9.4531 Z9.0000
G0 X-7.1025 Y8.2780 Z9.0000
G1 X-7.1025 Y8.2780 Z4.7500 F60.00
G2 X-7.0985 Y8.1951 Z4.7500 I-1.3020 J-0.1045 F60.00
G2 X-8.7809 Y7.0979 Z4.7500 I-1.1952 J-0.0056 F60.00
G3 X-9.9500 Y7.4323 Z4.7500 I-1.0208 J-1.3580 F60.00
G1 X-9.9500 Y8.8491 Z4.7500 F60.00
G2 X-8.7261 Y10.3374 Z4.7500 I1.4573 J0.0490 F60.00
G2 X-7.4363 Y10.3600 Z4.7500 I0.7884 J-8.1829 F60.00
G3 X-7.3641 Y8.9632 Z4.7500 I1.3722 J-0.6294 F60.00
G2 X-7.1025 Y8.2780 Z4.7500 I-1.0404 J-0.7897 F60.00
G0 X-7.1025 Y8.2780 Z9.0000
G0 X-7.2247 Y8.7219 Z9.0000
G1 X-7.2247 Y8.7219 Z4.7500 F60.00
G1 X-8.8246 Y7.1220 Z4.7500 F60.00
G3 X-7.2247 Y8.7219 Z4.7500 I0.5335 J1.0664 F60.00
G2 X-7.4896 Y10.2106 Z4.7500 I1.3108 J1.0011 F60.00
G1 X-9.9500 Y7.7502 Z4.7500 F60.00
G1 X-9.9500 Y8.8491 Z4.7500 F60.00
G2 X-9.5219 Y9.9319 Z4.7500 I1.4873 J0.0380 F60.00
G1 X-9.5219 Y9.9319 Z4.5000 F60.00
G3 X-9.9500 Y8.8491 Z4.5000 I1.0593 J-1.0448 F60.00
G1 X-9.9500 Y7.7502 Z4.5000 F60.00
G1 X-7.4896 Y10.2106 Z4.5000 F60.00
G3 X-7.2247 Y8.7219 Z4.5000 I1.5757 J-0.4876 F60.00
G2 X-8.8246 Y7.1220 Z4.5000 I-1.0664 J-0.5335 F60.00
G1 X-7.2247 Y8.7219 Z4.5000 F60.00
G0 X-7.2247 Y8.7219 Z9.0000
G0 X-7.2200 Y8.7240 Z9.0000
G1 X-7.2200 Y8.7240 Z4.5000 F60.00
G2 X-7.0985 Y8.1951 Z4.5000 I-1.1844 J-0.5506 F60.00
G2 X-8.7809 Y7.0979 Z4.5000 I-1.1952 J-0.0056 F60.00
G3 X-9.9500 Y7.4323 Z4.5000 I-1.0208 J-1.3580 F60.00
G1 X-9.9500 Y8.8491 Z4.5000 F60.00
G2 X-8.7261 Y10.3374 Z4.5000 I1.4573 J0.0490 F60.00
G2 X-7.4363 Y10.3600 Z4.5000 I0.7884 J-8.1829 F60.00
G3 X-7.3641 Y8.9632 Z4.5000 I1.3722 J-0.6294 F60.00
G2 X-7.2200 Y8.7240 Z4.5000 I-1.0404 J-0.7897 F60.00
G0 X-7.2200 Y8.7240 Z9.0000
G0 X-4.0856 Y4.9349 Z9.0000
G1 X-4.0856 Y4.9349 Z4.5000 F60.00
G2 X6.3907 Y0.0050 Z4.5000 I4.0782 J-4.9300 F60.00
G2 X-6.4056 Y0.0050 Z4.5000 I-6.3981 J0.0000 F60.00
G2 X-4.0856 Y4.9349 Z4.5000 I6.3981 J0.0000 F60.00
G0 X-4.0856 Y4.9349 Z9.0000
G0 X-5.1974 Y3.7347 Z9.0000
G1 X-5.1974 Y3.7347 Z4.5000 F60.00
G2 X-3.7371 Y5.1949 Z4.5000 I4.8426 J-3.3824 F60.00
G1 X-5.1974 Y3.7347 Z4.5000 F60.00
G3 X-6.3449 Y0.8336 Z4.5000 I4.9846 J-3.6490 F60.00
G1 X-0.8361 Y6.3424 Z4.5000 F60.00
G2 X0.9051 Y6.3299 Z4.5000 I0.8303 J-5.6478 F60.00
G1 X-6.3324 Y-0.9076 Z4.5000 F60.00
G3 X-5.9702 Y-2.2990 Z4.5000 I5.3967 J0.6619 F60.00
G1 X2.2965 Y5.9678 Z4.5000 F60.00
G2 X3.4597 Y5.3773 Z4.5000 I-1.9209 J-5.2244 F60.00
G1 X-5.3797 Y-3.4621 Z4.5000 F60.00
G3 X-4.6037 Y-4.4397 Z4.5000 I4.7384 J2.9650 F60.00
G1 X4.4372 Y4.6012 Z4.5000 F60.00
G2 X5.2429 Y3.6533 Z4.5000 I-3.7927 J-4.0401 F60.00
G1 X-3.6557 Y-5.2454 Z4.5000 F60.00
G3 X-2.5285 Y-5.8718 Z4.5000 I3.3102 J4.6294 F60.00
G1 X5.8693 Y2.5260 Z4.5000 F60.00
G2 X6.2784 Y1.1815 Z4.5000 I-5.3970 J-2.3765 F60.00
G1 X-1.1840 Y-6.2809 Z4.5000 F60.00
G3 X0.4814 Y-6.3692 Z4.5000 I1.1366 J5.6880 F60.00
G1 X6.3667 Y-0.4839 Z4.5000 F60.00
G2 X5.6730 Y-2.9311 Z4.5000 I-6.1667 J0.4259 F60.00
G1 X2.9286 Y-5.6755 Z4.5000 F60.00
G3 X5.6730 Y-2.9311 Z4.5000 I-2.8808 J5.6252 F60.00
G0 X5.6730 Y-2.9311 Z9.0000
G0 X7.7594 Y-7.1225 Z9.0000
G1 X7.7594 Y-7.1225 Z4.5000 F60.00
G2 X8.7851 Y-7.0996 Z4.5000 I0.5372 J-1.0792 F60.00
G3 X9.9500 Y-7.4325 Z4.5000 I1.0167 J1.3532 F60.00
G1 X9.9500 Y-8.8491 Z4.5000 F60.00
G2 X8.7261 Y-10.3374 Z4.5000 I-1.4573 J-0.0490 F60.00
G2 X7.4367 Y-10.3600 Z4.5000 I-0.7882 J8.1804 F60.00
G3 X7.3689 Y-8.9715 Z4.5000 I-1.3747 J0.6288 F60.00
G2 X7.7594 Y-7.1225 Z4.5000 I0.9278 J0.7698 F60.00
G0 X7.7594 Y-7.1225 Z9.0000
G0 X7.1374 Y-8.4813 Z9.0000
G1 X7.1374 Y-8.4813 Z4.5000 F60.00
G2 X8.5870 Y-7.0317 Z4.5000 I1.1543 J0.2953 F60.00
G1 X7.1374 Y-8.4813 Z4.5000 F60.00
G3 X7.3689 Y-8.9715 Z4.5000 I1.4255 J0.3734 F60.00
G2 X7.5604 Y-9.8119 Z4.5000 I-1.1022 J-0.6932 F60.00
G1 X9.9392 Y-7.4331 Z4.5000 F60.00
G1 X9.9500 Y-7.4325 Z4.5000 F60.00
G1 X9.9500 Y-8.8491 Z4.5000 F60.00
G2 X9.9077 Y-9.2182 Z4.5000 I-1.1864 J-0.0510 F60.00
G2 X8.8082 Y-10.3177 Z4.5000 I-1.3894 J0.2899 F60.00
G1 X9.9077 Y-9.2182 Z4.5000 F60.00
G0 X9.9077 Y-9.2182 Z9.0000
G0 X8.4179 Y6.9935 Z9.0000
G1 X8.4179 Y6.9935 Z4.5000 F60.00
G2 X7.3689 Y8.9715 Z4.5000 I-0.1110 J1.2083 F60.00
G3 X7.4367 Y10.3600 Z4.5000 I-1.3258 J0.7606 F60.00
G1 X8.4391 Y10.3600 Z4.5000 F60.00
G2 X9.9500 Y8.8491 Z4.5000 I0.0475 J-1.4634 F60.00
G1 X9.9500 Y7.4325 Z4.5000 F60.00
G3 X9.0646 Y7.2541 Z4.5000 I-0.1882 J-1.3522 F60.00
G2 X8.4179 Y6.9935 Z4.5000 I-0.7577 J0.9477 F60.00
G0 X8.4179 Y6.9935 Z9.0000
G0 X9.9500 Y8.3603 Z9.0000
G1 X9.9500 Y8.3603 Z4.5000 F60.00
G1 X8.6361 Y7.0464 Z4.5000 F60.00
G2 X9.3858 Y7.3870 Z4.5000 I3.2726 J-6.2073 F60.00
G2 X9.9500 Y7.4325 Z4.5000 I0.3814 J-1.2112 F60.00
G1 X9.9500 Y8.3603 Z4.5000 F60.00
G1 X9.9500 Y8.8491 Z4.5000 F60.00
G3 X9.6353 Y9.7992 Z4.5000 I-1.4679 J0.0409 F60.00
G1 X7.3279 Y7.4918 Z4.5000 F60.00
G2 X7.2109 Y8.6940 Z4.5000 I0.9475 J0.6990 F60.00
G3 X7.5355 Y9.4531 Z4.5000 I-1.8712 J1.2492 F60.00
G1 X8.4422 Y10.3598 Z4.5000 F60.00
G3 X7.4367 Y10.3600 Z4.5000 I-0.5043 J-6.3870 F60.00
G2 X7.5355 Y9.4531 Z4.5000 I-1.2729 J-0.5976 F60.00
G0 X7.5355 Y9.4531 Z9.0000
G0 X-7.5005 Y-7.2985 Z9.0000
G1 X-7.5005 Y-7.2985 Z4.5000 F60.00
G2 X-7.0985 Y-8.1951 Z4.5000 I-0.8087 J-0.9010 F60.00
G2 X-7.2166 Y-8.7077 Z4.5000 I-1.1816 J0.0021 F60.00
G3 X-7.4363 Y-10.3600 Z4.5000 I1.2595 J-1.0082 F60.00
G1 X-8.4391 Y-10.3600 Z4.5000 F60.00
G2 X-9.9500 Y-8.8491 Z4.5000 I-0.0475 J1.4634 F60.00
G1 X-9.9500 Y-7.4323 Z4.5000 F60.00
G3 X-9.0672 Y-7.2555 Z4.5000 I0.1893 J1.3468 F60.00
G2 X-7.5005 Y-7.2985 Z4.5000 I0.7581 J-0.9439 F60.00
G0 X-7.5005 Y-7.2985 Z9.0000
G0 X-7.3513 Y-8.9409 Z9.0000
G1 X-7.3513 Y-8.9409 Z4.5000 F60.00
G3 X-7.4363 Y-10.3600 Z4.5000 I1.3083 J-0.7905 F60.00
G2 X-8.7436 Y-10.3332 Z4.5000 I-0.5014 J7.4442 F60.00
G1 X-7.3513 Y-8.9409 Z4.5000 F60.00
G3 X-7.4796 Y-7.3156 Z4.5000 I-0.9621 J0.7418 F60.00
G1 X-9.7658 Y-9.6018 Z4.5000 F60.00
G2 X-9.9274 Y-9.1361 Z4.5000 I0.8892 J0.5695 F60.00
G2 X-9.9500 Y-8.0324 Z4.5000 I7.0004 J0.6953 F60.00
G1 X-9.2472 Y-7.3296 Z4.5000 F60.00
G2 X-9.9500 Y-7.4323 Z4.5000 I-0.5110 J1.0399 F60.00
G1 X-9.9500 Y-8.0324 Z4.5000 F60.00
G1 X-9.9500 Y-8.0324 Z4.2500 F60.00
G1 X-9.9500 Y-7.4323 Z4.2500 F60.00
G3 X-9.2472 Y-7.3296 Z4.2500 I0.1918 J1.1427 F60.00
G1 X-9.9500 Y-8.0324 Z4.2500 F60.00
G3 X-9.9274 Y-9.1361 Z4.2500 I7.0230 J-0.4083 F60.00
G3 X-9.7658 Y-9.6018 Z4.2500 I1.0508 J0.1037 F60.00
G1 X-7.4796 Y-7.3156 Z4.2500 F60.00
G2 X-7.3513 Y-8.9409 Z4.2500 I-0.8338 J-0.8835 F60.00
G1 X-8.7436 Y-10.3332 Z4.2500 F60.00
G3 X-7.4363 Y-10.3600 Z4.2500 I0.8059 J7.4174 F60.00
G2 X-7.3513 Y-8.9409 Z4.2500 I1.3933 J0.6286 F60.00
G0 X-7.3513 Y-8.9409 Z9.0000
G0 X-7.3672 Y-8.9321 Z9.0000
G1 X-7.3672 Y-8.9321 Z4.2500 F60.00
G3 X-7.4363 Y-10.3600 Z4.2500 I1.4101 J-0.7839 F60.00
G1 X-8.4391 Y-10.3600 Z4.2500 F60.00
G2 X-9.9500 Y-8.8491 Z4.2500 I-0.0475 J1.4634 F60.00
G1 X-9.9500 Y-7.4323 Z4.2500 F60.00
G3 X-9.0672 Y-7.2555 Z4.2500 I0.1893 J1.3468 F60.00
G2 X-7.0985 Y-8.1951 Z4.2500 I0.7581 J-0.9439 F60.00
G2 X-7.2166 Y-8.7077 Z4.2500 I-1.1816 J0.0021 F60.00
G3 X-7.3672 Y-8.9321 Z4.2500 I1.2595 J-1.0082 F60.00
G0 X-7.3672 Y-8.9321 Z9.0000
G0 X-4.0747 Y-4.9340 Z9.0000
G1 X-4.0747 Y-4.9340 Z4.2500 F60.00
G2 X-6.4056 Y0.0050 Z4.2500 I4.0673 J4.9390 F60.00
G2 X-0.0074 Y6.4031 Z4.2500 I6.3981 J0.0000 F60.00
G2 X6.3907 Y0.0050 Z4.2500 I-0.0000 J-6.3981 F60.00
G2 X-4.0747 Y-4.9340 Z4.2500 I-6.3981 J0.0000 F60.00
G0 X-4.0747 Y-4.9340 Z9.0000
G0 X-5.1974 Y3.7347 Z9.0000
G1 X-5.1974 Y3.7347 Z4.2500 F60.00
G2 X-3.7371 Y5.1949 Z4.2500 I4.8426 J-3.3824 F60.00
G1 X-5.1974 Y3.7347 Z4.2500 F60.00
G3 X-6.3449 Y0.8336 Z4.2500 I4.9846 J-3.6490 F60.00
G1 X-0.8361 Y6.3424 Z4.2500 F60.00
G2 X0.9051 Y6.3299 Z4.2500 I0.8303 J-5.6478 F60.00
G1 X-6.3324 Y-0.9076 Z4.2500 F60.00
G3 X-5.9702 Y-2.2990 Z4.2500 I5.3967 J0.6619 F60.00
G1 X2.2965 Y5.9678 Z4.2500 F60.00
G2 X3.4597 Y5.3773 Z4.2500 I-1.9209 J-5.2244 F60.00
G1 X-5.3797 Y-3.4621 Z4.2500 F60.00
G3 X-4.6037 Y-4.4397 Z4.2500 I4.7384 J2.9650 F60.00
G1 X4.4372 Y4.6012 Z4.2500 F60.00
G2 X5.2429 Y3.6533 Z4.2500 I-3.7927 J-4.0401 F60.00
G1 X-3.6557 Y-5.2454 Z4.2500 F60.00
G3 X-2.5285 Y-5.8718 Z4.2500 I3.3102 J4.6294 F60.00
G1 X5.8693 Y2.5260 Z4.2500 F60.00
G2 X6.2784 Y1.1815 Z4.2500 I-5.3970 J-2.3765 F60.00
G1 X-1.1840 Y-6.2809 Z4.2500 F60.00
G3 X0.4814 Y-6.3692 Z4.2500 I1.1366 J5.6880 F60.00
G1 X6.3667 Y-0.4839 Z4.2500 F60.00
G2 X5.6730 Y-2.9311 Z4.2500 I-6.1667 J0.4259 F60.00
G1 X2.9286 Y-5.6755 Z4.2500 F60.00
G3 X5.6730 Y-2.9311 Z4.2500 I-2.8808 J5.6252 F60.00
G0 X5.6730 Y-2.9311 Z9.0000
G0 X7.7594 Y-7.1225 Z9.0000
G1 X7.7594 Y-7.1225 Z4.2500 F60.00
G2 X8.7851 Y-7.0996 Z4.2500 I0.5372 J-1.0792 F60.00
G3 X9.9500 Y-7.4325 Z4.2500 I1.0167 J1.3532 F60.00
G1 X9.9500 Y-8.8491 Z4.2500 F60.00
G2 X8.7261 Y-10.3374 Z4.2500 I-1.4573 J-0.0490 F60.00
G2 X7.4367 Y-10.3600 Z4.2500 I-0.7882 J8.1804 F60.00
G3 X7.3689 Y-8.9715 Z4.2500 I-1.3747 J0.6288 F60.00
G2 X7.7594 Y-7.1225 Z4.2500 I0.9278 J0.7698 F60.00
G0 X7.7594 Y-7.1225 Z9.0000
G0 X7.1374 Y-8.4813 Z9.0000
G1 X7.1374 Y-8.4813 Z4.2500 F60.00
G2 X8.5870 Y-7.0317 Z4.2500 I1.1543 J0.2953 F60.00
G1 X7.1374 Y-8.4813 Z4.2500 F60.00
G3 X7.3689 Y-8.9715 Z4.2500 I1.4255 J0.3734 F60.00
G2 X7.5604 Y-9.8119 Z4.2500 I-1.1022 J-0.6932 F60.00
G1 X9.9392 Y-7.4331 Z4.2500 F60.00
G1 X9.9500 Y-7.4325 Z4.2500 F60.00
G1 X9.9500 Y-8.8491 Z4.2500 F60.00
G2 X9.9077 Y-9.2182 Z4.2500 I-1.1864 J-0.0510 F60.00
G2 X8.8082 Y-10.3177 Z4.2500 I-1.3894 J0.2899 F60.00
G1 X9.9077 Y-9.2182 Z4.2500 F60.00
G0 X9.9077 Y-9.2182 Z9.0000
G0 X8.4179 Y6.9935 Z9.0000
G1 X8.4179 Y6.9935 Z4.2500 F60.00
G2 X7.3689 Y8.9715 Z4.2500 I-0.1110 J1.2083 F60.00
G3 X7.4367 Y10.3600 Z4.2500 I-1.3258 J0.7606 F60.00
G1 X8.4391 Y10.3600 Z4.2500 F60.00
G2 X9.9500 Y8.8491 Z4.2500 I0.0475 J-1.4634 F60.00
G1 X9.9500 Y7.4325 Z4.2500 F60.00
G3 X9.0646 Y7.2541 Z4.2500 I-0.1882 J-1.3522 F60.00
G2 X8.4179 Y6.9935 Z4.2500 I-0.7577 J0.9477 F60.00
G0 X8.4179 Y6.9935 Z9.0000
G0 X9.9500 Y8.3603 Z9.0000
G1 X9.9500 Y8.3603 Z4.2500 F60.00
G1 X8.6361 Y7.0464 Z4.2500 F60.00
G2 X9.3858 Y7.3870 Z4.2500 I3.2726 J-6.2073 F60.00
G2 X9.9500 Y7.4325 Z4.2500 I0.3814 J-1.2112 F60.00
G1 X9.9500 Y8.3603 Z4.2500 F60.00
G1 X9.9500 Y8.8491 Z4.2500 F60.00
G3 X9.6353 Y9.7992 Z4.2500 I-1.4679 J0.0409 F60.00
G1 X7.3279 Y7.4918 Z4.2500 F60.00
G2 X7.2109 Y8.6940 Z4.2500 I0.9475 J0.6990 F60.00
G3 X7.5355 Y9.4531 Z4.2500 I-1.8712 J1.2492 F60.00
G1 X8.4422 Y10.3598 Z4.2500 F60.00
G3 X7.4367 Y10.3600 Z4.2500 I-0.5043 J-6.3870 F60.00
G2 X7.5355 Y9.4531 Z4.2500 I-1.2729 J-0.5976 F60.00
G0 X7.5355 Y9.4531 Z9.0000
G0 X-7.1025 Y8.2780 Z9.0000
G1 X-7.1025 Y8.2780 Z4.2500 F60.00
G2 X-7.0985 Y8.1951 Z4.2500 I-1.3020 J-0.1045 F60.00
G2 X-8.7809 Y7.0979 Z4.2500 I-1.1952 J-0.0056 F60.00
G3 X-9.9500 Y7.4323 Z4.2500 I-1.0208 J-1.3580 F60.00
G1 X-9.9500 Y8.8491 Z4.2500 F60.00
G2 X-8.7261 Y10.3374 Z4.2500 I1.4573 J0.0490 F60.00
G2 X-7.4363 Y10.3600 Z4.2500 I0.7884 J-8.1829 F60.00
G3 X-7.3641 Y8.9632 Z4.2500 I1.3722 J-0.6294 F60.00
G2 X-7.1025 Y8.2780 Z4.2500 I-1.0404 J-0.7897 F60.00
G0 X-7.1025 Y8.2780 Z9.0000
G0 X-7.2247 Y8.7219 Z9.0000
G1 X-7.2247 Y8.7219 Z4.2500 F60.00
G1 X-8.8246 Y7.1220 Z4.2500 F60.00
G3 X-7.2247 Y8.7219 Z4.2500 I0.5335 J1.0664 F60.00
G2 X-7.4896 Y10.2106 Z4.2500 I1.3108 J1.0011 F60.00
G1 X-9.9500 Y7.7502 Z4.2500 F60.00
G1 X-9.9500 Y8.8491 Z4.2500 F60.00
G2 X-9.5219 Y9.9319 Z4.2500 I1.4873 J0.0380 F60.00
G1 X-9.5219 Y9.9319 Z4.0000 F60.00
G3 X-9.9500 Y8.8491 Z4.0000 I1.0593 J-1.0448 F60.00
G1 X-9.9500 Y7.7502 Z4.0000 F60.00
G1 X-7.4896 Y10.2106 Z4.0000 F60.00
G3 X-7.2247 Y8.7219 Z4.0000 I1.5757 J-0.4876 F60.00
G2 X-8.8246 Y7.1220 Z4.0000 I-1.0664 J-0.5335 F60.00
G1 X-7.2247 Y8.7219 Z4.0000 F60.00
G0 X-7.2247 Y8.7219 Z9.0000
G0 X-7.2200 Y8.7240 Z9.0000
G1 X-7.2200 Y8.7240 Z4.0000 F60.00
G2 X-7.0985 Y8.1951 Z4.0000 I-1.1844 J-0.5506 F60.00
G2 X-8.7809 Y7.0979 Z4.0000 I-1.1952 J-0.0056 F60.00
G3 X-9.9500 Y7.4323 Z4.0000 I-1.0208 J-1.3580 F60.00
G1 X-9.9500 Y8.8491 Z4.0000 F60.00
G2 X-8.7261 Y10.3374 Z4.0000 I1.4573 J0.0490 F60.00
G2 X-7.4363 Y10.3600 Z4.0000 I0.7884 J-8.1829 F60.00
G3 X-7.3641 Y8.9632 Z4.0000 I1.3722 J-0.6294 F60.00
G2 X-7.2200 Y8.7240 Z4.0000 I-1.0404 J-0.7897 F60.00
G0 X-7.2200 Y8.7240 Z9.0000
G0 X-4.0856 Y4.9349 Z9.0000
G1 X-4.0856 Y4.9349 Z4.0000 F60.00
G2 X6.3907 Y0.0050 Z4.0000 I4.0782 J-4.9300 F60.00
G2 X-6.4056 Y0.0050 Z4.0000 I-6.3981 J0.0000 F60.00
G2 X-4.0856 Y4.9349 Z4.0000 I6.3981 J0.0000 F60.00
G0 X-4.0856 Y4.9349 Z9.0000
G0 X-5.1974 Y3.7347 Z9.0000
G1 X-5.1974 Y3.7347 Z4.0000 F60.00
G2 X-3.7371 Y5.1949 Z4.0000 I4.8426 J-3.3824 F60.00
G1 X-5.1974 Y3.7347 Z4.0000 F60.00
G3 X-6.3449 Y0.8336 Z4.0000 I4.9846 J-3.6490 F60.00
G1 X-0.8361 Y6.3424 Z4.0000 F60.00
G2 X0.9051 Y6.3299 Z4.0000 I0.8303 J-5.6478 F60.00
G1 X-6.3324 Y-0.9076 Z4.0000 F60.00
G3 X-5.9702 Y-2.2990 Z4.0000 I5.3967 J0.6619 F60.00
G1 X2.2965 Y5.9678 Z4.0000 F60.00
G2 X3.4597 Y5.3773 Z4.0000 I-1.9209 J-5.2244 F60.00
G1 X-5.3797 Y-3.4621 Z4.0000 F60.00
G3 X-4.6037 Y-4.4397 Z4.0000 I4.7384 J2.9650 F60.00
G1 X4.4372 Y4.6012 Z4.0000 F60.00
G2 X5.2429 Y3.6533 Z4.0000 I-3.7927 J-4.0401 F60.00
G1 X-3.6557 Y-5.2454 Z4.0000 F60.00
G3 X-2.5285 Y-5.8718 Z4.0000 I3.3102 J4.6294 F60.00
G1 X5.8693 Y2.5260 Z4.0000 F60.00
G2 X6.2784 Y1.1815 Z4.0000 I-5.3970 J-2.3765 F60.00
G1 X-1.1840 Y-6.2809 Z4.0000 F60.00
G3 X0.4814 Y-6.3692 Z4.0000 I1.1366 J5.6880 F60.00
G1 X6.3667 Y-0.4839 Z4.0000 F60.00
G2 X5.6730 Y-2.9311 Z4.0000 I-6.1667 J0.4259 F60.00
G1 X2.9286 Y-5.6755 Z4.0000 F60.00
G3 X5.6730 Y-2.9311 Z4.0000 I-2.8808 J5.6252 F60.00
G0 X5.6730 Y-2.9311 Z9.0000
G0 X7.7594 Y-7.1225 Z9.0000
G1 X7.7594 Y-7.1225 Z4.0000 F60.00
G2 X8.7851 Y-7.0996 Z4.0000 I0.5372 J-1.0792 F60.00
G3 X9.9500 Y-7.4325 Z4.0000 I1.0167 J1.3532 F60.00
G1 X9.9500 Y-8.8491 Z4.0000 F60.00
G2 X8.7261 Y-10.3374 Z4.0000 I-1.4573 J-0.0490 F60.00
G2 X7.4367 Y-10.3600 Z4.0000 I-0.7882 J8.1804 F60.00
G3 X7.3689 Y-8.9715 Z4.0000 I-1.3747 J0.6288 F60.00
G2 X7.7594 Y-7.1225 Z4.0000 I0.9278 J0.7698 F60.00
G0 X7.7594 Y-7.1225 Z9.0000
G0 X7.1374 Y-8.4813 Z9.0000
G1 X7.1374 Y-8.4813 Z4.0000 F60.00
G2 X8.5870 Y-7.0317 Z4.0000 I1.1543 J0.2953 F60.00
G1 X7.1374 Y-8.4813 Z4.0000 F60.00
G3 X7.3689 Y-8.9715 Z4.0000 I1.4255 J0.3734 F60.00
G2 X7.5604 Y-9.8119 Z4.0000 I-1.1022 J-0.6932 F60.00
G1 X9.9392 Y-7.4331 Z4.0000 F60.00
G1 X9.9500 Y-7.4325 Z4.0000 F60.00
G1 X9.9500 Y-8.8491 Z4.0000 F60.00
G2 X9.9077 Y-9.2182 Z4.0000 I-1.1864 J-0.0510 F60.00
G2 X8.8082 Y-10.3177 Z4.0000 I-1.3894 J0.2899 F60.00
G1 X9.9077 Y-9.2182 Z4.0000 F60.00
G0 X9.9077 Y-9.2182 Z9.0000
G0 X8.4179 Y6.9935 Z9.0000
G1 X8.4179 Y6.9935 Z4.0000 F60.00
G2 X7.3689 Y8.9715 Z4.0000 I-0.1110 J1.2083 F60.00
G3 X7.4367 Y10.3600 Z4.0000 I-1.3258 J0.7606 F60.00
G1 X8.4391 Y10.3600 Z4.0000 F60.00
G2 X9.9500 Y8.8491 Z4.0000 I0.0475 J-1.4634 F60.00
G1 X9.9500 Y7.4325 Z4.0000 F60.00
G3 X9.0646 Y7.2541 Z4.0000 I-0.1882 J-1.3522 F60.00
G2 X8.4179 Y6.9935 Z4.0000 I-0.7577 J0.9477 F60.00
G0 X8.4179 Y6.9935 Z9.0000
G0 X9.9500 Y8.3603 Z9.0000
G1 X9.9500 Y8.3603 Z4.0000 F60.00
G1 X8.6361 Y7.0464 Z4.0000 F60.00
G2 X9.3858 Y7.3870 Z4.0000 I3.2726 J-6.2073 F60.00
G2 X9.9500 Y7.4325 Z4.0000 I0.3814 J-1.2112 F60.00
G1 X9.9500 Y8.3603 Z4.0000 F60.00
G1 X9.9500 Y8.8491 Z4.0000 F60.00
G3 X9.6353 Y9.7992 Z4.0000 I-1.4679 J0.0409 F60.00
G1 X7.3279 Y7.4918 Z4.0000 F60.00
G2 X7.2109 Y8.6940 Z4.0000 I0.9475 J0.6990 F60.00
G3 X7.5355 Y9.4531 Z4.0000 I-1.8712 J1.2492 F60.00
G1 X8.4422 Y10.3598 Z4.0000 F60.00
G3 X7.4367 Y10.3600 Z4.0000 I-0.5043 J-6.3870 F60.00
G2 X7.5355 Y9.4531 Z4.0000 I-1.2729 J-0.5976 F60.00
G0 X7.5355 Y9.4531 Z9.0000
G0 X-7.5005 Y-7.2985 Z9.0000
G1 X-7.5005 Y-7.2985 Z4.0000 F60.00
G2 X-7.0985 Y-8.1951 Z4.0000 I-0.8087 J-0.9010 F60.00
G2 X-7.2166 Y-8.7077 Z4.0000 I-1.1816 J0.0021 F60.00
G3 X-7.4363 Y-10.3600 Z4.0000 I1.2595 J-1.0082 F60.00
G1 X-8.4391 Y-10.3600 Z4.0000 F60.00
G2 X-9.9500 Y-8.8491 Z4.0000 I-0.0475 J1.4634 F60.00
G1 X-9.9500 Y-7.4323 Z4.0000 F60.00
G3 X-9.0672 Y-7.2555 Z4.0000 I0.1893 J1.3468 F60.00
G2 X-7.5005 Y-7.2985 Z4.0000 I0.7581 J-0.9439 F60.00
G0 X-7.5005 Y-7.2985 Z9.0000
G0 X-7.3513 Y-8.9409 Z9.0000
G1 X-7.3513 Y-8.9409 Z4.0000 F60.00
G3 X-7.4363 Y-10.3600 Z4.0000 I1.3083 J-0.7905 F60.00
G2 X-8.7436 Y-10.3332 Z4.0000 I-0.5014 J7.4442 F60.00
G1 X-7.3513 Y-8.9409 Z4.0000 F60.00
G3 X-7.4796 Y-7.3156 Z4.0000 I-0.9621 J0.7418 F60.00
G1 X-9.7658 Y-9.6018 Z4.0000 F60.00
G2 X-9.9274 Y-9.1361 Z4.0000 I0.8892 J0.5695 F60.00
G2 X-9.9500 Y-8.0324 Z4.0000 I7.0004 J0.6953 F60.00
G1 X-9.2472 Y-7.3296 Z4.0000 F60.00
G2 X-9.9500 Y-7.4323 Z4.0000 I-0.5110 J1.0399 F60.00
G1 X-9.9500 Y-8.0324 Z4.0000 F60.00
G1 X-9.9500 Y-8.0324 Z3.7500 F60.00
G1 X-9.9500 Y-7.4323 Z3.7500 F60.00
G3 X-9.2472 Y-7.3296 Z3.7500 I0.1918 J1.1427 F60.00
G1 X-9.9500 Y-8.0324 Z3.7500 F60.00
G3 X-9.9274 Y-9.1361 Z3.7500 I7.0230 J-0.4083 F60.00
G3 X-9.7658 Y-9.6018 Z3.7500 I1.0508 J0.1037 F60.00
G1 X-7.4796 Y-7.3156 Z3.7500 F60.00
G2 X-7.3513 Y-8.9409 Z3.7500 I-0.8338 J-0.8835 F60.00
G1 X-8.7436 Y-10.3332 Z3.7500 F60.00
G3 X-7.4363 Y-10.3600 Z3.7500 I0.8059 J7.4174 F60.00
G2 X-7.3513 Y-8.9409 Z3.7500 I1.3933 J0.6286 F60.00
G0 X-7.3513 Y-8.9409 Z9.0000
G0 X-7.3672 Y-8.9321 Z9.0000
G1 X-7.3672 Y-8.9321 Z3.7500 F60.00
G3 X-7.4363 Y-10.3600 Z3.7500 I1.4101 J-0.7839 F60.00
G1 X-8.4391 Y-10.3600 Z3.7500 F60.00
G2 X-9.9500 Y-8.8491 Z3.7500 I-0.0475 J1.4634 F60.00
G1 X-9.9500 Y-7.4323 Z3.7500 F60.00
G3 X-9.0672 Y-7.2555 Z3.7500 I0.1893 J1.3468 F60.00
G2 X-7.0985 Y-8.1951 Z3.7500 I0.7581 J-0.9439 F60.00
G2 X-7.2166 Y-8.7077 Z3.7500 I-1.1816 J0.0021 F60.00
G3 X-7.3672 Y-8.9321 Z3.7500 I1.2595 J-1.0082 F60.00
G0 X-7.3672 Y-8.9321 Z9.0000
G0 X-4.0747 Y-4.9340 Z9.0000
G1 X-4.0747 Y-4.9340 Z3.7500 F60.00
G2 X-6.4056 Y0.0050 Z3.7500 I4.0673 J4.9390 F60.00
G2 X-0.0074 Y6.4031 Z3.7500 I6.3981 J0.0000 F60.00
G2 X6.3907 Y0.0050 Z3.7500 I-0.0000 J-6.3981 F60.00
G2 X-4.0747 Y-4.9340 Z3.7500 I-6.3981 J0.0000 F60.00
G0 X-4.0747 Y-4.9340 Z9.0000
G0 X-5.1974 Y3.7347 Z9.0000
G1 X-5.1974 Y3.7347 Z3.7500 F60.00
G2 X-3.7371 Y5.1949 Z3.7500 I4.8426 J-3.3824 F60.00
G1 X-5.1974 Y3.7347 Z3.7500 F60.00
G3 X-6.3449 Y0.8336 Z3.7500 I4.9846 J-3.6490 F60.00
G1 X-0.8361 Y6.3424 Z3.7500 F60.00
G2 X0.9051 Y6.3299 Z3.7500 I0.8303 J-5.6478 F60.00
G1 X-6.3324 Y-0.9076 Z3.7500 F60.00
G3 X-5.9702 Y-2.2990 Z3.7500 I5.3967 J0.6619 F60.00
G1 X2.2965 Y5.9678 Z3.7500 F60.00
G2 X3.4597 Y5.3773 Z3.7500 I-1.9209 J-5.2244 F60.00
G1 X-5.3797 Y-3.4621 Z3.7500 F60.00
G3 X-4.6037 Y-4.4397 Z3.7500 I4.7384 J2.9650 F60.00
G1 X4.4372 Y4.6012 Z3.7500 F60.00
G2 X5.2429 Y3.6533 Z3.7500 I-3.7927 J-4.0401 F60.00
G1 X-3.6557 Y-5.2454 Z3.7500 F60.00
G3 X-2.5285 Y-5.8718 Z3.7500 I3.3102 J4.6294 F60.00
G1 X5.8693 Y2.5260 Z3.7500 F60.00
G2 X6.2784 Y1.1815 Z3.7500 I-5.3970 J-2.3765 F60.00
G1 X-1.1840 Y-6.2809 Z3.7500 F60.00
G3 X0.4814 Y-6.3692 Z3.7500 I1.1366 J5.6880 F60.00
G1 X6.3667 Y-0.4839 Z3.7500 F60.00
G2 X5.6730 Y-2.9311 Z3.7500 I-6.1667 J0.4259 F60.00
G1 X2.9286 Y-5.6755 Z3.7500 F60.00
G3 X5.6730 Y-2.9311 Z3.7500 I-2.8808 J5.6252 F60.00
G0 X5.6730 Y-2.9311 Z9.0000
G0 X7.7594 Y-7.1225 Z9.0000
G1 X7.7594 Y-7.1225 Z3.7500 F60.00
G2 X8.7851 Y-7.0996 Z3.7500 I0.5372 J-1.0792 F60.00
G3 X9.9500 Y-7.4325 Z3.7500 I1.0167 J1.3532 F60.00
G1 X9.9500 Y-8.8491 Z3.7500 F60.00
G2 X8.7261 Y-10.3374 Z3.7500 I-1.4573 J-0.0490 F60.00
G2 X7.4367 Y-10.3600 Z3.7500 I-0.7882 J8.1804 F60.00
G3 X7.3689 Y-8.9715 Z3.7500 I-1.3747 J0.6288 F60.00
G2 X7.7594 Y-7.1225 Z3.7500 I0.9278 J0.7698 F60.00
G0 X7.7594 Y-7.1225 Z9.0000
G0 X7.1374 Y-8.4813 Z9.0000
G1 X7.1374 Y-8.4813 Z3.7500 F60.00
G2 X8.5870 Y-7.0317 Z3.7500 I1.1543 J0.2953 F60.00
G1 X7.1374 Y-8.4813 Z3.7500 F60.00
G3 X7.3689 Y-8.9715 Z3.7500 I1.4255 J0.3734 F60.00
G2 X7.5604 Y-9.8119 Z3.7500 I-1.1022 J-0.6932 F60.00
G1 X9.9392 Y-7.4331 Z3.7500 F60.00
G1 X9.9500 Y-7.4325 Z3.7500 F60.00
G1 X9.9500 Y-8.8491 Z3.7500 F60.00
G2 X9.9077 Y-9.2182 Z3.7500 I-1.1864 J-0.0510 F60.00
G2 X8.8082 Y-10.3177 Z3.7500 I-1.3894 J0.2899 F60.00
G1 X9.9077 Y-9.2182 Z3.7500 F60.00
G0 X9.9077 Y-9.2182 Z9.0000
G0 X8.4179 Y6.9935 Z9.0000
G1 X8.4179 Y6.9935 Z3.7500 F60.00
G2 X7.3689 Y8.9715 Z3.7500 I-0.1110 J1.2083 F60.00
G3 X7.4367 Y10.3600 Z3.7500 I-1.3258 J0.7606 F60.00
G1 X8.4391 Y10.3600 Z3.7500 F60.00
G2 X9.9500 Y8.8491 Z3.7500 I0.0475 J-1.4634 F60.00
G1 X9.9500 Y7.4325 Z3.7500 F60.00
G3 X9.0646 Y7.2541 Z3.7500 I-0.1882 J-1.3522 F60.00
G2 X8.4179 Y6.9935 Z3.7500 I-0.7577 J0.9477 F60.00
G0 X8.4179 Y6.9935 Z9.0000
G0 X9.9500 Y8.3603 Z9.0000
G1 X9.9500 Y8.3603 Z3.7500 F60.00
G1 X8.6361 Y7.0464 Z3.7500 F60.00
G2 X9.3858 Y7.3870 Z3.7500 I3.2726 J-6.2073 F60.00
G2 X9.9500 Y7.4325 Z3.7500 I0.3814 J-1.2112 F60.00
G1 X9.9500 Y8.3603 Z3.7500 F60.00
G1 X9.9500 Y8.8491 Z3.7500 F60.00
G3 X9.6353 Y9.7992 Z3.7500 I-1.4679 J0.0409 F60.00
G1 X7.3279 Y7.4918 Z3.7500 F60.00
G2 X7.2109 Y8.6940 Z3.7500 I0.9475 J0.6990 F60.00
G3 X7.5355 Y9.4531 Z3.7500 I-1.8712 J1.2492 F60.00
G1 X8.4422 Y10.3598 Z3.7500 F60.00
G3 X7.4367 Y10.3600 Z3.7500 I-0.5043 J-6.3870 F60.00
G2 X7.5355 Y9.4531 Z3.7500 I-1.2729 J-0.5976 F60.00
G0 X7.5355 Y9.4531 Z9.0000
G0 X-7.1025 Y8.2780 Z9.0000
G1 X-7.1025 Y8.2780 Z3.7500 F60.00
G2 X-7.0985 Y8.1951 Z3.7500 I-1.3020 J-0.1045 F60.00
G2 X-8.7809 Y7.0979 Z3.7500 I-1.1952 J-0.0056 F60.00
G3 X-9.9500 Y7.4323 Z3.7500 I-1.0208 J-1.3580 F60.00
G1 X-9.9500 Y8.8491 Z3.7500 F60.00
G2 X-8.7261 Y10.3374 Z3.7500 I1.4573 J0.0490 F60.00
G2 X-7.4363 Y10.3600 Z3.7500 I0.7884 J-8.1829 F60.00
G3 X-7.3641 Y8.9632 Z3.7500 I1.3722 J-0.6294 F60.00
G2 X-7.1025 Y8.2780 Z3.7500 I-1.0404 J-0.7897 F60.00
G0 X-7.1025 Y8.2780 Z9.0000
G0 X-7.2247 Y8.7219 Z9.0000
G1 X-7.2247 Y8.7219 Z3.7500 F60.00
G1 X-8.8246 Y7.1220 Z3.7500 F60.00
G3 X-7.2247 Y8.7219 Z3.7500 I0.5335 J1.0664 F60.00
G2 X-7.4896 Y10.2106 Z3.7500 I1.3108 J1.0011 F60.00
G1 X-9.9500 Y7.7502 Z3.7500 F60.00
G1 X-9.9500 Y8.8491 Z3.7500 F60.00
G2 X-9.5219 Y9.9319 Z3.7500 I1.4873 J0.0380 F60.00
G1 X-9.5219 Y9.9319 Z3.5000 F60.00
G3 X-9.9500 Y8.8491 Z3.5000 I1.0593 J-1.0448 F60.00
G1 X-9.9500 Y7.7502 Z3.5000 F60.00
G1 X-7.4896 Y10.2106 Z3.5000 F60.00
G3 X-7.2247 Y8.7219 Z3.5000 I1.5757 J-0.4876 F60.00
G2 X-8.8246 Y7.1220 Z3.5000 I-1.0664 J-0.5335 F60.00
G1 X-7.2247 Y8.7219 Z3.5000 F60.00
G0 X-7.2247 Y8.7219 Z9.0000
G0 X-7.2200 Y8.7240 Z9.0000
G1 X-7.2200 Y8.7240 Z3.5000 F60.00
G2 X-7.0985 Y8.1951 Z3.5000 I-1.1844 J-0.5506 F60.00
G2 X-8.7809 Y7.0979 Z3.5000 I-1.1952 J-0.0056 F60.00
G3 X-9.9500 Y7.4323 Z3.5000 I-1.0208 J-1.3580 F60.00
G1 X-9.9500 Y8.8491 Z3.5000 F60.00
G2 X-8.7261 Y10.3374 Z3.5000 I1.4573 J0.0490 F60.00
G2 X-7.4363 Y10.3600 Z3.5000 I0.7884 J-8.1829 F60.00
G3 X-7.3641 Y8.9632 Z3.5000 I1.3722 J-0.6294 F60.00
G2 X-7.2200 Y8.7240 Z3.5000 I-1.0404 J-0.7897 F60.00
G0 X-7.2200 Y8.7240 Z9.0000
G0 X-4.0856 Y4.9349 Z9.0000
G1 X-4.0856 Y4.9349 Z3.5000 F60.00
G2 X6.3907 Y0.0050 Z3.5000 I4.0782 J-4.9300 F60.00
G2 X-6.4056 Y0.0050 Z3.5000 I-6.3981 J0.0000 F60.00
G2 X-4.0856 Y4.9349 Z3.5000 I6.3981 J0.0000 F60.00
G0 X-4.0856 Y4.9349 Z9.0000
G0 X-5.1974 Y3.7347 Z9.0000
G1 X-5.1974 Y3.7347 Z3.5000 F60.00
G2 X-3.7371 Y5.1949 Z3.5000 I4.8426 J-3.3824 F60.00
G1 X-5.1974 Y3.7347 Z3.5000 F60.00
G3 X-6.3449 Y0.8336 Z3.5000 I4.9846 J-3.6490 F60.00
G1 X-0.8361 Y6.3424 Z3.5000 F60.00
G2 X0.9051 Y6.3299 Z3.5000 I0.8303 J-5.6478 F60.00
G1 X-6.3324 Y-0.9076 Z3.5000 F60.00
G3 X-5.9702 Y-2.2990 Z3.5000 I5.3967 J0.6619 F60.00
G1 X2.2965 Y5.9678 Z3.5000 F60.00
G2 X3.4597 Y5.3773 Z3.5000 I-1.9209 J-5.2244 F60.00
G1 X-5.3797 Y-3.4621 Z3.5000 F60.00
G3 X-4.6037 Y-4.4397 Z3.5000 I4.7384 J2.9650 F60.00
G1 X4.4372 Y4.6012 Z3.5000 F60.00
G2 X5.2429 Y3.6533 Z3.5000 I-3.7927 J-4.0401 F60.00
G1 X-3.6557 Y-5.2454 Z3.5000 F60.00
G3 X-2.5285 Y-5.8718 Z3.5000 I3.3102 J4.6294 F60.00
G1 X5.8693 Y2.5260 Z3.5000 F60.00
G2 X6.2784 Y1.1815 Z3.5000 I-5.3970 J-2.3765 F60.00
G1 X-1.1840 Y-6.2809 Z3.5000 F60.00
G3 X0.4814 Y-6.3692 Z3.5000 I1.1366 J5.6880 F60.00
G1 X6.3667 Y-0.4839 Z3.5000 F60.00
G2 X5.6730 Y-2.9311 Z3.5000 I-6.1667 J0.4259 F60.00
G1 X2.9286 Y-5.6755 Z3.5000 F60.00
G3 X5.6730 Y-2.9311 Z3.5000 I-2.8808 J5.6252 F60.00
G0 X5.6730 Y-2.9311 Z9.0000
G0 X7.7594 Y-7.1225 Z9.0000
G1 X7.7594 Y-7.1225 Z3.5000 F60.00
G2 X8.7851 Y-7.0996 Z3.5000 I0.5372 J-1.0792 F60.00
G3 X9.9500 Y-7.4325 Z3.5000 I1.0167 J1.3532 F60.00
G1 X9.9500 Y-8.8491 Z3.5000 F60.00
G2 X8.7261 Y-10.3374 Z3.5000 I-1.4573 J-0.0490 F60.00
G2 X7.4367 Y-10.3600 Z3.5000 I-0.7882 J8.1804 F60.00
G3 X7.3689 Y-8.9715 Z3.5000 I-1.3747 J0.6288 F60.00
G2 X7.7594 Y-7.1225 Z3.5000 I0.9278 J0.7698 F60.00
G0 X7.7594 Y-7.1225 Z9.0000
G0 X7.1374 Y-8.4813 Z9.0000
G1 X7.1374 Y-8.4813 Z3.5000 F60.00
G2 X8.5870 Y-7.0317 Z3.5000 I1.1543 J0.2953 F60.00
G1 X7.1374 Y-8.4813 Z3.5000 F60.00
G3 X7.3689 Y-8.9715 Z3.5000 I1.4255 J0.3734 F60.00
G2 X7.5604 Y-9.8119 Z3.5000 I-1.1022 J-0.6932 F60.00
G1 X9.9392 Y-7.4331 Z3.5000 F60.00
G1 X9.9500 Y-7.4325 Z3.5000 F60.00
G1 X9.9500 Y-8.8491 Z3.5000 F60.00
G2 X9.9077 Y-9.2182 Z3.5000 I-1.1864 J-0.0510 F60.00
G2 X8.8082 Y-10.3177 Z3.5000 I-1.3894 J0.2899 F60.00
G1 X9.9077 Y-9.2182 Z3.5000 F60.00
G0 X9.9077 Y-9.2182 Z9.0000
G0 X8.4179 Y6.9935 Z9.0000
G1 X8.4179 Y6.9935 Z3.5000 F60.00
G2 X7.3689 Y8.9715 Z3.5000 I-0.1110 J1.2083 F60.00
G3 X7.4367 Y10.3600 Z3.5000 I-1.3258 J0.7606 F60.00
G1 X8.4391 Y10.3600 Z3.5000 F60.00
G2 X9.9500 Y8.8491 Z3.5000 I0.0475 J-1.4634 F60.00
G1 X9.9500 Y7.4325 Z3.5000 F60.00
G3 X9.0646 Y7.2541 Z3.5000 I-0.1882 J-1.3522 F60.00
G2 X8.4179 Y6.9935 Z3.5000 I-0.7577 J0.9477 F60.00
G0 X8.4179 Y6.9935 Z9.0000
G0 X9.9500 Y8.3603 Z9.0000
G1 X9.9500 Y8.3603 Z3.5000 F60.00
G1 X8.6361 Y7.0464 Z3.5000 F60.00
G2 X9.3858 Y7.3870 Z3.5000 I3.2726 J-6.2073 F60.00
G2 X9.9500 Y7.4325 Z3.5000 I0.3814 J-1.2112 F60.00
G1 X9.9500 Y8.3603 Z3.5000 F60.00
G1 X9.9500 Y8.8491 Z3.5000 F60.00
G3 X9.6353 Y9.7992 Z3.5000 I-1.4679 J0.0409 F60.00
G1 X7.3279 Y7.4918 Z3.5000 F60.00
G2 X7.2109 Y8.6940 Z3.5000 I0.9475 J0.6990 F60.00
G3 X7.5355 Y9.4531 Z3.5000 I-1.8712 J1.2492 F60.00
G1 X8.4422 Y10.3598 Z3.5000 F60.00
G3 X7.4367 Y10.3600 Z3.5000 I-0.5043 J-6.3870 F60.00
G2 X7.5355 Y9.4531 Z3.5000 I-1.2729 J-0.5976 F60.00
G0 X7.5355 Y9.4531 Z9.0000
G0 X-7.5005 Y-7.2985 Z9.0000
G1 X-7.5005 Y-7.2985 Z3.5000 F60.00
G2 X-7.0985 Y-8.1951 Z3.5000 I-0.8087 J-0.9010 F60.00
G2 X-7.2166 Y-8.7077 Z3.5000 I-1.1816 J0.0021 F60.00
G3 X-7.4363 Y-10.3600 Z3.5000 I1.2595 J-1.0082 F60.00
G1 X-8.4391 Y-10.3600 Z3.5000 F60.00
G2 X-9.9500 Y-8.8491 Z3.5000 I-0.0475 J1.4634 F60.00
G1 X-9.9500 Y-7.4323 Z3.5000 F60.00
G3 X-9.0672 Y-7.2555 Z3.5000 I0.1893 J1.3468 F60.00
G2 X-7.5005 Y-7.2985 Z3.5000 I0.7581 J-0.9439 F60.00
G0 X-7.5005 Y-7.2985 Z9.0000
G0 X-7.3513 Y-8.9409 Z9.0000
G1 X-7.3513 Y-8.9409 Z3.5000 F60.00
G3 X-7.4363 Y-10.3600 Z3.5000 I1.3083 J-0.7905 F60.00
G2 X-8.7436 Y-10.3332 Z3.5000 I-0.5014 J7.4442 F60.00
G1 X-7.3513 Y-8.9409 Z3.5000 F60.00
G3 X-7.4796 Y-7.3156 Z3.5000 I-0.9621 J0.7418 F60.00
G1 X-9.7658 Y-9.6018 Z3.5000 F60.00
G2 X-9.9274 Y-9.1361 Z3.5000 I0.8892 J0.5695 F60.00
G2 X-9.9500 Y-8.0324 Z3.5000 I7.0004 J0.6953 F60.00
G1 X-9.2472 Y-7.3296 Z3.5000 F60.00
G2 X-9.9500 Y-7.4323 Z3.5000 I-0.5110 J1.0399 F60.00
G1 X-9.9500 Y-8.0324 Z3.5000 F60.00
G1 X-9.9500 Y-8.0324 Z3.2500 F60.00
G1 X-9.9500 Y-7.4323 Z3.2500 F60.00
G3 X-9.2472 Y-7.3296 Z3.2500 I0.1918 J1.1427 F60.00
G1 X-9.9500 Y-8.0324 Z3.2500 F60.00
G3 X-9.9274 Y-9.1361 Z3.2500 I7.0230 J-0.4083 F60.00
G3 X-9.7658 Y-9.6018 Z3.2500 I1.0508 J0.1037 F60.00
G1 X-7.4796 Y-7.3156 Z3.2500 F60.00
G2 X-7.3513 Y-8.9409 Z3.2500 I-0.8338 J-0.8835 F60.00
G1 X-8.7436 Y-10.3332 Z3.2500 F60.00
G3 X-7.4363 Y-10.3600 Z3.2500 I0.8059 J7.4174 F60.00
G2 X-7.3513 Y-8.9409 Z3.2500 I1.3933 J0.6286 F60.00
G0 X-7.3513 Y-8.9409 Z9.0000
G0 X-7.3672 Y-8.9321 Z9.0000
G1 X-7.3672 Y-8.9321 Z3.2500 F60.00
G3 X-7.4363 Y-10.3600 Z3.2500 I1.4101 J-0.7839 F60.00
G1 X-8.4391 Y-10.3600 Z3.2500 F60.00
G2 X-9.9500 Y-8.8491 Z3.2500 I-0.0475 J1.4634 F60.00
G1 X-9.9500 Y-7.4323 Z3.2500 F60.00
G3 X-9.0672 Y-7.2555 Z3.2500 I0.1893 J1.3468 F60.00
G2 X-7.0985 Y-8.1951 Z3.2500 I0.7581 J-0.9439 F60.00
G2 X-7.2166 Y-8.7077 Z3.2500 I-1.1816 J0.0021 F60.00
G3 X-7.3672 Y-8.9321 Z3.2500 I1.2595 J-1.0082 F60.00
G0 X-7.3672 Y-8.9321 Z9.0000
G0 X-4.0747 Y-4.9340 Z9.0000
G1 X-4.0747 Y-4.9340 Z3.2500 F60.00
G2 X-6.4056 Y0.0050 Z3.2500 I4.0673 J4.9390 F60.00
G2 X-0.0074 Y6.4031 Z3.2500 I6.3981 J0.0000 F60.00
G2 X6.3907 Y0.0050 Z3.2500 I-0.0000 J-6.3981 F60.00
G2 X-4.0747 Y-4.9340 Z3.2500 I-6.3981 J0.0000 F60.00
G0 X-4.0747 Y-4.9340 Z9.0000
G0 X-5.1974 Y3.7347 Z9.0000
G1 X-5.1974 Y3.7347 Z3.2500 F60.00
G2 X-3.7371 Y5.1949 Z3.2500 I4.8426 J-3.3824 F60.00
G1 X-5.1974 Y3.7347 Z3.2500 F60.00
G3 X-6.3449 Y0.8336 Z3.2500 I4.9846 J-3.6490 F60.00
G1 X-0.8361 Y6.3424 Z3.2500 F60.00
G2 X0.9051 Y6.3299 Z3.2500 I0.8303 J-5.6478 F60.00
G1 X-6.3324 Y-0.9076 Z3.2500 F60.00
G3 X-5.9702 Y-2.2990 Z3.2500 I5.3967 J0.6619 F60.00
G1 X2.2965 Y5.9678 Z3.2500 F60.00
G2 X3.4597 Y5.3773 Z3.2500 I-1.9209 J-5.2244 F60.00
G1 X-5.3797 Y-3.4621 Z3.2500 F60.00
G3 X-4.6037 Y-4.4397 Z3.2500 I4.7384 J2.9650 F60.00
G1 X4.4372 Y4.6012 Z3.2500 F60.00
G2 X5.2429 Y3.6533 Z3.2500 I-3.7927 J-4.0401 F60.00
G1 X-3.6557 Y-5.2454 Z3.2500 F60.00
G3 X-2.5285 Y-5.8718 Z3.2500 I3.3102 J4.6294 F60.00
G1 X5.8693 Y2.5260 Z3.2500 F60.00
G2 X6.2784 Y1.1815 Z3.2500 I-5.3970 J-2.3765 F60.00
G1 X-1.1840 Y-6.2809 Z3.2500 F60.00
G3 X0.4814 Y-6.3692 Z3.2500 I1.1366 J5.6880 F60.00
G1 X6.3667 Y-0.4839 Z3.2500 F60.00
G2 X5.6730 Y-2.9311 Z3.2500 I-6.1667 J0.4259 F60.00
G1 X2.9286 Y-5.6755 Z3.2500 F60.00
G3 X5.6730 Y-2.9311 Z3.2500 I-2.8808 J5.6252 F60.00
G0 X5.6730 Y-2.9311 Z9.0000
G0 X7.7594 Y-7.1225 Z9.0000
G1 X7.7594 Y-7.1225 Z3.2500 F60.00
G2 X8.7851 Y-7.0996 Z3.2500 I0.5372 J-1.0792 F60.00
G3 X9.9500 Y-7.4325 Z3.2500 I1.0167 J1.3532 F60.00
G1 X9.9500 Y-8.8491 Z3.2500 F60.00
G2 X8.7261 Y-10.3374 Z3.2500 I-1.4573 J-0.0490 F60.00
G2 X7.4367 Y-10.3600 Z3.2500 I-0.7882 J8.1804 F60.00
G3 X7.3689 Y-8.9715 Z3.2500 I-1.3747 J0.6288 F60.00
G2 X7.7594 Y-7.1225 Z3.2500 I0.9278 J0.7698 F60.00
G0 X7.7594 Y-7.1225 Z9.0000
G0 X7.1374 Y-8.4813 Z9.0000
G1 X7.1374 Y-8.4813 Z3.2500 F60.00
G2 X8.5870 Y-7.0317 Z3.2500 I1.1543 J0.2953 F60.00
G1 X7.1374 Y-8.4813 Z3.2500 F60.00
G3 X7.3689 Y-8.9715 Z3.2500 I1.4255 J0.3734 F60.00
G2 X7.5604 Y-9.8119 Z3.2500 I-1.1022 J-0.6932 F60.00
G1 X9.9392 Y-7.4331 Z3.2500 F60.00
G1 X9.9500 Y-7.4325 Z3.2500 F60.00
G1 X9.9500 Y-8.8491 Z3.2500 F60.00
G2 X9.9077 Y-9.2182 Z3.2500 I-1.1864 J-0.0510 F60.00
G2 X8.8082 Y-10.3177 Z3.2500 I-1.3894 J0.2899 F60.00
G1 X9.9077 Y-9.2182 Z3.2500 F60.00
G0 X9.9077 Y-9.2182 Z9.0000
G0 X8.4179 Y6.9935 Z9.0000
G1 X8.4179 Y6.9935 Z3.2500 F60.00
G2 X7.3689 Y8.9715 Z3.2500 I-0.1110 J1.2083 F60.00
G3 X7.4367 Y10.3600 Z3.2500 I-1.3258 J0.7606 F60.00
G1 X8.4391 Y10.3600 Z3.2500 F60.00
G2 X9.9500 Y8.8491 Z3.2500 I0.0475 J-1.4634 F60.00
G1 X9.9500 Y7.4325 Z3.2500 F60.00
G3 X9.0646 Y7.2541 Z3.2500 I-0.1882 J-1.3522 F60.00
G2 X8.4179 Y6.9935 Z3.2500 I-0.7577 J0.9477 F60.00
G0 X8.4179 Y6.9935 Z9.0000
G0 X9.9500 Y8.3603 Z9.0000
G1 X9.9500 Y8.3603 Z3.2500 F60.00
G1 X8.6361 Y7.0464 Z3.2500 F60.00
G2 X9.3858 Y7.3870 Z3.2500 I3.2726 J-6.2073 F60.00
G2 X9.9500 Y7.4325 Z3.2500 I0.3814 J-1.2112 F60.00
G1 X9.9500 Y8.3603 Z3.2500 F60.00
G1 X9.9500 Y8.8491 Z3.2500 F60.00
G3 X9.6353 Y9.7992 Z3.2500 I-1.4679 J0.0409 F60.00
G1 X7.3279 Y7.4918 Z3.2500 F60.00
G2 X7.2109 Y8.6940 Z3.2500 I0.9475 J0.6990 F60.00
G3 X7.5355 Y9.4531 Z3.2500 I-1.8712 J1.2492 F60.00
G1 X8.4422 Y10.3598 Z3.2500 F60.00
G3 X7.4367 Y10.3600 Z3.2500 I-0.5043 J-6.3870 F60.00
G2 X7.5355 Y9.4531 Z3.2500 I-1.2729 J-0.5976 F60.00
G0 X7.5355 Y9.4531 Z9.0000
G0 X-7.1025 Y8.2780 Z9.0000
G1 X-7.1025 Y8.2780 Z3.2500 F60.00
G2 X-7.0985 Y8.1951 Z3.2500 I-1.3020 J-0.1045 F60.00
G2 X-8.7809 Y7.0979 Z3.2500 I-1.1952 J-0.0056 F60.00
G3 X-9.9500 Y7.4323 Z3.2500 I-1.0208 J-1.3580 F60.00
G1 X-9.9500 Y8.8491 Z3.2500 F60.00
G2 X-8.7261 Y10.3374 Z3.2500 I1.4573 J0.0490 F60.00
G2 X-7.4363 Y10.3600 Z3.2500 I0.7884 J-8.1829 F60.00
G3 X-7.3641 Y8.9632 Z3.2500 I1.3722 J-0.6294 F60.00
G2 X-7.1025 Y8.2780 Z3.2500 I-1.0404 J-0.7897 F60.00
G0 X-7.1025 Y8.2780 Z9.0000
G0 X-7.2247 Y8.7219 Z9.0000
G1 X-7.2247 Y8.7219 Z3.2500 F60.00
G1 X-8.8246 Y7.1220 Z3.2500 F60.00
G3 X-7.2247 Y8.7219 Z3.2500 I0.5335 J1.0664 F60.00
G2 X-7.4896 Y10.2106 Z3.2500 I1.3108 J1.0011 F60.00
G1 X-9.9500 Y7.7502 Z3.2500 F60.00
G1 X-9.9500 Y8.8491 Z3.2500 F60.00
G2 X-9.5219 Y9.9319 Z3.2500 I1.4873 J0.0380 F60.00
G1 X-9.5219 Y9.9319 Z3.0000 F60.00
G3 X-9.9500 Y8.8491 Z3.0000 I1.0593 J-1.0448 F60.00
G1 X-9.9500 Y7.7502 Z3.0000 F60.00
G1 X-7.4896 Y10.2106 Z3.0000 F60.00
G3 X-7.2247 Y8.7219 Z3.0000 I1.5757 J-0.4876 F60.00
G2 X-8.8246 Y7.1220 Z3.0000 I-1.0664 J-0.5335 F60.00
G1 X-7.2247 Y8.7219 Z3.0000 F60.00
G0 X-7.2247 Y8.7219 Z9.0000
G0 X-7.2200 Y8.7240 Z9.0000
G1 X-7.2200 Y8.7240 Z3.0000 F60.00
G2 X-7.0985 Y8.1951 Z3.0000 I-1.1844 J-0.5506 F60.00
G2 X-8.7809 Y7.0979 Z3.0000 I-1.1952 J-0.0056 F60.00
G3 X-9.9500 Y7.4323 Z3.0000 I-1.0208 J-1.3580 F60.00
G1 X-9.9500 Y8.8491 Z3.0000 F60.00
G2 X-8.7261 Y10.3374 Z3.0000 I1.4573 J0.0490 F60.00
G2 X-7.4363 Y10.3600 Z3.0000 I0.7884 J-8.1829 F60.00
G3 X-7.3641 Y8.9632 Z3.0000 I1.3722 J-0.6294 F60.00
G2 X-7.2200 Y8.7240 Z3.0000 I-1.0404 J-0.7897 F60.00
G0 X-7.2200 Y8.7240 Z9.0000
G0 X-4.0856 Y4.9349 Z9.0000
G1 X-4.0856 Y4.9349 Z3.0000 F60.00
G2 X6.3907 Y0.0050 Z3.0000 I4.0782 J-4.9300 F60.00
G2 X-6.4056 Y0.0050 Z3.0000 I-6.3981 J0.0000 F60.00
G2 X-4.0856 Y4.9349 Z3.0000 I6.3981 J0.0000 F60.00
G0 X-4.0856 Y4.9349 Z9.0000
G0 X-5.1974 Y3.7347 Z9.0000
G1 X-5.1974 Y3.7347 Z3.0000 F60.00
G2 X-3.7371 Y5.1949 Z3.0000 I4.8426 J-3.3824 F60.00
G1 X-5.1974 Y3.7347 Z3.0000 F60.00
G3 X-6.3449 Y0.8336 Z3.0000 I4.9846 J-3.6490 F60.00
G1 X-0.8361 Y6.3424 Z3.0000 F60.00
G2 X0.9051 Y6.3299 Z3.0000 I0.8303 J-5.6478 F60.00
G1 X-6.3324 Y-0.9076 Z3.0000 F60.00
G3 X-5.9702 Y-2.2990 Z3.0000 I5.3967 J0.6619 F60.00
G1 X2.2965 Y5.9678 Z3.0000 F60.00
G2 X3.4597 Y5.3773 Z3.0000 I-1.9209 J-5.2244 F60.00
G1 X-5.3797 Y-3.4621 Z3.0000 F60.00
G3 X-4.6037 Y-4.4397 Z3.0000 I4.7384 J2.9650 F60.00
G1 X4.4372 Y4.6012 Z3.0000 F60.00
G2 X5.2429 Y3.6533 Z3.0000 I-3.7927 J-4.0401 F60.00
G1 X-3.6557 Y-5.2454 Z3.0000 F60.00
G3 X-2.5285 Y-5.8718 Z3.0000 I3.3102 J4.6294 F60.00
G1 X5.8693 Y2.5260 Z3.0000 F60.00
G2 X6.2784 Y1.1815 Z3.0000 I-5.3970 J-2.3765 F60.00
G1 X-1.1840 Y-6.2809 Z3.0000 F60.00
G3 X0.4814 Y-6.3692 Z3.0000 I1.1366 J5.6880 F60.00
G1 X6.3667 Y-0.4839 Z3.0000 F60.00
G2 X5.6730 Y-2.9311 Z3.0000 I-6.1667 J0.4259 F60.00
G1 X2.9286 Y-5.6755 Z3.0000 F60.00
G3 X5.6730 Y-2.9311 Z3.0000 I-2.8808 J5.6252 F60.00
G0 X5.6730 Y-2.9311 Z9.0000
G0 X7.7594 Y-7.1225 Z9.0000
G1 X7.7594 Y-7.1225 Z3.0000 F60.00
G2 X8.7851 Y-7.0996 Z3.0000 I0.5372 J-1.0792 F60.00
G3 X9.9500 Y-7.4325 Z3.0000 I1.0167 J1.3532 F60.00
G1 X9.9500 Y-8.8491 Z3.0000 F60.00
G2 X8.7261 Y-10.3374 Z3.0000 I-1.4573 J-0.0490 F60.00
G2 X7.4367 Y-10.3600 Z3.0000 I-0.7882 J8.1804 F60.00
G3 X7.3689 Y-8.9715 Z3.0000 I-1.3747 J0.6288 F60.00
G2 X7.7594 Y-7.1225 Z3.0000 I0.9278 J0.7698 F60.00
G0 X7.7594 Y-7.1225 Z9.0000
G0 X7.1374 Y-8.4813 Z9.0000
G1 X7.1374 Y-8.4813 Z3.0000 F60.00
G2 X8.5870 Y-7.0317 Z3.0000 I1.1543 J0.2953 F60.00
G1 X7.1374 Y-8.4813 Z3.0000 F60.00
G3 X7.3689 Y-8.9715 Z3.0000 I1.4255 J0.3734 F60.00
G2 X7.5604 Y-9.8119 Z3.0000 I-1.1022 J-0.6932 F60.00
G1 X9.9392 Y-7.4331 Z3.0000 F60.00
G1 X9.9500 Y-7.4325 Z3.0000 F60.00
G1 X9.9500 Y-8.8491 Z3.0000 F60.00
G2 X9.9077 Y-9.2182 Z3.0000 I-1.1864 J-0.0510 F60.00
G2 X8.8082 Y-10.3177 Z3.0000 I-1.3894 J0.2899 F60.00
G1 X9.9077 Y-9.2182 Z3.0000 F60.00
G0 X9.9077 Y-9.2182 Z9.0000
G0 X8.4179 Y6.9935 Z9.0000
G1 X8.4179 Y6.9935 Z3.0000 F60.00
G2 X7.3689 Y8.9715 Z3.0000 I-0.1110 J1.2083 F60.00
G3 X7.4367 Y10.3600 Z3.0000 I-1.3258 J0.7606 F60.00
G1 X8.4391 Y10.3600 Z3.0000 F60.00
G2 X9.9500 Y8.8491 Z3.0000 I0.0475 J-1.4634 F60.00
G1 X9.9500 Y7.4325 Z3.0000 F60.00
G3 X9.0646 Y7.2541 Z3.0000 I-0.1882 J-1.3522 F60.00
G2 X8.4179 Y6.9935 Z3.0000 I-0.7577 J0.9477 F60.00
G0 X8.4179 Y6.9935 Z9.0000
G0 X9.9500 Y8.3603 Z9.0000
G1 X9.9500 Y8.3603 Z3.0000 F60.00
G1 X8.6361 Y7.0464 Z3.0000 F60.00
G2 X9.3858 Y7.3870 Z3.0000 I3.2726 J-6.2073 F60.00
G2 X9.9500 Y7.4325 Z3.0000 I0.3814 J-1.2112 F60.00
G1 X9.9500 Y8.3603 Z3.0000 F60.00
G1 X9.9500 Y8.8491 Z3.0000 F60.00
G3 X9.6353 Y9.7992 Z3.0000 I-1.4679 J0.0409 F60.00
G1 X7.3279 Y7.4918 Z3.0000 F60.00
G2 X7.2109 Y8.6940 Z3.0000 I0.9475 J0.6990 F60.00
G3 X7.5355 Y9.4531 Z3.0000 I-1.8712 J1.2492 F60.00
G1 X8.4422 Y10.3598 Z3.0000 F60.00
G3 X7.4367 Y10.3600 Z3.0000 I-0.5043 J-6.3870 F60.00
G2 X7.5355 Y9.4531 Z3.0000 I-1.2729 J-0.5976 F60.00
G0 X7.5355 Y9.4531 Z9.0000
G0 X-7.5005 Y-7.2985 Z9.0000
G1 X-7.5005 Y-7.2985 Z3.0000 F60.00
G2 X-7.0985 Y-8.1951 Z3.0000 I-0.8087 J-0.9010 F60.00
G2 X-7.2166 Y-8.7077 Z3.0000 I-1.1816 J0.0021 F60.00
G3 X-7.4363 Y-10.3600 Z3.0000 I1.2595 J-1.0082 F60.00
G1 X-8.4391 Y-10.3600 Z3.0000 F60.00
G2 X-9.9500 Y-8.8491 Z3.0000 I-0.0475 J1.4634 F60.00
G1 X-9.9500 Y-7.4323 Z3.0000 F60.00
G3 X-9.0672 Y-7.2555 Z3.0000 I0.1893 J1.3468 F60.00
G2 X-7.5005 Y-7.2985 Z3.0000 I0.7581 J-0.9439 F60.00
G0 X-7.5005 Y-7.2985 Z9.0000
G0 X-7.3513 Y-8.9409 Z9.0000
G1 X-7.3513 Y-8.9409 Z3.0000 F60.00
G3 X-7.4363 Y-10.3600 Z3.0000 I1.3083 J-0.7905 F60.00
G2 X-8.7436 Y-10.3332 Z3.0000 I-0.5014 J7.4442 F60.00
G1 X-7.3513 Y-8.9409 Z3.0000 F60.00
G3 X-7.4796 Y-7.3156 Z3.0000 I-0.9621 J0.7418 F60.00
G1 X-9.7658 Y-9.6018 Z3.0000 F60.00
G2 X-9.9274 Y-9.1361 Z3.0000 I0.8892 J0.5695 F60.00
G2 X-9.9500 Y-8.0324 Z3.0000 I7.0004 J0.6953 F60.00
G1 X-9.2472 Y-7.3296 Z3.0000 F60.00
G2 X-9.9500 Y-7.4323 Z3.0000 I-0.5110 J1.0399 F60.00
G1 X-9.9500 Y-8.0324 Z3.0000 F60.00
G1 X-9.9500 Y-8.0324 Z2.7500 F60.00
G1 X-9.9500 Y-7.4323 Z2.7500 F60.00
G3 X-9.2472 Y-7.3296 Z2.7500 I0.1918 J1.1427 F60.00
G1 X-9.9500 Y-8.0324 Z2.7500 F60.00
G3 X-9.9274 Y-9.1361 Z2.7500 I7.0230 J-0.4083 F60.00
G3 X-9.7658 Y-9.6018 Z2.7500 I1.0508 J0.1037 F60.00
G1 X-7.4796 Y-7.3156 Z2.7500 F60.00
G2 X-7.3513 Y-8.9409 Z2.7500 I-0.8338 J-0.8835 F60.00
G1 X-8.7436 Y-10.3332 Z2.7500 F60.00
G3 X-7.4363 Y-10.3600 Z2.7500 I0.8059 J7.4174 F60.00
G2 X-7.3513 Y-8.9409 Z2.7500 I1.3933 J0.6286 F60.00
G0 X-7.3513 Y-8.9409 Z9.0000
G0 X-7.3672 Y-8.9321 Z9.0000
G1 X-7.3672 Y-8.9321 Z2.7500 F60.00
G3 X-7.4363 Y-10.3600 Z2.7500 I1.4101 J-0.7839 F60.00
G1 X-8.4391 Y-10.3600 Z2.7500 F60.00
G2 X-9.9500 Y-8.8491 Z2.7500 I-0.0475 J1.4634 F60.00
G1 X-9.9500 Y-7.4323 Z2.7500 F60.00
G3 X-9.0672 Y-7.2555 Z2.7500 I0.1893 J1.3468 F60.00
G2 X-7.0985 Y-8.1951 Z2.7500 I0.7581 J-0.9439 F60.00
G2 X-7.2166 Y-8.7077 Z2.7500 I-1.1816 J0.0021 F60.00
G3 X-7.3672 Y-8.9321 Z2.7500 I1.2595 J-1.0082 F60.00
G0 X-7.3672 Y-8.9321 Z9.0000
G0 X-4.0747 Y-4.9340 Z9.0000
G1 X-4.0747 Y-4.9340 Z2.7500 F60.00
G2 X-6.4056 Y0.0050 Z2.7500 I4.0673 J4.9390 F60.00
G2 X-0.0074 Y6.4031 Z2.7500 I6.3981 J0.0000 F60.00
G2 X6.3907 Y0.0050 Z2.7500 I-0.0000 J-6.3981 F60.00
G2 X-4.0747 Y-4.9340 Z2.7500 I-6.3981 J0.0000 F60.00
G0 X-4.0747 Y-4.9340 Z9.0000
G0 X-5.1974 Y3.7347 Z9.0000
G1 X-5.1974 Y3.7347 Z2.7500 F60.00
G2 X-3.7371 Y5.1949 Z2.7500 I4.8426 J-3.3824 F60.00
G1 X-5.1974 Y3.7347 Z2.7500 F60.00
G3 X-6.3449 Y0.8336 Z2.7500 I4.9846 J-3.6490 F60.00
G1 X-0.8361 Y6.3424 Z2.7500 F60.00
G2 X0.9051 Y6.3299 Z2.7500 I0.8303 J-5.6478 F60.00
G1 X-6.3324 Y-0.9076 Z2.7500 F60.00
G3 X-5.9702 Y-2.2990 Z2.7500 I5.3967 J0.6619 F60.00
G1 X2.2965 Y5.9678 Z2.7500 F60.00
G2 X3.4597 Y5.3773 Z2.7500 I-1.9209 J-5.2244 F60.00
G1 X-5.3797 Y-3.4621 Z2.7500 F60.00
G3 X-4.6037 Y-4.4397 Z2.7500 I4.7384 J2.9650 F60.00
G1 X4.4372 Y4.6012 Z2.7500 F60.00
G2 X5.2429 Y3.6533 Z2.7500 I-3.7927 J-4.0401 F60.00
G1 X-3.6557 Y-5.2454 Z2.7500 F60.00
G3 X-2.5285 Y-5.8718 Z2.7500 I3.3102 J4.6294 F60.00
G1 X5.8693 Y2.5260 Z2.7500 F60.00
G2 X6.2784 Y1.1815 Z2.7500 I-5.3970 J-2.3765 F60.00
G1 X-1.1840 Y-6.2809 Z2.7500 F60.00
G3 X0.4814 Y-6.3692 Z2.7500 I1.1366 J5.6880 F60.00
G1 X6.3667 Y-0.4839 Z2.7500 F60.00
G2 X5.6730 Y-2.9311 Z2.7500 I-6.1667 J0.4259 F60.00
G1 X2.9286 Y-5.6755 Z2.7500 F60.00
G3 X5.6730 Y-2.9311 Z2.7500 I-2.8808 J5.6252 F60.00
G0 X5.6730 Y-2.9311 Z9.0000
G0 X7.7594 Y-7.1225 Z9.0000
G1 X7.7594 Y-7.1225 Z2.7500 F60.00
G2 X8.7851 Y-7.0996 Z2.7500 I0.5372 J-1.0792 F60.00
G3 X9.9500 Y-7.4325 Z2.7500 I1.0167 J1.3532 F60.00
G1 X9.9500 Y-8.8491 Z2.7500 F60.00
G2 X8.7261 Y-10.3374 Z2.7500 I-1.4573 J-0.0490 F60.00
G2 X7.4367 Y-10.3600 Z2.7500 I-0.7882 J8.1804 F60.00
G3 X7.3689 Y-8.9715 Z2.7500 I-1.3747 J0.6288 F60.00
G2 X7.7594 Y-7.1225 Z2.7500 I0.9278 J0.7698 F60.00
G0 X7.7594 Y-7.1225 Z9.0000
G0 X7.1374 Y-8.4813 Z9.0000
G1 X7.1374 Y-8.4813 Z2.7500 F60.00
G2 X8.5870 Y-7.0317 Z2.7500 I1.1543 J0.2953 F60.00
G1 X7.1374 Y-8.4813 Z2.7500 F60.00
G3 X7.3689 Y-8.9715 Z2.7500 I1.4255 J0.3734 F60.00
G2 X7.5604 Y-9.8119 Z2.7500 I-1.1022 J-0.6932 F60.00
G1 X9.9392 Y-7.4331 Z2.7500 F60.00
G1 X9.9500 Y-7.4325 Z2.7500 F60.00
G1 X9.9500 Y-8.8491 Z2.7500 F60.00
G2 X9.9077 Y-9.2182 Z2.7500 I-1.1864 J-0.0510 F60.00
G2 X8.8082 Y-10.3177 Z2.7500 I-1.3894 J0.2899 F60.00
G1 X9.9077 Y-9.2182 Z2.7500 F60.00
G0 X9.9077 Y-9.2182 Z9.0000
G0 X8.4179 Y6.9935 Z9.0000
G1 X8.4179 Y6.9935 Z2.7500 F60.00
G2 X7.3689 Y8.9715 Z2.7500 I-0.1110 J1.2083 F60.00
G3 X7.4367 Y10.3600 Z2.7500 I-1.3258 J0.7606 F60.00
G1 X8.4391 Y10.3600 Z2.7500 F60.00
G2 X9.9500 Y8.8491 Z2.7500 I0.0475 J-1.4634 F60.00
G1 X9.9500 Y7.4325 Z2.7500 F60.00
G3 X9.0646 Y7.2541 Z2.7500 I-0.1882 J-1.3522 F60.00
G2 X8.4179 Y6.9935 Z2.7500 I-0.7577 J0.9477 F60.00
G0 X8.4179 Y6.9935 Z9.0000
G0 X9.9500 Y8.3603 Z9.0000
G1 X9.9500 Y8.3603 Z2.7500 F60.00
G1 X8.6361 Y7.0464 Z2.7500 F60.00
G2 X9.3858 Y7.3870 Z2.7500 I3.2726 J-6.2073 F60.00
G2 X9.9500 Y7.4325 Z2.7500 I0.3814 J-1.2112 F60.00
G1 X9.9500 Y8.3603 Z2.7500 F60.00
G1 X9.9500 Y8.8491 Z2.7500 F60.00
G3 X9.6353 Y9.7992 Z2.7500 I-1.4679 J0.0409 F60.00
G1 X7.3279 Y7.4918 Z2.7500 F60.00
G2 X7.2109 Y8.6940 Z2.7500 I0.9475 J0.6990 F60.00
G3 X7.5355 Y9.4531 Z2.7500 I-1.8712 J1.2492 F60.00
G1 X8.4422 Y10.3598 Z2.7500 F60.00
G3 X7.4367 Y10.3600 Z2.7500 I-0.5043 J-6.3870 F60.00
G2 X7.5355 Y9.4531 Z2.7500 I-1.2729 J-0.5976 F60.00
G0 X7.5355 Y9.4531 Z9.0000
G0 X-7.1025 Y8.2780 Z9.0000
G1 X-7.1025 Y8.2780 Z2.7500 F60.00
G2 X-7.0985 Y8.1951 Z2.7500 I-1.3020 J-0.1045 F60.00
G2 X-8.7809 Y7.0979 Z2.7500 I-1.1952 J-0.0056 F60.00
G3 X-9.9500 Y7.4323 Z2.7500 I-1.0208 J-1.3580 F60.00
G1 X-9.9500 Y8.8491 Z2.7500 F60.00
G2 X-8.7261 Y10.3374 Z2.7500 I1.4573 J0.0490 F60.00
G2 X-7.4363 Y10.3600 Z2.7500 I0.7884 J-8.1829 F60.00
G3 X-7.3641 Y8.9632 Z2.7500 I1.3722 J-0.6294 F60.00
G2 X-7.1025 Y8.2780 Z2.7500 I-1.0404 J-0.7897 F60.00
G0 X-7.1025 Y8.2780 Z9.0000
G0 X-7.2247 Y8.7219 Z9.0000
G1 X-7.2247 Y8.7219 Z2.7500 F60.00
G1 X-8.8246 Y7.1220 Z2.7500 F60.00
G3 X-7.2247 Y8.7219 Z2.7500 I0.5335 J1.0664 F60.00
G2 X-7.4896 Y10.2106 Z2.7500 I1.3108 J1.0011 F60.00
G1 X-9.9500 Y7.7502 Z2.7500 F60.00
G1 X-9.9500 Y8.8491 Z2.7500 F60.00
G2 X-9.5219 Y9.9319 Z2.7500 I1.4873 J0.0380 F60.00
G1 X-9.5219 Y9.9319 Z2.5000 F60.00
G3 X-9.9500 Y8.8491 Z2.5000 I1.0593 J-1.0448 F60.00
G1 X-9.9500 Y7.7502 Z2.5000 F60.00
G1 X-7.4896 Y10.2106 Z2.5000 F60.00
G3 X-7.2247 Y8.7219 Z2.5000 I1.5757 J-0.4876 F60.00
G2 X-8.8246 Y7.1220 Z2.5000 I-1.0664 J-0.5335 F60.00
G1 X-7.2247 Y8.7219 Z2.5000 F60.00
G0 X-7.2247 Y8.7219 Z9.0000
G0 X-7.2200 Y8.7240 Z9.0000
G1 X-7.2200 Y8.7240 Z2.5000 F60.00
G2 X-7.0985 Y8.1951 Z2.5000 I-1.1844 J-0.5506 F60.00
G2 X-8.7809 Y7.0979 Z2.5000 I-1.1952 J-0.0056 F60.00
G3 X-9.9500 Y7.4323 Z2.5000 I-1.0208 J-1.3580 F60.00
G1 X-9.9500 Y8.8491 Z2.5000 F60.00
G2 X-8.7261 Y10.3374 Z2.5000 I1.4573 J0.0490 F60.00
G2 X-7.4363 Y10.3600 Z2.5000 I0.7884 J-8.1829 F60.00
G3 X-7.3641 Y8.9632 Z2.5000 I1.3722 J-0.6294 F60.00
G2 X-7.2200 Y8.7240 Z2.5000 I-1.0404 J-0.7897 F60.00
G0 X-7.2200 Y8.7240 Z9.0000
G0 X-4.0856 Y4.9349 Z9.0000
G1 X-4.0856 Y4.9349 Z2.5000 F60.00
G2 X6.3907 Y0.0050 Z2.5000 I4.0782 J-4.9300 F60.00
G2 X-6.4056 Y0.0050 Z2.5000 I-6.3981 J0.0000 F60.00
G2 X-4.0856 Y4.9349 Z2.5000 I6.3981 J0.0000 F60.00
G0 X-4.0856 Y4.9349 Z9.0000
G0 X-5.1974 Y3.7347 Z9.0000
G1 X-5.1974 Y3.7347 Z2.5000 F60.00
G2 X-3.7371 Y5.1949 Z2.5000 I4.8426 J-3.3824 F60.00
G1 X-5.1974 Y3.7347 Z2.5000 F60.00
G3 X-6.3449 Y0.8336 Z2.5000 I4.9846 J-3.6490 F60.00
G1 X-0.8361 Y6.3424 Z2.5000 F60.00
G2 X0.9051 Y6.3299 Z2.5000 I0.8303 J-5.6478 F60.00
G1 X-6.3324 Y-0.9076 Z2.5000 F60.00
G3 X-5.9702 Y-2.2990 Z2.5000 I5.3967 J0.6619 F60.00
G1 X2.2965 Y5.9678 Z2.5000 F60.00
G2 X3.4597 Y5.3773 Z2.5000 I-1.9209 J-5.2244 F60.00
G1 X-5.3797 Y-3.4621 Z2.5000 F60.00
G3 X-4.6037 Y-4.4397 Z2.5000 I4.7384 J2.9650 F60.00
G1 X4.4372 Y4.6012 Z2.5000 F60.00
G2 X5.2429 Y3.6533 Z2.5000 I-3.7927 J-4.0401 F60.00
G1 X-3.6557 Y-5.2454 Z2.5000 F60.00
G3 X-2.5285 Y-5.8718 Z2.5000 I3.3102 J4.6294 F60.00
G1 X5.8693 Y2.5260 Z2.5000 F60.00
G2 X6.2784 Y1.1815 Z2.5000 I-5.3970 J-2.3765 F60.00
G1 X-1.1840 Y-6.2809 Z2.5000 F60.00
G3 X0.4814 Y-6.3692 Z2.5000 I1.1366 J5.6880 F60.00
G1 X6.3667 Y-0.4839 Z2.5000 F60.00
G2 X5.6730 Y-2.9311 Z2.5000 I-6.1667 J0.4259 F60.00
G1 X2.9286 Y-5.6755 Z2.5000 F60.00
G3 X5.6730 Y-2.9311 Z2.5000 I-2.8808 J5.6252 F60.00
G0 X5.6730 Y-2.9311 Z9.0000
G0 X7.7594 Y-7.1225 Z9.0000
G1 X7.7594 Y-7.1225 Z2.5000 F60.00
G2 X8.7851 Y-7.0996 Z2.5000 I0.5372 J-1.0792 F60.00
G3 X9.9500 Y-7.4325 Z2.5000 I1.0167 J1.3532 F60.00
G1 X9.9500 Y-8.8491 Z2.5000 F60.00
G2 X8.7261 Y-10.3374 Z2.5000 I-1.4573 J-0.0490 F60.00
G2 X7.4367 Y-10.3600 Z2.5000 I-0.7882 J8.1804 F60.00
G3 X7.3689 Y-8.9715 Z2.5000 I-1.3747 J0.6288 F60.00
G2 X7.7594 Y-7.1225 Z2.5000 I0.9278 J0.7698 F60.00
G0 X7.7594 Y-7.1225 Z9.0000
G0 X7.1374 Y-8.4813 Z9.0000
G1 X7.1374 Y-8.4813 Z2.5000 F60.00
G2 X8.5870 Y-7.0317 Z2.5000 I1.1543 J0.2953 F60.00
G1 X7.1374 Y-8.4813 Z2.5000 F60.00
G3 X7.3689 Y-8.9715 Z2.5000 I1.4255 J0.3734 F60.00
G2 X7.5604 Y-9.8119 Z2.5000 I-1.1022 J-0.6932 F60.00
G1 X9.9392 Y-7.4331 Z2.5000 F60.00
G1 X9.9500 Y-7.4325 Z2.5000 F60.00
G1 X9.9500 Y-8.8491 Z2.5000 F60.00
G2 X9.9077 Y-9.2182 Z2.5000 I-1.1864 J-0.0510 F60.00
G2 X8.8082 Y-10.3177 Z2.5000 I-1.3894 J0.2899 F60.00
G1 X9.9077 Y-9.2182 Z2.5000 F60.00
G0 X9.9077 Y-9.2182 Z9.0000
G0 X8.4179 Y6.9935 Z9.0000
G1 X8.4179 Y6.9935 Z2.5000 F60.00
G2 X7.3689 Y8.9715 Z2.5000 I-0.1110 J1.2083 F60.00
G3 X7.4367 Y10.3600 Z2.5000 I-1.3258 J0.7606 F60.00
G1 X8.4391 Y10.3600 Z2.5000 F60.00
G2 X9.9500 Y8.8491 Z2.5000 I0.0475 J-1.4634 F60.00
G1 X9.9500 Y7.4325 Z2.5000 F60.00
G3 X9.0646 Y7.2541 Z2.5000 I-0.1882 J-1.3522 F60.00
G2 X8.4179 Y6.9935 Z2.5000 I-0.7577 J0.9477 F60.00
G0 X8.4179 Y6.9935 Z9.0000
G0 X9.9500 Y8.3603 Z9.0000
G1 X9.9500 Y8.3603 Z2.5000 F60.00
G1 X8.6361 Y7.0464 Z2.5000 F60.00
G2 X9.3858 Y7.3870 Z2.5000 I3.2726 J-6.2073 F60.00
G2 X9.9500 Y7.4325 Z2.5000 I0.3814 J-1.2112 F60.00
G1 X9.9500 Y8.3603 Z2.5000 F60.00
G1 X9.9500 Y8.8491 Z2.5000 F60.00
G3 X9.6353 Y9.7992 Z2.5000 I-1.4679 J0.0409 F60.00
G1 X7.3279 Y7.4918 Z2.5000 F60.00
G2 X7.2109 Y8.6940 Z2.5000 I0.9475 J0.6990 F60.00
G3 X7.5355 Y9.4531 Z2.5000 I-1.8712 J1.2492 F60.00
G1 X8.4422 Y10.3598 Z2.5000 F60.00
G3 X7.4367 Y10.3600 Z2.5000 I-0.5043 J-6.3870 F60.00
G2 X7.5355 Y9.4531 Z2.5000 I-1.2729 J-0.5976 F60.00
G0 X7.5355 Y9.4531 Z9.0000
G0 X-7.5005 Y-7.2985 Z9.0000
G1 X-7.5005 Y-7.2985 Z2.5000 F60.00
G2 X-7.0985 Y-8.1951 Z2.5000 I-0.8087 J-0.9010 F60.00
G2 X-7.2166 Y-8.7077 Z2.5000 I-1.1816 J0.0021 F60.00
G3 X-7.4363 Y-10.3600 Z2.5000 I1.2595 J-1.0082 F60.00
G1 X-8.4391 Y-10.3600 Z2.5000 F60.00
G2 X-9.9500 Y-8.8491 Z2.5000 I-0.0475 J1.4634 F60.00
G1 X-9.9500 Y-7.4323 Z2.5000 F60.00
G3 X-9.0672 Y-7.2555 Z2.5000 I0.1893 J1.3468 F60.00
G2 X-7.5005 Y-7.2985 Z2.5000 I0.7581 J-0.9439 F60.00
G0 X-7.5005 Y-7.2985 Z9.0000
G0 X-7.3513 Y-8.9409 Z9.0000
G1 X-7.3513 Y-8.9409 Z2.5000 F60.00
G3 X-7.4363 Y-10.3600 Z2.5000 I1.3083 J-0.7905 F60.00
G2 X-8.7436 Y-10.3332 Z2.5000 I-0.5014 J7.4442 F60.00
G1 X-7.3513 Y-8.9409 Z2.5000 F60.00
G3 X-7.4796 Y-7.3156 Z2.5000 I-0.9621 J0.7418 F60.00
G1 X-9.7658 Y-9.6018 Z2.5000 F60.00
G2 X-9.9274 Y-9.1361 Z2.5000 I0.8892 J0.5695 F60.00
G2 X-9.9500 Y-8.0324 Z2.5000 I7.0004 J0.6953 F60.00
G1 X-9.2472 Y-7.3296 Z2.5000 F60.00
G2 X-9.9500 Y-7.4323 Z2.5000 I-0.5110 J1.0399 F60.00
G1 X-9.9500 Y-8.0324 Z2.5000 F60.00
G1 X-9.9500 Y-8.0324 Z2.2500 F60.00
G1 X-9.9500 Y-7.4323 Z2.2500 F60.00
G3 X-9.2472 Y-7.3296 Z2.2500 I0.1918 J1.1427 F60.00
G1 X-9.9500 Y-8.0324 Z2.2500 F60.00
G3 X-9.9274 Y-9.1361 Z2.2500 I7.0230 J-0.4083 F60.00
G3 X-9.7658 Y-9.6018 Z2.2500 I1.0508 J0.1037 F60.00
G1 X-7.4796 Y-7.3156 Z2.2500 F60.00
G2 X-7.3513 Y-8.9409 Z2.2500 I-0.8338 J-0.8835 F60.00
G1 X-8.7436 Y-10.3332 Z2.2500 F60.00
G3 X-7.4363 Y-10.3600 Z2.2500 I0.8059 J7.4174 F60.00
G2 X-7.3513 Y-8.9409 Z2.2500 I1.3933 J0.6286 F60.00
G0 X-7.3513 Y-8.9409 Z9.0000
G0 X-7.3672 Y-8.9321 Z9.0000
G1 X-7.3672 Y-8.9321 Z2.2500 F60.00
G3 X-7.4363 Y-10.3600 Z2.2500 I1.4101 J-0.7839 F60.00
G1 X-8.4391 Y-10.3600 Z2.2500 F60.00
G2 X-9.9500 Y-8.8491 Z2.2500 I-0.0475 J1.4634 F60.00
G1 X-9.9500 Y-7.4323 Z2.2500 F60.00
G3 X-9.0672 Y-7.2555 Z2.2500 I0.1893 J1.3468 F60.00
G2 X-7.0985 Y-8.1951 Z2.2500 I0.7581 J-0.9439 F60.00
G2 X-7.2166 Y-8.7077 Z2.2500 I-1.1816 J0.0021 F60.00
G3 X-7.3672 Y-8.9321 Z2.2500 I1.2595 J-1.0082 F60.00
G0 X-7.3672 Y-8.9321 Z9.0000
G0 X-4.0747 Y-4.9340 Z9.0000
G1 X-4.0747 Y-4.9340 Z2.2500 F60.00
G2 X-6.4056 Y0.0050 Z2.2500 I4.0673 J4.9390 F60.00
G2 X-0.0074 Y6.4031 Z2.2500 I6.3981 J0.0000 F60.00
G2 X6.3907 Y0.0050 Z2.2500 I-0.0000 J-6.3981 F60.00
G2 X-4.0747 Y-4.9340 Z2.2500 I-6.3981 J0.0000 F60.00
G0 X-4.0747 Y-4.9340 Z9.0000
G0 X-5.1974 Y3.7347 Z9.0000
G1 X-5.1974 Y3.7347 Z2.2500 F60.00
G2 X-3.7371 Y5.1949 Z2.2500 I4.8426 J-3.3824 F60.00
G1 X-5.1974 Y3.7347 Z2.2500 F60.00
G3 X-6.3449 Y0.8336 Z2.2500 I4.9846 J-3.6490 F60.00
G1 X-0.8361 Y6.3424 Z2.2500 F60.00
G2 X0.9051 Y6.3299 Z2.2500 I0.8303 J-5.6478 F60.00
G1 X-6.3324 Y-0.9076 Z2.2500 F60.00
G3 X-5.9702 Y-2.2990 Z2.2500 I5.3967 J0.6619 F60.00
G1 X2.2965 Y5.9678 Z2.2500 F60.00
G2 X3.4597 Y5.3773 Z2.2500 I-1.9209 J-5.2244 F60.00
G1 X-5.3797 Y-3.4621 Z2.2500 F60.00
G3 X-4.6037 Y-4.4397 Z2.2500 I4.7384 J2.9650 F60.00
G1 X4.4372 Y4.6012 Z2.2500 F60.00
G2 X5.2429 Y3.6533 Z2.2500 I-3.7927 J-4.0401 F60.00
G1 X-3.6557 Y-5.2454 Z2.2500 F60.00
G3 X-2.5285 Y-5.8718 Z2.2500 I3.3102 J4.6294 F60.00
G1 X5.8693 Y2.5260 Z2.2500 F60.00
G2 X6.2784 Y1.1815 Z2.2500 I-5.3970 J-2.3765 F60.00
G1 X-1.1840 Y-6.2809 Z2.2500 F60.00
G3 X0.4814 Y-6.3692 Z2.2500 I1.1366 J5.6880 F60.00
G1 X6.3667 Y-0.4839 Z2.2500 F60.00
G2 X5.6730 Y-2.9311 Z2.2500 I-6.1667 J0.4259 F60.00
G1 X2.9286 Y-5.6755 Z2.2500 F60.00
G3 X5.6730 Y-2.9311 Z2.2500 I-2.8808 J5.6252 F60.00
G0 X5.6730 Y-2.9311 Z9.0000
G0 X7.7594 Y-7.1225 Z9.0000
G1 X7.7594 Y-7.1225 Z2.2500 F60.00
G2 X8.7851 Y-7.0996 Z2.2500 I0.5372 J-1.0792 F60.00
G3 X9.9500 Y-7.4325 Z2.2500 I1.0167 J1.3532 F60.00
G1 X9.9500 Y-8.8491 Z2.2500 F60.00
G2 X8.7261 Y-10.3374 Z2.2500 I-1.4573 J-0.0490 F60.00
G2 X7.4367 Y-10.3600 Z2.2500 I-0.7882 J8.1804 F60.00
G3 X7.3689 Y-8.9715 Z2.2500 I-1.3747 J0.6288 F60.00
G2 X7.7594 Y-7.1225 Z2.2500 I0.9278 J0.7698 F60.00
G0 X7.7594 Y-7.1225 Z9.0000
G0 X7.1374 Y-8.4813 Z9.0000
G1 X7.1374 Y-8.4813 Z2.2500 F60.00
G2 X8.5870 Y-7.0317 Z2.2500 I1.1543 J0.2953 F60.00
G1 X7.1374 Y-8.4813 Z2.2500 F60.00
G3 X7.3689 Y-8.9715 Z2.2500 I1.4255 J0.3734 F60.00
G2 X7.5604 Y-9.8119 Z2.2500 I-1.1022 J-0.6932 F60.00
G1 X9.9392 Y-7.4331 Z2.2500 F60.00
G1 X9.9500 Y-7.4325 Z2.2500 F60.00
G1 X9.9500 Y-8.8491 Z2.2500 F60.00
G2 X9.9077 Y-9.2182 Z2.2500 I-1.1864 J-0.0510 F60.00
G2 X8.8082 Y-10.3177 Z2.2500 I-1.3894 J0.2899 F60.00
G1 X9.9077 Y-9.2182 Z2.2500 F60.00
G0 X9.9077 Y-9.2182 Z9.0000
G0 X8.4179 Y6.9935 Z9.0000
G1 X8.4179 Y6.9935 Z2.2500 F60.00
G2 X7.3689 Y8.9715 Z2.2500 I-0.1110 J1.2083 F60.00
G3 X7.4367 Y10.3600 Z2.2500 I-1.3258 J0.7606 F60.00
G1 X8.4391 Y10.3600 Z2.2500 F60.00
G2 X9.9500 Y8.8491 Z2.2500 I0.0475 J-1.4634 F60.00
G1 X9.9500 Y7.4325 Z2.2500 F60.00
G3 X9.0646 Y7.2541 Z2.2500 I-0.1882 J-1.3522 F60.00
G2 X8.4179 Y6.9935 Z2.2500 I-0.7577 J0.9477 F60.00
G0 X8.4179 Y6.9935 Z9.0000
G0 X9.9500 Y8.3603 Z9.0000
G1 X9.9500 Y8.3603 Z2.2500 F60.00
G1 X8.6361 Y7.0464 Z2.2500 F60.00
G2 X9.3858 Y7.3870 Z2.2500 I3.2726 J-6.2073 F60.00
G2 X9.9500 Y7.4325 Z2.2500 I0.3814 J-1.2112 F60.00
G1 X9.9500 Y8.3603 Z2.2500 F60.00
G1 X9.9500 Y8.8491 Z2.2500 F60.00
G3 X9.6353 Y9.7992 Z2.2500 I-1.4679 J0.0409 F60.00
G1 X7.3279 Y7.4918 Z2.2500 F60.00
G2 X7.2109 Y8.6940 Z2.2500 I0.9475 J0.6990 F60.00
G3 X7.5355 Y9.4531 Z2.2500 I-1.8712 J1.2492 F60.00
G1 X8.4422 Y10.3598 Z2.2500 F60.00
G3 X7.4367 Y10.3600 Z2.2500 I-0.5043 J-6.3870 F60.00
G2 X7.5355 Y9.4531 Z2.2500 I-1.2729 J-0.5976 F60.00
G0 X7.5355 Y9.4531 Z9.0000
G0 X-7.1025 Y8.2780 Z9.0000
G1 X-7.1025 Y8.2780 Z2.2500 F60.00
G2 X-7.0985 Y8.1951 Z2.2500 I-1.3020 J-0.1045 F60.00
G2 X-8.7809 Y7.0979 Z2.2500 I-1.1952 J-0.0056 F60.00
G3 X-9.9500 Y7.4323 Z2.2500 I-1.0208 J-1.3580 F60.00
G1 X-9.9500 Y8.8491 Z2.2500 F60.00
G2 X-8.7261 Y10.3374 Z2.2500 I1.4573 J0.0490 F60.00
G2 X-7.4363 Y10.3600 Z2.2500 I0.7884 J-8.1829 F60.00
G3 X-7.3641 Y8.9632 Z2.2500 I1.3722 J-0.6294 F60.00
G2 X-7.1025 Y8.2780 Z2.2500 I-1.0404 J-0.7897 F60.00
G0 X-7.1025 Y8.2780 Z9.0000
G0 X-7.2247 Y8.7219 Z9.0000
G1 X-7.2247 Y8.7219 Z2.2500 F60.00
G1 X-8.8246 Y7.1220 Z2.2500 F60.00
G3 X-7.2247 Y8.7219 Z2.2500 I0.5335 J1.0664 F60.00
G2 X-7.4896 Y10.2106 Z2.2500 I1.3108 J1.0011 F60.00
G1 X-9.9500 Y7.7502 Z2.2500 F60.00
G1 X-9.9500 Y8.8491 Z2.2500 F60.00
G2 X-9.5219 Y9.9319 Z2.2500 I1.4873 J0.0380 F60.00
G1 X-9.5219 Y9.9319 Z2.0000 F60.00
G3 X-9.9500 Y8.8491 Z2.0000 I1.0593 J-1.0448 F60.00
G1 X-9.9500 Y7.7502 Z2.0000 F60.00
G1 X-7.4896 Y10.2106 Z2.0000 F60.00
G3 X-7.2247 Y8.7219 Z2.0000 I1.5757 J-0.4876 F60.00
G2 X-8.8246 Y7.1220 Z2.0000 I-1.0664 J-0.5335 F60.00
G1 X-7.2247 Y8.7219 Z2.0000 F60.00
G0 X-7.2247 Y8.7219 Z9.0000
G0 X-7.2200 Y8.7240 Z9.0000
G1 X-7.2200 Y8.7240 Z2.0000 F60.00
G2 X-7.0985 Y8.1951 Z2.0000 I-1.1844 J-0.5506 F60.00
G2 X-8.7809 Y7.0979 Z2.0000 I-1.1952 J-0.0056 F60.00
G3 X-9.9500 Y7.4323 Z2.0000 I-1.0208 J-1.3580 F60.00
G1 X-9.9500 Y8.8491 Z2.0000 F60.00
G2 X-8.7261 Y10.3374 Z2.0000 I1.4573 J0.0490 F60.00
G2 X-7.4363 Y10.3600 Z2.0000 I0.7884 J-8.1829 F60.00
G3 X-7.3641 Y8.9632 Z2.0000 I1.3722 J-0.6294 F60.00
G2 X-7.2200 Y8.7240 Z2.0000 I-1.0404 J-0.7897 F60.00
G0 X-7.2200 Y8.7240 Z9.0000
G0 X-4.0856 Y4.9349 Z9.0000
G1 X-4.0856 Y4.9349 Z2.0000 F60.00
G2 X6.3907 Y0.0050 Z2.0000 I4.0782 J-4.9300 F60.00
G2 X-6.4056 Y0.0050 Z2.0000 I-6.3981 J0.0000 F60.00
G2 X-4.0856 Y4.9349 Z2.0000 I6.3981 J0.0000 F60.00
G0 X-4.0856 Y4.9349 Z9.0000
G0 X-5.1974 Y3.7347 Z9.0000
G1 X-5.1974 Y3.7347 Z2.0000 F60.00
G2 X-3.7371 Y5.1949 Z2.0000 I4.8426 J-3.3824 F60.00
G1 X-5.1974 Y3.7347 Z2.0000 F60.00
G3 X-6.3449 Y0.8336 Z2.0000 I4.9846 J-3.6490 F60.00
G1 X-0.8361 Y6.3424 Z2.0000 F60.00
G2 X0.9051 Y6.3299 Z2.0000 I0.8303 J-5.6478 F60.00
G1 X-6.3324 Y-0.9076 Z2.0000 F60.00
G3 X-5.9702 Y-2.2990 Z2.0000 I5.3967 J0.6619 F60.00
G1 X2.2965 Y5.9678 Z2.0000 F60.00
G2 X3.4597 Y5.3773 Z2.0000 I-1.9209 J-5.2244 F60.00
G1 X-5.3797 Y-3.4621 Z2.0000 F60.00
G3 X-4.6037 Y-4.4397 Z2.0000 I4.7384 J2.9650 F60.00
G1 X4.4372 Y4.6012 Z2.0000 F60.00
G2 X5.2429 Y3.6533 Z2.0000 I-3.7927 J-4.0401 F60.00
G1 X-3.6557 Y-5.2454 Z2.0000 F60.00
G3 X-2.5285 Y-5.8718 Z2.0000 I3.3102 J4.6294 F60.00
G1 X5.8693 Y2.5260 Z2.0000 F60.00
G2 X6.2784 Y1.1815 Z2.0000 I-5.3970 J-2.3765 F60.00
G1 X-1.1840 Y-6.2809 Z2.0000 F60.00
G3 X0.4814 Y-6.3692 Z2.0000 I1.1366 J5.6880 F60.00
G1 X6.3667 Y-0.4839 Z2.0000 F60.00
G2 X5.6730 Y-2.9311 Z2.0000 I-6.1667 J0.4259 F60.00
G1 X2.9286 Y-5.6755 Z2.0000 F60.00
G3 X5.6730 Y-2.9311 Z2.0000 I-2.8808 J5.6252 F60.00
G0 X5.6730 Y-2.9311 Z9.0000
G0 X7.7594 Y-7.1225 Z9.0000
G1 X7.7594 Y-7.1225 Z2.0000 F60.00
G2 X8.7851 Y-7.0996 Z2.0000 I0.5372 J-1.0792 F60.00
G3 X9.9500 Y-7.4325 Z2.0000 I1.0167 J1.3532 F60.00
G1 X9.9500 Y-8.8491 Z2.0000 F60.00
G2 X8.7261 Y-10.3374 Z2.0000 I-1.4573 J-0.0490 F60.00
G2 X7.4367 Y-10.3600 Z2.0000 I-0.7882 J8.1804 F60.00
G3 X7.3689 Y-8.9715 Z2.0000 I-1.3747 J0.6288 F60.00
G2 X7.7594 Y-7.1225 Z2.0000 I0.9278 J0.7698 F60.00
G0 X7.7594 Y-7.1225 Z9.0000
G0 X7.1374 Y-8.4813 Z9.0000
G1 X7.1374 Y-8.4813 Z2.0000 F60.00
G2 X8.5870 Y-7.0317 Z2.0000 I1.1543 J0.2953 F60.00
G1 X7.1374 Y-8.4813 Z2.0000 F60.00
G3 X7.3689 Y-8.9715 Z2.0000 I1.4255 J0.3734 F60.00
G2 X7.5604 Y-9.8119 Z2.0000 I-1.1022 J-0.6932 F60.00
G1 X9.9392 Y-7.4331 Z2.0000 F60.00
G1 X9.9500 Y-7.4325 Z2.0000 F60.00
G1 X9.9500 Y-8.8491 Z2.0000 F60.00
G2 X9.9077 Y-9.2182 Z2.0000 I-1.1864 J-0.0510 F60.00
G2 X8.8082 Y-10.3177 Z2.0000 I-1.3894 J0.2899 F60.00
G1 X9.9077 Y-9.2182 Z2.0000 F60.00
G0 X9.9077 Y-9.2182 Z9.0000
G0 X8.4179 Y6.9935 Z9.0000
G1 X8.4179 Y6.9935 Z2.0000 F60.00
G2 X7.3689 Y8.9715 Z2.0000 I-0.1110 J1.2083 F60.00
G3 X7.4367 Y10.3600 Z2.0000 I-1.3258 J0.7606 F60.00
G1 X8.4391 Y10.3600 Z2.0000 F60.00
G2 X9.9500 Y8.8491 Z2.0000 I0.0475 J-1.4634 F60.00
G1 X9.9500 Y7.4325 Z2.0000 F60.00
G3 X9.0646 Y7.2541 Z2.0000 I-0.1882 J-1.3522 F60.00
G2 X8.4179 Y6.9935 Z2.0000 I-0.7577 J0.9477 F60.00
G0 X8.4179 Y6.9935 Z9.0000
G0 X9.9500 Y8.3603 Z9.0000
G1 X9.9500 Y8.3603 Z2.0000 F60.00
G1 X8.6361 Y7.0464 Z2.0000 F60.00
G2 X9.3858 Y7.3870 Z2.0000 I3.2726 J-6.2073 F60.00
G2 X9.9500 Y7.4325 Z2.0000 I0.3814 J-1.2112 F60.00
G1 X9.9500 Y8.3603 Z2.0000 F60.00
G1 X9.9500 Y8.8491 Z2.0000 F60.00
G3 X9.6353 Y9.7992 Z2.0000 I-1.4679 J0.0409 F60.00
G1 X7.3279 Y7.4918 Z2.0000 F60.00
G2 X7.2109 Y8.6940 Z2.0000 I0.9475 J0.6990 F60.00
G3 X7.5355 Y9.4531 Z2.0000 I-1.8712 J1.2492 F60.00
G1 X8.4422 Y10.3598 Z2.0000 F60.00
G3 X7.4367 Y10.3600 Z2.0000 I-0.5043 J-6.3870 F60.00
G2 X7.5355 Y9.4531 Z2.0000 I-1.2729 J-0.5976 F60.00
G0 X7.5355 Y9.4531 Z9.0000
G0 X-7.5005 Y-7.2985 Z9.0000
G1 X-7.5005 Y-7.2985 Z2.0000 F60.00
G2 X-7.0985 Y-8.1951 Z2.0000 I-0.8087 J-0.9010 F60.00
G2 X-7.2166 Y-8.7077 Z2.0000 I-1.1816 J0.0021 F60.00
G3 X-7.4363 Y-10.3600 Z2.0000 I1.2595 J-1.0082 F60.00
G1 X-8.4391 Y-10.3600 Z2.0000 F60.00
G2 X-9.9500 Y-8.8491 Z2.0000 I-0.0475 J1.4634 F60.00
G1 X-9.9500 Y-7.4323 Z2.0000 F60.00
G3 X-9.0672 Y-7.2555 Z2.0000 I0.1893 J1.3468 F60.00
G2 X-7.5005 Y-7.2985 Z2.0000 I0.7581 J-0.9439 F60.00
G0 X-7.5005 Y-7.2985 Z9.0000
G0 X-7.3513 Y-8.9409 Z9.0000
G1 X-7.3513 Y-8.9409 Z2.0000 F60.00
G3 X-7.4363 Y-10.3600 Z2.0000 I1.3083 J-0.7905 F60.00
G2 X-8.7436 Y-10.3332 Z2.0000 I-0.5014 J7.4442 F60.00
G1 X-7.3513 Y-8.9409 Z2.0000 F60.00
G3 X-7.4796 Y-7.3156 Z2.0000 I-0.9621 J0.7418 F60.00
G1 X-9.7658 Y-9.6018 Z2.0000 F60.00
G2 X-9.9274 Y-9.1361 Z2.0000 I0.8892 J0.5695 F60.00
G2 X-9.9500 Y-8.0324 Z2.0000 I7.0004 J0.6953 F60.00
G1 X-9.2472 Y-7.3296 Z2.0000 F60.00
G2 X-9.9500 Y-7.4323 Z2.0000 I-0.5110 J1.0399 F60.00
G1 X-9.9500 Y-8.0324 Z2.0000 F60.00
G1 X-9.9500 Y-8.0324 Z1.7500 F60.00
G1 X-9.9500 Y-7.4323 Z1.7500 F60.00
G3 X-9.2472 Y-7.3296 Z1.7500 I0.1918 J1.1427 F60.00
G1 X-9.9500 Y-8.0324 Z1.7500 F60.00
G3 X-9.9274 Y-9.1361 Z1.7500 I7.0230 J-0.4083 F60.00
G3 X-9.7658 Y-9.6018 Z1.7500 I1.0508 J0.1037 F60.00
G1 X-7.4796 Y-7.3156 Z1.7500 F60.00
G2 X-7.3513 Y-8.9409 Z1.7500 I-0.8338 J-0.8835 F60.00
G1 X-8.7436 Y-10.3332 Z1.7500 F60.00
G3 X-7.4363 Y-10.3600 Z1.7500 I0.8059 J7.4174 F60.00
G2 X-7.3513 Y-8.9409 Z1.7500 I1.3933 J0.6286 F60.00
G0 X-7.3513 Y-8.9409 Z9.0000
G0 X-7.3672 Y-8.9321 Z9.0000
G1 X-7.3672 Y-8.9321 Z1.7500 F60.00
G3 X-7.4363 Y-10.3600 Z1.7500 I1.4101 J-0.7839 F60.00
G1 X-8.4391 Y-10.3600 Z1.7500 F60.00
G2 X-9.9500 Y-8.8491 Z1.7500 I-0.0475 J1.4634 F60.00
G1 X-9.9500 Y-7.4323 Z1.7500 F60.00
G3 X-9.0672 Y-7.2555 Z1.7500 I0.1893 J1.3468 F60.00
G2 X-7.0985 Y-8.1951 Z1.7500 I0.7581 J-0.9439 F60.00
G2 X-7.2166 Y-8.7077 Z1.7500 I-1.1816 J0.0021 F60.00
G3 X-7.3672 Y-8.9321 Z1.7500 I1.2595 J-1.0082 F60.00
G0 X-7.3672 Y-8.9321 Z9.0000
G0 X-4.0747 Y-4.9340 Z9.0000
G1 X-4.0747 Y-4.9340 Z1.7500 F60.00
G2 X-6.4056 Y0.0050 Z1.7500 I4.0673 J4.9390 F60.00
G2 X-0.0074 Y6.4031 Z1.7500 I6.3981 J0.0000 F60.00
G2 X6.3907 Y0.0050 Z1.7500 I-0.0000 J-6.3981 F60.00
G2 X-4.0747 Y-4.9340 Z1.7500 I-6.3981 J0.0000 F60.00
G0 X-4.0747 Y-4.9340 Z9.0000
G0 X-5.1974 Y3.7347 Z9.0000
G1 X-5.1974 Y3.7347 Z1.7500 F60.00
G2 X-3.7371 Y5.1949 Z1.7500 I4.8426 J-3.3824 F60.00
G1 X-5.1974 Y3.7347 Z1.7500 F60.00
G3 X-6.3449 Y0.8336 Z1.7500 I4.9846 J-3.6490 F60.00
G1 X-0.8361 Y6.3424 Z1.7500 F60.00
G2 X0.9051 Y6.3299 Z1.7500 I0.8303 J-5.6478 F60.00
G1 X-6.3324 Y-0.9076 Z1.7500 F60.00
G3 X-5.9702 Y-2.2990 Z1.7500 I5.3967 J0.6619 F60.00
G1 X2.2965 Y5.9678 Z1.7500 F60.00
G2 X3.4597 Y5.3773 Z1.7500 I-1.9209 J-5.2244 F60.00
G1 X-5.3797 Y-3.4621 Z1.7500 F60.00
G3 X-4.6037 Y-4.4397 Z1.7500 I4.7384 J2.9650 F60.00
G1 X4.4372 Y4.6012 Z1.7500 F60.00
G2 X5.2429 Y3.6533 Z1.7500 I-3.7927 J-4.0401 F60.00
G1 X-3.6557 Y-5.2454 Z1.7500 F60.00
G3 X-2.5285 Y-5.8718 Z1.7500 I3.3102 J4.6294 F60.00
G1 X5.8693 Y2.5260 Z1.7500 F60.00
G2 X6.2784 Y1.1815 Z1.7500 I-5.3970 J-2.3765 F60.00
G1 X-1.1840 Y-6.2809 Z1.7500 F60.00
G3 X0.4814 Y-6.3692 Z1.7500 I1.1366 J5.6880 F60.00
G1 X6.3667 Y-0.4839 Z1.7500 F60.00
G2 X5.6730 Y-2.9311 Z1.7500 I-6.1667 J0.4259 F60.00
G1 X2.9286 Y-5.6755 Z1.7500 F60.00
G3 X5.6730 Y-2.9311 Z1.7500 I-2.8808 J5.6252 F60.00
G0 X5.6730 Y-2.9311 Z9.0000
G0 X7.7594 Y-7.1225 Z9.0000
G1 X7.7594 Y-7.1225 Z1.7500 F60.00
G2 X8.7851 Y-7.0996 Z1.7500 I0.5372 J-1.0792 F60.00
G3 X9.9500 Y-7.4325 Z1.7500 I1.0167 J1.3532 F60.00
G1 X9.9500 Y-8.8491 Z1.7500 F60.00
G2 X8.7261 Y-10.3374 Z1.7500 I-1.4573 J-0.0490 F60.00
G2 X7.4367 Y-10.3600 Z1.7500 I-0.7882 J8.1804 F60.00
G3 X7.3689 Y-8.9715 Z1.7500 I-1.3747 J0.6288 F60.00
G2 X7.7594 Y-7.1225 Z1.7500 I0.9278 J0.7698 F60.00
G0 X7.7594 Y-7.1225 Z9.0000
G0 X7.1374 Y-8.4813 Z9.0000
G1 X7.1374 Y-8.4813 Z1.7500 F60.00
G2 X8.5870 Y-7.0317 Z1.7500 I1.1543 J0.2953 F60.00
G1 X7.1374 Y-8.4813 Z1.7500 F60.00
G3 X7.3689 Y-8.9715 Z1.7500 I1.4255 J0.3734 F60.00
G2 X7.5604 Y-9.8119 Z1.7500 I-1.1022 J-0.6932 F60.00
G1 X9.9392 Y-7.4331 Z1.7500 F60.00
G1 X9.9500 Y-7.4325 Z1.7500 F60.00
G1 X9.9500 Y-8.8491 Z1.7500 F60.00
G2 X9.9077 Y-9.2182 Z1.7500 I-1.1864 J-0.0510 F60.00
G2 X8.8082 Y-10.3177 Z1.7500 I-1.3894 J0.2899 F60.00
G1 X9.9077 Y-9.2182 Z1.7500 F60.00
G0 X9.9077 Y-9.2182 Z9.0000
G0 X8.4179 Y6.9935 Z9.0000
G1 X8.4179 Y6.9935 Z1.7500 F60.00
G2 X7.3689 Y8.9715 Z1.7500 I-0.1110 J1.2083 F60.00
G3 X7.4367 Y10.3600 Z1.7500 I-1.3258 J0.7606 F60.00
G1 X8.4391 Y10.3600 Z1.7500 F60.00
G2 X9.9500 Y8.8491 Z1.7500 I0.0475 J-1.4634 F60.00
G1 X9.9500 Y7.4325 Z1.7500 F60.00
G3 X9.0646 Y7.2541 Z1.7500 I-0.1882 J-1.3522 F60.00
G2 X8.4179 Y6.9935 Z1.7500 I-0.7577 J0.9477 F60.00
G0 X8.4179 Y6.9935 Z9.0000
G0 X9.9500 Y8.3603 Z9.0000
G1 X9.9500 Y8.3603 Z1.7500 F60.00
G1 X8.6361 Y7.0464 Z1.7500 F60.00
G2 X9.3858 Y7.3870 Z1.7500 I3.2726 J-6.2073 F60.00
G2 X9.9500 Y7.4325 Z1.7500 I0.3814 J-1.2112 F60.00
G1 X9.9500 Y8.3603 Z1.7500 F60.00
G1 X9.9500 Y8.8491 Z1.7500 F60.00
G3 X9.6353 Y9.7992 Z1.7500 I-1.4679 J0.0409 F60.00
G1 X7.3279 Y7.4918 Z1.7500 F60.00
G2 X7.2109 Y8.6940 Z1.7500 I0.9475 J0.6990 F60.00
G3 X7.5355 Y9.4531 Z1.7500 I-1.8712 J1.2492 F60.00
G1 X8.4422 Y10.3598 Z1.7500 F60.00
G3 X7.4367 Y10.3600 Z1.7500 I-0.5043 J-6.3870 F60.00
G2 X7.5355 Y9.4531 Z1.7500 I-1.2729 J-0.5976 F60.00
G0 X7.5355 Y9.4531 Z9.0000
G0 X-7.1025 Y8.2780 Z9.0000
G1 X-7.1025 Y8.2780 Z1.7500 F60.00
G2 X-7.0985 Y8.1951 Z1.7500 I-1.3020 J-0.1045 F60.00
G2 X-8.7809 Y7.0979 Z1.7500 I-1.1952 J-0.0056 F60.00
G3 X-9.9500 Y7.4323 Z1.7500 I-1.0208 J-1.3580 F60.00
G1 X-9.9500 Y8.8491 Z1.7500 F60.00
G2 X-8.7261 Y10.3374 Z1.7500 I1.4573 J0.0490 F60.00
G2 X-7.4363 Y10.3600 Z1.7500 I0.7884 J-8.1829 F60.00
G3 X-7.3641 Y8.9632 Z1.7500 I1.3722 J-0.6294 F60.00
G2 X-7.1025 Y8.2780 Z1.7500 I-1.0404 J-0.7897 F60.00
G0 X-7.1025 Y8.2780 Z9.0000
G0 X-7.2247 Y8.7219 Z9.0000
G1 X-7.2247 Y8.7219 Z1.7500 F60.00
G1 X-8.8246 Y7.1220 Z1.7500 F60.00
G3 X-7.2247 Y8.7219 Z1.7500 I0.5335 J1.0664 F60.00
G2 X-7.4896 Y10.2106 Z1.7500 I1.3108 J1.0011 F60.00
G1 X-9.9500 Y7.7502 Z1.7500 F60.00
G1 X-9.9500 Y8.8491 Z1.7500 F60.00
G2 X-9.5219 Y9.9319 Z1.7500 I1.4873 J0.0380 F60.00
G1 X-9.5219 Y9.9319 Z1.5000 F60.00
G3 X-9.9500 Y8.8491 Z1.5000 I1.0593 J-1.0448 F60.00
G1 X-9.9500 Y7.7502 Z1.5000 F60.00
G1 X-7.4896 Y10.2106 Z1.5000 F60.00
G3 X-7.2247 Y8.7219 Z1.5000 I1.5757 J-0.4876 F60.00
G2 X-8.8246 Y7.1220 Z1.5000 I-1.0664 J-0.5335 F60.00
G1 X-7.2247 Y8.7219 Z1.5000 F60.00
G0 X-7.2247 Y8.7219 Z9.0000
G0 X-7.2200 Y8.7240 Z9.0000
G1 X-7.2200 Y8.7240 Z1.5000 F60.00
G2 X-7.0985 Y8.1951 Z1.5000 I-1.1844 J-0.5506 F60.00
G2 X-8.7809 Y7.0979 Z1.5000 I-1.1952 J-0.0056 F60.00
G3 X-9.9500 Y7.4323 Z1.5000 I-1.0208 J-1.3580 F60.00
G1 X-9.9500 Y8.8491 Z1.5000 F60.00
G2 X-8.7261 Y10.3374 Z1.5000 I1.4573 J0.0490 F60.00
G2 X-7.4363 Y10.3600 Z1.5000 I0.7884 J-8.1829 F60.00
G3 X-7.3641 Y8.9632 Z1.5000 I1.3722 J-0.6294 F60.00
G2 X-7.2200 Y8.7240 Z1.5000 I-1.0404 J-0.7897 F60.00
G0 X-7.2200 Y8.7240 Z9.0000
G0 X-4.0856 Y4.9349 Z9.0000
G1 X-4.0856 Y4.9349 Z1.5000 F60.00
G2 X6.3907 Y0.0050 Z1.5000 I4.0782 J-4.9300 F60.00
G2 X-6.4056 Y0.0050 Z1.5000 I-6.3981 J0.0000 F60.00
G2 X-4.0856 Y4.9349 Z1.5000 I6.3981 J0.0000 F60.00
G0 X-4.0856 Y4.9349 Z9.0000
G0 X-5.1974 Y3.7347 Z9.0000
G1 X-5.1974 Y3.7347 Z1.5000 F60.00
G2 X-3.7371 Y5.1949 Z1.5000 I4.8426 J-3.3824 F60.00
G1 X-5.1974 Y3.7347 Z1.5000 F60.00
G3 X-6.3449 Y0.8336 Z1.5000 I4.9846 J-3.6490 F60.00
G1 X-0.8361 Y6.3424 Z1.5000 F60.00
G2 X0.9051 Y6.3299 Z1.5000 I0.8303 J-5.6478 F60.00
G1 X-6.3324 Y-0.9076 Z1.5000 F60.00
G3 X-5.9702 Y-2.2990 Z1.5000 I5.3967 J0.6619 F60.00
G1 X2.2965 Y5.9678 Z1.5000 F60.00
G2 X3.4597 Y5.3773 Z1.5000 I-1.9209 J-5.2244 F60.00
G1 X-5.3797 Y-3.4621 Z1.5000 F60.00
G3 X-4.6037 Y-4.4397 Z1.5000 I4.7384 J2.9650 F60.00
G1 X4.4372 Y4.6012 Z1.5000 F60.00
G2 X5.2429 Y3.6533 Z1.5000 I-3.7927 J-4.0401 F60.00
G1 X-3.6557 Y-5.2454 Z1.5000 F60.00
G3 X-2.5285 Y-5.8718 Z1.5000 I3.3102 J4.6294 F60.00
G1 X5.8693 Y2.5260 Z1.5000 F60.00
G2 X6.2784 Y1.1815 Z1.5000 I-5.3970 J-2.3765 F60.00
G1 X-1.1840 Y-6.2809 Z1.5000 F60.00
G3 X0.4814 Y-6.3692 Z1.5000 I1.1366 J5.6880 F60.00
G1 X6.3667 Y-0.4839 Z1.5000 F60.00
G2 X5.6730 Y-2.9311 Z1.5000 I-6.1667 J0.4259 F60.00
G1 X2.9286 Y-5.6755 Z1.5000 F60.00
G3 X5.6730 Y-2.9311 Z1.5000 I-2.8808 J5.6252 F60.00
G0 X5.6730 Y-2.9311 Z9.0000
G0 X7.7594 Y-7.1225 Z9.0000
G1 X7.7594 Y-7.1225 Z1.5000 F60.00
G2 X8.7851 Y-7.0996 Z1.5000 I0.5372 J-1.0792 F60.00
G3 X9.9500 Y-7.4325 Z1.5000 I1.0167 J1.3532 F60.00
G1 X9.9500 Y-8.8491 Z1.5000 F60.00
G2 X8.7261 Y-10.3374 Z1.5000 I-1.4573 J-0.0490 F60.00
G2 X7.4367 Y-10.3600 Z1.5000 I-0.7882 J8.1804 F60.00
G3 X7.3689 Y-8.9715 Z1.5000 I-1.3747 J0.6288 F60.00
G2 X7.7594 Y-7.1225 Z1.5000 I0.9278 J0.7698 F60.00
G0 X7.7594 Y-7.1225 Z9.0000
G0 X7.1374 Y-8.4813 Z9.0000
G1 X7.1374 Y-8.4813 Z1.5000 F60.00
G2 X8.5870 Y-7.0317 Z1.5000 I1.1543 J0.2953 F60.00
G1 X7.1374 Y-8.4813 Z1.5000 F60.00
G3 X7.3689 Y-8.9715 Z1.5000 I1.4255 J0.3734 F60.00
G2 X7.5604 Y-9.8119 Z1.5000 I-1.1022 J-0.6932 F60.00
G1 X9.9392 Y-7.4331 Z1.5000 F60.00
G1 X9.9500 Y-7.4325 Z1.5000 F60.00
G1 X9.9500 Y-8.8491 Z1.5000 F60.00
G2 X9.9077 Y-9.2182 Z1.5000 I-1.1864 J-0.0510 F60.00
G2 X8.8082 Y-10.3177 Z1.5000 I-1.3894 J0.2899 F60.00
G1 X9.9077 Y-9.2182 Z1.5000 F60.00
G0 X9.9077 Y-9.2182 Z9.0000
G0 X8.4179 Y6.9935 Z9.0000
G1 X8.4179 Y6.9935 Z1.5000 F60.00
G2 X7.3689 Y8.9715 Z1.5000 I-0.1110 J1.2083 F60.00
G3 X7.4367 Y10.3600 Z1.5000 I-1.3258 J0.7606 F60.00
G1 X8.4391 Y10.3600 Z1.5000 F60.00
G2 X9.9500 Y8.8491 Z1.5000 I0.0475 J-1.4634 F60.00
G1 X9.9500 Y7.4325 Z1.5000 F60.00
G3 X9.0646 Y7.2541 Z1.5000 I-0.1882 J-1.3522 F60.00
G2 X8.4179 Y6.9935 Z1.5000 I-0.7577 J0.9477 F60.00
G0 X8.4179 Y6.9935 Z9.0000
G0 X9.9500 Y8.3603 Z9.0000
G1 X9.9500 Y8.3603 Z1.5000 F60.00
G1 X8.6361 Y7.0464 Z1.5000 F60.00
G2 X9.3858 Y7.3870 Z1.5000 I3.2726 J-6.2073 F60.00
G2 X9.9500 Y7.4325 Z1.5000 I0.3814 J-1.2112 F60.00
G1 X9.9500 Y8.3603 Z1.5000 F60.00
G1 X9.9500 Y8.8491 Z1.5000 F60.00
G3 X9.6353 Y9.7992 Z1.5000 I-1.4679 J0.0409 F60.00
G1 X7.3279 Y7.4918 Z1.5000 F60.00
G2 X7.2109 Y8.6940 Z1.5000 I0.9475 J0.6990 F60.00
G3 X7.5355 Y9.4531 Z1.5000 I-1.8712 J1.2492 F60.00
G1 X8.4422 Y10.3598 Z1.5000 F60.00
G3 X7.4367 Y10.3600 Z1.5000 I-0.5043 J-6.3870 F60.00
G2 X7.5355 Y9.4531 Z1.5000 I-1.2729 J-0.5976 F60.00
G0 X7.5355 Y9.4531 Z9.0000
G0 X-7.5005 Y-7.2985 Z9.0000
G1 X-7.5005 Y-7.2985 Z1.5000 F60.00
G2 X-7.0985 Y-8.1951 Z1.5000 I-0.8087 J-0.9010 F60.00
G2 X-7.2166 Y-8.7077 Z1.5000 I-1.1816 J0.0021 F60.00
G3 X-7.4363 Y-10.3600 Z1.5000 I1.2595 J-1.0082 F60.00
G1 X-8.4391 Y-10.3600 Z1.5000 F60.00
G2 X-9.9500 Y-8.8491 Z1.5000 I-0.0475 J1.4634 F60.00
G1 X-9.9500 Y-7.4323 Z1.5000 F60.00
G3 X-9.0672 Y-7.2555 Z1.5000 I0.1893 J1.3468 F60.00
G2 X-7.5005 Y-7.2985 Z1.5000 I0.7581 J-0.9439 F60.00
G0 X-7.5005 Y-7.2985 Z9.0000
G0 X-7.3513 Y-8.9409 Z9.0000
G1 X-7.3513 Y-8.9409 Z1.5000 F60.00
G3 X-7.4363 Y-10.3600 Z1.5000 I1.3083 J-0.7905 F60.00
G2 X-8.7436 Y-10.3332 Z1.5000 I-0.5014 J7.4442 F60.00
G1 X-7.3513 Y-8.9409 Z1.5000 F60.00
G3 X-7.4796 Y-7.3156 Z1.5000 I-0.9621 J0.7418 F60.00
G1 X-9.7658 Y-9.6018 Z1.5000 F60.00
G2 X-9.9274 Y-9.1361 Z1.5000 I0.8892 J0.5695 F60.00
G2 X-9.9500 Y-8.0324 Z1.5000 I7.0004 J0.6953 F60.00
G1 X-9.2472 Y-7.3296 Z1.5000 F60.00
G2 X-9.9500 Y-7.4323 Z1.5000 I-0.5110 J1.0399 F60.00
G1 X-9.9500 Y-8.0324 Z1.5000 F60.00
G1 X-9.9500 Y-8.0324 Z1.2500 F60.00
G1 X-9.9500 Y-7.4323 Z1.2500 F60.00
G3 X-9.2472 Y-7.3296 Z1.2500 I0.1918 J1.1427 F60.00
G1 X-9.9500 Y-8.0324 Z1.2500 F60.00
G3 X-9.9274 Y-9.1361 Z1.2500 I7.0230 J-0.4083 F60.00
G3 X-9.7658 Y-9.6018 Z1.2500 I1.0508 J0.1037 F60.00
G1 X-7.4796 Y-7.3156 Z1.2500 F60.00
G2 X-7.3513 Y-8.9409 Z1.2500 I-0.8338 J-0.8835 F60.00
G1 X-8.7436 Y-10.3332 Z1.2500 F60.00
G3 X-7.4363 Y-10.3600 Z1.2500 I0.8059 J7.4174 F60.00
G2 X-7.3513 Y-8.9409 Z1.2500 I1.3933 J0.6286 F60.00
G0 X-7.3513 Y-8.9409 Z9.0000
G0 X-7.3672 Y-8.9321 Z9.0000
G1 X-7.3672 Y-8.9321 Z1.2500 F60.00
G3 X-7.4363 Y-10.3600 Z1.2500 I1.4101 J-0.7839 F60.00
G1 X-8.4391 Y-10.3600 Z1.2500 F60.00
G2 X-9.9500 Y-8.8491 Z1.2500 I-0.0475 J1.4634 F60.00
G1 X-9.9500 Y-7.4323 Z1.2500 F60.00
G3 X-9.0672 Y-7.2555 Z1.2500 I0.1893 J1.3468 F60.00
G2 X-7.0985 Y-8.1951 Z1.2500 I0.7581 J-0.9439 F60.00
G2 X-7.2166 Y-8.7077 Z1.2500 I-1.1816 J0.0021 F60.00
G3 X-7.3672 Y-8.9321 Z1.2500 I1.2595 J-1.0082 F60.00
G0 X-7.3672 Y-8.9321 Z9.0000
G0 X-4.0747 Y-4.9340 Z9.0000
G1 X-4.0747 Y-4.9340 Z1.2500 F60.00
G2 X-6.4056 Y0.0050 Z1.2500 I4.0673 J4.9390 F60.00
G2 X-0.0074 Y6.4031 Z1.2500 I6.3981 J0.0000 F60.00
G2 X6.3907 Y0.0050 Z1.2500 I-0.0000 J-6.3981 F60.00
G2 X-4.0747 Y-4.9340 Z1.2500 I-6.3981 J0.0000 F60.00
G0 X-4.0747 Y-4.9340 Z9.0000
G0 X-5.1974 Y3.7347 Z9.0000
G1 X-5.1974 Y3.7347 Z1.2500 F60.00
G2 X-3.7371 Y5.1949 Z1.2500 I4.8426 J-3.3824 F60.00
G1 X-5.1974 Y3.7347 Z1.2500 F60.00
G3 X-6.3449 Y0.8336 Z1.2500 I4.9846 J-3.6490 F60.00
G1 X-0.8361 Y6.3424 Z1.2500 F60.00
G2 X0.9051 Y6.3299 Z1.2500 I0.8303 J-5.6478 F60.00
G1 X-6.3324 Y-0.9076 Z1.2500 F60.00
G3 X-5.9702 Y-2.2990 Z1.2500 I5.3967 J0.6619 F60.00
G1 X2.2965 Y5.9678 Z1.2500 F60.00
G2 X3.4597 Y5.3773 Z1.2500 I-1.9209 J-5.2244 F60.00
G1 X-5.3797 Y-3.4621 Z1.2500 F60.00
G3 X-4.6037 Y-4.4397 Z1.2500 I4.7384 J2.9650 F60.00
G1 X4.4372 Y4.6012 Z1.2500 F60.00
G2 X5.2429 Y3.6533 Z1.2500 I-3.7927 J-4.0401 F60.00
G1 X-3.6557 Y-5.2454 Z1.2500 F60.00
G3 X-2.5285 Y-5.8718 Z1.2500 I3.3102 J4.6294 F60.00
G1 X5.8693 Y2.5260 Z1.2500 F60.00
G2 X6.2784 Y1.1815 Z1.2500 I-5.3970 J-2.3765 F60.00
G1 X-1.1840 Y-6.2809 Z1.2500 F60.00
G3 X0.4814 Y-6.3692 Z1.2500 I1.1366 J5.6880 F60.00
G1 X6.3667 Y-0.4839 Z1.2500 F60.00
G2 X5.6730 Y-2.9311 Z1.2500 I-6.1667 J0.4259 F60.00
G1 X2.9286 Y-5.6755 Z1.2500 F60.00
G3 X5.6730 Y-2.9311 Z1.2500 I-2.8808 J5.6252 F60.00
G0 X5.6730 Y-2.9311 Z9.0000
G0 X7.7594 Y-7.1225 Z9.0000
G1 X7.7594 Y-7.1225 Z1.2500 F60.00
G2 X8.7851 Y-7.0996 Z1.2500 I0.5372 J-1.0792 F60.00
G3 X9.9500 Y-7.4325 Z1.2500 I1.0167 J1.3532 F60.00
G1 X9.9500 Y-8.8491 Z1.2500 F60.00
G2 X8.7261 Y-10.3374 Z1.2500 I-1.4573 J-0.0490 F60.00
G2 X7.4367 Y-10.3600 Z1.2500 I-0.7882 J8.1804 F60.00
G3 X7.3689 Y-8.9715 Z1.2500 I-1.3747 J0.6288 F60.00
G2 X7.7594 Y-7.1225 Z1.2500 I0.9278 J0.7698 F60.00
G0 X7.7594 Y-7.1225 Z9.0000
G0 X7.1374 Y-8.4813 Z9.0000
G1 X7.1374 Y-8.4813 Z1.2500 F60.00
G2 X8.5870 Y-7.0317 Z1.2500 I1.1543 J0.2953 F60.00
G1 X7.1374 Y-8.4813 Z1.2500 F60.00
G3 X7.3689 Y-8.9715 Z1.2500 I1.4255 J0.3734 F60.00
G2 X7.5604 Y-9.8119 Z1.2500 I-1.1022 J-0.6932 F60.00
G1 X9.9392 Y-7.4331 Z1.2500 F60.00
G1 X9.9500 Y-7.4325 Z1.2500 F60.00
G1 X9.9500 Y-8.8491 Z1.2500 F60.00
G2 X9.9077 Y-9.2182 Z1.2500 I-1.1864 J-0.0510 F60.00
G2 X8.8082 Y-10.3177 Z1.2500 I-1.3894 J0.2899 F60.00
G1 X9.9077 Y-9.2182 Z1.2500 F60.00
G0 X9.9077 Y-9.2182 Z9.0000
G0 X8.4179 Y6.9935 Z9.0000
G1 X8.4179 Y6.9935 Z1.2500 F60.00
G2 X7.3689 Y8.9715 Z1.2500 I-0.1110 J1.2083 F60.00
G3 X7.4367 Y10.3600 Z1.2500 I-1.3258 J0.7606 F60.00
G1 X8.4391 Y10.3600 Z1.2500 F60.00
G2 X9.9500 Y8.8491 Z1.2500 I0.0475 J-1.4634 F60.00
G1 X9.9500 Y7.4325 Z1.2500 F60.00
G3 X9.0646 Y7.2541 Z1.2500 I-0.1882 J-1.3522 F60.00
G2 X8.4179 Y6.9935 Z1.2500 I-0.7577 J0.9477 F60.00
G0 X8.4179 Y6.9935 Z9.0000
G0 X9.9500 Y8.3603 Z9.0000
G1 X9.9500 Y8.3603 Z1.2500 F60.00
G1 X8.6361 Y7.0464 Z1.2500 F60.00
G2 X9.3858 Y7.3870 Z1.2500 I3.2726 J-6.2073 F60.00
G2 X9.9500 Y7.4325 Z1.2500 I0.3814 J-1.2112 F60.00
G1 X9.9500 Y8.3603 Z1.2500 F60.00
G1 X9.9500 Y8.8491 Z1.2500 F60.00
G3 X9.6353 Y9.7992 Z1.2500 I-1.4679 J0.0409 F60.00
G1 X7.3279 Y7.4918 Z1.2500 F60.00
G2 X7.2109 Y8.6940 Z1.2500 I0.9475 J0.6990 F60.00
G3 X7.5355 Y9.4531 Z1.2500 I-1.8712 J1.2492 F60.00
G1 X8.4422 Y10.3598 Z1.2500 F60.00
G3 X7.4367 Y10.3600 Z1.2500 I-0.5043 J-6.3870 F60.00
G2 X7.5355 Y9.4531 Z1.2500 I-1.2729 J-0.5976 F60.00
G0 X7.5355 Y9.4531 Z9.0000
G0 X-7.1025 Y8.2780 Z9.0000
G1 X-7.1025 Y8.2780 Z1.2500 F60.00
G2 X-7.0985 Y8.1951 Z1.2500 I-1.3020 J-0.1045 F60.00
G2 X-8.7809 Y7.0979 Z1.2500 I-1.1952 J-0.0056 F60.00
G3 X-9.9500 Y7.4323 Z1.2500 I-1.0208 J-1.3580 F60.00
G1 X-9.9500 Y8.8491 Z1.2500 F60.00
G2 X-8.7261 Y10.3374 Z1.2500 I1.4573 J0.0490 F60.00
G2 X-7.4363 Y10.3600 Z1.2500 I0.7884 J-8.1829 F60.00
G3 X-7.3641 Y8.9632 Z1.2500 I1.3722 J-0.6294 F60.00
G2 X-7.1025 Y8.2780 Z1.2500 I-1.0404 J-0.7897 F60.00
G0 X-7.1025 Y8.2780 Z9.0000
G0 X-7.2247 Y8.7219 Z9.0000
G1 X-7.2247 Y8.7219 Z1.2500 F60.00
G1 X-8.8246 Y7.1220 Z1.2500 F60.00
G3 X-7.2247 Y8.7219 Z1.2500 I0.5335 J1.0664 F60.00
G2 X-7.4896 Y10.2106 Z1.2500 I1.3108 J1.0011 F60.00
G1 X-9.9500 Y7.7502 Z1.2500 F60.00
G1 X-9.9500 Y8.8491 Z1.2500 F60.00
G2 X-9.5219 Y9.9319 Z1.2500 I1.4873 J0.0380 F60.00
G1 X-9.5219 Y9.9319 Z1.0000 F60.00
G3 X-9.9500 Y8.8491 Z1.0000 I1.0593 J-1.0448 F60.00
G1 X-9.9500 Y7.7502 Z1.0000 F60.00
G1 X-7.4896 Y10.2106 Z1.0000 F60.00
