(Exported by FreeCAD)
(Post Processor: grbl_post)
(Output Time:2022-09-14 10:10:06.192145)
(Begin preamble)
G17 G90
G21
(Begin operation: G54)
(Path: G54)
G54
G0 Z6.000
(Finish operation: G54)
(Begin operation: GoldenEndMill-3.012)
(Path: GoldenEndMill-3.012)
(GoldenEndMill-3.012)
(Begin toolchange)
( M6 T2 )
M3 S12000
(Finish operation: GoldenEndMill-3.012)
(Begin operation: MillFace)
(Path: MillFace)
(MillFace)
G0 Z6.000
G0 X19.905 Y19.905
G0 Z4.000
G1 X19.905 Y19.905 Z0.500 F500.000
G2 X0.725 Y-28.140 Z0.500 I-19.905 J-19.905 K0.000 F500.000
G2 X-0.725 Y28.140 Z0.500 I-0.725 J28.140 K0.000 F500.000
G2 X19.905 Y19.905 Z0.500 I0.725 J-28.140 K0.000 F500.000
G0 Z6.000
G0 X-15.845 Y23.262 Z6.000
G0 X-15.845 Y23.262 Z4.000
G1 X-15.845 Y23.262 Z0.500 F500.000
G3 X-23.243 Y15.864 Z0.500 I15.598 J-22.996 K0.000 F500.000
G1 X-15.845 Y23.262 Z0.500 F500.000
G2 X-11.800 Y25.553 Z0.500 I15.301 J-22.298 K0.000 F500.000
G1 X-25.541 Y11.812 Z0.500 F500.000
G3 X-26.697 Y8.902 Z0.500 I19.158 J-9.296 K0.000 F500.000
G1 X-8.903 Y26.697 Z0.500 F500.000
G2 X-6.445 Y27.401 Z0.500 I7.960 J-23.149 K0.000 F500.000
G1 X-27.389 Y6.457 Z0.500 F500.000
G3 X-27.822 Y4.270 Z0.500 I20.154 J-5.125 K0.000 F500.000
G1 X-4.280 Y27.813 Z0.500 F500.000
G2 X-2.285 Y28.054 Z0.500 I3.335 J-19.227 K0.000 F500.000
G1 X-28.047 Y2.292 Z0.500 F500.000
G3 X-28.138 Y0.447 Z0.500 I17.848 J-1.805 K0.000 F500.000
G1 X-0.445 Y28.140 Z0.500 F500.000
G2 X1.280 Y28.112 Z0.500 I0.585 J-16.747 K0.000 F500.000
G1 X-28.116 Y-1.285 Z0.500 F500.000
G3 X-27.997 Y-2.919 Z0.500 I15.649 J0.321 K0.000 F500.000
G1 X2.911 Y27.989 Z0.500 F500.000
G2 X4.460 Y27.785 Z0.500 I-1.209 J-15.129 K0.000 F500.000
G1 X-27.790 Y-4.465 Z0.500 F500.000
G3 X-27.511 Y-5.940 Z0.500 I14.447 J1.965 K0.000 F500.000
G1 X5.937 Y27.507 Z0.500 F500.000
G2 X7.347 Y27.165 Z0.500 I-2.620 J-13.856 K0.000 F500.000
G1 X-27.168 Y-7.351 Z0.500 F500.000
G3 X-26.767 Y-8.703 Z0.500 I13.315 J3.220 K0.000 F500.000
G1 X8.699 Y26.762 Z0.500 F500.000
G2 X9.995 Y26.305 Z0.500 I-3.785 J-12.805 K0.000 F500.000
G1 X-26.311 Y-10.001 Z0.500 F500.000
G1 X-25.804 Y-11.248 Z0.500 F500.000
G1 X11.241 Y25.797 Z0.500 F500.000
G2 X12.439 Y25.242 Z0.500 I-4.789 J-11.900 K0.000 F500.000
G1 X-25.246 Y-12.443 Z0.500 F500.000
G3 X-24.643 Y-13.594 Z0.500 I11.459 J5.277 K0.000 F500.000
G1 X13.593 Y24.642 Z0.500 F500.000
G2 X14.703 Y23.998 Z0.500 I-5.684 J-11.092 K0.000 F500.000
G1 X-23.996 Y-14.701 Z0.500 F500.000
G3 X-23.308 Y-15.767 Z0.500 I10.683 J6.138 K0.000 F500.000
G1 X15.772 Y23.314 Z0.500 F500.000
G1 X16.797 Y22.585 Z0.500 F500.000
G1 X-22.581 Y-16.793 Z0.500 F500.000
G3 X-21.814 Y-17.780 Z0.500 I9.957 J6.943 K0.000 F500.000
G1 X17.780 Y21.815 Z0.500 F500.000
G2 X18.725 Y21.006 Z0.500 I-7.370 J-9.571 K0.000 F500.000
G1 X-21.009 Y-18.728 Z0.500 F500.000
G1 X-20.166 Y-19.639 Z0.500 F500.000
G1 X19.633 Y20.160 Z0.500 F500.000
G2 X20.502 Y19.276 Z0.500 I-8.139 J-8.878 K0.000 F500.000
G1 X-19.279 Y-20.505 Z0.500 F500.000
G3 X-18.353 Y-21.333 Z0.500 I8.497 J8.561 K0.000 F500.000
G1 X21.335 Y18.355 Z0.500 F500.000
G2 X22.129 Y17.395 Z0.500 I-8.910 J-8.183 K0.000 F500.000
G1 X-17.390 Y-22.124 Z0.500 F500.000
G3 X-16.388 Y-22.876 Z0.500 I7.795 J9.340 K0.000 F500.000
G1 X22.880 Y16.393 Z0.500 F500.000
G2 X23.590 Y15.349 Z0.500 I-9.777 J-7.401 K0.000 F500.000
G1 X-15.347 Y-23.588 Z0.500 F500.000
G3 X-14.266 Y-24.260 Z0.500 I7.060 J10.154 K0.000 F500.000
G1 X24.258 Y14.264 Z0.500 F500.000
G2 X24.885 Y13.137 Z0.500 I-10.615 J-6.645 K0.000 F500.000
G1 X-13.142 Y-24.891 Z0.500 F500.000
G1 X-11.973 Y-25.475 Z0.500 F500.000
G1 X25.469 Y11.967 Z0.500 F500.000
G2 X26.006 Y10.751 Z0.500 I-11.530 J-5.820 K0.000 F500.000
G1 X-10.755 Y-26.010 Z0.500 F500.000
G3 X-9.488 Y-26.497 Z0.500 I5.354 J12.046 K0.000 F500.000
G1 X26.494 Y9.486 Z0.500 F500.000
G2 X26.931 Y8.168 Z0.500 I-12.562 J-4.888 K0.000 F500.000
G1 X-8.169 Y-26.931 Z0.500 F500.000
G3 X-6.794 Y-27.310 Z0.500 I4.363 J13.145 K0.000 F500.000
G1 X27.310 Y6.794 Z0.500 F500.000
G2 X27.627 Y5.357 Z0.500 I-13.772 J-3.797 K0.000 F500.000
G1 X-5.358 Y-27.628 Z0.500 F500.000
G3 X-3.855 Y-27.879 Z0.500 I3.183 J14.453 K0.000 F500.000
G1 X27.876 Y3.853 Z0.500 F500.000
G2 X28.049 Y2.271 Z0.500 I-15.252 J-2.462 K0.000 F500.000
G1 X-2.278 Y-28.055 Z0.500 F500.000
G3 X-0.609 Y-28.140 Z0.500 I1.606 J15.025 K0.000 F500.000
G1 X28.134 Y0.603 Z0.500 F500.000
G2 X28.119 Y-1.165 Z0.500 I-17.157 J-0.744 K0.000 F500.000
G1 X1.167 Y-28.117 Z0.500 F500.000
G3 X3.065 Y-27.973 Z0.500 I-0.448 J18.479 K0.000 F500.000
G1 X27.979 Y-3.059 Z0.500 F500.000
G2 X27.670 Y-5.121 Z0.500 I-20.158 J1.963 K0.000 F500.000
G1 X5.112 Y-27.680 Z0.500 F500.000
G3 X7.392 Y-27.153 Z0.500 I-3.971 J22.385 K0.000 F500.000
G1 X27.158 Y-7.388 Z0.500 F500.000
G2 X26.320 Y-9.979 Z0.500 I-24.697 J6.553 K0.000 F500.000
G1 X9.993 Y-26.306 Z0.500 F500.000
G3 X13.181 Y-24.871 Z0.500 I-7.736 J21.448 K0.000 F500.000
G1 X24.852 Y-13.201 Z0.500 F500.000
G2 X20.159 Y-19.647 Z0.500 I-24.469 J12.881 K0.000 F500.000
G1 X20.159 Y-19.647 Z-0.000 F500.000
G3 X24.852 Y-13.201 Z-0.000 I-19.776 J19.327 K0.000 F500.000
G1 X13.181 Y-24.871 Z-0.000 F500.000
G2 X9.993 Y-26.306 Z-0.000 I-10.925 J20.012 K0.000 F500.000
G1 X26.320 Y-9.979 Z-0.000 F500.000
G3 X27.158 Y-7.388 Z-0.000 I-23.860 J9.144 K0.000 F500.000
G1 X7.392 Y-27.153 Z-0.000 F500.000
G2 X5.112 Y-27.680 Z-0.000 I-6.252 J21.858 K0.000 F500.000
G1 X27.670 Y-5.121 Z-0.000 F500.000
G3 X27.979 Y-3.059 Z-0.000 I-19.849 J4.025 K0.000 F500.000
G1 X3.065 Y-27.973 Z-0.000 F500.000
G2 X1.167 Y-28.117 Z-0.000 I-2.346 J18.335 K0.000 F500.000
G1 X28.119 Y-1.165 Z-0.000 F500.000
G3 X28.134 Y0.603 Z-0.000 I-17.143 J1.024 K0.000 F500.000
G1 X-0.609 Y-28.140 Z-0.000 F500.000
G2 X-2.278 Y-28.055 Z-0.000 I-0.062 J15.111 K0.000 F500.000
G1 X28.049 Y2.271 Z-0.000 F500.000
G3 X27.876 Y3.853 Z-0.000 I-15.425 J-0.881 K0.000 F500.000
G1 X-3.855 Y-27.879 Z-0.000 F500.000
G2 X-5.358 Y-27.628 Z-0.000 I1.680 J14.704 K0.000 F500.000
G1 X27.627 Y5.357 Z-0.000 F500.000
G3 X27.310 Y6.794 Z-0.000 I-14.090 J-2.361 K0.000 F500.000
G1 X-6.794 Y-27.310 Z-0.000 F500.000
G2 X-8.169 Y-26.931 Z-0.000 I2.988 J13.524 K0.000 F500.000
G1 X26.931 Y8.168 Z-0.000 F500.000
G3 X26.494 Y9.486 Z-0.000 I-12.999 J-3.571 K0.000 F500.000
G1 X-9.488 Y-26.497 Z-0.000 F500.000
G2 X-10.755 Y-26.010 Z-0.000 I4.087 J12.533 K0.000 F500.000
G1 X26.006 Y10.751 Z-0.000 F500.000
G3 X25.469 Y11.967 Z-0.000 I-12.067 J-4.603 K0.000 F500.000
G1 X-11.973 Y-25.475 Z-0.000 F500.000
G1 X-13.142 Y-24.891 Z-0.000 F500.000
G1 X24.885 Y13.137 Z-0.000 F500.000
G3 X24.258 Y14.264 Z-0.000 I-11.242 J-5.519 K0.000 F500.000
G1 X-14.266 Y-24.260 Z-0.000 F500.000
G2 X-15.347 Y-23.588 Z-0.000 I5.979 J10.827 K0.000 F500.000
G1 X23.590 Y15.349 Z-0.000 F500.000
G3 X22.880 Y16.393 Z-0.000 I-10.486 J-6.357 K0.000 F500.000
G1 X-16.388 Y-22.876 Z-0.000 F500.000
G2 X-17.390 Y-22.124 Z-0.000 I6.793 J10.092 K0.000 F500.000
G1 X22.129 Y17.395 Z-0.000 F500.000
G3 X21.335 Y18.355 Z-0.000 I-9.704 J-7.223 K0.000 F500.000
G1 X-18.353 Y-21.333 Z-0.000 F500.000
G2 X-19.279 Y-20.505 Z-0.000 I7.572 J9.390 K0.000 F500.000
G1 X20.502 Y19.276 Z-0.000 F500.000
G3 X19.633 Y20.160 Z-0.000 I-9.009 J-7.994 K0.000 F500.000
G1 X-20.166 Y-19.639 Z-0.000 F500.000
G1 X-21.009 Y-18.728 Z-0.000 F500.000
G1 X18.725 Y21.006 Z-0.000 F500.000
G3 X17.780 Y21.815 Z-0.000 I-8.315 J-8.763 K0.000 F500.000
G1 X-21.814 Y-17.780 Z-0.000 F500.000
G2 X-22.581 Y-16.793 Z-0.000 I9.190 J7.930 K0.000 F500.000
G1 X16.797 Y22.585 Z-0.000 F500.000
G1 X15.772 Y23.314 Z-0.000 F500.000
G1 X-23.308 Y-15.767 Z-0.000 F500.000
G2 X-23.996 Y-14.701 Z-0.000 I9.995 J7.204 K0.000 F500.000
G1 X14.703 Y23.998 Z-0.000 F500.000
G3 X13.593 Y24.642 Z-0.000 I-6.795 J-10.449 K0.000 F500.000
G1 X-24.643 Y-13.594 Z-0.000 F500.000
G2 X-25.246 Y-12.443 Z-0.000 I10.856 J6.427 K0.000 F500.000
G1 X12.439 Y25.242 Z-0.000 F500.000
G3 X11.241 Y25.797 Z-0.000 I-5.987 J-11.344 K0.000 F500.000
G1 X-25.804 Y-11.248 Z-0.000 F500.000
G1 X-26.311 Y-10.001 Z-0.000 F500.000
G1 X9.995 Y26.305 Z-0.000 F500.000
G3 X8.699 Y26.762 Z-0.000 I-5.082 J-12.348 K0.000 F500.000
G1 X-26.767 Y-8.703 Z-0.000 F500.000
G2 X-27.168 Y-7.351 Z-0.000 I12.913 J4.572 K0.000 F500.000
G1 X7.347 Y27.165 Z-0.000 F500.000
G3 X5.937 Y27.507 Z-0.000 I-4.030 J-13.514 K0.000 F500.000
G1 X-27.511 Y-5.940 Z-0.000 F500.000
G2 X-27.790 Y-4.465 Z-0.000 I14.168 J3.440 K0.000 F500.000
G1 X4.460 Y27.785 Z-0.000 F500.000
G3 X2.911 Y27.989 Z-0.000 I-2.758 J-14.925 K0.000 F500.000
G1 X-27.997 Y-2.919 Z-0.000 F500.000
G2 X-28.116 Y-1.285 Z-0.000 I15.529 J1.955 K0.000 F500.000
G1 X1.280 Y28.112 Z-0.000 F500.000
G3 X-0.445 Y28.140 Z-0.000 I-1.140 J-16.718 K0.000 F500.000
G1 X-28.138 Y0.447 Z-0.000 F500.000
G2 X-28.047 Y2.292 Z-0.000 I17.939 J0.039 K0.000 F500.000
G1 X-2.285 Y28.054 Z-0.000 F500.000
G3 X-4.280 Y27.813 Z-0.000 I1.341 J-19.468 K0.000 F500.000
G1 X-27.822 Y4.270 Z-0.000 F500.000
G2 X-27.389 Y6.457 Z-0.000 I20.586 J-2.939 K0.000 F500.000
G1 X-6.445 Y27.401 Z-0.000 F500.000
G3 X-8.903 Y26.697 Z-0.000 I5.503 J-23.853 K0.000 F500.000
G1 X-26.697 Y8.902 Z-0.000 F500.000
G2 X-25.541 Y11.812 Z-0.000 I20.314 J-6.386 K0.000 F500.000
G1 X-11.800 Y25.553 Z-0.000 F500.000
G3 X-15.845 Y23.262 Z-0.000 I11.256 J-24.589 K0.000 F500.000
G1 X-23.243 Y15.864 Z-0.000 F500.000
G2 X-15.845 Y23.262 Z-0.000 I22.996 J-15.598 K0.000 F500.000
G0 Z6.000
G0 X-15.847 Y23.265 Z6.000
G0 X-15.847 Y23.265 Z4.000
G1 X-15.847 Y23.265 Z-0.000 F500.000
G2 X-0.725 Y28.140 Z-0.000 I15.847 J-23.265 K0.000 F500.000
G2 X0.725 Y-28.140 Z-0.000 I0.725 J-28.140 K0.000 F500.000
G2 X-15.847 Y23.265 Z-0.000 I-0.725 J28.140 K0.000 F500.000
G0 Z6.000
G0 Z6.000
(Finish operation: MillFace)
(Begin operation: Pocket_Shape005)
(Path: Pocket_Shape005)
(Pocket_Shape005)
G0 Z6.000
G0 X9.522 Y9.522
G0 Z4.000
G1 X9.522 Y9.522 Z-0.500 F500.000
G2 X9.950 Y8.439 Z-0.500 I-1.035 J-1.035 K0.000 F500.000
G1 X9.950 Y-8.439 Z-0.500 F500.000
G2 X8.439 Y-9.950 Z-0.500 I-1.463 J-0.047 K0.000 F500.000
G1 X-8.439 Y-9.950 Z-0.500 F500.000
G2 X-9.950 Y-8.439 Z-0.500 I-0.047 J1.463 K0.000 F500.000
G1 X-9.950 Y8.439 Z-0.500 F500.000
G2 X-8.439 Y9.950 Z-0.500 I1.463 J0.047 K0.000 F500.000
G1 X8.439 Y9.950 Z-0.500 F500.000
G2 X9.522 Y9.522 Z-0.500 I0.047 J-1.463 K0.000 F500.000
G0 Z6.000
G0 X-7.832 Y9.950 Z6.000
G0 X-7.832 Y9.950 Z4.000
G1 X-7.832 Y9.950 Z-0.500 F500.000
G1 X-8.439 Y9.950 Z-0.500 F500.000
G3 X-9.927 Y8.726 Z-0.500 I-0.049 J-1.457 K0.000 F500.000
G3 X-9.950 Y7.832 Z-0.500 I5.667 J-0.590 K0.000 F500.000
G1 X-7.832 Y9.950 Z-0.500 F500.000
G1 X-6.079 Y9.950 Z-0.500 F500.000
G1 X-9.950 Y6.079 Z-0.500 F500.000
G1 X-9.950 Y4.325 Z-0.500 F500.000
G1 X-4.325 Y9.950 Z-0.500 F500.000
G1 X-2.571 Y9.950 Z-0.500 F500.000
G1 X-9.950 Y2.571 Z-0.500 F500.000
G1 X-9.950 Y0.818 Z-0.500 F500.000
G1 X-0.818 Y9.950 Z-0.500 F500.000
G1 X0.936 Y9.950 Z-0.500 F500.000
G1 X-9.950 Y-0.936 Z-0.500 F500.000
G1 X-9.950 Y-2.689 Z-0.500 F500.000
G1 X2.689 Y9.950 Z-0.500 F500.000
G1 X4.443 Y9.950 Z-0.500 F500.000
G1 X-9.950 Y-4.443 Z-0.500 F500.000
G1 X-9.950 Y-6.197 Z-0.500 F500.000
G1 X6.197 Y9.950 Z-0.500 F500.000
G1 X7.950 Y9.950 Z-0.500 F500.000
G1 X-9.950 Y-7.950 Z-0.500 F500.000
G1 X-9.950 Y-8.439 Z-0.500 F500.000
G3 X-9.635 Y-9.389 Z-0.500 I1.468 J-0.041 K0.000 F500.000
G1 X9.389 Y9.635 Z-0.500 F500.000
G2 X9.950 Y8.442 Z-0.500 I-0.893 J-1.148 K0.000 F500.000
G1 X-8.442 Y-9.950 Z-0.500 F500.000
G1 X-8.439 Y-9.950 Z-0.500 F500.000
G1 X-6.689 Y-9.950 Z-0.500 F500.000
G1 X9.950 Y6.689 Z-0.500 F500.000
G1 X9.950 Y4.935 Z-0.500 F500.000
G1 X-4.935 Y-9.950 Z-0.500 F500.000
G1 X-3.182 Y-9.950 Z-0.500 F500.000
G1 X9.950 Y3.182 Z-0.500 F500.000
G1 X9.950 Y1.428 Z-0.500 F500.000
G1 X-1.428 Y-9.950 Z-0.500 F500.000
G1 X0.326 Y-9.950 Z-0.500 F500.000
G1 X9.950 Y-0.326 Z-0.500 F500.000
G1 X9.950 Y-2.079 Z-0.500 F500.000
G1 X2.079 Y-9.950 Z-0.500 F500.000
G1 X3.833 Y-9.950 Z-0.500 F500.000
G1 X9.950 Y-3.833 Z-0.500 F500.000
G1 X9.950 Y-5.587 Z-0.500 F500.000
G1 X5.587 Y-9.950 Z-0.500 F500.000
G1 X7.340 Y-9.950 Z-0.500 F500.000
G1 X9.950 Y-7.340 Z-0.500 F500.000
G1 X9.950 Y-8.439 Z-0.500 F500.000
G2 X9.522 Y-9.522 Z-0.500 I-1.487 J-0.038 K0.000 F500.000
G1 X9.522 Y-9.522 Z-1.000 F500.000
G3 X9.950 Y-8.439 Z-1.000 I-1.059 J1.045 K0.000 F500.000
G1 X9.950 Y-7.340 Z-1.000 F500.000
G1 X7.340 Y-9.950 Z-1.000 F500.000
G1 X5.587 Y-9.950 Z-1.000 F500.000
G1 X9.950 Y-5.587 Z-1.000 F500.000
G1 X9.950 Y-3.833 Z-1.000 F500.000
G1 X3.833 Y-9.950 Z-1.000 F500.000
G1 X2.079 Y-9.950 Z-1.000 F500.000
G1 X9.950 Y-2.079 Z-1.000 F500.000
G1 X9.950 Y-0.326 Z-1.000 F500.000
G1 X0.326 Y-9.950 Z-1.000 F500.000
G1 X-1.428 Y-9.950 Z-1.000 F500.000
G1 X9.950 Y1.428 Z-1.000 F500.000
G1 X9.950 Y3.182 Z-1.000 F500.000
G1 X-3.182 Y-9.950 Z-1.000 F500.000
G1 X-4.935 Y-9.950 Z-1.000 F500.000
G1 X9.950 Y4.935 Z-1.000 F500.000
G1 X9.950 Y6.689 Z-1.000 F500.000
G1 X-6.689 Y-9.950 Z-1.000 F500.000
G1 X-8.439 Y-9.950 Z-1.000 F500.000
G1 X-8.442 Y-9.950 Z-1.000 F500.000
G1 X9.950 Y8.442 Z-1.000 F500.000
G3 X9.389 Y9.635 Z-1.000 I-1.453 J0.045 K0.000 F500.000
G1 X-9.635 Y-9.389 Z-1.000 F500.000
G2 X-9.950 Y-8.439 Z-1.000 I1.153 J0.909 K0.000 F500.000
G1 X-9.950 Y-7.950 Z-1.000 F500.000
G1 X7.950 Y9.950 Z-1.000 F500.000
G1 X6.197 Y9.950 Z-1.000 F500.000
G1 X-9.950 Y-6.197 Z-1.000 F500.000
G1 X-9.950 Y-4.443 Z-1.000 F500.000
G1 X4.443 Y9.950 Z-1.000 F500.000
G1 X2.689 Y9.950 Z-1.000 F500.000
G1 X-9.950 Y-2.689 Z-1.000 F500.000
G1 X-9.950 Y-0.936 Z-1.000 F500.000
G1 X0.936 Y9.950 Z-1.000 F500.000
G1 X-0.818 Y9.950 Z-1.000 F500.000
G1 X-9.950 Y0.818 Z-1.000 F500.000
G1 X-9.950 Y2.571 Z-1.000 F500.000
G1 X-2.571 Y9.950 Z-1.000 F500.000
G1 X-4.325 Y9.950 Z-1.000 F500.000
G1 X-9.950 Y4.325 Z-1.000 F500.000
G1 X-9.950 Y6.079 Z-1.000 F500.000
G1 X-6.079 Y9.950 Z-1.000 F500.000
G1 X-7.832 Y9.950 Z-1.000 F500.000
G1 X-9.950 Y7.832 Z-1.000 F500.000
G2 X-9.927 Y8.726 Z-1.000 I5.690 J0.303 K0.000 F500.000
G2 X-8.439 Y9.950 Z-1.000 I1.439 J-0.233 K0.000 F500.000
G1 X-7.832 Y9.950 Z-1.000 F500.000
G1 X-7.832 Y9.950 Z-1.000 F500.000
G1 X8.439 Y9.950 Z-1.000 F500.000
G2 X9.950 Y8.439 Z-1.000 I0.047 J-1.463 K0.000 F500.000
G1 X9.950 Y-8.439 Z-1.000 F500.000
G2 X8.439 Y-9.950 Z-1.000 I-1.463 J-0.047 K0.000 F500.000
G1 X-8.439 Y-9.950 Z-1.000 F500.000
G2 X-9.950 Y-8.439 Z-1.000 I-0.047 J1.463 K0.000 F500.000
G1 X-9.950 Y8.439 Z-1.000 F500.000
G2 X-8.439 Y9.950 Z-1.000 I1.463 J0.047 K0.000 F500.000
G1 X-7.832 Y9.950 Z-1.000 F500.000
G1 X-7.832 Y9.950 Z-1.500 F500.000
G1 X8.439 Y9.950 Z-1.500 F500.000
G2 X9.950 Y8.439 Z-1.500 I0.047 J-1.463 K0.000 F500.000
G1 X9.950 Y-8.439 Z-1.500 F500.000
G2 X8.439 Y-9.950 Z-1.500 I-1.463 J-0.047 K0.000 F500.000
G1 X-8.439 Y-9.950 Z-1.500 F500.000
G2 X-9.950 Y-8.439 Z-1.500 I-0.047 J1.463 K0.000 F500.000
G1 X-9.950 Y8.439 Z-1.500 F500.000
G2 X-8.439 Y9.950 Z-1.500 I1.463 J0.047 K0.000 F500.000
G1 X-7.832 Y9.950 Z-1.500 F500.000
G1 X-7.832 Y9.950 Z-1.500 F500.000
G1 X-8.439 Y9.950 Z-1.500 F500.000
G3 X-9.927 Y8.726 Z-1.500 I-0.049 J-1.457 K0.000 F500.000
G3 X-9.950 Y7.832 Z-1.500 I5.667 J-0.590 K0.000 F500.000
G1 X-7.832 Y9.950 Z-1.500 F500.000
G1 X-6.079 Y9.950 Z-1.500 F500.000
G1 X-9.950 Y6.079 Z-1.500 F500.000
G1 X-9.950 Y4.325 Z-1.500 F500.000
G1 X-4.325 Y9.950 Z-1.500 F500.000
G1 X-2.571 Y9.950 Z-1.500 F500.000
G1 X-9.950 Y2.571 Z-1.500 F500.000
G1 X-9.950 Y0.818 Z-1.500 F500.000
G1 X-0.818 Y9.950 Z-1.500 F500.000
G1 X0.936 Y9.950 Z-1.500 F500.000
G1 X-9.950 Y-0.936 Z-1.500 F500.000
G1 X-9.950 Y-2.689 Z-1.500 F500.000
G1 X2.689 Y9.950 Z-1.500 F500.000
G1 X4.443 Y9.950 Z-1.500 F500.000
G1 X-9.950 Y-4.443 Z-1.500 F500.000
G1 X-9.950 Y-6.197 Z-1.500 F500.000
G1 X6.197 Y9.950 Z-1.500 F500.000
G1 X7.950 Y9.950 Z-1.500 F500.000
G1 X-9.950 Y-7.950 Z-1.500 F500.000
G1 X-9.950 Y-8.439 Z-1.500 F500.000
G3 X-9.635 Y-9.389 Z-1.500 I1.468 J-0.041 K0.000 F500.000
G1 X9.389 Y9.635 Z-1.500 F500.000
G2 X9.950 Y8.442 Z-1.500 I-0.893 J-1.148 K0.000 F500.000
G1 X-8.442 Y-9.950 Z-1.500 F500.000
G1 X-8.439 Y-9.950 Z-1.500 F500.000
G1 X-6.689 Y-9.950 Z-1.500 F500.000
G1 X9.950 Y6.689 Z-1.500 F500.000
G1 X9.950 Y4.935 Z-1.500 F500.000
G1 X-4.935 Y-9.950 Z-1.500 F500.000
G1 X-3.182 Y-9.950 Z-1.500 F500.000
G1 X9.950 Y3.182 Z-1.500 F500.000
G1 X9.950 Y1.428 Z-1.500 F500.000
G1 X-1.428 Y-9.950 Z-1.500 F500.000
G1 X0.326 Y-9.950 Z-1.500 F500.000
G1 X9.950 Y-0.326 Z-1.500 F500.000
G1 X9.950 Y-2.079 Z-1.500 F500.000
G1 X2.079 Y-9.950 Z-1.500 F500.000
G1 X3.833 Y-9.950 Z-1.500 F500.000
G1 X9.950 Y-3.833 Z-1.500 F500.000
G1 X9.950 Y-5.587 Z-1.500 F500.000
G1 X5.587 Y-9.950 Z-1.500 F500.000
G1 X7.340 Y-9.950 Z-1.500 F500.000
G1 X9.950 Y-7.340 Z-1.500 F500.000
G1 X9.950 Y-8.439 Z-1.500 F500.000
G2 X9.522 Y-9.522 Z-1.500 I-1.487 J-0.038 K0.000 F500.000
G1 X9.522 Y-9.522 Z-2.000 F500.000
G3 X9.950 Y-8.439 Z-2.000 I-1.059 J1.045 K0.000 F500.000
G1 X9.950 Y-7.340 Z-2.000 F500.000
G1 X7.340 Y-9.950 Z-2.000 F500.000
G1 X5.587 Y-9.950 Z-2.000 F500.000
G1 X9.950 Y-5.587 Z-2.000 F500.000
G1 X9.950 Y-3.833 Z-2.000 F500.000
G1 X3.833 Y-9.950 Z-2.000 F500.000
G1 X2.079 Y-9.950 Z-2.000 F500.000
G1 X9.950 Y-2.079 Z-2.000 F500.000
G1 X9.950 Y-0.326 Z-2.000 F500.000
G1 X0.326 Y-9.950 Z-2.000 F500.000
G1 X-1.428 Y-9.950 Z-2.000 F500.000
G1 X9.950 Y1.428 Z-2.000 F500.000
G1 X9.950 Y3.182 Z-2.000 F500.000
G1 X-3.182 Y-9.950 Z-2.000 F500.000
G1 X-4.935 Y-9.950 Z-2.000 F500.000
G1 X9.950 Y4.935 Z-2.000 F500.000
G1 X9.950 Y6.689 Z-2.000 F500.000
G1 X-6.689 Y-9.950 Z-2.000 F500.000
G1 X-8.439 Y-9.950 Z-2.000 F500.000
G1 X-8.442 Y-9.950 Z-2.000 F500.000
G1 X9.950 Y8.442 Z-2.000 F500.000
G3 X9.389 Y9.635 Z-2.000 I-1.453 J0.045 K0.000 F500.000
G1 X-9.635 Y-9.389 Z-2.000 F500.000
G2 X-9.950 Y-8.439 Z-2.000 I1.153 J0.909 K0.000 F500.000
G1 X-9.950 Y-7.950 Z-2.000 F500.000
G1 X7.950 Y9.950 Z-2.000 F500.000
G1 X6.197 Y9.950 Z-2.000 F500.000
G1 X-9.950 Y-6.197 Z-2.000 F500.000
G1 X-9.950 Y-4.443 Z-2.000 F500.000
G1 X4.443 Y9.950 Z-2.000 F500.000
G1 X2.689 Y9.950 Z-2.000 F500.000
G1 X-9.950 Y-2.689 Z-2.000 F500.000
G1 X-9.950 Y-0.936 Z-2.000 F500.000
G1 X0.936 Y9.950 Z-2.000 F500.000
G1 X-0.818 Y9.950 Z-2.000 F500.000
G1 X-9.950 Y0.818 Z-2.000 F500.000
G1 X-9.950 Y2.571 Z-2.000 F500.000
G1 X-2.571 Y9.950 Z-2.000 F500.000
G1 X-4.325 Y9.950 Z-2.000 F500.000
G1 X-9.950 Y4.325 Z-2.000 F500.000
G1 X-9.950 Y6.079 Z-2.000 F500.000
G1 X-6.079 Y9.950 Z-2.000 F500.000
G1 X-7.832 Y9.950 Z-2.000 F500.000
G1 X-9.950 Y7.832 Z-2.000 F500.000
G2 X-9.927 Y8.726 Z-2.000 I5.690 J0.303 K0.000 F500.000
G2 X-8.439 Y9.950 Z-2.000 I1.439 J-0.233 K0.000 F500.000
G1 X-7.832 Y9.950 Z-2.000 F500.000
G1 X-7.832 Y9.950 Z-2.000 F500.000
G1 X8.439 Y9.950 Z-2.000 F500.000
G2 X9.950 Y8.439 Z-2.000 I0.047 J-1.463 K0.000 F500.000
G1 X9.950 Y-8.439 Z-2.000 F500.000
G2 X8.439 Y-9.950 Z-2.000 I-1.463 J-0.047 K0.000 F500.000
G1 X-8.439 Y-9.950 Z-2.000 F500.000
G2 X-9.950 Y-8.439 Z-2.000 I-0.047 J1.463 K0.000 F500.000
G1 X-9.950 Y8.439 Z-2.000 F500.000
G2 X-8.439 Y9.950 Z-2.000 I1.463 J0.047 K0.000 F500.000
G1 X-7.832 Y9.950 Z-2.000 F500.000
G0 Z6.000
G0 Z6.000
(Finish operation: Pocket_Shape005)
(Begin operation: Pocket_Shape006)
(Path: Pocket_Shape006)
(Pocket_Shape006)
G0 Z6.000
G0 X5.620 Y5.620
G0 Z4.000
G1 X5.620 Y5.620 Z-2.500 F500.000
G2 X0.357 Y-7.940 Z-2.500 I-5.620 J-5.620 K0.000 F500.000
G2 X-0.357 Y7.940 Z-2.500 I-0.357 J7.940 K0.000 F500.000
G2 X5.620 Y5.620 Z-2.500 I0.357 J-7.940 K0.000 F500.000
G0 Z6.000
G0 X5.493 Y-5.745 Z6.000
G0 X5.493 Y-5.745 Z4.000
G1 X5.493 Y-5.745 Z-2.500 F500.000
G3 X7.748 Y-1.736 Z-2.500 I-5.397 J5.675 K0.000 F500.000
G1 X1.728 Y-7.757 Z-2.500 F500.000
G2 X-0.210 Y-7.940 Z-2.500 I-1.654 J7.133 K0.000 F500.000
G1 X7.939 Y0.208 Z-2.500 F500.000
G3 X7.742 Y1.765 Z-2.500 I-6.196 J0.006 K0.000 F500.000
G1 X-1.771 Y-7.748 Z-2.500 F500.000
G2 X-3.096 Y-7.319 Z-2.500 I1.721 J7.573 K0.000 F500.000
G1 X7.314 Y3.091 Z-2.500 F500.000
G3 X6.713 Y4.243 Z-2.500 I-5.023 J-1.886 K0.000 F500.000
G1 X-4.244 Y-6.714 Z-2.500 F500.000
G2 X-5.245 Y-5.961 Z-2.500 I3.038 J5.084 K0.000 F500.000
G1 X5.966 Y5.250 Z-2.500 F500.000
G3 X5.074 Y6.111 Z-2.500 I-5.231 J-4.527 K0.000 F500.000
G1 X-6.111 Y-5.073 Z-2.500 F500.000
G2 X-6.839 Y-4.048 Z-2.500 I3.641 J3.358 K0.000 F500.000
G1 X4.043 Y6.834 Z-2.500 F500.000
G3 X2.862 Y7.407 Z-2.500 I-3.013 J-4.707 K0.000 F500.000
G1 X-7.410 Y-2.866 Z-2.500 F500.000
G2 X-7.802 Y-1.503 Z-2.500 I6.682 J2.655 K0.000 F500.000
G1 X1.500 Y7.798 Z-2.500 F500.000
G3 X-0.111 Y7.940 Z-2.500 I-1.377 J-6.393 K0.000 F500.000
G1 X-7.944 Y0.108 Z-2.500 F500.000
G2 X-7.648 Y2.157 Z-2.500 I7.619 J-0.053 K0.000 F500.000
G1 X-2.166 Y7.639 Z-2.500 F500.000
G3 X-7.648 Y2.157 Z-2.500 I2.134 J-7.616 K0.000 F500.000
G1 X-7.648 Y2.157 Z-3.000 F500.000
G2 X-2.166 Y7.639 Z-3.000 I7.616 J-2.134 K0.000 F500.000
G1 X-7.648 Y2.157 Z-3.000 F500.000
G3 X-7.944 Y0.108 Z-3.000 I7.324 J-2.102 K0.000 F500.000
G1 X-0.111 Y7.940 Z-3.000 F500.000
G2 X1.500 Y7.798 Z-3.000 I0.234 J-6.535 K0.000 F500.000
G1 X-7.802 Y-1.503 Z-3.000 F500.000
G3 X-7.410 Y-2.866 Z-3.000 I7.073 J1.293 K0.000 F500.000
G1 X2.862 Y7.407 Z-3.000 F500.000
G2 X4.043 Y6.834 Z-3.000 I-1.832 J-5.280 K0.000 F500.000
G1 X-6.839 Y-4.048 Z-3.000 F500.000
G3 X-6.111 Y-5.073 Z-3.000 I4.369 J2.332 K0.000 F500.000
G1 X5.074 Y6.111 Z-3.000 F500.000
G2 X5.966 Y5.250 Z-3.000 I-4.338 J-5.388 K0.000 F500.000
G1 X-5.245 Y-5.961 Z-3.000 F500.000
G3 X-4.244 Y-6.714 Z-3.000 I4.039 J4.331 K0.000 F500.000
G1 X6.713 Y4.243 Z-3.000 F500.000
G2 X7.314 Y3.091 Z-3.000 I-4.422 J-3.039 K0.000 F500.000
G1 X-3.096 Y-7.319 Z-3.000 F500.000
G3 X-1.771 Y-7.748 Z-3.000 I3.046 J7.144 K0.000 F500.000
G1 X7.742 Y1.765 Z-3.000 F500.000
G2 X7.939 Y0.208 Z-3.000 I-5.998 J-1.551 K0.000 F500.000
G1 X-0.210 Y-7.940 Z-3.000 F500.000
G3 X1.728 Y-7.757 Z-3.000 I0.283 J7.317 K0.000 F500.000
G1 X7.748 Y-1.736 Z-3.000 F500.000
G2 X5.493 Y-5.745 Z-3.000 I-7.652 J1.666 K0.000 F500.000
G1 X5.493 Y-5.745 Z-3.000 F500.000
G2 X0.357 Y-7.940 Z-3.000 I-5.493 J5.745 K0.000 F500.000
G2 X-0.357 Y7.940 Z-3.000 I-0.357 J7.940 K0.000 F500.000
G2 X5.493 Y-5.745 Z-3.000 I0.357 J-7.940 K0.000 F500.000
G1 X5.493 Y-5.745 Z-3.500 F500.000
G2 X0.357 Y-7.940 Z-3.500 I-5.493 J5.745 K0.000 F500.000
G2 X-0.357 Y7.940 Z-3.500 I-0.357 J7.940 K0.000 F500.000
G2 X5.493 Y-5.745 Z-3.500 I0.357 J-7.940 K0.000 F500.000
G1 X5.493 Y-5.745 Z-3.500 F500.000
G3 X7.748 Y-1.736 Z-3.500 I-5.397 J5.675 K0.000 F500.000
G1 X1.728 Y-7.757 Z-3.500 F500.000
G2 X-0.210 Y-7.940 Z-3.500 I-1.654 J7.133 K0.000 F500.000
G1 X7.939 Y0.208 Z-3.500 F500.000
G3 X7.742 Y1.765 Z-3.500 I-6.196 J0.006 K0.000 F500.000
G1 X-1.771 Y-7.748 Z-3.500 F500.000
G2 X-3.096 Y-7.319 Z-3.500 I1.721 J7.573 K0.000 F500.000
G1 X7.314 Y3.091 Z-3.500 F500.000
G3 X6.713 Y4.243 Z-3.500 I-5.023 J-1.886 K0.000 F500.000
G1 X-4.244 Y-6.714 Z-3.500 F500.000
G2 X-5.245 Y-5.961 Z-3.500 I3.038 J5.084 K0.000 F500.000
G1 X5.966 Y5.250 Z-3.500 F500.000
G3 X5.074 Y6.111 Z-3.500 I-5.231 J-4.527 K0.000 F500.000
G1 X-6.111 Y-5.073 Z-3.500 F500.000
G2 X-6.839 Y-4.048 Z-3.500 I3.641 J3.358 K0.000 F500.000
G1 X4.043 Y6.834 Z-3.500 F500.000
G3 X2.862 Y7.407 Z-3.500 I-3.013 J-4.707 K0.000 F500.000
G1 X-7.410 Y-2.866 Z-3.500 F500.000
G2 X-7.802 Y-1.503 Z-3.500 I6.682 J2.655 K0.000 F500.000
G1 X1.500 Y7.798 Z-3.500 F500.000
G3 X-0.111 Y7.940 Z-3.500 I-1.377 J-6.393 K0.000 F500.000
G1 X-7.944 Y0.108 Z-3.500 F500.000
G2 X-7.648 Y2.157 Z-3.500 I7.619 J-0.053 K0.000 F500.000
G1 X-2.166 Y7.639 Z-3.500 F500.000
G3 X-7.648 Y2.157 Z-3.500 I2.134 J-7.616 K0.000 F500.000
G1 X-7.648 Y2.157 Z-4.000 F500.000
G2 X-2.166 Y7.639 Z-4.000 I7.616 J-2.134 K0.000 F500.000
G1 X-7.648 Y2.157 Z-4.000 F500.000
G3 X-7.944 Y0.108 Z-4.000 I7.324 J-2.102 K0.000 F500.000
G1 X-0.111 Y7.940 Z-4.000 F500.000
G2 X1.500 Y7.798 Z-4.000 I0.234 J-6.535 K0.000 F500.000
G1 X-7.802 Y-1.503 Z-4.000 F500.000
G3 X-7.410 Y-2.866 Z-4.000 I7.073 J1.293 K0.000 F500.000
G1 X2.862 Y7.407 Z-4.000 F500.000
G2 X4.043 Y6.834 Z-4.000 I-1.832 J-5.280 K0.000 F500.000
G1 X-6.839 Y-4.048 Z-4.000 F500.000
G3 X-6.111 Y-5.073 Z-4.000 I4.369 J2.332 K0.000 F500.000
G1 X5.074 Y6.111 Z-4.000 F500.000
G2 X5.966 Y5.250 Z-4.000 I-4.338 J-5.388 K0.000 F500.000
G1 X-5.245 Y-5.961 Z-4.000 F500.000
G3 X-4.244 Y-6.714 Z-4.000 I4.039 J4.331 K0.000 F500.000
G1 X6.713 Y4.243 Z-4.000 F500.000
G2 X7.314 Y3.091 Z-4.000 I-4.422 J-3.039 K0.000 F500.000
G1 X-3.096 Y-7.319 Z-4.000 F500.000
G3 X-1.771 Y-7.748 Z-4.000 I3.046 J7.144 K0.000 F500.000
G1 X7.742 Y1.765 Z-4.000 F500.000
G2 X7.939 Y0.208 Z-4.000 I-5.998 J-1.551 K0.000 F500.000
G1 X-0.210 Y-7.940 Z-4.000 F500.000
G3 X1.728 Y-7.757 Z-4.000 I0.283 J7.317 K0.000 F500.000
G1 X7.748 Y-1.736 Z-4.000 F500.000
G2 X5.493 Y-5.745 Z-4.000 I-7.652 J1.666 K0.000 F500.000
G1 X5.493 Y-5.745 Z-4.000 F500.000
G2 X0.357 Y-7.940 Z-4.000 I-5.493 J5.745 K0.000 F500.000
G2 X-0.357 Y7.940 Z-4.000 I-0.357 J7.940 K0.000 F500.000
G2 X5.493 Y-5.745 Z-4.000 I0.357 J-7.940 K0.000 F500.000
G0 Z6.000
G0 Z6.000
(Finish operation: Pocket_Shape006)
(Begin operation: Pocket_Shape007)
(Path: Pocket_Shape007)
(Pocket_Shape007)
G0 Z6.000
G0 X-17.771 Y0.029
G0 X-17.772 Y0.031
G0 X-17.772 Y0.031 Z4.000
G1 X-17.772 Y0.031 Z-0.500 F500.000
G2 X-17.828 Y-0.031 Z-0.500 I-0.028 J-0.031 K0.000 F500.000
G2 X-17.772 Y0.031 Z-0.500 I0.028 J0.031 K0.000 F500.000
G1 X-17.772 Y0.031 Z-1.000 F500.000
G2 X-17.828 Y-0.031 Z-1.000 I-0.028 J-0.031 K0.000 F500.000
G2 X-17.772 Y0.031 Z-1.000 I0.028 J0.031 K0.000 F500.000
G1 X-17.772 Y0.031 Z-1.500 F500.000
G2 X-17.828 Y-0.031 Z-1.500 I-0.028 J-0.031 K0.000 F500.000
G2 X-17.772 Y0.031 Z-1.500 I0.028 J0.031 K0.000 F500.000
G1 X-17.772 Y0.031 Z-2.000 F500.000
G2 X-17.828 Y-0.031 Z-2.000 I-0.028 J-0.031 K0.000 F500.000
G2 X-17.772 Y0.031 Z-2.000 I0.028 J0.031 K0.000 F500.000
G1 X-17.772 Y0.031 Z-2.500 F500.000
G2 X-17.828 Y-0.031 Z-2.500 I-0.028 J-0.031 K0.000 F500.000
G2 X-17.772 Y0.031 Z-2.500 I0.028 J0.031 K0.000 F500.000
G1 X-17.772 Y0.031 Z-3.000 F500.000
G2 X-17.828 Y-0.031 Z-3.000 I-0.028 J-0.031 K0.000 F500.000
G2 X-17.772 Y0.031 Z-3.000 I0.028 J0.031 K0.000 F500.000
G1 X-17.772 Y0.031 Z-3.500 F500.000
G2 X-17.828 Y-0.031 Z-3.500 I-0.028 J-0.031 K0.000 F500.000
G2 X-17.772 Y0.031 Z-3.500 I0.028 J0.031 K0.000 F500.000
G1 X-17.772 Y0.031 Z-4.000 F500.000
G2 X-17.828 Y-0.031 Z-4.000 I-0.028 J-0.031 K0.000 F500.000
G2 X-17.772 Y0.031 Z-4.000 I0.028 J0.031 K0.000 F500.000
G1 X-17.772 Y0.031 Z-4.500 F500.000
G2 X-17.828 Y-0.031 Z-4.500 I-0.028 J-0.031 K0.000 F500.000
G2 X-17.772 Y0.031 Z-4.500 I0.028 J0.031 K0.000 F500.000
G1 X-17.772 Y0.031 Z-5.000 F500.000
G2 X-17.828 Y-0.031 Z-5.000 I-0.028 J-0.031 K0.000 F500.000
G2 X-17.772 Y0.031 Z-5.000 I0.028 J0.031 K0.000 F500.000
G0 Z6.000
G0 Z6.000
G0 X-17.772 Y0.031
G0 X8.864 Y-15.394
G0 X8.864 Y-15.394 Z4.000
G1 X8.864 Y-15.394 Z-0.500 F500.000
G2 X8.872 Y-15.384 Z-0.500 I0.036 J-0.021 K0.000 F500.000
G2 X8.931 Y-15.388 Z-0.500 I0.028 J-0.031 K0.000 F500.000
G2 X8.928 Y-15.446 Z-0.500 I-0.031 J-0.028 K0.000 F500.000
G2 X8.864 Y-15.394 Z-0.500 I-0.028 J0.031 K0.000 F500.000
G1 X8.864 Y-15.394 Z-1.000 F500.000
G2 X8.872 Y-15.384 Z-1.000 I0.036 J-0.021 K0.000 F500.000
G2 X8.931 Y-15.388 Z-1.000 I0.028 J-0.031 K0.000 F500.000
G2 X8.928 Y-15.446 Z-1.000 I-0.031 J-0.028 K0.000 F500.000
G2 X8.864 Y-15.394 Z-1.000 I-0.028 J0.031 K0.000 F500.000
G1 X8.864 Y-15.394 Z-1.500 F500.000
G2 X8.872 Y-15.384 Z-1.500 I0.036 J-0.021 K0.000 F500.000
G2 X8.931 Y-15.388 Z-1.500 I0.028 J-0.031 K0.000 F500.000
G2 X8.928 Y-15.446 Z-1.500 I-0.031 J-0.028 K0.000 F500.000
G2 X8.864 Y-15.394 Z-1.500 I-0.028 J0.031 K0.000 F500.000
G1 X8.864 Y-15.394 Z-2.000 F500.000
G2 X8.872 Y-15.384 Z-2.000 I0.036 J-0.021 K0.000 F500.000
G2 X8.931 Y-15.388 Z-2.000 I0.028 J-0.031 K0.000 F500.000
G2 X8.928 Y-15.446 Z-2.000 I-0.031 J-0.028 K0.000 F500.000
G2 X8.864 Y-15.394 Z-2.000 I-0.028 J0.031 K0.000 F500.000
G1 X8.864 Y-15.394 Z-2.500 F500.000
G2 X8.872 Y-15.384 Z-2.500 I0.036 J-0.021 K0.000 F500.000
G2 X8.931 Y-15.388 Z-2.500 I0.028 J-0.031 K0.000 F500.000
G2 X8.928 Y-15.446 Z-2.500 I-0.031 J-0.028 K0.000 F500.000
G2 X8.864 Y-15.394 Z-2.500 I-0.028 J0.031 K0.000 F500.000
G1 X8.864 Y-15.394 Z-3.000 F500.000
G2 X8.872 Y-15.384 Z-3.000 I0.036 J-0.021 K0.000 F500.000
G2 X8.931 Y-15.388 Z-3.000 I0.028 J-0.031 K0.000 F500.000
G2 X8.928 Y-15.446 Z-3.000 I-0.031 J-0.028 K0.000 F500.000
G2 X8.864 Y-15.394 Z-3.000 I-0.028 J0.031 K0.000 F500.000
G1 X8.864 Y-15.394 Z-3.500 F500.000
G2 X8.872 Y-15.384 Z-3.500 I0.036 J-0.021 K0.000 F500.000
G2 X8.931 Y-15.388 Z-3.500 I0.028 J-0.031 K0.000 F500.000
G2 X8.928 Y-15.446 Z-3.500 I-0.031 J-0.028 K0.000 F500.000
G2 X8.864 Y-15.394 Z-3.500 I-0.028 J0.031 K0.000 F500.000
G1 X8.864 Y-15.394 Z-4.000 F500.000
G2 X8.872 Y-15.384 Z-4.000 I0.036 J-0.021 K0.000 F500.000
G2 X8.931 Y-15.388 Z-4.000 I0.028 J-0.031 K0.000 F500.000
G2 X8.928 Y-15.446 Z-4.000 I-0.031 J-0.028 K0.000 F500.000
G2 X8.864 Y-15.394 Z-4.000 I-0.028 J0.031 K0.000 F500.000
G1 X8.864 Y-15.394 Z-4.500 F500.000
G2 X8.872 Y-15.384 Z-4.500 I0.036 J-0.021 K0.000 F500.000
G2 X8.931 Y-15.388 Z-4.500 I0.028 J-0.031 K0.000 F500.000
G2 X8.928 Y-15.446 Z-4.500 I-0.031 J-0.028 K0.000 F500.000
G2 X8.864 Y-15.394 Z-4.500 I-0.028 J0.031 K0.000 F500.000
G1 X8.864 Y-15.394 Z-5.000 F500.000
G2 X8.872 Y-15.384 Z-5.000 I0.036 J-0.021 K0.000 F500.000
G2 X8.931 Y-15.388 Z-5.000 I0.028 J-0.031 K0.000 F500.000
G2 X8.928 Y-15.446 Z-5.000 I-0.031 J-0.028 K0.000 F500.000
G2 X8.864 Y-15.394 Z-5.000 I-0.028 J0.031 K0.000 F500.000
G0 Z6.000
G0 Z6.000
G0 X8.864 Y-15.394
G0 X8.900 Y15.374
G0 X8.900 Y15.374 Z4.000
G1 X8.900 Y15.374 Z-0.500 F500.000
G2 X8.872 Y15.446 Z-0.500 I0.000 J0.041 K0.000 F500.000
G2 X8.931 Y15.443 Z-0.500 I0.028 J-0.031 K0.000 F500.000
G2 X8.928 Y15.384 Z-0.500 I-0.031 J-0.028 K0.000 F500.000
G2 X8.900 Y15.374 Z-0.500 I-0.028 J0.031 K0.000 F500.000
G1 X8.900 Y15.374 Z-1.000 F500.000
G2 X8.872 Y15.446 Z-1.000 I0.000 J0.041 K0.000 F500.000
G2 X8.931 Y15.443 Z-1.000 I0.028 J-0.031 K0.000 F500.000
G2 X8.928 Y15.384 Z-1.000 I-0.031 J-0.028 K0.000 F500.000
G2 X8.900 Y15.374 Z-1.000 I-0.028 J0.031 K0.000 F500.000
G1 X8.900 Y15.374 Z-1.500 F500.000
G2 X8.872 Y15.446 Z-1.500 I0.000 J0.041 K0.000 F500.000
G2 X8.931 Y15.443 Z-1.500 I0.028 J-0.031 K0.000 F500.000
G2 X8.928 Y15.384 Z-1.500 I-0.031 J-0.028 K0.000 F500.000
G2 X8.900 Y15.374 Z-1.500 I-0.028 J0.031 K0.000 F500.000
G1 X8.900 Y15.374 Z-2.000 F500.000
G2 X8.872 Y15.446 Z-2.000 I0.000 J0.041 K0.000 F500.000
G2 X8.931 Y15.443 Z-2.000 I0.028 J-0.031 K0.000 F500.000
G2 X8.928 Y15.384 Z-2.000 I-0.031 J-0.028 K0.000 F500.000
G2 X8.900 Y15.374 Z-2.000 I-0.028 J0.031 K0.000 F500.000
G1 X8.900 Y15.374 Z-2.500 F500.000
G2 X8.872 Y15.446 Z-2.500 I0.000 J0.041 K0.000 F500.000
G2 X8.931 Y15.443 Z-2.500 I0.028 J-0.031 K0.000 F500.000
G2 X8.928 Y15.384 Z-2.500 I-0.031 J-0.028 K0.000 F500.000
G2 X8.900 Y15.374 Z-2.500 I-0.028 J0.031 K0.000 F500.000
G1 X8.900 Y15.374 Z-3.000 F500.000
G2 X8.872 Y15.446 Z-3.000 I0.000 J0.041 K0.000 F500.000
G2 X8.931 Y15.443 Z-3.000 I0.028 J-0.031 K0.000 F500.000
G2 X8.928 Y15.384 Z-3.000 I-0.031 J-0.028 K0.000 F500.000
G2 X8.900 Y15.374 Z-3.000 I-0.028 J0.031 K0.000 F500.000
G1 X8.900 Y15.374 Z-3.500 F500.000
G2 X8.872 Y15.446 Z-3.500 I0.000 J0.041 K0.000 F500.000
G2 X8.931 Y15.443 Z-3.500 I0.028 J-0.031 K0.000 F500.000
G2 X8.928 Y15.384 Z-3.500 I-0.031 J-0.028 K0.000 F500.000
G2 X8.900 Y15.374 Z-3.500 I-0.028 J0.031 K0.000 F500.000
G1 X8.900 Y15.374 Z-4.000 F500.000
G2 X8.872 Y15.446 Z-4.000 I0.000 J0.041 K0.000 F500.000
G2 X8.931 Y15.443 Z-4.000 I0.028 J-0.031 K0.000 F500.000
G2 X8.928 Y15.384 Z-4.000 I-0.031 J-0.028 K0.000 F500.000
G2 X8.900 Y15.374 Z-4.000 I-0.028 J0.031 K0.000 F500.000
G1 X8.900 Y15.374 Z-4.500 F500.000
G2 X8.872 Y15.446 Z-4.500 I0.000 J0.041 K0.000 F500.000
G2 X8.931 Y15.443 Z-4.500 I0.028 J-0.031 K0.000 F500.000
G2 X8.928 Y15.384 Z-4.500 I-0.031 J-0.028 K0.000 F500.000
G2 X8.900 Y15.374 Z-4.500 I-0.028 J0.031 K0.000 F500.000
G1 X8.900 Y15.374 Z-5.000 F500.000
G2 X8.872 Y15.446 Z-5.000 I0.000 J0.041 K0.000 F500.000
G2 X8.931 Y15.443 Z-5.000 I0.028 J-0.031 K0.000 F500.000
G2 X8.928 Y15.384 Z-5.000 I-0.031 J-0.028 K0.000 F500.000
G2 X8.900 Y15.374 Z-5.000 I-0.028 J0.031 K0.000 F500.000
G0 Z6.000
G0 Z6.000
(Finish operation: Pocket_Shape007)
(Begin operation: Profile002)
(Path: Profile002)
(Profile002)
(Compensated Tool Path. Diameter: 3.1)
G0 Z6.000
G0 X16.652 Y16.652
G0 Z4.000
G1 X16.652 Y16.652 Z-0.500 F500.000
G2 X23.361 Y2.972 Z-0.500 I-16.652 J-16.652 K0.000 F500.000
G2 X-23.361 Y-2.972 Z-0.500 I-23.361 J-2.972 K0.000 F500.000
G2 X16.652 Y16.652 Z-0.500 I23.361 J2.972 K0.000 F500.000
G1 X16.652 Y16.652 Z-1.000 F500.000
G2 X23.361 Y2.972 Z-1.000 I-16.652 J-16.652 K0.000 F500.000
G2 X-23.361 Y-2.972 Z-1.000 I-23.361 J-2.972 K0.000 F500.000
G2 X16.652 Y16.652 Z-1.000 I23.361 J2.972 K0.000 F500.000
G1 X16.652 Y16.652 Z-1.500 F500.000
G2 X23.361 Y2.972 Z-1.500 I-16.652 J-16.652 K0.000 F500.000
G2 X-23.361 Y-2.972 Z-1.500 I-23.361 J-2.972 K0.000 F500.000
G2 X16.652 Y16.652 Z-1.500 I23.361 J2.972 K0.000 F500.000
G1 X16.652 Y16.652 Z-2.000 F500.000
G2 X23.361 Y2.972 Z-2.000 I-16.652 J-16.652 K0.000 F500.000
G2 X-23.361 Y-2.972 Z-2.000 I-23.361 J-2.972 K0.000 F500.000
G2 X16.652 Y16.652 Z-2.000 I23.361 J2.972 K0.000 F500.000
G1 X16.652 Y16.652 Z-2.500 F500.000
G2 X23.361 Y2.972 Z-2.500 I-16.652 J-16.652 K0.000 F500.000
G2 X-23.361 Y-2.972 Z-2.500 I-23.361 J-2.972 K0.000 F500.000
G2 X16.652 Y16.652 Z-2.500 I23.361 J2.972 K0.000 F500.000
G1 X16.652 Y16.652 Z-3.000 F500.000
G2 X23.361 Y2.972 Z-3.000 I-16.652 J-16.652 K0.000 F500.000
G2 X-23.361 Y-2.972 Z-3.000 I-23.361 J-2.972 K0.000 F500.000
G2 X16.652 Y16.652 Z-3.000 I23.361 J2.972 K0.000 F500.000
G1 X16.652 Y16.652 Z-3.500 F500.000
G2 X23.361 Y2.972 Z-3.500 I-16.652 J-16.652 K0.000 F500.000
G2 X-23.361 Y-2.972 Z-3.500 I-23.361 J-2.972 K0.000 F500.000
G2 X16.652 Y16.652 Z-3.500 I23.361 J2.972 K0.000 F500.000
G1 X16.652 Y16.652 Z-4.000 F500.000
G2 X23.361 Y2.972 Z-4.000 I-16.652 J-16.652 K0.000 F500.000
G2 X-23.361 Y-2.972 Z-4.000 I-23.361 J-2.972 K0.000 F500.000
G2 X16.652 Y16.652 Z-4.000 I23.361 J2.972 K0.000 F500.000
G1 X16.652 Y16.652 Z-4.500 F500.000
G2 X23.361 Y2.972 Z-4.500 I-16.652 J-16.652 K0.000 F500.000
G2 X-23.361 Y-2.972 Z-4.500 I-23.361 J-2.972 K0.000 F500.000
G2 X16.652 Y16.652 Z-4.500 I23.361 J2.972 K0.000 F500.000
G0 Z6.000
G0 Z6.000
(Finish operation: Profile002)
(Begin operation: Profile003)
(Path: Profile003)
(Profile003)
(Compensated Tool Path. Diameter: 3.1)
G0 Z6.000
G0 X15.945 Y15.945
G0 Z4.000
G1 X15.945 Y15.945 Z-0.500 F500.000
G2 X2.128 Y-22.449 Z-0.500 I-15.945 J-15.945 K0.000 F500.000
G2 X-22.449 Y-2.128 Z-0.500 I-2.128 J22.449 K0.000 F500.000
G2 X-2.128 Y22.449 Z-0.500 I22.449 J2.128 K0.000 F500.000
G2 X15.945 Y15.945 Z-0.500 I2.128 J-22.449 K0.000 F500.000
G1 X15.945 Y15.945 Z-1.000 F500.000
G2 X2.128 Y-22.449 Z-1.000 I-15.945 J-15.945 K0.000 F500.000
G2 X-22.449 Y-2.128 Z-1.000 I-2.128 J22.449 K0.000 F500.000
G2 X-2.128 Y22.449 Z-1.000 I22.449 J2.128 K0.000 F500.000
G2 X15.945 Y15.945 Z-1.000 I2.128 J-22.449 K0.000 F500.000
G1 X15.945 Y15.945 Z-1.500 F500.000
G2 X2.128 Y-22.449 Z-1.500 I-15.945 J-15.945 K0.000 F500.000
G2 X-22.449 Y-2.128 Z-1.500 I-2.128 J22.449 K0.000 F500.000
G2 X-2.128 Y22.449 Z-1.500 I22.449 J2.128 K0.000 F500.000
G2 X15.945 Y15.945 Z-1.500 I2.128 J-22.449 K0.000 F500.000
G1 X15.945 Y15.945 Z-2.000 F500.000
G2 X2.128 Y-22.449 Z-2.000 I-15.945 J-15.945 K0.000 F500.000
G2 X-22.449 Y-2.128 Z-2.000 I-2.128 J22.449 K0.000 F500.000
G2 X-2.128 Y22.449 Z-2.000 I22.449 J2.128 K0.000 F500.000
G2 X15.945 Y15.945 Z-2.000 I2.128 J-22.449 K0.000 F500.000
G1 X15.945 Y15.945 Z-2.500 F500.000
G2 X2.128 Y-22.449 Z-2.500 I-15.945 J-15.945 K0.000 F500.000
G2 X-22.449 Y-2.128 Z-2.500 I-2.128 J22.449 K0.000 F500.000
G2 X-2.128 Y22.449 Z-2.500 I22.449 J2.128 K0.000 F500.000
G2 X15.945 Y15.945 Z-2.500 I2.128 J-22.449 K0.000 F500.000
G1 X15.945 Y15.945 Z-3.000 F500.000
G2 X2.128 Y-22.449 Z-3.000 I-15.945 J-15.945 K0.000 F500.000
G2 X-22.449 Y-2.128 Z-3.000 I-2.128 J22.449 K0.000 F500.000
G2 X-2.128 Y22.449 Z-3.000 I22.449 J2.128 K0.000 F500.000
G2 X15.945 Y15.945 Z-3.000 I2.128 J-22.449 K0.000 F500.000
G1 X15.945 Y15.945 Z-3.500 F500.000
G2 X2.128 Y-22.449 Z-3.500 I-15.945 J-15.945 K0.000 F500.000
G2 X-22.449 Y-2.128 Z-3.500 I-2.128 J22.449 K0.000 F500.000
G2 X-2.128 Y22.449 Z-3.500 I22.449 J2.128 K0.000 F500.000
G2 X15.945 Y15.945 Z-3.500 I2.128 J-22.449 K0.000 F500.000
G1 X15.945 Y15.945 Z-4.000 F500.000
G2 X2.128 Y-22.449 Z-4.000 I-15.945 J-15.945 K0.000 F500.000
G2 X-22.449 Y-2.128 Z-4.000 I-2.128 J22.449 K0.000 F500.000
G2 X-2.128 Y22.449 Z-4.000 I22.449 J2.128 K0.000 F500.000
G2 X15.945 Y15.945 Z-4.000 I2.128 J-22.449 K0.000 F500.000
G1 X15.945 Y15.945 Z-4.500 F500.000
G2 X2.128 Y-22.449 Z-4.500 I-15.945 J-15.945 K0.000 F500.000
G2 X-22.449 Y-2.128 Z-4.500 I-2.128 J22.449 K0.000 F500.000
G2 X-2.128 Y22.449 Z-4.500 I22.449 J2.128 K0.000 F500.000
G2 X15.945 Y15.945 Z-4.500 I2.128 J-22.449 K0.000 F500.000
G1 X15.945 Y15.945 Z-5.000 F500.000
G2 X2.128 Y-22.449 Z-5.000 I-15.945 J-15.945 K0.000 F500.000
G2 X-22.449 Y-2.128 Z-5.000 I-2.128 J22.449 K0.000 F500.000
G2 X-2.128 Y22.449 Z-5.000 I22.449 J2.128 K0.000 F500.000
G2 X15.945 Y15.945 Z-5.000 I2.128 J-22.449 K0.000 F500.000
G0 Z6.000
G0 Z6.000
(Finish operation: Profile003)
(Begin postamble)
M5
G17 G90
M2
