(Exported by FreeCAD)
(Post Processor: grbl_post)
(Output Time:2022-09-13 14:44:57.861148)
(Begin preamble)
G17 G90
G21
(Begin operation: G54)
(Path: G54)
G54
G0 Z20.000
(Finish operation: G54)
(Begin operation: TC: GoldenEndMill-3.10)
(Path: TC: GoldenEndMill-3.10)
(TC: GoldenEndMill-3.10)
(Begin toolchange)
( M6 T9 )
M3 S12000
(Finish operation: TC: GoldenEndMill-3.10)
(Begin operation: MillFace001)
(Path: MillFace001)
(MillFace001)
G0 Z20.000
G0 X20.902 Y20.902
G1 X20.902 Y20.902 Z17.500 F480.000
G2 X-0.000 Y-29.560 Z17.500 I-20.902 J-20.902 K0.000 F480.000
G2 X0.000 Y29.560 Z17.500 I0.000 J29.560 K0.000 F480.000
G2 X20.902 Y20.902 Z17.500 I-0.000 J-29.560 K0.000 F480.000
G0 Z20.000
G0 X20.366 Y-21.425 Z20.000
G0 X20.366 Y-21.425 Z20.000
G1 X20.366 Y-21.425 Z17.500 F480.000
G3 X26.493 Y-13.105 Z17.500 I-20.298 J21.366 K0.000 F480.000
G1 X13.105 Y-26.493 Z17.500 F480.000
G2 X9.385 Y-28.021 Z17.500 I-12.273 J24.595 K0.000 F480.000
G1 X28.021 Y-9.385 Z17.500 F480.000
G3 X28.861 Y-6.353 Z17.500 I-23.025 J8.014 K0.000 F480.000
G1 X6.353 Y-28.861 Z17.500 F480.000
G2 X3.705 Y-29.317 Z17.500 I-5.018 J21.227 K0.000 F480.000
G1 X29.317 Y-3.705 Z17.500 F480.000
G3 X29.526 Y-1.303 Z17.500 I-17.758 J2.760 K0.000 F480.000
G1 X1.303 Y-29.526 Z17.500 F480.000
G2 X-0.899 Y-29.537 Z17.500 I-1.202 J21.708 K0.000 F480.000
G1 X29.537 Y0.899 Z17.500 F480.000
G3 X29.410 Y2.964 Z17.500 I-20.424 J-0.218 K0.000 F480.000
G1 X-2.964 Y-29.410 Z17.500 F480.000
G2 X-4.891 Y-29.144 Z17.500 I1.610 J18.801 K0.000 F480.000
G1 X29.144 Y4.891 Z17.500 F480.000
G3 X28.777 Y6.715 Z17.500 I-18.173 J-2.710 K0.000 F480.000
G1 X-6.715 Y-28.777 Z17.500 F480.000
G2 X-8.449 Y-28.318 Z17.500 I3.654 J17.320 K0.000 F480.000
G1 X28.318 Y8.449 Z17.500 F480.000
G3 X27.777 Y10.099 Z17.500 I-16.541 J-4.516 K0.000 F480.000
G1 X-10.099 Y-27.777 Z17.500 F480.000
G2 X-11.672 Y-27.157 Z17.500 I4.737 J14.332 K0.000 F480.000
G1 X27.157 Y11.672 Z17.500 F480.000
G3 X26.461 Y13.167 Z17.500 I-15.093 J-6.119 K0.000 F480.000
G1 X-13.167 Y-26.461 Z17.500 F480.000
G2 X-14.596 Y-25.698 Z17.500 I6.809 J14.470 K0.000 F480.000
G1 X25.698 Y14.596 Z17.500 F480.000
G3 X24.871 Y15.961 Z17.500 I-13.875 J-7.467 K0.000 F480.000
G1 X-15.961 Y-24.871 Z17.500 F480.000
G2 X-17.265 Y-23.983 Z17.500 I8.103 J13.301 K0.000 F480.000
G1 X23.983 Y17.265 Z17.500 F480.000
G3 X23.035 Y18.510 Z17.500 I-12.743 J-8.720 K0.000 F480.000
G1 X-18.510 Y-23.035 Z17.500 F480.000
G2 X-19.696 Y-22.029 Z17.500 I9.325 J12.196 K0.000 F480.000
G1 X22.029 Y19.696 Z17.500 F480.000
G3 X20.966 Y20.824 Z17.500 I-11.656 J-9.923 K0.000 F480.000
G1 X-20.824 Y-20.966 Z17.500 F480.000
G2 X-21.895 Y-19.845 Z17.500 I10.518 J11.118 K0.000 F480.000
G1 X19.845 Y21.895 Z17.500 F480.000
G3 X18.666 Y22.908 Z17.500 I-10.579 J-11.116 K0.000 F480.000
G1 X-22.908 Y-18.666 Z17.500 F480.000
G2 X-23.863 Y-17.429 Z17.500 I11.720 J10.033 K0.000 F480.000
G1 X17.429 Y23.863 Z17.500 F480.000
G3 X16.132 Y24.759 Z17.500 I-9.476 J-12.336 K0.000 F480.000
G1 X-24.759 Y-16.132 Z17.500 F480.000
G2 X-25.593 Y-14.774 Z17.500 I12.970 J8.904 K0.000 F480.000
G1 X14.774 Y25.593 Z17.500 F480.000
G3 X13.353 Y26.364 Z17.500 I-8.310 J-13.627 K0.000 F480.000
G1 X-26.364 Y-13.353 Z17.500 F480.000
G2 X-27.068 Y-11.865 Z17.500 I14.313 J7.690 K0.000 F480.000
G1 X11.865 Y27.068 Z17.500 F480.000
G3 X10.308 Y27.703 Z17.500 I-7.035 J-15.037 K0.000 F480.000
G1 X-27.703 Y-10.308 Z17.500 F480.000
G2 X-28.255 Y-8.669 Z17.500 I15.427 J6.114 K0.000 F480.000
G1 X8.669 Y28.255 Z17.500 F480.000
G3 X6.945 Y28.724 Z17.500 I-5.478 J-16.762 K0.000 F480.000
G1 X-28.724 Y-6.945 Z17.500 F480.000
G2 X-29.101 Y-5.130 Z17.500 I17.699 J4.631 K0.000 F480.000
G1 X5.130 Y29.101 Z17.500 F480.000
G3 X3.216 Y29.379 Z17.500 I-3.695 J-18.734 K0.000 F480.000
G1 X-29.379 Y-3.216 Z17.500 F480.000
G2 X-29.530 Y-1.175 Z17.500 I17.702 J2.333 K0.000 F480.000
G1 X1.175 Y29.530 Z17.500 F480.000
G3 X-1.013 Y29.534 Z17.500 I-1.134 J-21.569 K0.000 F480.000
G1 X-29.534 Y1.013 Z17.500 F480.000
G2 X-29.358 Y3.381 Z17.500 I18.840 J-0.208 K0.000 F480.000
G1 X-3.381 Y29.358 Z17.500 F480.000
G3 X-5.985 Y28.946 Z17.500 I1.545 J-18.212 K0.000 F480.000
G1 X-28.946 Y5.985 Z17.500 F480.000
G2 X-28.167 Y8.956 Z17.500 I19.975 J-3.650 K0.000 F480.000
G1 X-8.956 Y28.167 Z17.500 F480.000
G3 X-12.571 Y26.744 Z17.500 I7.663 J-24.766 K0.000 F480.000
G1 X-26.744 Y12.571 Z17.500 F480.000
G2 X-23.204 Y18.303 Z17.500 I25.874 J-12.020 K0.000 F480.000
G1 X-18.303 Y23.204 Z17.500 F480.000
G3 X-23.204 Y18.303 Z17.500 I17.717 J-22.618 K0.000 F480.000
G1 X-23.204 Y18.303 Z17.000 F480.000
G2 X-18.303 Y23.204 Z17.000 I22.618 J-17.717 K0.000 F480.000
G1 X-23.204 Y18.303 Z17.000 F480.000
G3 X-26.744 Y12.571 Z17.000 I22.335 J-17.752 K0.000 F480.000
G1 X-12.571 Y26.744 Z17.000 F480.000
G2 X-8.956 Y28.167 Z17.000 I11.279 J-23.342 K0.000 F480.000
G1 X-28.167 Y8.956 Z17.000 F480.000
G3 X-28.946 Y5.985 Z17.000 I19.196 J-6.621 K0.000 F480.000
G1 X-5.985 Y28.946 Z17.000 F480.000
G2 X-3.381 Y29.358 Z17.000 I4.149 J-17.801 K0.000 F480.000
G1 X-29.358 Y3.381 Z17.000 F480.000
G3 X-29.534 Y1.013 Z17.000 I18.665 J-2.575 K0.000 F480.000
G1 X-1.013 Y29.534 Z17.000 F480.000
G2 X1.175 Y29.530 Z17.000 I1.054 J-21.573 K0.000 F480.000
G1 X-29.530 Y-1.175 Z17.000 F480.000
G3 X-29.379 Y-3.216 Z17.000 I17.853 J0.291 K0.000 F480.000
G1 X3.216 Y29.379 Z17.000 F480.000
G2 X5.130 Y29.101 Z17.000 I-1.781 J-19.012 K0.000 F480.000
G1 X-29.101 Y-5.130 Z17.000 F480.000
G3 X-28.724 Y-6.945 Z17.000 I18.077 J2.817 K0.000 F480.000
G1 X6.945 Y28.724 Z17.000 F480.000
G2 X8.669 Y28.255 Z17.000 I-3.754 J-17.230 K0.000 F480.000
G1 X-28.255 Y-8.669 Z17.000 F480.000
G3 X-27.703 Y-10.308 Z17.000 I15.980 J4.475 K0.000 F480.000
G1 X10.308 Y27.703 Z17.000 F480.000
G2 X11.865 Y27.068 Z17.000 I-5.478 J-15.672 K0.000 F480.000
G1 X-27.068 Y-11.865 Z17.000 F480.000
G3 X-26.364 Y-13.353 Z17.000 I15.018 J6.202 K0.000 F480.000
G1 X13.353 Y26.364 Z17.000 F480.000
G2 X14.774 Y25.593 Z17.000 I-6.889 J-14.397 K0.000 F480.000
G1 X-25.593 Y-14.774 Z17.000 F480.000
G3 X-24.759 Y-16.132 Z17.000 I13.804 J7.546 K0.000 F480.000
G1 X16.132 Y24.759 Z17.000 F480.000
G2 X17.429 Y23.863 Z17.000 I-8.179 J-13.232 K0.000 F480.000
G1 X-23.863 Y-17.429 Z17.000 F480.000
G3 X-22.908 Y-18.666 Z17.000 I12.675 J8.796 K0.000 F480.000
G1 X18.666 Y22.908 Z17.000 F480.000
G2 X19.845 Y21.895 Z17.000 I-9.400 J-12.129 K0.000 F480.000
G1 X-21.895 Y-19.845 Z17.000 F480.000
G3 X-20.824 Y-20.966 Z17.000 I11.589 J9.997 K0.000 F480.000
G1 X20.966 Y20.824 Z17.000 F480.000
G2 X22.029 Y19.696 Z17.000 I-10.593 J-11.051 K0.000 F480.000
G1 X-19.696 Y-22.029 Z17.000 F480.000
G3 X-18.510 Y-23.035 Z17.000 I10.511 J11.190 K0.000 F480.000
G1 X23.035 Y18.510 Z17.000 F480.000
G2 X23.983 Y17.265 Z17.000 I-11.795 J-9.965 K0.000 F480.000
G1 X-17.265 Y-23.983 Z17.000 F480.000
G3 X-15.961 Y-24.871 Z17.000 I9.407 J12.413 K0.000 F480.000
G1 X24.871 Y15.961 Z17.000 F480.000
G2 X25.698 Y14.596 Z17.000 I-13.048 J-8.833 K0.000 F480.000
G1 X-14.596 Y-25.698 Z17.000 F480.000
G3 X-13.167 Y-26.461 Z17.000 I8.238 J13.707 K0.000 F480.000
G1 X26.461 Y13.167 Z17.000 F480.000
G2 X27.157 Y11.672 Z17.000 I-14.396 J-7.615 K0.000 F480.000
G1 X-11.672 Y-27.157 Z17.000 F480.000
G3 X-10.099 Y-27.777 Z17.000 I6.309 J13.712 K0.000 F480.000
G1 X27.777 Y10.099 Z17.000 F480.000
G2 X28.318 Y8.449 Z17.000 I-15.999 J-6.167 K0.000 F480.000
G1 X-8.449 Y-28.318 Z17.000 F480.000
G3 X-6.715 Y-28.777 Z17.000 I5.387 J16.862 K0.000 F480.000
G1 X28.777 Y6.715 Z17.000 F480.000
G2 X29.144 Y4.891 Z17.000 I-17.805 J-4.535 K0.000 F480.000
G1 X-4.891 Y-29.144 Z17.000 F480.000
G3 X-2.964 Y-29.410 Z17.000 I3.536 J18.536 K0.000 F480.000
G1 X29.410 Y2.964 Z17.000 F480.000
G2 X29.537 Y0.899 Z17.000 I-20.297 J-2.283 K0.000 F480.000
G1 X-0.899 Y-29.537 Z17.000 F480.000
G3 X1.303 Y-29.526 Z17.000 I1.000 J21.718 K0.000 F480.000
G1 X29.526 Y-1.303 Z17.000 F480.000
G2 X29.317 Y-3.705 Z17.000 I-17.967 J0.358 K0.000 F480.000
G1 X3.705 Y-29.317 Z17.000 F480.000
G3 X6.353 Y-28.861 Z17.000 I-2.370 J21.683 K0.000 F480.000
G1 X28.861 Y-6.353 Z17.000 F480.000
G2 X28.021 Y-9.385 Z17.000 I-23.865 J4.981 K0.000 F480.000
G1 X9.385 Y-28.021 Z17.000 F480.000
G3 X13.105 Y-26.493 Z17.000 I-8.553 J26.122 K0.000 F480.000
G1 X26.493 Y-13.105 Z17.000 F480.000
G2 X20.366 Y-21.425 Z17.000 I-26.426 J13.047 K0.000 F480.000
G0 Z20.000
G0 X20.366 Y-21.425 Z20.000
G0 X20.366 Y-21.425 Z20.000
G1 X20.366 Y-21.425 Z17.000 F480.000
G2 X-0.000 Y-29.560 Z17.000 I-20.366 J21.425 K0.000 F480.000
G2 X0.000 Y29.560 Z17.000 I0.000 J29.560 K0.000 F480.000
G2 X20.366 Y-21.425 Z17.000 I-0.000 J-29.560 K0.000 F480.000
G1 X20.366 Y-21.425 Z16.500 F480.000
G2 X-0.000 Y-29.560 Z16.500 I-20.366 J21.425 K0.000 F480.000
G2 X0.000 Y29.560 Z16.500 I0.000 J29.560 K0.000 F480.000
G2 X20.366 Y-21.425 Z16.500 I-0.000 J-29.560 K0.000 F480.000
G0 Z20.000
G0 X20.366 Y-21.425 Z20.000
G0 X20.366 Y-21.425 Z20.000
G1 X20.366 Y-21.425 Z16.500 F480.000
G3 X26.493 Y-13.105 Z16.500 I-20.298 J21.366 K0.000 F480.000
G1 X13.105 Y-26.493 Z16.500 F480.000
G2 X9.385 Y-28.021 Z16.500 I-12.273 J24.595 K0.000 F480.000
G1 X28.021 Y-9.385 Z16.500 F480.000
G3 X28.861 Y-6.353 Z16.500 I-23.025 J8.014 K0.000 F480.000
G1 X6.353 Y-28.861 Z16.500 F480.000
G2 X3.705 Y-29.317 Z16.500 I-5.018 J21.227 K0.000 F480.000
G1 X29.317 Y-3.705 Z16.500 F480.000
G3 X29.526 Y-1.303 Z16.500 I-17.758 J2.760 K0.000 F480.000
G1 X1.303 Y-29.526 Z16.500 F480.000
G2 X-0.899 Y-29.537 Z16.500 I-1.202 J21.708 K0.000 F480.000
G1 X29.537 Y0.899 Z16.500 F480.000
G3 X29.410 Y2.964 Z16.500 I-20.424 J-0.218 K0.000 F480.000
G1 X-2.964 Y-29.410 Z16.500 F480.000
G2 X-4.891 Y-29.144 Z16.500 I1.610 J18.801 K0.000 F480.000
G1 X29.144 Y4.891 Z16.500 F480.000
G3 X28.777 Y6.715 Z16.500 I-18.173 J-2.710 K0.000 F480.000
G1 X-6.715 Y-28.777 Z16.500 F480.000
G2 X-8.449 Y-28.318 Z16.500 I3.654 J17.320 K0.000 F480.000
G1 X28.318 Y8.449 Z16.500 F480.000
G3 X27.777 Y10.099 Z16.500 I-16.541 J-4.516 K0.000 F480.000
G1 X-10.099 Y-27.777 Z16.500 F480.000
G2 X-11.672 Y-27.157 Z16.500 I4.737 J14.332 K0.000 F480.000
G1 X27.157 Y11.672 Z16.500 F480.000
G3 X26.461 Y13.167 Z16.500 I-15.093 J-6.119 K0.000 F480.000
G1 X-13.167 Y-26.461 Z16.500 F480.000
G2 X-14.596 Y-25.698 Z16.500 I6.809 J14.470 K0.000 F480.000
G1 X25.698 Y14.596 Z16.500 F480.000
G3 X24.871 Y15.961 Z16.500 I-13.875 J-7.467 K0.000 F480.000
G1 X-15.961 Y-24.871 Z16.500 F480.000
G2 X-17.265 Y-23.983 Z16.500 I8.103 J13.301 K0.000 F480.000
G1 X23.983 Y17.265 Z16.500 F480.000
G3 X23.035 Y18.510 Z16.500 I-12.743 J-8.720 K0.000 F480.000
G1 X-18.510 Y-23.035 Z16.500 F480.000
G2 X-19.696 Y-22.029 Z16.500 I9.325 J12.196 K0.000 F480.000
G1 X22.029 Y19.696 Z16.500 F480.000
G3 X20.966 Y20.824 Z16.500 I-11.656 J-9.923 K0.000 F480.000
G1 X-20.824 Y-20.966 Z16.500 F480.000
G2 X-21.895 Y-19.845 Z16.500 I10.518 J11.118 K0.000 F480.000
G1 X19.845 Y21.895 Z16.500 F480.000
G3 X18.666 Y22.908 Z16.500 I-10.579 J-11.116 K0.000 F480.000
G1 X-22.908 Y-18.666 Z16.500 F480.000
G2 X-23.863 Y-17.429 Z16.500 I11.720 J10.033 K0.000 F480.000
G1 X17.429 Y23.863 Z16.500 F480.000
G3 X16.132 Y24.759 Z16.500 I-9.476 J-12.336 K0.000 F480.000
G1 X-24.759 Y-16.132 Z16.500 F480.000
G2 X-25.593 Y-14.774 Z16.500 I12.970 J8.904 K0.000 F480.000
G1 X14.774 Y25.593 Z16.500 F480.000
G3 X13.353 Y26.364 Z16.500 I-8.310 J-13.627 K0.000 F480.000
G1 X-26.364 Y-13.353 Z16.500 F480.000
G2 X-27.068 Y-11.865 Z16.500 I14.313 J7.690 K0.000 F480.000
G1 X11.865 Y27.068 Z16.500 F480.000
G3 X10.308 Y27.703 Z16.500 I-7.035 J-15.037 K0.000 F480.000
G1 X-27.703 Y-10.308 Z16.500 F480.000
G2 X-28.255 Y-8.669 Z16.500 I15.427 J6.114 K0.000 F480.000
G1 X8.669 Y28.255 Z16.500 F480.000
G3 X6.945 Y28.724 Z16.500 I-5.478 J-16.762 K0.000 F480.000
G1 X-28.724 Y-6.945 Z16.500 F480.000
G2 X-29.101 Y-5.130 Z16.500 I17.699 J4.631 K0.000 F480.000
G1 X5.130 Y29.101 Z16.500 F480.000
G3 X3.216 Y29.379 Z16.500 I-3.695 J-18.734 K0.000 F480.000
G1 X-29.379 Y-3.216 Z16.500 F480.000
G2 X-29.530 Y-1.175 Z16.500 I17.702 J2.333 K0.000 F480.000
G1 X1.175 Y29.530 Z16.500 F480.000
G3 X-1.013 Y29.534 Z16.500 I-1.134 J-21.569 K0.000 F480.000
G1 X-29.534 Y1.013 Z16.500 F480.000
G2 X-29.358 Y3.381 Z16.500 I18.840 J-0.208 K0.000 F480.000
G1 X-3.381 Y29.358 Z16.500 F480.000
G3 X-5.985 Y28.946 Z16.500 I1.545 J-18.212 K0.000 F480.000
G1 X-28.946 Y5.985 Z16.500 F480.000
G2 X-28.167 Y8.956 Z16.500 I19.975 J-3.650 K0.000 F480.000
G1 X-8.956 Y28.167 Z16.500 F480.000
G3 X-12.571 Y26.744 Z16.500 I7.663 J-24.766 K0.000 F480.000
G1 X-26.744 Y12.571 Z16.500 F480.000
G2 X-23.204 Y18.303 Z16.500 I25.874 J-12.020 K0.000 F480.000
G1 X-18.303 Y23.204 Z16.500 F480.000
G3 X-23.204 Y18.303 Z16.500 I17.717 J-22.618 K0.000 F480.000
G1 X-23.204 Y18.303 Z16.000 F480.000
G2 X-18.303 Y23.204 Z16.000 I22.618 J-17.717 K0.000 F480.000
G1 X-23.204 Y18.303 Z16.000 F480.000
G3 X-26.744 Y12.571 Z16.000 I22.335 J-17.752 K0.000 F480.000
G1 X-12.571 Y26.744 Z16.000 F480.000
G2 X-8.956 Y28.167 Z16.000 I11.279 J-23.342 K0.000 F480.000
G1 X-28.167 Y8.956 Z16.000 F480.000
G3 X-28.946 Y5.985 Z16.000 I19.196 J-6.621 K0.000 F480.000
G1 X-5.985 Y28.946 Z16.000 F480.000
G2 X-3.381 Y29.358 Z16.000 I4.149 J-17.801 K0.000 F480.000
G1 X-29.358 Y3.381 Z16.000 F480.000
G3 X-29.534 Y1.013 Z16.000 I18.665 J-2.575 K0.000 F480.000
G1 X-1.013 Y29.534 Z16.000 F480.000
G2 X1.175 Y29.530 Z16.000 I1.054 J-21.573 K0.000 F480.000
G1 X-29.530 Y-1.175 Z16.000 F480.000
G3 X-29.379 Y-3.216 Z16.000 I17.853 J0.291 K0.000 F480.000
G1 X3.216 Y29.379 Z16.000 F480.000
G2 X5.130 Y29.101 Z16.000 I-1.781 J-19.012 K0.000 F480.000
G1 X-29.101 Y-5.130 Z16.000 F480.000
G3 X-28.724 Y-6.945 Z16.000 I18.077 J2.817 K0.000 F480.000
G1 X6.945 Y28.724 Z16.000 F480.000
G2 X8.669 Y28.255 Z16.000 I-3.754 J-17.230 K0.000 F480.000
G1 X-28.255 Y-8.669 Z16.000 F480.000
G3 X-27.703 Y-10.308 Z16.000 I15.980 J4.475 K0.000 F480.000
G1 X10.308 Y27.703 Z16.000 F480.000
G2 X11.865 Y27.068 Z16.000 I-5.478 J-15.672 K0.000 F480.000
G1 X-27.068 Y-11.865 Z16.000 F480.000
G3 X-26.364 Y-13.353 Z16.000 I15.018 J6.202 K0.000 F480.000
G1 X13.353 Y26.364 Z16.000 F480.000
G2 X14.774 Y25.593 Z16.000 I-6.889 J-14.397 K0.000 F480.000
G1 X-25.593 Y-14.774 Z16.000 F480.000
G3 X-24.759 Y-16.132 Z16.000 I13.804 J7.546 K0.000 F480.000
G1 X16.132 Y24.759 Z16.000 F480.000
G2 X17.429 Y23.863 Z16.000 I-8.179 J-13.232 K0.000 F480.000
G1 X-23.863 Y-17.429 Z16.000 F480.000
G3 X-22.908 Y-18.666 Z16.000 I12.675 J8.796 K0.000 F480.000
G1 X18.666 Y22.908 Z16.000 F480.000
G2 X19.845 Y21.895 Z16.000 I-9.400 J-12.129 K0.000 F480.000
G1 X-21.895 Y-19.845 Z16.000 F480.000
G3 X-20.824 Y-20.966 Z16.000 I11.589 J9.997 K0.000 F480.000
G1 X20.966 Y20.824 Z16.000 F480.000
G2 X22.029 Y19.696 Z16.000 I-10.593 J-11.051 K0.000 F480.000
G1 X-19.696 Y-22.029 Z16.000 F480.000
G3 X-18.510 Y-23.035 Z16.000 I10.511 J11.190 K0.000 F480.000
G1 X23.035 Y18.510 Z16.000 F480.000
G2 X23.983 Y17.265 Z16.000 I-11.795 J-9.965 K0.000 F480.000
G1 X-17.265 Y-23.983 Z16.000 F480.000
G3 X-15.961 Y-24.871 Z16.000 I9.407 J12.413 K0.000 F480.000
G1 X24.871 Y15.961 Z16.000 F480.000
G2 X25.698 Y14.596 Z16.000 I-13.048 J-8.833 K0.000 F480.000
G1 X-14.596 Y-25.698 Z16.000 F480.000
G3 X-13.167 Y-26.461 Z16.000 I8.238 J13.707 K0.000 F480.000
G1 X26.461 Y13.167 Z16.000 F480.000
G2 X27.157 Y11.672 Z16.000 I-14.396 J-7.615 K0.000 F480.000
G1 X-11.672 Y-27.157 Z16.000 F480.000
G3 X-10.099 Y-27.777 Z16.000 I6.309 J13.712 K0.000 F480.000
G1 X27.777 Y10.099 Z16.000 F480.000
G2 X28.318 Y8.449 Z16.000 I-15.999 J-6.167 K0.000 F480.000
G1 X-8.449 Y-28.318 Z16.000 F480.000
G3 X-6.715 Y-28.777 Z16.000 I5.387 J16.862 K0.000 F480.000
G1 X28.777 Y6.715 Z16.000 F480.000
G2 X29.144 Y4.891 Z16.000 I-17.805 J-4.535 K0.000 F480.000
G1 X-4.891 Y-29.144 Z16.000 F480.000
G3 X-2.964 Y-29.410 Z16.000 I3.536 J18.536 K0.000 F480.000
G1 X29.410 Y2.964 Z16.000 F480.000
G2 X29.537 Y0.899 Z16.000 I-20.297 J-2.283 K0.000 F480.000
G1 X-0.899 Y-29.537 Z16.000 F480.000
G3 X1.303 Y-29.526 Z16.000 I1.000 J21.718 K0.000 F480.000
G1 X29.526 Y-1.303 Z16.000 F480.000
G2 X29.317 Y-3.705 Z16.000 I-17.967 J0.358 K0.000 F480.000
G1 X3.705 Y-29.317 Z16.000 F480.000
G3 X6.353 Y-28.861 Z16.000 I-2.370 J21.683 K0.000 F480.000
G1 X28.861 Y-6.353 Z16.000 F480.000
G2 X28.021 Y-9.385 Z16.000 I-23.865 J4.981 K0.000 F480.000
G1 X9.385 Y-28.021 Z16.000 F480.000
G3 X13.105 Y-26.493 Z16.000 I-8.553 J26.122 K0.000 F480.000
G1 X26.493 Y-13.105 Z16.000 F480.000
G2 X20.366 Y-21.425 Z16.000 I-26.426 J13.047 K0.000 F480.000
G0 Z20.000
G0 X20.366 Y-21.425 Z20.000
G0 X20.366 Y-21.425 Z20.000
G1 X20.366 Y-21.425 Z16.000 F480.000
G2 X-0.000 Y-29.560 Z16.000 I-20.366 J21.425 K0.000 F480.000
G2 X0.000 Y29.560 Z16.000 I0.000 J29.560 K0.000 F480.000
G2 X20.366 Y-21.425 Z16.000 I-0.000 J-29.560 K0.000 F480.000
G1 X20.366 Y-21.425 Z15.500 F480.000
G2 X-0.000 Y-29.560 Z15.500 I-20.366 J21.425 K0.000 F480.000
G2 X0.000 Y29.560 Z15.500 I0.000 J29.560 K0.000 F480.000
G2 X20.366 Y-21.425 Z15.500 I-0.000 J-29.560 K0.000 F480.000
G0 Z20.000
G0 X20.366 Y-21.425 Z20.000
G0 X20.366 Y-21.425 Z20.000
G1 X20.366 Y-21.425 Z15.500 F480.000
G3 X26.493 Y-13.105 Z15.500 I-20.298 J21.366 K0.000 F480.000
G1 X13.105 Y-26.493 Z15.500 F480.000
G2 X9.385 Y-28.021 Z15.500 I-12.273 J24.595 K0.000 F480.000
G1 X28.021 Y-9.385 Z15.500 F480.000
G3 X28.861 Y-6.353 Z15.500 I-23.025 J8.014 K0.000 F480.000
G1 X6.353 Y-28.861 Z15.500 F480.000
G2 X3.705 Y-29.317 Z15.500 I-5.018 J21.227 K0.000 F480.000
G1 X29.317 Y-3.705 Z15.500 F480.000
G3 X29.526 Y-1.303 Z15.500 I-17.758 J2.760 K0.000 F480.000
G1 X1.303 Y-29.526 Z15.500 F480.000
G2 X-0.899 Y-29.537 Z15.500 I-1.202 J21.708 K0.000 F480.000
G1 X29.537 Y0.899 Z15.500 F480.000
G3 X29.410 Y2.964 Z15.500 I-20.424 J-0.218 K0.000 F480.000
G1 X-2.964 Y-29.410 Z15.500 F480.000
G2 X-4.891 Y-29.144 Z15.500 I1.610 J18.801 K0.000 F480.000
G1 X29.144 Y4.891 Z15.500 F480.000
G3 X28.777 Y6.715 Z15.500 I-18.173 J-2.710 K0.000 F480.000
G1 X-6.715 Y-28.777 Z15.500 F480.000
G2 X-8.449 Y-28.318 Z15.500 I3.654 J17.320 K0.000 F480.000
G1 X28.318 Y8.449 Z15.500 F480.000
G3 X27.777 Y10.099 Z15.500 I-16.541 J-4.516 K0.000 F480.000
G1 X-10.099 Y-27.777 Z15.500 F480.000
G2 X-11.672 Y-27.157 Z15.500 I4.737 J14.332 K0.000 F480.000
G1 X27.157 Y11.672 Z15.500 F480.000
G3 X26.461 Y13.167 Z15.500 I-15.093 J-6.119 K0.000 F480.000
G1 X-13.167 Y-26.461 Z15.500 F480.000
G2 X-14.596 Y-25.698 Z15.500 I6.809 J14.470 K0.000 F480.000
G1 X25.698 Y14.596 Z15.500 F480.000
G3 X24.871 Y15.961 Z15.500 I-13.875 J-7.467 K0.000 F480.000
G1 X-15.961 Y-24.871 Z15.500 F480.000
G2 X-17.265 Y-23.983 Z15.500 I8.103 J13.301 K0.000 F480.000
G1 X23.983 Y17.265 Z15.500 F480.000
G3 X23.035 Y18.510 Z15.500 I-12.743 J-8.720 K0.000 F480.000
G1 X-18.510 Y-23.035 Z15.500 F480.000
G2 X-19.696 Y-22.029 Z15.500 I9.325 J12.196 K0.000 F480.000
G1 X22.029 Y19.696 Z15.500 F480.000
G3 X20.966 Y20.824 Z15.500 I-11.656 J-9.923 K0.000 F480.000
G1 X-20.824 Y-20.966 Z15.500 F480.000
G2 X-21.895 Y-19.845 Z15.500 I10.518 J11.118 K0.000 F480.000
G1 X19.845 Y21.895 Z15.500 F480.000
G3 X18.666 Y22.908 Z15.500 I-10.579 J-11.116 K0.000 F480.000
G1 X-22.908 Y-18.666 Z15.500 F480.000
G2 X-23.863 Y-17.429 Z15.500 I11.720 J10.033 K0.000 F480.000
G1 X17.429 Y23.863 Z15.500 F480.000
G3 X16.132 Y24.759 Z15.500 I-9.476 J-12.336 K0.000 F480.000
G1 X-24.759 Y-16.132 Z15.500 F480.000
G2 X-25.593 Y-14.774 Z15.500 I12.970 J8.904 K0.000 F480.000
G1 X14.774 Y25.593 Z15.500 F480.000
G3 X13.353 Y26.364 Z15.500 I-8.310 J-13.627 K0.000 F480.000
G1 X-26.364 Y-13.353 Z15.500 F480.000
G2 X-27.068 Y-11.865 Z15.500 I14.313 J7.690 K0.000 F480.000
G1 X11.865 Y27.068 Z15.500 F480.000
G3 X10.308 Y27.703 Z15.500 I-7.035 J-15.037 K0.000 F480.000
G1 X-27.703 Y-10.308 Z15.500 F480.000
G2 X-28.255 Y-8.669 Z15.500 I15.427 J6.114 K0.000 F480.000
G1 X8.669 Y28.255 Z15.500 F480.000
G3 X6.945 Y28.724 Z15.500 I-5.478 J-16.762 K0.000 F480.000
G1 X-28.724 Y-6.945 Z15.500 F480.000
G2 X-29.101 Y-5.130 Z15.500 I17.699 J4.631 K0.000 F480.000
G1 X5.130 Y29.101 Z15.500 F480.000
G3 X3.216 Y29.379 Z15.500 I-3.695 J-18.734 K0.000 F480.000
G1 X-29.379 Y-3.216 Z15.500 F480.000
G2 X-29.530 Y-1.175 Z15.500 I17.702 J2.333 K0.000 F480.000
G1 X1.175 Y29.530 Z15.500 F480.000
G3 X-1.013 Y29.534 Z15.500 I-1.134 J-21.569 K0.000 F480.000
G1 X-29.534 Y1.013 Z15.500 F480.000
G2 X-29.358 Y3.381 Z15.500 I18.840 J-0.208 K0.000 F480.000
G1 X-3.381 Y29.358 Z15.500 F480.000
G3 X-5.985 Y28.946 Z15.500 I1.545 J-18.212 K0.000 F480.000
G1 X-28.946 Y5.985 Z15.500 F480.000
G2 X-28.167 Y8.956 Z15.500 I19.975 J-3.650 K0.000 F480.000
G1 X-8.956 Y28.167 Z15.500 F480.000
G3 X-12.571 Y26.744 Z15.500 I7.663 J-24.766 K0.000 F480.000
G1 X-26.744 Y12.571 Z15.500 F480.000
G2 X-23.204 Y18.303 Z15.500 I25.874 J-12.020 K0.000 F480.000
G1 X-18.303 Y23.204 Z15.500 F480.000
G3 X-23.204 Y18.303 Z15.500 I17.717 J-22.618 K0.000 F480.000
G1 X-23.204 Y18.303 Z15.000 F480.000
G2 X-18.303 Y23.204 Z15.000 I22.618 J-17.717 K0.000 F480.000
G1 X-23.204 Y18.303 Z15.000 F480.000
G3 X-26.744 Y12.571 Z15.000 I22.335 J-17.752 K0.000 F480.000
G1 X-12.571 Y26.744 Z15.000 F480.000
G2 X-8.956 Y28.167 Z15.000 I11.279 J-23.342 K0.000 F480.000
G1 X-28.167 Y8.956 Z15.000 F480.000
G3 X-28.946 Y5.985 Z15.000 I19.196 J-6.621 K0.000 F480.000
G1 X-5.985 Y28.946 Z15.000 F480.000
G2 X-3.381 Y29.358 Z15.000 I4.149 J-17.801 K0.000 F480.000
G1 X-29.358 Y3.381 Z15.000 F480.000
G3 X-29.534 Y1.013 Z15.000 I18.665 J-2.575 K0.000 F480.000
G1 X-1.013 Y29.534 Z15.000 F480.000
G2 X1.175 Y29.530 Z15.000 I1.054 J-21.573 K0.000 F480.000
G1 X-29.530 Y-1.175 Z15.000 F480.000
G3 X-29.379 Y-3.216 Z15.000 I17.853 J0.291 K0.000 F480.000
G1 X3.216 Y29.379 Z15.000 F480.000
G2 X5.130 Y29.101 Z15.000 I-1.781 J-19.012 K0.000 F480.000
G1 X-29.101 Y-5.130 Z15.000 F480.000
G3 X-28.724 Y-6.945 Z15.000 I18.077 J2.817 K0.000 F480.000
G1 X6.945 Y28.724 Z15.000 F480.000
G2 X8.669 Y28.255 Z15.000 I-3.754 J-17.230 K0.000 F480.000
G1 X-28.255 Y-8.669 Z15.000 F480.000
G3 X-27.703 Y-10.308 Z15.000 I15.980 J4.475 K0.000 F480.000
G1 X10.308 Y27.703 Z15.000 F480.000
G2 X11.865 Y27.068 Z15.000 I-5.478 J-15.672 K0.000 F480.000
G1 X-27.068 Y-11.865 Z15.000 F480.000
G3 X-26.364 Y-13.353 Z15.000 I15.018 J6.202 K0.000 F480.000
G1 X13.353 Y26.364 Z15.000 F480.000
G2 X14.774 Y25.593 Z15.000 I-6.889 J-14.397 K0.000 F480.000
G1 X-25.593 Y-14.774 Z15.000 F480.000
G3 X-24.759 Y-16.132 Z15.000 I13.804 J7.546 K0.000 F480.000
G1 X16.132 Y24.759 Z15.000 F480.000
G2 X17.429 Y23.863 Z15.000 I-8.179 J-13.232 K0.000 F480.000
G1 X-23.863 Y-17.429 Z15.000 F480.000
G3 X-22.908 Y-18.666 Z15.000 I12.675 J8.796 K0.000 F480.000
G1 X18.666 Y22.908 Z15.000 F480.000
G2 X19.845 Y21.895 Z15.000 I-9.400 J-12.129 K0.000 F480.000
G1 X-21.895 Y-19.845 Z15.000 F480.000
G3 X-20.824 Y-20.966 Z15.000 I11.589 J9.997 K0.000 F480.000
G1 X20.966 Y20.824 Z15.000 F480.000
G2 X22.029 Y19.696 Z15.000 I-10.593 J-11.051 K0.000 F480.000
G1 X-19.696 Y-22.029 Z15.000 F480.000
G3 X-18.510 Y-23.035 Z15.000 I10.511 J11.190 K0.000 F480.000
G1 X23.035 Y18.510 Z15.000 F480.000
G2 X23.983 Y17.265 Z15.000 I-11.795 J-9.965 K0.000 F480.000
G1 X-17.265 Y-23.983 Z15.000 F480.000
G3 X-15.961 Y-24.871 Z15.000 I9.407 J12.413 K0.000 F480.000
G1 X24.871 Y15.961 Z15.000 F480.000
G2 X25.698 Y14.596 Z15.000 I-13.048 J-8.833 K0.000 F480.000
G1 X-14.596 Y-25.698 Z15.000 F480.000
G3 X-13.167 Y-26.461 Z15.000 I8.238 J13.707 K0.000 F480.000
G1 X26.461 Y13.167 Z15.000 F480.000
G2 X27.157 Y11.672 Z15.000 I-14.396 J-7.615 K0.000 F480.000
G1 X-11.672 Y-27.157 Z15.000 F480.000
G3 X-10.099 Y-27.777 Z15.000 I6.309 J13.712 K0.000 F480.000
G1 X27.777 Y10.099 Z15.000 F480.000
G2 X28.318 Y8.449 Z15.000 I-15.999 J-6.167 K0.000 F480.000
G1 X-8.449 Y-28.318 Z15.000 F480.000
G3 X-6.715 Y-28.777 Z15.000 I5.387 J16.862 K0.000 F480.000
G1 X28.777 Y6.715 Z15.000 F480.000
G2 X29.144 Y4.891 Z15.000 I-17.805 J-4.535 K0.000 F480.000
G1 X-4.891 Y-29.144 Z15.000 F480.000
G3 X-2.964 Y-29.410 Z15.000 I3.536 J18.536 K0.000 F480.000
G1 X29.410 Y2.964 Z15.000 F480.000
G2 X29.537 Y0.899 Z15.000 I-20.297 J-2.283 K0.000 F480.000
G1 X-0.899 Y-29.537 Z15.000 F480.000
G3 X1.303 Y-29.526 Z15.000 I1.000 J21.718 K0.000 F480.000
G1 X29.526 Y-1.303 Z15.000 F480.000
G2 X29.317 Y-3.705 Z15.000 I-17.967 J0.358 K0.000 F480.000
G1 X3.705 Y-29.317 Z15.000 F480.000
G3 X6.353 Y-28.861 Z15.000 I-2.370 J21.683 K0.000 F480.000
G1 X28.861 Y-6.353 Z15.000 F480.000
G2 X28.021 Y-9.385 Z15.000 I-23.865 J4.981 K0.000 F480.000
G1 X9.385 Y-28.021 Z15.000 F480.000
G3 X13.105 Y-26.493 Z15.000 I-8.553 J26.122 K0.000 F480.000
G1 X26.493 Y-13.105 Z15.000 F480.000
G2 X20.366 Y-21.425 Z15.000 I-26.426 J13.047 K0.000 F480.000
G0 Z20.000
G0 X20.366 Y-21.425 Z20.000
G0 X20.366 Y-21.425 Z20.000
G1 X20.366 Y-21.425 Z15.000 F480.000
G2 X-0.000 Y-29.560 Z15.000 I-20.366 J21.425 K0.000 F480.000
G2 X0.000 Y29.560 Z15.000 I0.000 J29.560 K0.000 F480.000
G2 X20.366 Y-21.425 Z15.000 I-0.000 J-29.560 K0.000 F480.000
G1 X20.366 Y-21.425 Z14.800 F480.000
G2 X-0.000 Y-29.560 Z14.800 I-20.366 J21.425 K0.000 F480.000
G2 X0.000 Y29.560 Z14.800 I0.000 J29.560 K0.000 F480.000
G2 X20.366 Y-21.425 Z14.800 I-0.000 J-29.560 K0.000 F480.000
G0 Z20.000
G0 X20.366 Y-21.425 Z20.000
G0 X20.366 Y-21.425 Z20.000
G1 X20.366 Y-21.425 Z14.800 F480.000
G3 X26.493 Y-13.105 Z14.800 I-20.298 J21.366 K0.000 F480.000
G1 X13.105 Y-26.493 Z14.800 F480.000
G2 X9.385 Y-28.021 Z14.800 I-12.273 J24.595 K0.000 F480.000
G1 X28.021 Y-9.385 Z14.800 F480.000
G3 X28.861 Y-6.353 Z14.800 I-23.025 J8.014 K0.000 F480.000
G1 X6.353 Y-28.861 Z14.800 F480.000
G2 X3.705 Y-29.317 Z14.800 I-5.018 J21.227 K0.000 F480.000
G1 X29.317 Y-3.705 Z14.800 F480.000
G3 X29.526 Y-1.303 Z14.800 I-17.758 J2.760 K0.000 F480.000
G1 X1.303 Y-29.526 Z14.800 F480.000
G2 X-0.899 Y-29.537 Z14.800 I-1.202 J21.708 K0.000 F480.000
G1 X29.537 Y0.899 Z14.800 F480.000
G3 X29.410 Y2.964 Z14.800 I-20.424 J-0.218 K0.000 F480.000
G1 X-2.964 Y-29.410 Z14.800 F480.000
G2 X-4.891 Y-29.144 Z14.800 I1.610 J18.801 K0.000 F480.000
G1 X29.144 Y4.891 Z14.800 F480.000
G3 X28.777 Y6.715 Z14.800 I-18.173 J-2.710 K0.000 F480.000
G1 X-6.715 Y-28.777 Z14.800 F480.000
G2 X-8.449 Y-28.318 Z14.800 I3.654 J17.320 K0.000 F480.000
G1 X28.318 Y8.449 Z14.800 F480.000
G3 X27.777 Y10.099 Z14.800 I-16.541 J-4.516 K0.000 F480.000
G1 X-10.099 Y-27.777 Z14.800 F480.000
G2 X-11.672 Y-27.157 Z14.800 I4.737 J14.332 K0.000 F480.000
G1 X27.157 Y11.672 Z14.800 F480.000
G3 X26.461 Y13.167 Z14.800 I-15.093 J-6.119 K0.000 F480.000
G1 X-13.167 Y-26.461 Z14.800 F480.000
G2 X-14.596 Y-25.698 Z14.800 I6.809 J14.470 K0.000 F480.000
G1 X25.698 Y14.596 Z14.800 F480.000
G3 X24.871 Y15.961 Z14.800 I-13.875 J-7.467 K0.000 F480.000
G1 X-15.961 Y-24.871 Z14.800 F480.000
G2 X-17.265 Y-23.983 Z14.800 I8.103 J13.301 K0.000 F480.000
G1 X23.983 Y17.265 Z14.800 F480.000
G3 X23.035 Y18.510 Z14.800 I-12.743 J-8.720 K0.000 F480.000
G1 X-18.510 Y-23.035 Z14.800 F480.000
G2 X-19.696 Y-22.029 Z14.800 I9.325 J12.196 K0.000 F480.000
G1 X22.029 Y19.696 Z14.800 F480.000
G3 X20.966 Y20.824 Z14.800 I-11.656 J-9.923 K0.000 F480.000
G1 X-20.824 Y-20.966 Z14.800 F480.000
G2 X-21.895 Y-19.845 Z14.800 I10.518 J11.118 K0.000 F480.000
G1 X19.845 Y21.895 Z14.800 F480.000
G3 X18.666 Y22.908 Z14.800 I-10.579 J-11.116 K0.000 F480.000
G1 X-22.908 Y-18.666 Z14.800 F480.000
G2 X-23.863 Y-17.429 Z14.800 I11.720 J10.033 K0.000 F480.000
G1 X17.429 Y23.863 Z14.800 F480.000
G3 X16.132 Y24.759 Z14.800 I-9.476 J-12.336 K0.000 F480.000
G1 X-24.759 Y-16.132 Z14.800 F480.000
G2 X-25.593 Y-14.774 Z14.800 I12.970 J8.904 K0.000 F480.000
G1 X14.774 Y25.593 Z14.800 F480.000
G3 X13.353 Y26.364 Z14.800 I-8.310 J-13.627 K0.000 F480.000
G1 X-26.364 Y-13.353 Z14.800 F480.000
G2 X-27.068 Y-11.865 Z14.800 I14.313 J7.690 K0.000 F480.000
G1 X11.865 Y27.068 Z14.800 F480.000
G3 X10.308 Y27.703 Z14.800 I-7.035 J-15.037 K0.000 F480.000
G1 X-27.703 Y-10.308 Z14.800 F480.000
G2 X-28.255 Y-8.669 Z14.800 I15.427 J6.114 K0.000 F480.000
G1 X8.669 Y28.255 Z14.800 F480.000
G3 X6.945 Y28.724 Z14.800 I-5.478 J-16.762 K0.000 F480.000
G1 X-28.724 Y-6.945 Z14.800 F480.000
G2 X-29.101 Y-5.130 Z14.800 I17.699 J4.631 K0.000 F480.000
G1 X5.130 Y29.101 Z14.800 F480.000
G3 X3.216 Y29.379 Z14.800 I-3.695 J-18.734 K0.000 F480.000
G1 X-29.379 Y-3.216 Z14.800 F480.000
G2 X-29.530 Y-1.175 Z14.800 I17.702 J2.333 K0.000 F480.000
G1 X1.175 Y29.530 Z14.800 F480.000
G3 X-1.013 Y29.534 Z14.800 I-1.134 J-21.569 K0.000 F480.000
G1 X-29.534 Y1.013 Z14.800 F480.000
G2 X-29.358 Y3.381 Z14.800 I18.840 J-0.208 K0.000 F480.000
G1 X-3.381 Y29.358 Z14.800 F480.000
G3 X-5.985 Y28.946 Z14.800 I1.545 J-18.212 K0.000 F480.000
G1 X-28.946 Y5.985 Z14.800 F480.000
G2 X-28.167 Y8.956 Z14.800 I19.975 J-3.650 K0.000 F480.000
G1 X-8.956 Y28.167 Z14.800 F480.000
G3 X-12.571 Y26.744 Z14.800 I7.663 J-24.766 K0.000 F480.000
G1 X-26.744 Y12.571 Z14.800 F480.000
G2 X-23.204 Y18.303 Z14.800 I25.874 J-12.020 K0.000 F480.000
G1 X-18.303 Y23.204 Z14.800 F480.000
G3 X-23.204 Y18.303 Z14.800 I17.717 J-22.618 K0.000 F480.000
G0 Z20.000
G0 Z20.000
(Finish operation: MillFace001)
(Begin operation: Pocket_Shape_magnetHole1)
(Path: Pocket_Shape_magnetHole1)
(Pocket_Shape_magnetHole1)
G0 Z20.000
G0 X1.200 Y3.450
G1 X1.200 Y3.450 Z14.300 F480.000
G1 X-0.554 Y3.450 Z14.300 F480.000
G1 X1.207 Y1.690 Z14.300 F480.000
G3 X2.690 Y0.207 Z14.300 I1.528 J0.045 K0.000 F480.000
G1 X2.950 Y-0.054 Z14.300 F480.000
G1 X2.950 Y-0.200 Z14.300 F480.000
G3 X1.732 Y-0.590 Z14.300 I-0.179 J-1.538 K0.000 F480.000
G1 X-1.200 Y2.343 Z14.300 F480.000
G2 X-1.239 Y1.405 Z14.300 I-4.180 J-0.296 K0.000 F480.000
G2 X-1.483 Y0.872 Z14.300 I-1.290 J0.268 K0.000 F480.000
G1 X1.200 Y-1.811 Z14.300 F480.000
G1 X1.200 Y-3.450 Z14.300 F480.000
G1 X1.086 Y-3.450 Z14.300 F480.000
G1 X-1.466 Y-0.899 Z14.300 F480.000
G2 X-1.200 Y-1.750 Z14.300 I-1.200 J-0.842 K0.000 F480.000
G1 X-1.200 Y-2.918 Z14.300 F480.000
G1 X-0.668 Y-3.450 Z14.300 F480.000
G1 X-1.200 Y-3.450 Z14.300 F480.000
G1 X-1.200 Y-2.918 Z14.300 F480.000
G1 X-1.200 Y-2.918 Z14.300 F480.000
G1 X-1.200 Y-1.750 Z14.300 F480.000
G3 X-2.950 Y-0.200 Z14.300 I-1.570 J-0.010 K0.000 F480.000
G1 X-2.950 Y0.200 Z14.300 F480.000
G3 X-1.200 Y1.750 Z14.300 I0.180 J1.560 K0.000 F480.000
G1 X-1.200 Y3.450 Z14.300 F480.000
G1 X1.200 Y3.450 Z14.300 F480.000
G1 X1.200 Y1.750 Z14.300 F480.000
G3 X2.950 Y0.200 Z14.300 I1.570 J0.010 K0.000 F480.000
G1 X2.950 Y-0.200 Z14.300 F480.000
G3 X1.200 Y-1.750 Z14.300 I-0.180 J-1.560 K0.000 F480.000
G1 X1.200 Y-3.450 Z14.300 F480.000
G1 X-1.200 Y-3.450 Z14.300 F480.000
G1 X-1.200 Y-2.918 Z14.300 F480.000
G0 Z20.000
G0 X-1.899 Y-0.466 Z20.000
G0 X-1.899 Y-0.466 Z20.000
G1 X-1.899 Y-0.466 Z14.300 F480.000
G3 X-2.950 Y-0.200 Z14.300 I-0.890 J-1.306 K0.000 F480.000
G1 X-2.950 Y0.200 Z14.300 F480.000
G3 X-2.583 Y0.219 Z14.300 I0.100 J1.637 K0.000 F480.000
G1 X-1.899 Y-0.466 Z14.300 F480.000
G0 Z20.000
G0 X2.690 Y0.207 Z20.000
G0 X2.690 Y0.207 Z20.000
G1 X2.690 Y0.207 Z14.300 F480.000
G3 X2.950 Y0.200 Z14.300 I0.160 J1.152 K0.000 F480.000
G1 X2.950 Y-0.054 Z14.300 F480.000
G1 X2.690 Y0.207 Z14.300 F480.000
G1 X2.690 Y0.207 Z13.800 F480.000
G3 X2.950 Y0.200 Z13.800 I0.160 J1.152 K0.000 F480.000
G1 X2.950 Y-0.054 Z13.800 F480.000
G1 X2.690 Y0.207 Z13.800 F480.000
G0 Z20.000
G0 X2.689 Y0.192 Z20.000
G0 X2.689 Y0.192 Z20.000
G1 X2.689 Y0.192 Z13.800 F480.000
G3 X2.950 Y0.200 Z13.800 I0.081 J1.568 K0.000 F480.000
G1 X2.950 Y-0.200 Z13.800 F480.000
G3 X1.200 Y-1.750 Z13.800 I-0.180 J-1.560 K0.000 F480.000
G1 X1.200 Y-3.450 Z13.800 F480.000
G1 X-1.200 Y-3.450 Z13.800 F480.000
G1 X-1.200 Y-1.750 Z13.800 F480.000
G3 X-2.950 Y-0.200 Z13.800 I-1.570 J-0.010 K0.000 F480.000
G1 X-2.950 Y0.200 Z13.800 F480.000
G3 X-1.200 Y1.750 Z13.800 I0.180 J1.560 K0.000 F480.000
G1 X-1.200 Y3.450 Z13.800 F480.000
G1 X1.200 Y3.450 Z13.800 F480.000
G1 X1.200 Y1.750 Z13.800 F480.000
G3 X2.689 Y0.192 Z13.800 I1.570 J0.010 K0.000 F480.000
G0 Z20.000
G0 X1.200 Y3.450 Z20.000
G0 X1.200 Y3.450 Z20.000
G1 X1.200 Y3.450 Z13.800 F480.000
G1 X-0.554 Y3.450 Z13.800 F480.000
G1 X1.207 Y1.690 Z13.800 F480.000
G3 X2.690 Y0.207 Z13.800 I1.528 J0.045 K0.000 F480.000
G1 X2.950 Y-0.054 Z13.800 F480.000
G1 X2.950 Y-0.200 Z13.800 F480.000
G3 X1.732 Y-0.590 Z13.800 I-0.179 J-1.538 K0.000 F480.000
G1 X-1.200 Y2.343 Z13.800 F480.000
G2 X-1.239 Y1.405 Z13.800 I-4.180 J-0.296 K0.000 F480.000
G2 X-1.483 Y0.872 Z13.800 I-1.290 J0.268 K0.000 F480.000
G1 X1.200 Y-1.811 Z13.800 F480.000
G1 X1.200 Y-3.450 Z13.800 F480.000
G1 X1.086 Y-3.450 Z13.800 F480.000
G1 X-1.466 Y-0.899 Z13.800 F480.000
G2 X-1.200 Y-1.750 Z13.800 I-1.200 J-0.842 K0.000 F480.000
G1 X-1.200 Y-2.918 Z13.800 F480.000
G1 X-0.668 Y-3.450 Z13.800 F480.000
G1 X-1.200 Y-3.450 Z13.800 F480.000
G1 X-1.200 Y-2.918 Z13.800 F480.000
G0 Z20.000
G0 X-1.899 Y-0.466 Z20.000
G0 X-1.899 Y-0.466 Z20.000
G1 X-1.899 Y-0.466 Z13.800 F480.000
G3 X-2.950 Y-0.200 Z13.800 I-0.890 J-1.306 K0.000 F480.000
G1 X-2.950 Y0.200 Z13.800 F480.000
G3 X-2.583 Y0.219 Z13.800 I0.100 J1.637 K0.000 F480.000
G1 X-1.899 Y-0.466 Z13.800 F480.000
G1 X-1.899 Y-0.466 Z13.300 F480.000
G3 X-2.950 Y-0.200 Z13.300 I-0.890 J-1.306 K0.000 F480.000
G1 X-2.950 Y0.200 Z13.300 F480.000
G3 X-2.583 Y0.219 Z13.300 I0.100 J1.637 K0.000 F480.000
G1 X-1.899 Y-0.466 Z13.300 F480.000
G0 Z20.000
G0 X-1.893 Y-0.457 Z20.000
G0 X-1.893 Y-0.457 Z20.000
G1 X-1.893 Y-0.457 Z13.300 F480.000
G3 X-2.950 Y-0.200 Z13.300 I-0.877 J-1.302 K0.000 F480.000
G1 X-2.950 Y0.200 Z13.300 F480.000
G3 X-1.200 Y1.750 Z13.300 I0.180 J1.560 K0.000 F480.000
G1 X-1.200 Y3.450 Z13.300 F480.000
G1 X1.200 Y3.450 Z13.300 F480.000
G1 X1.200 Y1.750 Z13.300 F480.000
G3 X2.950 Y0.200 Z13.300 I1.570 J0.010 K0.000 F480.000
G1 X2.950 Y-0.200 Z13.300 F480.000
G3 X1.200 Y-1.750 Z13.300 I-0.180 J-1.560 K0.000 F480.000
G1 X1.200 Y-3.450 Z13.300 F480.000
G1 X-1.200 Y-3.450 Z13.300 F480.000
G1 X-1.200 Y-1.750 Z13.300 F480.000
G3 X-1.893 Y-0.457 Z13.300 I-1.570 J-0.010 K0.000 F480.000
G0 Z20.000
G0 X-1.200 Y-2.918 Z20.000
G0 X-1.200 Y-2.918 Z20.000
G1 X-1.200 Y-2.918 Z13.300 F480.000
G1 X-1.200 Y-3.450 Z13.300 F480.000
G1 X-0.668 Y-3.450 Z13.300 F480.000
G1 X-1.200 Y-2.918 Z13.300 F480.000
G1 X-1.200 Y-1.750 Z13.300 F480.000
G3 X-1.466 Y-0.899 Z13.300 I-1.466 J0.010 K0.000 F480.000
G1 X1.086 Y-3.450 Z13.300 F480.000
G1 X1.200 Y-3.450 Z13.300 F480.000
G1 X1.200 Y-1.811 Z13.300 F480.000
G1 X-1.483 Y0.872 Z13.300 F480.000
G3 X-1.239 Y1.405 Z13.300 I-1.046 J0.801 K0.000 F480.000
G3 X-1.200 Y2.343 Z13.300 I-4.142 J0.641 K0.000 F480.000
G1 X1.732 Y-0.590 Z13.300 F480.000
G2 X2.950 Y-0.200 Z13.300 I1.039 J-1.149 K0.000 F480.000
G1 X2.950 Y-0.054 Z13.300 F480.000
G1 X2.690 Y0.207 Z13.300 F480.000
G2 X1.207 Y1.690 Z13.300 I0.045 J1.528 K0.000 F480.000
G1 X-0.554 Y3.450 Z13.300 F480.000
G1 X1.200 Y3.450 Z13.300 F480.000
G0 Z20.000
G0 X2.690 Y0.207 Z20.000
G0 X2.690 Y0.207 Z20.000
G1 X2.690 Y0.207 Z13.300 F480.000
G3 X2.950 Y0.200 Z13.300 I0.160 J1.152 K0.000 F480.000
G1 X2.950 Y-0.054 Z13.300 F480.000
G1 X2.690 Y0.207 Z13.300 F480.000
G1 X2.690 Y0.207 Z12.800 F480.000
G3 X2.950 Y0.200 Z12.800 I0.160 J1.152 K0.000 F480.000
G1 X2.950 Y-0.054 Z12.800 F480.000
G1 X2.690 Y0.207 Z12.800 F480.000
G0 Z20.000
G0 X2.689 Y0.192 Z20.000
G0 X2.689 Y0.192 Z20.000
G1 X2.689 Y0.192 Z12.800 F480.000
G3 X2.950 Y0.200 Z12.800 I0.081 J1.568 K0.000 F480.000
G1 X2.950 Y-0.200 Z12.800 F480.000
G3 X1.200 Y-1.750 Z12.800 I-0.180 J-1.560 K0.000 F480.000
G1 X1.200 Y-3.450 Z12.800 F480.000
G1 X-1.200 Y-3.450 Z12.800 F480.000
G1 X-1.200 Y-1.750 Z12.800 F480.000
G3 X-2.950 Y-0.200 Z12.800 I-1.570 J-0.010 K0.000 F480.000
G1 X-2.950 Y0.200 Z12.800 F480.000
G3 X-1.200 Y1.750 Z12.800 I0.180 J1.560 K0.000 F480.000
G1 X-1.200 Y3.450 Z12.800 F480.000
G1 X1.200 Y3.450 Z12.800 F480.000
G1 X1.200 Y1.750 Z12.800 F480.000
G3 X2.689 Y0.192 Z12.800 I1.570 J0.010 K0.000 F480.000
G0 Z20.000
G0 X1.200 Y3.450 Z20.000
G0 X1.200 Y3.450 Z20.000
G1 X1.200 Y3.450 Z12.800 F480.000
G1 X-0.554 Y3.450 Z12.800 F480.000
G1 X1.207 Y1.690 Z12.800 F480.000
G3 X2.690 Y0.207 Z12.800 I1.528 J0.045 K0.000 F480.000
G1 X2.950 Y-0.054 Z12.800 F480.000
G1 X2.950 Y-0.200 Z12.800 F480.000
G3 X1.732 Y-0.590 Z12.800 I-0.179 J-1.538 K0.000 F480.000
G1 X-1.200 Y2.343 Z12.800 F480.000
G2 X-1.239 Y1.405 Z12.800 I-4.180 J-0.296 K0.000 F480.000
G2 X-1.483 Y0.872 Z12.800 I-1.290 J0.268 K0.000 F480.000
G1 X1.200 Y-1.811 Z12.800 F480.000
G1 X1.200 Y-3.450 Z12.800 F480.000
G1 X1.086 Y-3.450 Z12.800 F480.000
G1 X-1.466 Y-0.899 Z12.800 F480.000
G2 X-1.200 Y-1.750 Z12.800 I-1.200 J-0.842 K0.000 F480.000
G1 X-1.200 Y-2.918 Z12.800 F480.000
G1 X-0.668 Y-3.450 Z12.800 F480.000
G1 X-1.200 Y-3.450 Z12.800 F480.000
G1 X-1.200 Y-2.918 Z12.800 F480.000
G0 Z20.000
G0 X-1.899 Y-0.466 Z20.000
G0 X-1.899 Y-0.466 Z20.000
G1 X-1.899 Y-0.466 Z12.800 F480.000
G3 X-2.950 Y-0.200 Z12.800 I-0.890 J-1.306 K0.000 F480.000
G1 X-2.950 Y0.200 Z12.800 F480.000
G3 X-2.583 Y0.219 Z12.800 I0.100 J1.637 K0.000 F480.000
G1 X-1.899 Y-0.466 Z12.800 F480.000
G1 X-1.899 Y-0.466 Z12.300 F480.000
G3 X-2.950 Y-0.200 Z12.300 I-0.890 J-1.306 K0.000 F480.000
G1 X-2.950 Y0.200 Z12.300 F480.000
G3 X-2.583 Y0.219 Z12.300 I0.100 J1.637 K0.000 F480.000
G1 X-1.899 Y-0.466 Z12.300 F480.000
G0 Z20.000
G0 X-1.893 Y-0.457 Z20.000
G0 X-1.893 Y-0.457 Z20.000
G1 X-1.893 Y-0.457 Z12.300 F480.000
G3 X-2.950 Y-0.200 Z12.300 I-0.877 J-1.302 K0.000 F480.000
G1 X-2.950 Y0.200 Z12.300 F480.000
G3 X-1.200 Y1.750 Z12.300 I0.180 J1.560 K0.000 F480.000
G1 X-1.200 Y3.450 Z12.300 F480.000
G1 X1.200 Y3.450 Z12.300 F480.000
G1 X1.200 Y1.750 Z12.300 F480.000
G3 X2.950 Y0.200 Z12.300 I1.570 J0.010 K0.000 F480.000
G1 X2.950 Y-0.200 Z12.300 F480.000
G3 X1.200 Y-1.750 Z12.300 I-0.180 J-1.560 K0.000 F480.000
G1 X1.200 Y-3.450 Z12.300 F480.000
G1 X-1.200 Y-3.450 Z12.300 F480.000
G1 X-1.200 Y-1.750 Z12.300 F480.000
G3 X-1.893 Y-0.457 Z12.300 I-1.570 J-0.010 K0.000 F480.000
G0 Z20.000
G0 X-1.200 Y-2.918 Z20.000
G0 X-1.200 Y-2.918 Z20.000
G1 X-1.200 Y-2.918 Z12.300 F480.000
G1 X-1.200 Y-3.450 Z12.300 F480.000
G1 X-0.668 Y-3.450 Z12.300 F480.000
G1 X-1.200 Y-2.918 Z12.300 F480.000
G1 X-1.200 Y-1.750 Z12.300 F480.000
G3 X-1.466 Y-0.899 Z12.300 I-1.466 J0.010 K0.000 F480.000
G1 X1.086 Y-3.450 Z12.300 F480.000
G1 X1.200 Y-3.450 Z12.300 F480.000
G1 X1.200 Y-1.811 Z12.300 F480.000
G1 X-1.483 Y0.872 Z12.300 F480.000
G3 X-1.239 Y1.405 Z12.300 I-1.046 J0.801 K0.000 F480.000
G3 X-1.200 Y2.343 Z12.300 I-4.142 J0.641 K0.000 F480.000
G1 X1.732 Y-0.590 Z12.300 F480.000
G2 X2.950 Y-0.200 Z12.300 I1.039 J-1.149 K0.000 F480.000
G1 X2.950 Y-0.054 Z12.300 F480.000
G1 X2.690 Y0.207 Z12.300 F480.000
G2 X1.207 Y1.690 Z12.300 I0.045 J1.528 K0.000 F480.000
G1 X-0.554 Y3.450 Z12.300 F480.000
G1 X1.200 Y3.450 Z12.300 F480.000
G0 Z20.000
G0 X2.690 Y0.207 Z20.000
G0 X2.690 Y0.207 Z20.000
G1 X2.690 Y0.207 Z12.300 F480.000
G3 X2.950 Y0.200 Z12.300 I0.160 J1.152 K0.000 F480.000
G1 X2.950 Y-0.054 Z12.300 F480.000
G1 X2.690 Y0.207 Z12.300 F480.000
G1 X2.690 Y0.207 Z11.800 F480.000
G3 X2.950 Y0.200 Z11.800 I0.160 J1.152 K0.000 F480.000
G1 X2.950 Y-0.054 Z11.800 F480.000
G1 X2.690 Y0.207 Z11.800 F480.000
G0 Z20.000
G0 X2.689 Y0.192 Z20.000
G0 X2.689 Y0.192 Z20.000
G1 X2.689 Y0.192 Z11.800 F480.000
G3 X2.950 Y0.200 Z11.800 I0.081 J1.568 K0.000 F480.000
G1 X2.950 Y-0.200 Z11.800 F480.000
G3 X1.200 Y-1.750 Z11.800 I-0.180 J-1.560 K0.000 F480.000
G1 X1.200 Y-3.450 Z11.800 F480.000
G1 X-1.200 Y-3.450 Z11.800 F480.000
G1 X-1.200 Y-1.750 Z11.800 F480.000
G3 X-2.950 Y-0.200 Z11.800 I-1.570 J-0.010 K0.000 F480.000
G1 X-2.950 Y0.200 Z11.800 F480.000
G3 X-1.200 Y1.750 Z11.800 I0.180 J1.560 K0.000 F480.000
G1 X-1.200 Y3.450 Z11.800 F480.000
G1 X1.200 Y3.450 Z11.800 F480.000
G1 X1.200 Y1.750 Z11.800 F480.000
G3 X2.689 Y0.192 Z11.800 I1.570 J0.010 K0.000 F480.000
G0 Z20.000
G0 X1.200 Y3.450 Z20.000
G0 X1.200 Y3.450 Z20.000
G1 X1.200 Y3.450 Z11.800 F480.000
G1 X-0.554 Y3.450 Z11.800 F480.000
G1 X1.207 Y1.690 Z11.800 F480.000
G3 X2.690 Y0.207 Z11.800 I1.528 J0.045 K0.000 F480.000
G1 X2.950 Y-0.054 Z11.800 F480.000
G1 X2.950 Y-0.200 Z11.800 F480.000
G3 X1.732 Y-0.590 Z11.800 I-0.179 J-1.538 K0.000 F480.000
G1 X-1.200 Y2.343 Z11.800 F480.000
G2 X-1.239 Y1.405 Z11.800 I-4.180 J-0.296 K0.000 F480.000
G2 X-1.483 Y0.872 Z11.800 I-1.290 J0.268 K0.000 F480.000
G1 X1.200 Y-1.811 Z11.800 F480.000
G1 X1.200 Y-3.450 Z11.800 F480.000
G1 X1.086 Y-3.450 Z11.800 F480.000
G1 X-1.466 Y-0.899 Z11.800 F480.000
G2 X-1.200 Y-1.750 Z11.800 I-1.200 J-0.842 K0.000 F480.000
G1 X-1.200 Y-2.918 Z11.800 F480.000
G1 X-0.668 Y-3.450 Z11.800 F480.000
G1 X-1.200 Y-3.450 Z11.800 F480.000
G1 X-1.200 Y-2.918 Z11.800 F480.000
G0 Z20.000
G0 X-1.899 Y-0.466 Z20.000
G0 X-1.899 Y-0.466 Z20.000
G1 X-1.899 Y-0.466 Z11.800 F480.000
G3 X-2.950 Y-0.200 Z11.800 I-0.890 J-1.306 K0.000 F480.000
G1 X-2.950 Y0.200 Z11.800 F480.000
G3 X-2.583 Y0.219 Z11.800 I0.100 J1.637 K0.000 F480.000
G1 X-1.899 Y-0.466 Z11.800 F480.000
G1 X-1.899 Y-0.466 Z11.300 F480.000
G3 X-2.950 Y-0.200 Z11.300 I-0.890 J-1.306 K0.000 F480.000
G1 X-2.950 Y0.200 Z11.300 F480.000
G3 X-2.583 Y0.219 Z11.300 I0.100 J1.637 K0.000 F480.000
G1 X-1.899 Y-0.466 Z11.300 F480.000
G0 Z20.000
G0 X-1.893 Y-0.457 Z20.000
G0 X-1.893 Y-0.457 Z20.000
G1 X-1.893 Y-0.457 Z11.300 F480.000
G3 X-2.950 Y-0.200 Z11.300 I-0.877 J-1.302 K0.000 F480.000
G1 X-2.950 Y0.200 Z11.300 F480.000
G3 X-1.200 Y1.750 Z11.300 I0.180 J1.560 K0.000 F480.000
G1 X-1.200 Y3.450 Z11.300 F480.000
G1 X1.200 Y3.450 Z11.300 F480.000
G1 X1.200 Y1.750 Z11.300 F480.000
G3 X2.950 Y0.200 Z11.300 I1.570 J0.010 K0.000 F480.000
G1 X2.950 Y-0.200 Z11.300 F480.000
G3 X1.200 Y-1.750 Z11.300 I-0.180 J-1.560 K0.000 F480.000
G1 X1.200 Y-3.450 Z11.300 F480.000
G1 X-1.200 Y-3.450 Z11.300 F480.000
G1 X-1.200 Y-1.750 Z11.300 F480.000
G3 X-1.893 Y-0.457 Z11.300 I-1.570 J-0.010 K0.000 F480.000
G0 Z20.000
G0 X-1.200 Y-2.918 Z20.000
G0 X-1.200 Y-2.918 Z20.000
G1 X-1.200 Y-2.918 Z11.300 F480.000
G1 X-1.200 Y-3.450 Z11.300 F480.000
G1 X-0.668 Y-3.450 Z11.300 F480.000
G1 X-1.200 Y-2.918 Z11.300 F480.000
G1 X-1.200 Y-1.750 Z11.300 F480.000
G3 X-1.466 Y-0.899 Z11.300 I-1.466 J0.010 K0.000 F480.000
G1 X1.086 Y-3.450 Z11.300 F480.000
G1 X1.200 Y-3.450 Z11.300 F480.000
G1 X1.200 Y-1.811 Z11.300 F480.000
G1 X-1.483 Y0.872 Z11.300 F480.000
G3 X-1.239 Y1.405 Z11.300 I-1.046 J0.801 K0.000 F480.000
G3 X-1.200 Y2.343 Z11.300 I-4.142 J0.641 K0.000 F480.000
G1 X1.732 Y-0.590 Z11.300 F480.000
G2 X2.950 Y-0.200 Z11.300 I1.039 J-1.149 K0.000 F480.000
G1 X2.950 Y-0.054 Z11.300 F480.000
G1 X2.690 Y0.207 Z11.300 F480.000
G2 X1.207 Y1.690 Z11.300 I0.045 J1.528 K0.000 F480.000
G1 X-0.554 Y3.450 Z11.300 F480.000
G1 X1.200 Y3.450 Z11.300 F480.000
G0 Z20.000
G0 X2.690 Y0.207 Z20.000
G0 X2.690 Y0.207 Z20.000
G1 X2.690 Y0.207 Z11.300 F480.000
G3 X2.950 Y0.200 Z11.300 I0.160 J1.152 K0.000 F480.000
G1 X2.950 Y-0.054 Z11.300 F480.000
G1 X2.690 Y0.207 Z11.300 F480.000
G1 X2.690 Y0.207 Z10.800 F480.000
G3 X2.950 Y0.200 Z10.800 I0.160 J1.152 K0.000 F480.000
G1 X2.950 Y-0.054 Z10.800 F480.000
G1 X2.690 Y0.207 Z10.800 F480.000
G0 Z20.000
G0 X2.689 Y0.192 Z20.000
G0 X2.689 Y0.192 Z20.000
G1 X2.689 Y0.192 Z10.800 F480.000
G3 X2.950 Y0.200 Z10.800 I0.081 J1.568 K0.000 F480.000
G1 X2.950 Y-0.200 Z10.800 F480.000
G3 X1.200 Y-1.750 Z10.800 I-0.180 J-1.560 K0.000 F480.000
G1 X1.200 Y-3.450 Z10.800 F480.000
G1 X-1.200 Y-3.450 Z10.800 F480.000
G1 X-1.200 Y-1.750 Z10.800 F480.000
G3 X-2.950 Y-0.200 Z10.800 I-1.570 J-0.010 K0.000 F480.000
G1 X-2.950 Y0.200 Z10.800 F480.000
G3 X-1.200 Y1.750 Z10.800 I0.180 J1.560 K0.000 F480.000
G1 X-1.200 Y3.450 Z10.800 F480.000
G1 X1.200 Y3.450 Z10.800 F480.000
G1 X1.200 Y1.750 Z10.800 F480.000
G3 X2.689 Y0.192 Z10.800 I1.570 J0.010 K0.000 F480.000
G0 Z20.000
G0 X1.200 Y3.450 Z20.000
G0 X1.200 Y3.450 Z20.000
G1 X1.200 Y3.450 Z10.800 F480.000
G1 X-0.554 Y3.450 Z10.800 F480.000
G1 X1.207 Y1.690 Z10.800 F480.000
G3 X2.690 Y0.207 Z10.800 I1.528 J0.045 K0.000 F480.000
G1 X2.950 Y-0.054 Z10.800 F480.000
G1 X2.950 Y-0.200 Z10.800 F480.000
G3 X1.732 Y-0.590 Z10.800 I-0.179 J-1.538 K0.000 F480.000
G1 X-1.200 Y2.343 Z10.800 F480.000
G2 X-1.239 Y1.405 Z10.800 I-4.180 J-0.296 K0.000 F480.000
G2 X-1.483 Y0.872 Z10.800 I-1.290 J0.268 K0.000 F480.000
G1 X1.200 Y-1.811 Z10.800 F480.000
G1 X1.200 Y-3.450 Z10.800 F480.000
G1 X1.086 Y-3.450 Z10.800 F480.000
G1 X-1.466 Y-0.899 Z10.800 F480.000
G2 X-1.200 Y-1.750 Z10.800 I-1.200 J-0.842 K0.000 F480.000
G1 X-1.200 Y-2.918 Z10.800 F480.000
G1 X-0.668 Y-3.450 Z10.800 F480.000
G1 X-1.200 Y-3.450 Z10.800 F480.000
G1 X-1.200 Y-2.918 Z10.800 F480.000
G0 Z20.000
G0 X-1.899 Y-0.466 Z20.000
G0 X-1.899 Y-0.466 Z20.000
G1 X-1.899 Y-0.466 Z10.800 F480.000
G3 X-2.950 Y-0.200 Z10.800 I-0.890 J-1.306 K0.000 F480.000
G1 X-2.950 Y0.200 Z10.800 F480.000
G3 X-2.583 Y0.219 Z10.800 I0.100 J1.637 K0.000 F480.000
G1 X-1.899 Y-0.466 Z10.800 F480.000
G1 X-1.899 Y-0.466 Z10.300 F480.000
G3 X-2.950 Y-0.200 Z10.300 I-0.890 J-1.306 K0.000 F480.000
G1 X-2.950 Y0.200 Z10.300 F480.000
G3 X-2.583 Y0.219 Z10.300 I0.100 J1.637 K0.000 F480.000
G1 X-1.899 Y-0.466 Z10.300 F480.000
G0 Z20.000
G0 X-1.893 Y-0.457 Z20.000
G0 X-1.893 Y-0.457 Z20.000
G1 X-1.893 Y-0.457 Z10.300 F480.000
G3 X-2.950 Y-0.200 Z10.300 I-0.877 J-1.302 K0.000 F480.000
G1 X-2.950 Y0.200 Z10.300 F480.000
G3 X-1.200 Y1.750 Z10.300 I0.180 J1.560 K0.000 F480.000
G1 X-1.200 Y3.450 Z10.300 F480.000
G1 X1.200 Y3.450 Z10.300 F480.000
G1 X1.200 Y1.750 Z10.300 F480.000
G3 X2.950 Y0.200 Z10.300 I1.570 J0.010 K0.000 F480.000
G1 X2.950 Y-0.200 Z10.300 F480.000
G3 X1.200 Y-1.750 Z10.300 I-0.180 J-1.560 K0.000 F480.000
G1 X1.200 Y-3.450 Z10.300 F480.000
G1 X-1.200 Y-3.450 Z10.300 F480.000
G1 X-1.200 Y-1.750 Z10.300 F480.000
G3 X-1.893 Y-0.457 Z10.300 I-1.570 J-0.010 K0.000 F480.000
G0 Z20.000
G0 X-1.200 Y-2.918 Z20.000
G0 X-1.200 Y-2.918 Z20.000
G1 X-1.200 Y-2.918 Z10.300 F480.000
G1 X-1.200 Y-3.450 Z10.300 F480.000
G1 X-0.668 Y-3.450 Z10.300 F480.000
G1 X-1.200 Y-2.918 Z10.300 F480.000
G1 X-1.200 Y-1.750 Z10.300 F480.000
G3 X-1.466 Y-0.899 Z10.300 I-1.466 J0.010 K0.000 F480.000
G1 X1.086 Y-3.450 Z10.300 F480.000
G1 X1.200 Y-3.450 Z10.300 F480.000
G1 X1.200 Y-1.811 Z10.300 F480.000
G1 X-1.483 Y0.872 Z10.300 F480.000
G3 X-1.239 Y1.405 Z10.300 I-1.046 J0.801 K0.000 F480.000
G3 X-1.200 Y2.343 Z10.300 I-4.142 J0.641 K0.000 F480.000
G1 X1.732 Y-0.590 Z10.300 F480.000
G2 X2.950 Y-0.200 Z10.300 I1.039 J-1.149 K0.000 F480.000
G1 X2.950 Y-0.054 Z10.300 F480.000
G1 X2.690 Y0.207 Z10.300 F480.000
G2 X1.207 Y1.690 Z10.300 I0.045 J1.528 K0.000 F480.000
G1 X-0.554 Y3.450 Z10.300 F480.000
G1 X1.200 Y3.450 Z10.300 F480.000
G0 Z20.000
G0 X2.690 Y0.207 Z20.000
G0 X2.690 Y0.207 Z20.000
G1 X2.690 Y0.207 Z10.300 F480.000
G3 X2.950 Y0.200 Z10.300 I0.160 J1.152 K0.000 F480.000
G1 X2.950 Y-0.054 Z10.300 F480.000
G1 X2.690 Y0.207 Z10.300 F480.000
G1 X2.690 Y0.207 Z9.800 F480.000
G3 X2.950 Y0.200 Z9.800 I0.160 J1.152 K0.000 F480.000
G1 X2.950 Y-0.054 Z9.800 F480.000
G1 X2.690 Y0.207 Z9.800 F480.000
G0 Z20.000
G0 X2.689 Y0.192 Z20.000
G0 X2.689 Y0.192 Z20.000
G1 X2.689 Y0.192 Z9.800 F480.000
G3 X2.950 Y0.200 Z9.800 I0.081 J1.568 K0.000 F480.000
G1 X2.950 Y-0.200 Z9.800 F480.000
G3 X1.200 Y-1.750 Z9.800 I-0.180 J-1.560 K0.000 F480.000
G1 X1.200 Y-3.450 Z9.800 F480.000
G1 X-1.200 Y-3.450 Z9.800 F480.000
G1 X-1.200 Y-1.750 Z9.800 F480.000
G3 X-2.950 Y-0.200 Z9.800 I-1.570 J-0.010 K0.000 F480.000
G1 X-2.950 Y0.200 Z9.800 F480.000
G3 X-1.200 Y1.750 Z9.800 I0.180 J1.560 K0.000 F480.000
G1 X-1.200 Y3.450 Z9.800 F480.000
G1 X1.200 Y3.450 Z9.800 F480.000
G1 X1.200 Y1.750 Z9.800 F480.000
G3 X2.689 Y0.192 Z9.800 I1.570 J0.010 K0.000 F480.000
G0 Z20.000
G0 X1.200 Y3.450 Z20.000
G0 X1.200 Y3.450 Z20.000
G1 X1.200 Y3.450 Z9.800 F480.000
G1 X-0.554 Y3.450 Z9.800 F480.000
G1 X1.207 Y1.690 Z9.800 F480.000
G3 X2.690 Y0.207 Z9.800 I1.528 J0.045 K0.000 F480.000
G1 X2.950 Y-0.054 Z9.800 F480.000
G1 X2.950 Y-0.200 Z9.800 F480.000
G3 X1.732 Y-0.590 Z9.800 I-0.179 J-1.538 K0.000 F480.000
G1 X-1.200 Y2.343 Z9.800 F480.000
G2 X-1.239 Y1.405 Z9.800 I-4.180 J-0.296 K0.000 F480.000
G2 X-1.483 Y0.872 Z9.800 I-1.290 J0.268 K0.000 F480.000
G1 X1.200 Y-1.811 Z9.800 F480.000
G1 X1.200 Y-3.450 Z9.800 F480.000
G1 X1.086 Y-3.450 Z9.800 F480.000
G1 X-1.466 Y-0.899 Z9.800 F480.000
G2 X-1.200 Y-1.750 Z9.800 I-1.200 J-0.842 K0.000 F480.000
G1 X-1.200 Y-2.918 Z9.800 F480.000
G1 X-0.668 Y-3.450 Z9.800 F480.000
G1 X-1.200 Y-3.450 Z9.800 F480.000
G1 X-1.200 Y-2.918 Z9.800 F480.000
G0 Z20.000
G0 X-1.899 Y-0.466 Z20.000
G0 X-1.899 Y-0.466 Z20.000
G1 X-1.899 Y-0.466 Z9.800 F480.000
G3 X-2.950 Y-0.200 Z9.800 I-0.890 J-1.306 K0.000 F480.000
G1 X-2.950 Y0.200 Z9.800 F480.000
G3 X-2.583 Y0.219 Z9.800 I0.100 J1.637 K0.000 F480.000
G1 X-1.899 Y-0.466 Z9.800 F480.000
G1 X-1.899 Y-0.466 Z9.300 F480.000
G3 X-2.950 Y-0.200 Z9.300 I-0.890 J-1.306 K0.000 F480.000
G1 X-2.950 Y0.200 Z9.300 F480.000
G3 X-2.583 Y0.219 Z9.300 I0.100 J1.637 K0.000 F480.000
G1 X-1.899 Y-0.466 Z9.300 F480.000
G0 Z20.000
G0 X-1.893 Y-0.457 Z20.000
G0 X-1.893 Y-0.457 Z20.000
G1 X-1.893 Y-0.457 Z9.300 F480.000
G3 X-2.950 Y-0.200 Z9.300 I-0.877 J-1.302 K0.000 F480.000
G1 X-2.950 Y0.200 Z9.300 F480.000
G3 X-1.200 Y1.750 Z9.300 I0.180 J1.560 K0.000 F480.000
G1 X-1.200 Y3.450 Z9.300 F480.000
G1 X1.200 Y3.450 Z9.300 F480.000
G1 X1.200 Y1.750 Z9.300 F480.000
G3 X2.950 Y0.200 Z9.300 I1.570 J0.010 K0.000 F480.000
G1 X2.950 Y-0.200 Z9.300 F480.000
G3 X1.200 Y-1.750 Z9.300 I-0.180 J-1.560 K0.000 F480.000
G1 X1.200 Y-3.450 Z9.300 F480.000
G1 X-1.200 Y-3.450 Z9.300 F480.000
G1 X-1.200 Y-1.750 Z9.300 F480.000
G3 X-1.893 Y-0.457 Z9.300 I-1.570 J-0.010 K0.000 F480.000
G0 Z20.000
G0 X-1.200 Y-2.918 Z20.000
G0 X-1.200 Y-2.918 Z20.000
G1 X-1.200 Y-2.918 Z9.300 F480.000
G1 X-1.200 Y-3.450 Z9.300 F480.000
G1 X-0.668 Y-3.450 Z9.300 F480.000
G1 X-1.200 Y-2.918 Z9.300 F480.000
G1 X-1.200 Y-1.750 Z9.300 F480.000
G3 X-1.466 Y-0.899 Z9.300 I-1.466 J0.010 K0.000 F480.000
G1 X1.086 Y-3.450 Z9.300 F480.000
G1 X1.200 Y-3.450 Z9.300 F480.000
G1 X1.200 Y-1.811 Z9.300 F480.000
G1 X-1.483 Y0.872 Z9.300 F480.000
G3 X-1.239 Y1.405 Z9.300 I-1.046 J0.801 K0.000 F480.000
G3 X-1.200 Y2.343 Z9.300 I-4.142 J0.641 K0.000 F480.000
G1 X1.732 Y-0.590 Z9.300 F480.000
G2 X2.950 Y-0.200 Z9.300 I1.039 J-1.149 K0.000 F480.000
G1 X2.950 Y-0.054 Z9.300 F480.000
G1 X2.690 Y0.207 Z9.300 F480.000
G2 X1.207 Y1.690 Z9.300 I0.045 J1.528 K0.000 F480.000
G1 X-0.554 Y3.450 Z9.300 F480.000
G1 X1.200 Y3.450 Z9.300 F480.000
G0 Z20.000
G0 X2.690 Y0.207 Z20.000
G0 X2.690 Y0.207 Z20.000
G1 X2.690 Y0.207 Z9.300 F480.000
G3 X2.950 Y0.200 Z9.300 I0.160 J1.152 K0.000 F480.000
G1 X2.950 Y-0.054 Z9.300 F480.000
G1 X2.690 Y0.207 Z9.300 F480.000
G1 X2.690 Y0.207 Z8.800 F480.000
G3 X2.950 Y0.200 Z8.800 I0.160 J1.152 K0.000 F480.000
G1 X2.950 Y-0.054 Z8.800 F480.000
G1 X2.690 Y0.207 Z8.800 F480.000
G0 Z20.000
G0 X2.689 Y0.192 Z20.000
G0 X2.689 Y0.192 Z20.000
G1 X2.689 Y0.192 Z8.800 F480.000
G3 X2.950 Y0.200 Z8.800 I0.081 J1.568 K0.000 F480.000
G1 X2.950 Y-0.200 Z8.800 F480.000
G3 X1.200 Y-1.750 Z8.800 I-0.180 J-1.560 K0.000 F480.000
G1 X1.200 Y-3.450 Z8.800 F480.000
G1 X-1.200 Y-3.450 Z8.800 F480.000
G1 X-1.200 Y-1.750 Z8.800 F480.000
G3 X-2.950 Y-0.200 Z8.800 I-1.570 J-0.010 K0.000 F480.000
G1 X-2.950 Y0.200 Z8.800 F480.000
G3 X-1.200 Y1.750 Z8.800 I0.180 J1.560 K0.000 F480.000
G1 X-1.200 Y3.450 Z8.800 F480.000
G1 X1.200 Y3.450 Z8.800 F480.000
G1 X1.200 Y1.750 Z8.800 F480.000
G3 X2.689 Y0.192 Z8.800 I1.570 J0.010 K0.000 F480.000
G0 Z20.000
G0 X1.200 Y3.450 Z20.000
G0 X1.200 Y3.450 Z20.000
G1 X1.200 Y3.450 Z8.800 F480.000
G1 X-0.554 Y3.450 Z8.800 F480.000
G1 X1.207 Y1.690 Z8.800 F480.000
G3 X2.690 Y0.207 Z8.800 I1.528 J0.045 K0.000 F480.000
G1 X2.950 Y-0.054 Z8.800 F480.000
G1 X2.950 Y-0.200 Z8.800 F480.000
G3 X1.732 Y-0.590 Z8.800 I-0.179 J-1.538 K0.000 F480.000
G1 X-1.200 Y2.343 Z8.800 F480.000
G2 X-1.239 Y1.405 Z8.800 I-4.180 J-0.296 K0.000 F480.000
G2 X-1.483 Y0.872 Z8.800 I-1.290 J0.268 K0.000 F480.000
G1 X1.200 Y-1.811 Z8.800 F480.000
G1 X1.200 Y-3.450 Z8.800 F480.000
G1 X1.086 Y-3.450 Z8.800 F480.000
G1 X-1.466 Y-0.899 Z8.800 F480.000
G2 X-1.200 Y-1.750 Z8.800 I-1.200 J-0.842 K0.000 F480.000
G1 X-1.200 Y-2.918 Z8.800 F480.000
G1 X-0.668 Y-3.450 Z8.800 F480.000
G1 X-1.200 Y-3.450 Z8.800 F480.000
G1 X-1.200 Y-2.918 Z8.800 F480.000
G0 Z20.000
G0 X-1.899 Y-0.466 Z20.000
G0 X-1.899 Y-0.466 Z20.000
G1 X-1.899 Y-0.466 Z8.800 F480.000
G3 X-2.950 Y-0.200 Z8.800 I-0.890 J-1.306 K0.000 F480.000
G1 X-2.950 Y0.200 Z8.800 F480.000
G3 X-2.583 Y0.219 Z8.800 I0.100 J1.637 K0.000 F480.000
G1 X-1.899 Y-0.466 Z8.800 F480.000
G1 X-1.899 Y-0.466 Z8.300 F480.000
G3 X-2.950 Y-0.200 Z8.300 I-0.890 J-1.306 K0.000 F480.000
G1 X-2.950 Y0.200 Z8.300 F480.000
G3 X-2.583 Y0.219 Z8.300 I0.100 J1.637 K0.000 F480.000
G1 X-1.899 Y-0.466 Z8.300 F480.000
G0 Z20.000
G0 X-1.893 Y-0.457 Z20.000
G0 X-1.893 Y-0.457 Z20.000
G1 X-1.893 Y-0.457 Z8.300 F480.000
G3 X-2.950 Y-0.200 Z8.300 I-0.877 J-1.302 K0.000 F480.000
G1 X-2.950 Y0.200 Z8.300 F480.000
G3 X-1.200 Y1.750 Z8.300 I0.180 J1.560 K0.000 F480.000
G1 X-1.200 Y3.450 Z8.300 F480.000
G1 X1.200 Y3.450 Z8.300 F480.000
G1 X1.200 Y1.750 Z8.300 F480.000
G3 X2.950 Y0.200 Z8.300 I1.570 J0.010 K0.000 F480.000
G1 X2.950 Y-0.200 Z8.300 F480.000
G3 X1.200 Y-1.750 Z8.300 I-0.180 J-1.560 K0.000 F480.000
G1 X1.200 Y-3.450 Z8.300 F480.000
G1 X-1.200 Y-3.450 Z8.300 F480.000
G1 X-1.200 Y-1.750 Z8.300 F480.000
G3 X-1.893 Y-0.457 Z8.300 I-1.570 J-0.010 K0.000 F480.000
G0 Z20.000
G0 X-1.200 Y-2.918 Z20.000
G0 X-1.200 Y-2.918 Z20.000
G1 X-1.200 Y-2.918 Z8.300 F480.000
G1 X-1.200 Y-3.450 Z8.300 F480.000
G1 X-0.668 Y-3.450 Z8.300 F480.000
G1 X-1.200 Y-2.918 Z8.300 F480.000
G1 X-1.200 Y-1.750 Z8.300 F480.000
G3 X-1.466 Y-0.899 Z8.300 I-1.466 J0.010 K0.000 F480.000
G1 X1.086 Y-3.450 Z8.300 F480.000
G1 X1.200 Y-3.450 Z8.300 F480.000
G1 X1.200 Y-1.811 Z8.300 F480.000
G1 X-1.483 Y0.872 Z8.300 F480.000
G3 X-1.239 Y1.405 Z8.300 I-1.046 J0.801 K0.000 F480.000
G3 X-1.200 Y2.343 Z8.300 I-4.142 J0.641 K0.000 F480.000
G1 X1.732 Y-0.590 Z8.300 F480.000
G2 X2.950 Y-0.200 Z8.300 I1.039 J-1.149 K0.000 F480.000
G1 X2.950 Y-0.054 Z8.300 F480.000
G1 X2.690 Y0.207 Z8.300 F480.000
G2 X1.207 Y1.690 Z8.300 I0.045 J1.528 K0.000 F480.000
G1 X-0.554 Y3.450 Z8.300 F480.000
G1 X1.200 Y3.450 Z8.300 F480.000
G0 Z20.000
G0 X2.690 Y0.207 Z20.000
G0 X2.690 Y0.207 Z20.000
G1 X2.690 Y0.207 Z8.300 F480.000
G3 X2.950 Y0.200 Z8.300 I0.160 J1.152 K0.000 F480.000
G1 X2.950 Y-0.054 Z8.300 F480.000
G1 X2.690 Y0.207 Z8.300 F480.000
G1 X2.690 Y0.207 Z7.800 F480.000
G3 X2.950 Y0.200 Z7.800 I0.160 J1.152 K0.000 F480.000
G1 X2.950 Y-0.054 Z7.800 F480.000
G1 X2.690 Y0.207 Z7.800 F480.000
G0 Z20.000
G0 X2.689 Y0.192 Z20.000
G0 X2.689 Y0.192 Z20.000
G1 X2.689 Y0.192 Z7.800 F480.000
G3 X2.950 Y0.200 Z7.800 I0.081 J1.568 K0.000 F480.000
G1 X2.950 Y-0.200 Z7.800 F480.000
G3 X1.200 Y-1.750 Z7.800 I-0.180 J-1.560 K0.000 F480.000
G1 X1.200 Y-3.450 Z7.800 F480.000
G1 X-1.200 Y-3.450 Z7.800 F480.000
G1 X-1.200 Y-1.750 Z7.800 F480.000
G3 X-2.950 Y-0.200 Z7.800 I-1.570 J-0.010 K0.000 F480.000
G1 X-2.950 Y0.200 Z7.800 F480.000
G3 X-1.200 Y1.750 Z7.800 I0.180 J1.560 K0.000 F480.000
G1 X-1.200 Y3.450 Z7.800 F480.000
G1 X1.200 Y3.450 Z7.800 F480.000
G1 X1.200 Y1.750 Z7.800 F480.000
G3 X2.689 Y0.192 Z7.800 I1.570 J0.010 K0.000 F480.000
G0 Z20.000
G0 X1.200 Y3.450 Z20.000
G0 X1.200 Y3.450 Z20.000
G1 X1.200 Y3.450 Z7.800 F480.000
G1 X-0.554 Y3.450 Z7.800 F480.000
G1 X1.207 Y1.690 Z7.800 F480.000
G3 X2.690 Y0.207 Z7.800 I1.528 J0.045 K0.000 F480.000
G1 X2.950 Y-0.054 Z7.800 F480.000
G1 X2.950 Y-0.200 Z7.800 F480.000
G3 X1.732 Y-0.590 Z7.800 I-0.179 J-1.538 K0.000 F480.000
G1 X-1.200 Y2.343 Z7.800 F480.000
G2 X-1.239 Y1.405 Z7.800 I-4.180 J-0.296 K0.000 F480.000
G2 X-1.483 Y0.872 Z7.800 I-1.290 J0.268 K0.000 F480.000
G1 X1.200 Y-1.811 Z7.800 F480.000
G1 X1.200 Y-3.450 Z7.800 F480.000
G1 X1.086 Y-3.450 Z7.800 F480.000
G1 X-1.466 Y-0.899 Z7.800 F480.000
G2 X-1.200 Y-1.750 Z7.800 I-1.200 J-0.842 K0.000 F480.000
G1 X-1.200 Y-2.918 Z7.800 F480.000
G1 X-0.668 Y-3.450 Z7.800 F480.000
G1 X-1.200 Y-3.450 Z7.800 F480.000
G1 X-1.200 Y-2.918 Z7.800 F480.000
G0 Z20.000
G0 X-1.899 Y-0.466 Z20.000
G0 X-1.899 Y-0.466 Z20.000
G1 X-1.899 Y-0.466 Z7.800 F480.000
G3 X-2.950 Y-0.200 Z7.800 I-0.890 J-1.306 K0.000 F480.000
G1 X-2.950 Y0.200 Z7.800 F480.000
G3 X-2.583 Y0.219 Z7.800 I0.100 J1.637 K0.000 F480.000
G1 X-1.899 Y-0.466 Z7.800 F480.000
G0 Z20.000
G0 Z20.000
(Finish operation: Pocket_Shape_magnetHole1)
(Begin operation: Pocket_Shape_magnetHole2)
(Path: Pocket_Shape_magnetHole2)
(Pocket_Shape_magnetHole2)
G0 Z20.000
G0 X2.950 Y0.200
G1 X2.950 Y0.200 Z7.300 F480.000
G1 X0.758 Y0.200 Z7.300 F480.000
G1 X1.158 Y-0.200 Z7.300 F480.000
G1 X-1.034 Y-0.200 Z7.300 F480.000
G1 X-1.434 Y0.200 Z7.300 F480.000
G1 X-2.950 Y0.200 Z7.300 F480.000
G1 X-2.950 Y-0.200 Z7.300 F480.000
G1 X-1.034 Y-0.200 Z7.300 F480.000
G1 X-1.034 Y-0.200 Z6.800 F480.000
G1 X-2.950 Y-0.200 Z6.800 F480.000
G1 X-2.950 Y0.200 Z6.800 F480.000
G1 X-1.434 Y0.200 Z6.800 F480.000
G1 X-1.034 Y-0.200 Z6.800 F480.000
G1 X1.158 Y-0.200 Z6.800 F480.000
G1 X0.758 Y0.200 Z6.800 F480.000
G1 X2.950 Y0.200 Z6.800 F480.000
G0 Z20.000
G0 Z20.000
(Finish operation: Pocket_Shape_magnetHole2)
(Begin operation: Pocket_Shape_ringLevel)
(Path: Pocket_Shape_ringLevel)
(Pocket_Shape_ringLevel)
G0 Z20.000
G0 X16.162 Y12.526
G1 X16.162 Y12.526 Z14.300 F480.000
G2 X20.285 Y2.571 Z14.300 I-16.118 J-12.507 K0.000 F480.000
G3 X20.285 Y-2.571 Z14.300 I1.694 J-2.571 K0.000 F480.000
G2 X16.162 Y-12.526 Z14.300 I-20.241 J2.553 K0.000 F480.000
G3 X12.526 Y-16.162 Z14.300 I-0.620 J-3.016 K0.000 F480.000
G2 X2.571 Y-20.285 Z14.300 I-12.507 J16.118 K0.000 F480.000
G3 X-2.571 Y-20.285 Z14.300 I-2.571 J-1.694 K0.000 F480.000
G2 X-12.526 Y-16.162 Z14.300 I2.553 J20.241 K0.000 F480.000
G3 X-16.162 Y-12.526 Z14.300 I-3.016 J0.620 K0.000 F480.000
G2 X-20.285 Y-2.571 Z14.300 I16.118 J12.507 K0.000 F480.000
G3 X-20.285 Y2.571 Z14.300 I-1.694 J2.571 K0.000 F480.000
G2 X-16.162 Y12.526 Z14.300 I20.241 J-2.553 K0.000 F480.000
G3 X-12.526 Y16.162 Z14.300 I0.620 J3.016 K0.000 F480.000
G2 X-2.571 Y20.285 Z14.300 I12.507 J-16.118 K0.000 F480.000
G3 X2.571 Y20.285 Z14.300 I2.571 J1.694 K0.000 F480.000
G2 X12.526 Y16.162 Z14.300 I-2.553 J-20.241 K0.000 F480.000
G3 X16.162 Y12.526 Z14.300 I3.016 J-0.620 K0.000 F480.000
G1 X16.162 Y12.526 Z14.300 F480.000
G2 X12.526 Y16.162 Z14.300 I-0.620 J3.016 K0.000 F480.000
G3 X7.462 Y19.034 Z14.300 I-12.364 J-15.900 K0.000 F480.000
G1 X19.034 Y7.462 Z14.300 F480.000
G2 X19.978 Y4.326 Z14.300 I-17.222 J-6.893 K0.000 F480.000
G1 X4.326 Y19.978 Z14.300 F480.000
G3 X2.571 Y20.285 Z14.300 I-2.887 J-11.306 K0.000 F480.000
G2 X2.243 Y19.869 Z14.300 I-1.584 J0.914 K0.000 F480.000
G1 X19.869 Y2.243 Z14.300 F480.000
G3 X19.036 Y0.884 Z14.300 I2.078 J-2.209 K0.000 F480.000
G1 X0.884 Y19.036 Z14.300 F480.000
G2 X-1.672 Y19.400 Z14.300 I-0.887 J2.931 K0.000 F480.000
G1 X19.400 Y-1.672 Z14.300 F480.000
G3 X20.285 Y-2.571 Z14.300 I2.455 J1.532 K0.000 F480.000
G2 X19.957 Y-4.421 Z14.300 I-15.206 J1.747 K0.000 F480.000
G1 X8.607 Y6.929 Z14.300 F480.000
G2 X10.733 Y2.611 Z14.300 I-8.534 J-6.884 K0.000 F480.000
G1 X19.500 Y-6.156 Z14.300 F480.000
G2 X18.911 Y-7.759 Z14.300 I-13.958 J4.222 K0.000 F480.000
G1 X11.040 Y0.111 Z14.300 F480.000
G2 X10.873 Y-1.914 Z14.300 I-9.000 J-0.277 K0.000 F480.000
G1 X18.224 Y-9.265 Z14.300 F480.000
G2 X17.439 Y-10.671 Z14.300 I-10.822 J5.126 K0.000 F480.000
G1 X10.421 Y-3.654 Z14.300 F480.000
G2 X9.758 Y-5.183 Z14.300 I-9.315 J3.132 K0.000 F480.000
G1 X16.559 Y-11.984 Z14.300 F480.000
G2 X16.162 Y-12.526 Z14.300 I-4.817 J3.113 K0.000 F480.000
G3 X14.915 Y-12.532 Z14.300 I-0.610 J-2.835 K0.000 F480.000
G1 X8.907 Y-6.524 Z14.300 F480.000
G2 X7.907 Y-7.715 Z14.300 I-7.486 J5.270 K0.000 F480.000
G1 X13.465 Y-13.273 Z14.300 F480.000
G3 X12.607 Y-14.608 Z14.300 I2.018 J-2.238 K0.000 F480.000
G1 X6.743 Y-8.744 Z14.300 F480.000
G2 X5.425 Y-9.618 Z14.300 I-5.266 J6.507 K0.000 F480.000
G1 X12.206 Y-16.398 Z14.300 F480.000
G2 X10.905 Y-17.289 Z14.300 I-8.245 J10.646 K0.000 F480.000
G1 X3.938 Y-10.323 Z14.300 F480.000
G2 X2.237 Y-10.814 Z14.300 I-3.648 J9.457 K0.000 F480.000
G1 X9.519 Y-18.096 Z14.300 F480.000
G2 X8.030 Y-18.799 Z14.300 I-6.397 J11.635 K0.000 F480.000
G1 X0.271 Y-11.039 Z14.300 F480.000
G2 X-2.120 Y-10.840 Z14.300 I-0.358 J10.163 K0.000 F480.000
G1 X6.441 Y-19.401 Z14.300 F480.000
G2 X4.735 Y-19.888 Z14.300 I-4.273 J11.755 K0.000 F480.000
G1 X-5.666 Y-9.487 Z14.300 F480.000
G2 X-9.459 Y-5.694 Z14.300 I5.567 J9.359 K0.000 F480.000
G1 X-19.888 Y4.735 Z14.300 F480.000
G3 X-20.238 Y2.893 Z14.300 I15.527 J-3.905 K0.000 F480.000
G1 X2.893 Y-20.238 Z14.300 F480.000
G2 X2.571 Y-20.285 Z14.300 I-0.567 J2.715 K0.000 F480.000
G3 X-0.580 Y-18.957 Z14.300 I-2.567 J-1.688 K0.000 F480.000
G1 X-18.957 Y-0.580 Z14.300 F480.000
G2 X-19.681 Y-2.048 Z14.300 I-2.968 J0.552 K0.000 F480.000
G1 X-2.048 Y-19.681 Z14.300 F480.000
G3 X-2.571 Y-20.285 Z14.300 I1.485 J-1.816 K0.000 F480.000
G2 X-3.835 Y-20.086 Z14.300 I0.990 J10.376 K0.000 F480.000
G1 X-20.086 Y-3.835 Z14.300 F480.000
G3 X-19.257 Y-6.856 Z14.300 I17.607 J3.206 K0.000 F480.000
G1 X-6.856 Y-19.257 Z14.300 F480.000
G2 X-11.212 Y-17.093 Z14.300 I6.386 J18.321 K0.000 F480.000
G2 X-12.526 Y-16.162 Z14.300 I6.911 J11.145 K0.000 F480.000
G3 X-12.469 Y-15.836 Z14.300 I-2.117 J0.534 K0.000 F480.000
G1 X-11.212 Y-17.093 Z14.300 F480.000
G0 Z20.000
G0 X-15.836 Y-12.469 Z20.000
G0 X-15.836 Y-12.469 Z20.000
G1 X-15.836 Y-12.469 Z14.300 F480.000
G3 X-16.162 Y-12.526 Z14.300 I0.208 J-2.174 K0.000 F480.000
G2 X-17.093 Y-11.212 Z14.300 I8.654 J7.119 K0.000 F480.000
G1 X-15.836 Y-12.469 Z14.300 F480.000
G0 Z20.000
G0 X-8.681 Y-6.836 Z20.000
G0 X-8.681 Y-6.836 Z20.000
G1 X-8.681 Y-6.836 Z14.300 F480.000
G3 X11.040 Y0.426 Z14.300 I8.681 J6.835 K0.000 F480.000
G3 X-0.426 Y11.042 Z14.300 I-11.040 J-0.425 K0.000 F480.000
G3 X-11.040 Y-0.426 Z14.300 I0.426 J-11.040 K0.000 F480.000
G3 X-8.681 Y-6.836 Z14.300 I11.040 J0.425 K0.000 F480.000
G0 Z20.000
G0 X-19.888 Y4.735 Z20.000
G0 X-19.888 Y4.735 Z20.000
G1 X-19.888 Y4.735 Z14.300 F480.000
G1 X-9.459 Y-5.694 Z14.300 F480.000
G2 X-10.835 Y-2.126 Z14.300 I8.989 J5.516 K0.000 F480.000
G1 X-19.401 Y6.441 Z14.300 F480.000
G2 X-18.799 Y8.030 Z14.300 I13.849 J-4.343 K0.000 F480.000
G1 X-11.040 Y0.272 Z14.300 F480.000
G2 X-10.815 Y2.238 Z14.300 I9.076 J-0.046 K0.000 F480.000
G1 X-18.096 Y9.519 Z14.300 F480.000
G2 X-17.289 Y10.905 Z14.300 I12.211 J-6.186 K0.000 F480.000
G1 X-10.317 Y3.932 Z14.300 F480.000
G2 X-9.619 Y5.426 Z14.300 I8.206 J-2.922 K0.000 F480.000
G1 X-16.398 Y12.206 Z14.300 F480.000
G2 X-16.162 Y12.526 Z14.300 I2.845 J-1.853 K0.000 F480.000
G3 X-14.608 Y12.607 Z14.300 I0.621 J3.001 K0.000 F480.000
G1 X-8.746 Y6.745 Z14.300 F480.000
G2 X-7.711 Y7.902 Z14.300 I6.854 J-5.090 K0.000 F480.000
G1 X-13.273 Y13.465 Z14.300 F480.000
G3 X-12.532 Y14.915 Z14.300 I-2.266 J2.073 K0.000 F480.000
G1 X-6.530 Y8.913 Z14.300 F480.000
G2 X-5.176 Y9.752 Z14.300 I5.645 J-7.601 K0.000 F480.000
G1 X-11.984 Y16.559 Z14.300 F480.000
G2 X-10.671 Y17.439 Z14.300 I8.152 J-10.751 K0.000 F480.000
G1 X-3.654 Y10.421 Z14.300 F480.000
G2 X-1.921 Y10.881 Z14.300 I3.495 J-9.683 K0.000 F480.000
G1 X-9.265 Y18.224 Z14.300 F480.000
G2 X-7.759 Y18.911 Z14.300 I6.603 J-12.492 K0.000 F480.000
G1 X0.105 Y11.047 Z14.300 F480.000
G2 X2.616 Y10.727 Z14.300 I-0.062 J-10.517 K0.000 F480.000
G1 X-6.156 Y19.500 Z14.300 F480.000
G2 X-4.421 Y19.957 Z14.300 I3.803 J-10.926 K0.000 F480.000
G1 X6.983 Y8.552 Z14.300 F480.000
G1 X6.983 Y8.552 Z13.800 F480.000
G1 X-4.421 Y19.957 Z13.800 F480.000
G3 X-6.156 Y19.500 Z13.800 I2.068 J-11.383 K0.000 F480.000
G1 X2.616 Y10.727 Z13.800 F480.000
G3 X0.105 Y11.047 Z13.800 I-2.574 J-10.198 K0.000 F480.000
G1 X-7.759 Y18.911 Z13.800 F480.000
G3 X-9.265 Y18.224 Z13.800 I5.098 J-13.179 K0.000 F480.000
G1 X-1.921 Y10.881 Z13.800 F480.000
G3 X-3.654 Y10.421 Z13.800 I1.762 J-10.142 K0.000 F480.000
G1 X-10.671 Y17.439 Z13.800 F480.000
G3 X-11.984 Y16.559 Z13.800 I6.839 J-11.630 K0.000 F480.000
G1 X-5.176 Y9.752 Z13.800 F480.000
G3 X-6.530 Y8.913 Z13.800 I4.292 J-8.439 K0.000 F480.000
G1 X-12.532 Y14.915 Z13.800 F480.000
G2 X-13.273 Y13.465 Z13.800 I-3.007 J0.623 K0.000 F480.000
G1 X-7.711 Y7.902 Z13.800 F480.000
G3 X-8.746 Y6.745 Z13.800 I5.819 J-6.247 K0.000 F480.000
G1 X-14.608 Y12.607 Z13.800 F480.000
G2 X-16.162 Y12.526 Z13.800 I-0.933 J2.919 K0.000 F480.000
G3 X-16.398 Y12.206 Z13.800 I2.609 J-2.173 K0.000 F480.000
G1 X-9.619 Y5.426 Z13.800 F480.000
G3 X-10.317 Y3.932 Z13.800 I7.508 J-4.416 K0.000 F480.000
G1 X-17.289 Y10.905 Z13.800 F480.000
G3 X-18.096 Y9.519 Z13.800 I11.405 J-7.571 K0.000 F480.000
G1 X-10.815 Y2.238 Z13.800 F480.000
G3 X-11.040 Y0.272 Z13.800 I8.850 J-2.012 K0.000 F480.000
G1 X-18.799 Y8.030 Z13.800 F480.000
G3 X-19.401 Y6.441 Z13.800 I13.247 J-5.933 K0.000 F480.000
G1 X-10.835 Y-2.126 Z13.800 F480.000
G3 X-9.459 Y-5.694 Z13.800 I10.364 J1.948 K0.000 F480.000
G1 X-19.888 Y4.735 Z13.800 F480.000
G0 Z20.000
G0 X-19.893 Y4.736 Z20.000
G0 X-19.893 Y4.736 Z20.000
G1 X-19.893 Y4.736 Z13.800 F480.000
G2 X-16.162 Y12.526 Z13.800 I19.848 J-4.718 K0.000 F480.000
G3 X-12.526 Y16.162 Z13.800 I0.620 J3.016 K0.000 F480.000
G2 X-2.571 Y20.285 Z13.800 I12.507 J-16.118 K0.000 F480.000
G3 X2.571 Y20.285 Z13.800 I2.571 J1.694 K0.000 F480.000
G2 X12.526 Y16.162 Z13.800 I-2.553 J-20.241 K0.000 F480.000
G3 X16.162 Y12.526 Z13.800 I3.016 J-0.620 K0.000 F480.000
G2 X20.285 Y2.571 Z13.800 I-16.118 J-12.507 K0.000 F480.000
G3 X20.285 Y-2.571 Z13.800 I1.694 J-2.571 K0.000 F480.000
G2 X16.162 Y-12.526 Z13.800 I-20.241 J2.553 K0.000 F480.000
G3 X12.526 Y-16.162 Z13.800 I-0.620 J-3.016 K0.000 F480.000
G2 X2.571 Y-20.285 Z13.800 I-12.507 J16.118 K0.000 F480.000
G3 X-2.571 Y-20.285 Z13.800 I-2.571 J-1.694 K0.000 F480.000
G2 X-12.526 Y-16.162 Z13.800 I2.553 J20.241 K0.000 F480.000
G3 X-16.162 Y-12.526 Z13.800 I-3.016 J0.620 K0.000 F480.000
G2 X-20.285 Y-2.571 Z13.800 I16.118 J12.507 K0.000 F480.000
G3 X-20.285 Y2.571 Z13.800 I-1.694 J2.571 K0.000 F480.000
G2 X-19.893 Y4.736 Z13.800 I20.241 J-2.553 K0.000 F480.000
G0 Z20.000
G0 X-10.748 Y2.560 Z20.000
G0 X-10.748 Y2.560 Z20.000
G1 X-10.748 Y2.560 Z13.800 F480.000
G3 X-11.040 Y-0.426 Z13.800 I10.748 J-2.558 K0.000 F480.000
G3 X0.426 Y-11.042 Z13.800 I11.040 J0.425 K0.000 F480.000
G3 X11.040 Y0.426 Z13.800 I-0.426 J11.040 K0.000 F480.000
G3 X-10.748 Y2.560 Z13.800 I-11.040 J-0.425 K0.000 F480.000
G0 Z20.000
G0 X-17.093 Y-11.212 Z20.000
G0 X-17.093 Y-11.212 Z20.000
G1 X-17.093 Y-11.212 Z13.800 F480.000
G1 X-15.836 Y-12.469 Z13.800 F480.000
G3 X-16.162 Y-12.526 Z13.800 I0.208 J-2.174 K0.000 F480.000
G2 X-17.093 Y-11.212 Z13.800 I8.654 J7.119 K0.000 F480.000
G0 Z20.000
G0 X-11.212 Y-17.093 Z20.000
G0 X-11.212 Y-17.093 Z20.000
G1 X-11.212 Y-17.093 Z13.800 F480.000
G1 X-12.469 Y-15.836 Z13.800 F480.000
G2 X-12.526 Y-16.162 Z13.800 I-2.174 J0.208 K0.000 F480.000
G3 X-11.212 Y-17.093 Z13.800 I8.224 J10.214 K0.000 F480.000
G3 X-6.856 Y-19.257 Z13.800 I10.743 J16.156 K0.000 F480.000
G1 X-19.257 Y-6.856 Z13.800 F480.000
G2 X-20.086 Y-3.835 Z13.800 I16.778 J6.227 K0.000 F480.000
G1 X-3.835 Y-20.086 Z13.800 F480.000
G3 X-2.571 Y-20.285 Z13.800 I2.254 J10.176 K0.000 F480.000
G2 X-2.048 Y-19.681 Z13.800 I2.009 J-1.212 K0.000 F480.000
G1 X-19.681 Y-2.048 Z13.800 F480.000
G3 X-18.957 Y-0.580 Z13.800 I-2.243 J2.020 K0.000 F480.000
G1 X-0.580 Y-18.957 Z13.800 F480.000
G2 X2.571 Y-20.285 Z13.800 I0.584 J-3.016 K0.000 F480.000
G3 X2.893 Y-20.238 Z13.800 I-0.246 J2.762 K0.000 F480.000
G1 X-20.238 Y2.893 Z13.800 F480.000
G2 X-19.888 Y4.735 Z13.800 I15.877 J-2.063 K0.000 F480.000
G1 X-9.459 Y-5.694 Z13.800 F480.000
G3 X-5.666 Y-9.487 Z13.800 I9.359 J5.567 K0.000 F480.000
G1 X4.735 Y-19.888 Z13.800 F480.000
G3 X6.441 Y-19.401 Z13.800 I-2.567 J12.241 K0.000 F480.000
G1 X-2.120 Y-10.840 Z13.800 F480.000
G3 X0.271 Y-11.039 Z13.800 I2.033 J9.964 K0.000 F480.000
G1 X8.030 Y-18.799 Z13.800 F480.000
G3 X9.519 Y-18.096 Z13.800 I-4.908 J12.338 K0.000 F480.000
G1 X2.237 Y-10.814 Z13.800 F480.000
G3 X3.938 Y-10.323 Z13.800 I-1.947 J9.947 K0.000 F480.000
G1 X10.905 Y-17.289 Z13.800 F480.000
G3 X12.206 Y-16.398 Z13.800 I-6.944 J11.537 K0.000 F480.000
G1 X5.425 Y-9.618 Z13.800 F480.000
G3 X6.743 Y-8.744 Z13.800 I-3.948 J7.382 K0.000 F480.000
G1 X12.607 Y-14.608 Z13.800 F480.000
G2 X13.465 Y-13.273 Z13.800 I2.875 J-0.903 K0.000 F480.000
G1 X7.907 Y-7.715 Z13.800 F480.000
G3 X8.907 Y-6.524 Z13.800 I-6.486 J6.461 K0.000 F480.000
G1 X14.915 Y-12.532 Z13.800 F480.000
G2 X16.162 Y-12.526 Z13.800 I0.637 J-2.829 K0.000 F480.000
G3 X16.559 Y-11.984 Z13.800 I-4.420 J3.655 K0.000 F480.000
G1 X9.758 Y-5.183 Z13.800 F480.000
G3 X10.421 Y-3.654 Z13.800 I-8.652 J4.661 K0.000 F480.000
G1 X17.439 Y-10.671 Z13.800 F480.000
G3 X18.224 Y-9.265 Z13.800 I-10.036 J6.532 K0.000 F480.000
G1 X10.873 Y-1.914 Z13.800 F480.000
G3 X11.040 Y0.111 Z13.800 I-8.833 J1.748 K0.000 F480.000
G1 X18.911 Y-7.759 Z13.800 F480.000
G3 X19.500 Y-6.156 Z13.800 I-13.368 J5.825 K0.000 F480.000
G1 X10.733 Y2.611 Z13.800 F480.000
G3 X8.607 Y6.929 Z13.800 I-10.660 J-2.566 K0.000 F480.000
G1 X19.957 Y-4.421 Z13.800 F480.000
G3 X20.285 Y-2.571 Z13.800 I-14.877 J3.597 K0.000 F480.000
G2 X19.400 Y-1.672 Z13.800 I1.570 J2.431 K0.000 F480.000
G1 X-1.672 Y19.400 Z13.800 F480.000
G3 X0.884 Y19.036 Z13.800 I1.669 J2.567 K0.000 F480.000
G1 X19.036 Y0.884 Z13.800 F480.000
G2 X19.869 Y2.243 Z13.800 I2.911 J-0.850 K0.000 F480.000
G1 X2.243 Y19.869 Z13.800 F480.000
G3 X2.571 Y20.285 Z13.800 I-1.255 J1.330 K0.000 F480.000
G2 X4.326 Y19.978 Z13.800 I-1.132 J-11.614 K0.000 F480.000
G1 X19.978 Y4.326 Z13.800 F480.000
G3 X19.034 Y7.462 Z13.800 I-18.166 J-3.757 K0.000 F480.000
G1 X7.462 Y19.034 Z13.800 F480.000
G2 X12.526 Y16.162 Z13.800 I-7.300 J-18.772 K0.000 F480.000
G3 X16.162 Y12.526 Z13.800 I3.016 J-0.620 K0.000 F480.000
G1 X16.162 Y12.526 Z13.300 F480.000
G2 X12.526 Y16.162 Z13.300 I-0.620 J3.016 K0.000 F480.000
G3 X7.462 Y19.034 Z13.300 I-12.364 J-15.900 K0.000 F480.000
G1 X19.034 Y7.462 Z13.300 F480.000
G2 X19.978 Y4.326 Z13.300 I-17.222 J-6.893 K0.000 F480.000
G1 X4.326 Y19.978 Z13.300 F480.000
G3 X2.571 Y20.285 Z13.300 I-2.887 J-11.306 K0.000 F480.000
G2 X2.243 Y19.869 Z13.300 I-1.584 J0.914 K0.000 F480.000
G1 X19.869 Y2.243 Z13.300 F480.000
G3 X19.036 Y0.884 Z13.300 I2.078 J-2.209 K0.000 F480.000
G1 X0.884 Y19.036 Z13.300 F480.000
G2 X-1.672 Y19.400 Z13.300 I-0.887 J2.931 K0.000 F480.000
G1 X19.400 Y-1.672 Z13.300 F480.000
G3 X20.285 Y-2.571 Z13.300 I2.455 J1.532 K0.000 F480.000
G2 X19.957 Y-4.421 Z13.300 I-15.206 J1.747 K0.000 F480.000
G1 X8.607 Y6.929 Z13.300 F480.000
G2 X10.733 Y2.611 Z13.300 I-8.534 J-6.884 K0.000 F480.000
G1 X19.500 Y-6.156 Z13.300 F480.000
G2 X18.911 Y-7.759 Z13.300 I-13.958 J4.222 K0.000 F480.000
G1 X11.040 Y0.111 Z13.300 F480.000
G2 X10.873 Y-1.914 Z13.300 I-9.000 J-0.277 K0.000 F480.000
G1 X18.224 Y-9.265 Z13.300 F480.000
G2 X17.439 Y-10.671 Z13.300 I-10.822 J5.126 K0.000 F480.000
G1 X10.421 Y-3.654 Z13.300 F480.000
G2 X9.758 Y-5.183 Z13.300 I-9.315 J3.132 K0.000 F480.000
G1 X16.559 Y-11.984 Z13.300 F480.000
G2 X16.162 Y-12.526 Z13.300 I-4.817 J3.113 K0.000 F480.000
G3 X14.915 Y-12.532 Z13.300 I-0.610 J-2.835 K0.000 F480.000
G1 X8.907 Y-6.524 Z13.300 F480.000
G2 X7.907 Y-7.715 Z13.300 I-7.486 J5.270 K0.000 F480.000
G1 X13.465 Y-13.273 Z13.300 F480.000
G3 X12.607 Y-14.608 Z13.300 I2.018 J-2.238 K0.000 F480.000
G1 X6.743 Y-8.744 Z13.300 F480.000
G2 X5.425 Y-9.618 Z13.300 I-5.266 J6.507 K0.000 F480.000
G1 X12.206 Y-16.398 Z13.300 F480.000
G2 X10.905 Y-17.289 Z13.300 I-8.245 J10.646 K0.000 F480.000
G1 X3.938 Y-10.323 Z13.300 F480.000
G2 X2.237 Y-10.814 Z13.300 I-3.648 J9.457 K0.000 F480.000
G1 X9.519 Y-18.096 Z13.300 F480.000
G2 X8.030 Y-18.799 Z13.300 I-6.397 J11.635 K0.000 F480.000
G1 X0.271 Y-11.039 Z13.300 F480.000
G2 X-2.120 Y-10.840 Z13.300 I-0.358 J10.163 K0.000 F480.000
G1 X6.441 Y-19.401 Z13.300 F480.000
G2 X4.735 Y-19.888 Z13.300 I-4.273 J11.755 K0.000 F480.000
G1 X-5.666 Y-9.487 Z13.300 F480.000
G2 X-9.459 Y-5.694 Z13.300 I5.567 J9.359 K0.000 F480.000
G1 X-19.888 Y4.735 Z13.300 F480.000
G3 X-20.238 Y2.893 Z13.300 I15.527 J-3.905 K0.000 F480.000
G1 X2.893 Y-20.238 Z13.300 F480.000
G2 X2.571 Y-20.285 Z13.300 I-0.567 J2.715 K0.000 F480.000
G3 X-0.580 Y-18.957 Z13.300 I-2.567 J-1.688 K0.000 F480.000
G1 X-18.957 Y-0.580 Z13.300 F480.000
G2 X-19.681 Y-2.048 Z13.300 I-2.968 J0.552 K0.000 F480.000
G1 X-2.048 Y-19.681 Z13.300 F480.000
G3 X-2.571 Y-20.285 Z13.300 I1.485 J-1.816 K0.000 F480.000
G2 X-3.835 Y-20.086 Z13.300 I0.990 J10.376 K0.000 F480.000
G1 X-20.086 Y-3.835 Z13.300 F480.000
G3 X-19.257 Y-6.856 Z13.300 I17.607 J3.206 K0.000 F480.000
G1 X-6.856 Y-19.257 Z13.300 F480.000
G2 X-11.212 Y-17.093 Z13.300 I6.386 J18.321 K0.000 F480.000
G2 X-12.526 Y-16.162 Z13.300 I6.911 J11.145 K0.000 F480.000
G3 X-12.469 Y-15.836 Z13.300 I-2.117 J0.534 K0.000 F480.000
G1 X-11.212 Y-17.093 Z13.300 F480.000
G0 Z20.000
G0 X-11.216 Y-17.098 Z20.000
G0 X-11.216 Y-17.098 Z20.000
G1 X-11.216 Y-17.098 Z13.300 F480.000
G2 X-12.526 Y-16.162 Z13.300 I11.197 J17.054 K0.000 F480.000
G3 X-16.162 Y-12.526 Z13.300 I-3.016 J0.620 K0.000 F480.000
G2 X-20.285 Y-2.571 Z13.300 I16.118 J12.507 K0.000 F480.000
G3 X-20.285 Y2.571 Z13.300 I-1.694 J2.571 K0.000 F480.000
G2 X-16.162 Y12.526 Z13.300 I20.241 J-2.553 K0.000 F480.000
G3 X-12.526 Y16.162 Z13.300 I0.620 J3.016 K0.000 F480.000
G2 X-2.571 Y20.285 Z13.300 I12.507 J-16.118 K0.000 F480.000
G3 X2.571 Y20.285 Z13.300 I2.571 J1.694 K0.000 F480.000
G2 X12.526 Y16.162 Z13.300 I-2.553 J-20.241 K0.000 F480.000
G3 X16.162 Y12.526 Z13.300 I3.016 J-0.620 K0.000 F480.000
G2 X20.285 Y2.571 Z13.300 I-16.118 J-12.507 K0.000 F480.000
G3 X20.285 Y-2.571 Z13.300 I1.694 J-2.571 K0.000 F480.000
G2 X16.162 Y-12.526 Z13.300 I-20.241 J2.553 K0.000 F480.000
G3 X12.526 Y-16.162 Z13.300 I-0.620 J-3.016 K0.000 F480.000
G2 X2.571 Y-20.285 Z13.300 I-12.507 J16.118 K0.000 F480.000
G3 X-2.571 Y-20.285 Z13.300 I-2.571 J-1.694 K0.000 F480.000
G2 X-11.216 Y-17.098 Z13.300 I2.553 J20.241 K0.000 F480.000
G0 Z20.000
G0 X-15.836 Y-12.469 Z20.000
G0 X-15.836 Y-12.469 Z20.000
G1 X-15.836 Y-12.469 Z13.300 F480.000
G3 X-16.162 Y-12.526 Z13.300 I0.208 J-2.174 K0.000 F480.000
G2 X-17.093 Y-11.212 Z13.300 I8.654 J7.119 K0.000 F480.000
G1 X-15.836 Y-12.469 Z13.300 F480.000
G0 Z20.000
G0 X-8.681 Y-6.836 Z20.000
G0 X-8.681 Y-6.836 Z20.000
G1 X-8.681 Y-6.836 Z13.300 F480.000
G3 X11.040 Y0.426 Z13.300 I8.681 J6.835 K0.000 F480.000
G3 X-0.426 Y11.042 Z13.300 I-11.040 J-0.425 K0.000 F480.000
G3 X-11.040 Y-0.426 Z13.300 I0.426 J-11.040 K0.000 F480.000
G3 X-8.681 Y-6.836 Z13.300 I11.040 J0.425 K0.000 F480.000
G0 Z20.000
G0 X-19.888 Y4.735 Z20.000
G0 X-19.888 Y4.735 Z20.000
G1 X-19.888 Y4.735 Z13.300 F480.000
G1 X-9.459 Y-5.694 Z13.300 F480.000
G2 X-10.835 Y-2.126 Z13.300 I8.989 J5.516 K0.000 F480.000
G1 X-19.401 Y6.441 Z13.300 F480.000
G2 X-18.799 Y8.030 Z13.300 I13.849 J-4.343 K0.000 F480.000
G1 X-11.040 Y0.272 Z13.300 F480.000
G2 X-10.815 Y2.238 Z13.300 I9.076 J-0.046 K0.000 F480.000
G1 X-18.096 Y9.519 Z13.300 F480.000
G2 X-17.289 Y10.905 Z13.300 I12.211 J-6.186 K0.000 F480.000
G1 X-10.317 Y3.932 Z13.300 F480.000
G2 X-9.619 Y5.426 Z13.300 I8.206 J-2.922 K0.000 F480.000
G1 X-16.398 Y12.206 Z13.300 F480.000
G2 X-16.162 Y12.526 Z13.300 I2.845 J-1.853 K0.000 F480.000
G3 X-14.608 Y12.607 Z13.300 I0.621 J3.001 K0.000 F480.000
G1 X-8.746 Y6.745 Z13.300 F480.000
G2 X-7.711 Y7.902 Z13.300 I6.854 J-5.090 K0.000 F480.000
G1 X-13.273 Y13.465 Z13.300 F480.000
G3 X-12.532 Y14.915 Z13.300 I-2.266 J2.073 K0.000 F480.000
G1 X-6.530 Y8.913 Z13.300 F480.000
G2 X-5.176 Y9.752 Z13.300 I5.645 J-7.601 K0.000 F480.000
G1 X-11.984 Y16.559 Z13.300 F480.000
G2 X-10.671 Y17.439 Z13.300 I8.152 J-10.751 K0.000 F480.000
G1 X-3.654 Y10.421 Z13.300 F480.000
G2 X-1.921 Y10.881 Z13.300 I3.495 J-9.683 K0.000 F480.000
G1 X-9.265 Y18.224 Z13.300 F480.000
G2 X-7.759 Y18.911 Z13.300 I6.603 J-12.492 K0.000 F480.000
G1 X0.105 Y11.047 Z13.300 F480.000
G2 X2.616 Y10.727 Z13.300 I-0.062 J-10.517 K0.000 F480.000
G1 X-6.156 Y19.500 Z13.300 F480.000
G2 X-4.421 Y19.957 Z13.300 I3.803 J-10.926 K0.000 F480.000
G1 X6.983 Y8.552 Z13.300 F480.000
G1 X6.983 Y8.552 Z12.800 F480.000
G1 X-4.421 Y19.957 Z12.800 F480.000
G3 X-6.156 Y19.500 Z12.800 I2.068 J-11.383 K0.000 F480.000
G1 X2.616 Y10.727 Z12.800 F480.000
G3 X0.105 Y11.047 Z12.800 I-2.574 J-10.198 K0.000 F480.000
G1 X-7.759 Y18.911 Z12.800 F480.000
G3 X-9.265 Y18.224 Z12.800 I5.098 J-13.179 K0.000 F480.000
G1 X-1.921 Y10.881 Z12.800 F480.000
G3 X-3.654 Y10.421 Z12.800 I1.762 J-10.142 K0.000 F480.000
G1 X-10.671 Y17.439 Z12.800 F480.000
G3 X-11.984 Y16.559 Z12.800 I6.839 J-11.630 K0.000 F480.000
G1 X-5.176 Y9.752 Z12.800 F480.000
G3 X-6.530 Y8.913 Z12.800 I4.292 J-8.439 K0.000 F480.000
G1 X-12.532 Y14.915 Z12.800 F480.000
G2 X-13.273 Y13.465 Z12.800 I-3.007 J0.623 K0.000 F480.000
G1 X-7.711 Y7.902 Z12.800 F480.000
G3 X-8.746 Y6.745 Z12.800 I5.819 J-6.247 K0.000 F480.000
G1 X-14.608 Y12.607 Z12.800 F480.000
G2 X-16.162 Y12.526 Z12.800 I-0.933 J2.919 K0.000 F480.000
G3 X-16.398 Y12.206 Z12.800 I2.609 J-2.173 K0.000 F480.000
G1 X-9.619 Y5.426 Z12.800 F480.000
G3 X-10.317 Y3.932 Z12.800 I7.508 J-4.416 K0.000 F480.000
G1 X-17.289 Y10.905 Z12.800 F480.000
G3 X-18.096 Y9.519 Z12.800 I11.405 J-7.571 K0.000 F480.000
G1 X-10.815 Y2.238 Z12.800 F480.000
G3 X-11.040 Y0.272 Z12.800 I8.850 J-2.012 K0.000 F480.000
G1 X-18.799 Y8.030 Z12.800 F480.000
G3 X-19.401 Y6.441 Z12.800 I13.247 J-5.933 K0.000 F480.000
G1 X-10.835 Y-2.126 Z12.800 F480.000
G3 X-9.459 Y-5.694 Z12.800 I10.364 J1.948 K0.000 F480.000
G1 X-19.888 Y4.735 Z12.800 F480.000
G0 Z20.000
G0 X-19.893 Y4.736 Z20.000
G0 X-19.893 Y4.736 Z20.000
G1 X-19.893 Y4.736 Z12.800 F480.000
G2 X-16.162 Y12.526 Z12.800 I19.848 J-4.718 K0.000 F480.000
G3 X-12.526 Y16.162 Z12.800 I0.620 J3.016 K0.000 F480.000
G2 X-2.571 Y20.285 Z12.800 I12.507 J-16.118 K0.000 F480.000
G3 X2.571 Y20.285 Z12.800 I2.571 J1.694 K0.000 F480.000
G2 X12.526 Y16.162 Z12.800 I-2.553 J-20.241 K0.000 F480.000
G3 X16.162 Y12.526 Z12.800 I3.016 J-0.620 K0.000 F480.000
G2 X20.285 Y2.571 Z12.800 I-16.118 J-12.507 K0.000 F480.000
G3 X20.285 Y-2.571 Z12.800 I1.694 J-2.571 K0.000 F480.000
G2 X16.162 Y-12.526 Z12.800 I-20.241 J2.553 K0.000 F480.000
G3 X12.526 Y-16.162 Z12.800 I-0.620 J-3.016 K0.000 F480.000
G2 X2.571 Y-20.285 Z12.800 I-12.507 J16.118 K0.000 F480.000
G3 X-2.571 Y-20.285 Z12.800 I-2.571 J-1.694 K0.000 F480.000
G2 X-12.526 Y-16.162 Z12.800 I2.553 J20.241 K0.000 F480.000
G3 X-16.162 Y-12.526 Z12.800 I-3.016 J0.620 K0.000 F480.000
G2 X-20.285 Y-2.571 Z12.800 I16.118 J12.507 K0.000 F480.000
G3 X-20.285 Y2.571 Z12.800 I-1.694 J2.571 K0.000 F480.000
G2 X-19.893 Y4.736 Z12.800 I20.241 J-2.553 K0.000 F480.000
G0 Z20.000
G0 X-10.748 Y2.560 Z20.000
G0 X-10.748 Y2.560 Z20.000
G1 X-10.748 Y2.560 Z12.800 F480.000
G3 X-11.040 Y-0.426 Z12.800 I10.748 J-2.558 K0.000 F480.000
G3 X0.426 Y-11.042 Z12.800 I11.040 J0.425 K0.000 F480.000
G3 X11.040 Y0.426 Z12.800 I-0.426 J11.040 K0.000 F480.000
G3 X-10.748 Y2.560 Z12.800 I-11.040 J-0.425 K0.000 F480.000
G0 Z20.000
G0 X-17.093 Y-11.212 Z20.000
G0 X-17.093 Y-11.212 Z20.000
G1 X-17.093 Y-11.212 Z12.800 F480.000
G1 X-15.836 Y-12.469 Z12.800 F480.000
G3 X-16.162 Y-12.526 Z12.800 I0.208 J-2.174 K0.000 F480.000
G2 X-17.093 Y-11.212 Z12.800 I8.654 J7.119 K0.000 F480.000
G0 Z20.000
G0 X-11.212 Y-17.093 Z20.000
G0 X-11.212 Y-17.093 Z20.000
G1 X-11.212 Y-17.093 Z12.800 F480.000
G1 X-12.469 Y-15.836 Z12.800 F480.000
G2 X-12.526 Y-16.162 Z12.800 I-2.174 J0.208 K0.000 F480.000
G3 X-11.212 Y-17.093 Z12.800 I8.224 J10.214 K0.000 F480.000
G3 X-6.856 Y-19.257 Z12.800 I10.743 J16.156 K0.000 F480.000
G1 X-19.257 Y-6.856 Z12.800 F480.000
G2 X-20.086 Y-3.835 Z12.800 I16.778 J6.227 K0.000 F480.000
G1 X-3.835 Y-20.086 Z12.800 F480.000
G3 X-2.571 Y-20.285 Z12.800 I2.254 J10.176 K0.000 F480.000
G2 X-2.048 Y-19.681 Z12.800 I2.009 J-1.212 K0.000 F480.000
G1 X-19.681 Y-2.048 Z12.800 F480.000
G3 X-18.957 Y-0.580 Z12.800 I-2.243 J2.020 K0.000 F480.000
G1 X-0.580 Y-18.957 Z12.800 F480.000
G2 X2.571 Y-20.285 Z12.800 I0.584 J-3.016 K0.000 F480.000
G3 X2.893 Y-20.238 Z12.800 I-0.246 J2.762 K0.000 F480.000
G1 X-20.238 Y2.893 Z12.800 F480.000
G2 X-19.888 Y4.735 Z12.800 I15.877 J-2.063 K0.000 F480.000
G1 X-9.459 Y-5.694 Z12.800 F480.000
G3 X-5.666 Y-9.487 Z12.800 I9.359 J5.567 K0.000 F480.000
G1 X4.735 Y-19.888 Z12.800 F480.000
G3 X6.441 Y-19.401 Z12.800 I-2.567 J12.241 K0.000 F480.000
G1 X-2.120 Y-10.840 Z12.800 F480.000
G3 X0.271 Y-11.039 Z12.800 I2.033 J9.964 K0.000 F480.000
G1 X8.030 Y-18.799 Z12.800 F480.000
G3 X9.519 Y-18.096 Z12.800 I-4.908 J12.338 K0.000 F480.000
G1 X2.237 Y-10.814 Z12.800 F480.000
G3 X3.938 Y-10.323 Z12.800 I-1.947 J9.947 K0.000 F480.000
G1 X10.905 Y-17.289 Z12.800 F480.000
G3 X12.206 Y-16.398 Z12.800 I-6.944 J11.537 K0.000 F480.000
G1 X5.425 Y-9.618 Z12.800 F480.000
G3 X6.743 Y-8.744 Z12.800 I-3.948 J7.382 K0.000 F480.000
G1 X12.607 Y-14.608 Z12.800 F480.000
G2 X13.465 Y-13.273 Z12.800 I2.875 J-0.903 K0.000 F480.000
G1 X7.907 Y-7.715 Z12.800 F480.000
G3 X8.907 Y-6.524 Z12.800 I-6.486 J6.461 K0.000 F480.000
G1 X14.915 Y-12.532 Z12.800 F480.000
G2 X16.162 Y-12.526 Z12.800 I0.637 J-2.829 K0.000 F480.000
G3 X16.559 Y-11.984 Z12.800 I-4.420 J3.655 K0.000 F480.000
G1 X9.758 Y-5.183 Z12.800 F480.000
G3 X10.421 Y-3.654 Z12.800 I-8.652 J4.661 K0.000 F480.000
G1 X17.439 Y-10.671 Z12.800 F480.000
G3 X18.224 Y-9.265 Z12.800 I-10.036 J6.532 K0.000 F480.000
G1 X10.873 Y-1.914 Z12.800 F480.000
G3 X11.040 Y0.111 Z12.800 I-8.833 J1.748 K0.000 F480.000
G1 X18.911 Y-7.759 Z12.800 F480.000
G3 X19.500 Y-6.156 Z12.800 I-13.368 J5.825 K0.000 F480.000
G1 X10.733 Y2.611 Z12.800 F480.000
G3 X8.607 Y6.929 Z12.800 I-10.660 J-2.566 K0.000 F480.000
G1 X19.957 Y-4.421 Z12.800 F480.000
G3 X20.285 Y-2.571 Z12.800 I-14.877 J3.597 K0.000 F480.000
G2 X19.400 Y-1.672 Z12.800 I1.570 J2.431 K0.000 F480.000
G1 X-1.672 Y19.400 Z12.800 F480.000
G3 X0.884 Y19.036 Z12.800 I1.669 J2.567 K0.000 F480.000
G1 X19.036 Y0.884 Z12.800 F480.000
G2 X19.869 Y2.243 Z12.800 I2.911 J-0.850 K0.000 F480.000
G1 X2.243 Y19.869 Z12.800 F480.000
G3 X2.571 Y20.285 Z12.800 I-1.255 J1.330 K0.000 F480.000
G2 X4.326 Y19.978 Z12.800 I-1.132 J-11.614 K0.000 F480.000
G1 X19.978 Y4.326 Z12.800 F480.000
G3 X19.034 Y7.462 Z12.800 I-18.166 J-3.757 K0.000 F480.000
G1 X7.462 Y19.034 Z12.800 F480.000
G2 X12.526 Y16.162 Z12.800 I-7.300 J-18.772 K0.000 F480.000
G3 X16.162 Y12.526 Z12.800 I3.016 J-0.620 K0.000 F480.000
G1 X16.162 Y12.526 Z12.300 F480.000
G2 X12.526 Y16.162 Z12.300 I-0.620 J3.016 K0.000 F480.000
G3 X7.462 Y19.034 Z12.300 I-12.364 J-15.900 K0.000 F480.000
G1 X19.034 Y7.462 Z12.300 F480.000
G2 X19.978 Y4.326 Z12.300 I-17.222 J-6.893 K0.000 F480.000
G1 X4.326 Y19.978 Z12.300 F480.000
G3 X2.571 Y20.285 Z12.300 I-2.887 J-11.306 K0.000 F480.000
G2 X2.243 Y19.869 Z12.300 I-1.584 J0.914 K0.000 F480.000
G1 X19.869 Y2.243 Z12.300 F480.000
G3 X19.036 Y0.884 Z12.300 I2.078 J-2.209 K0.000 F480.000
G1 X0.884 Y19.036 Z12.300 F480.000
G2 X-1.672 Y19.400 Z12.300 I-0.887 J2.931 K0.000 F480.000
G1 X19.400 Y-1.672 Z12.300 F480.000
G3 X20.285 Y-2.571 Z12.300 I2.455 J1.532 K0.000 F480.000
G2 X19.957 Y-4.421 Z12.300 I-15.206 J1.747 K0.000 F480.000
G1 X8.607 Y6.929 Z12.300 F480.000
G2 X10.733 Y2.611 Z12.300 I-8.534 J-6.884 K0.000 F480.000
G1 X19.500 Y-6.156 Z12.300 F480.000
G2 X18.911 Y-7.759 Z12.300 I-13.958 J4.222 K0.000 F480.000
G1 X11.040 Y0.111 Z12.300 F480.000
G2 X10.873 Y-1.914 Z12.300 I-9.000 J-0.277 K0.000 F480.000
G1 X18.224 Y-9.265 Z12.300 F480.000
G2 X17.439 Y-10.671 Z12.300 I-10.822 J5.126 K0.000 F480.000
G1 X10.421 Y-3.654 Z12.300 F480.000
G2 X9.758 Y-5.183 Z12.300 I-9.315 J3.132 K0.000 F480.000
G1 X16.559 Y-11.984 Z12.300 F480.000
G2 X16.162 Y-12.526 Z12.300 I-4.817 J3.113 K0.000 F480.000
G3 X14.915 Y-12.532 Z12.300 I-0.610 J-2.835 K0.000 F480.000
G1 X8.907 Y-6.524 Z12.300 F480.000
G2 X7.907 Y-7.715 Z12.300 I-7.486 J5.270 K0.000 F480.000
G1 X13.465 Y-13.273 Z12.300 F480.000
G3 X12.607 Y-14.608 Z12.300 I2.018 J-2.238 K0.000 F480.000
G1 X6.743 Y-8.744 Z12.300 F480.000
G2 X5.425 Y-9.618 Z12.300 I-5.266 J6.507 K0.000 F480.000
G1 X12.206 Y-16.398 Z12.300 F480.000
G2 X10.905 Y-17.289 Z12.300 I-8.245 J10.646 K0.000 F480.000
G1 X3.938 Y-10.323 Z12.300 F480.000
G2 X2.237 Y-10.814 Z12.300 I-3.648 J9.457 K0.000 F480.000
G1 X9.519 Y-18.096 Z12.300 F480.000
G2 X8.030 Y-18.799 Z12.300 I-6.397 J11.635 K0.000 F480.000
G1 X0.271 Y-11.039 Z12.300 F480.000
G2 X-2.120 Y-10.840 Z12.300 I-0.358 J10.163 K0.000 F480.000
G1 X6.441 Y-19.401 Z12.300 F480.000
G2 X4.735 Y-19.888 Z12.300 I-4.273 J11.755 K0.000 F480.000
G1 X-5.666 Y-9.487 Z12.300 F480.000
G2 X-9.459 Y-5.694 Z12.300 I5.567 J9.359 K0.000 F480.000
G1 X-19.888 Y4.735 Z12.300 F480.000
G3 X-20.238 Y2.893 Z12.300 I15.527 J-3.905 K0.000 F480.000
G1 X2.893 Y-20.238 Z12.300 F480.000
G2 X2.571 Y-20.285 Z12.300 I-0.567 J2.715 K0.000 F480.000
G3 X-0.580 Y-18.957 Z12.300 I-2.567 J-1.688 K0.000 F480.000
G1 X-18.957 Y-0.580 Z12.300 F480.000
G2 X-19.681 Y-2.048 Z12.300 I-2.968 J0.552 K0.000 F480.000
G1 X-2.048 Y-19.681 Z12.300 F480.000
G3 X-2.571 Y-20.285 Z12.300 I1.485 J-1.816 K0.000 F480.000
G2 X-3.835 Y-20.086 Z12.300 I0.990 J10.376 K0.000 F480.000
G1 X-20.086 Y-3.835 Z12.300 F480.000
G3 X-19.257 Y-6.856 Z12.300 I17.607 J3.206 K0.000 F480.000
G1 X-6.856 Y-19.257 Z12.300 F480.000
G2 X-11.212 Y-17.093 Z12.300 I6.386 J18.321 K0.000 F480.000
G2 X-12.526 Y-16.162 Z12.300 I6.911 J11.145 K0.000 F480.000
G3 X-12.469 Y-15.836 Z12.300 I-2.117 J0.534 K0.000 F480.000
G1 X-11.212 Y-17.093 Z12.300 F480.000
G0 Z20.000
G0 X-11.216 Y-17.098 Z20.000
G0 X-11.216 Y-17.098 Z20.000
G1 X-11.216 Y-17.098 Z12.300 F480.000
G2 X-12.526 Y-16.162 Z12.300 I11.197 J17.054 K0.000 F480.000
G3 X-16.162 Y-12.526 Z12.300 I-3.016 J0.620 K0.000 F480.000
G2 X-20.285 Y-2.571 Z12.300 I16.118 J12.507 K0.000 F480.000
G3 X-20.285 Y2.571 Z12.300 I-1.694 J2.571 K0.000 F480.000
G2 X-16.162 Y12.526 Z12.300 I20.241 J-2.553 K0.000 F480.000
G3 X-12.526 Y16.162 Z12.300 I0.620 J3.016 K0.000 F480.000
G2 X-2.571 Y20.285 Z12.300 I12.507 J-16.118 K0.000 F480.000
G3 X2.571 Y20.285 Z12.300 I2.571 J1.694 K0.000 F480.000
G2 X12.526 Y16.162 Z12.300 I-2.553 J-20.241 K0.000 F480.000
G3 X16.162 Y12.526 Z12.300 I3.016 J-0.620 K0.000 F480.000
G2 X20.285 Y2.571 Z12.300 I-16.118 J-12.507 K0.000 F480.000
G3 X20.285 Y-2.571 Z12.300 I1.694 J-2.571 K0.000 F480.000
G2 X16.162 Y-12.526 Z12.300 I-20.241 J2.553 K0.000 F480.000
G3 X12.526 Y-16.162 Z12.300 I-0.620 J-3.016 K0.000 F480.000
G2 X2.571 Y-20.285 Z12.300 I-12.507 J16.118 K0.000 F480.000
G3 X-2.571 Y-20.285 Z12.300 I-2.571 J-1.694 K0.000 F480.000
G2 X-11.216 Y-17.098 Z12.300 I2.553 J20.241 K0.000 F480.000
G0 Z20.000
G0 X-15.836 Y-12.469 Z20.000
G0 X-15.836 Y-12.469 Z20.000
G1 X-15.836 Y-12.469 Z12.300 F480.000
G3 X-16.162 Y-12.526 Z12.300 I0.208 J-2.174 K0.000 F480.000
G2 X-17.093 Y-11.212 Z12.300 I8.654 J7.119 K0.000 F480.000
G1 X-15.836 Y-12.469 Z12.300 F480.000
G0 Z20.000
G0 X-8.681 Y-6.836 Z20.000
G0 X-8.681 Y-6.836 Z20.000
G1 X-8.681 Y-6.836 Z12.300 F480.000
G3 X11.040 Y0.426 Z12.300 I8.681 J6.835 K0.000 F480.000
G3 X-0.426 Y11.042 Z12.300 I-11.040 J-0.425 K0.000 F480.000
G3 X-11.040 Y-0.426 Z12.300 I0.426 J-11.040 K0.000 F480.000
G3 X-8.681 Y-6.836 Z12.300 I11.040 J0.425 K0.000 F480.000
G0 Z20.000
G0 X-19.888 Y4.735 Z20.000
G0 X-19.888 Y4.735 Z20.000
G1 X-19.888 Y4.735 Z12.300 F480.000
G1 X-9.459 Y-5.694 Z12.300 F480.000
G2 X-10.835 Y-2.126 Z12.300 I8.989 J5.516 K0.000 F480.000
G1 X-19.401 Y6.441 Z12.300 F480.000
G2 X-18.799 Y8.030 Z12.300 I13.849 J-4.343 K0.000 F480.000
G1 X-11.040 Y0.272 Z12.300 F480.000
G2 X-10.815 Y2.238 Z12.300 I9.076 J-0.046 K0.000 F480.000
G1 X-18.096 Y9.519 Z12.300 F480.000
G2 X-17.289 Y10.905 Z12.300 I12.211 J-6.186 K0.000 F480.000
G1 X-10.317 Y3.932 Z12.300 F480.000
G2 X-9.619 Y5.426 Z12.300 I8.206 J-2.922 K0.000 F480.000
G1 X-16.398 Y12.206 Z12.300 F480.000
G2 X-16.162 Y12.526 Z12.300 I2.845 J-1.853 K0.000 F480.000
G3 X-14.608 Y12.607 Z12.300 I0.621 J3.001 K0.000 F480.000
G1 X-8.746 Y6.745 Z12.300 F480.000
G2 X-7.711 Y7.902 Z12.300 I6.854 J-5.090 K0.000 F480.000
G1 X-13.273 Y13.465 Z12.300 F480.000
G3 X-12.532 Y14.915 Z12.300 I-2.266 J2.073 K0.000 F480.000
G1 X-6.530 Y8.913 Z12.300 F480.000
G2 X-5.176 Y9.752 Z12.300 I5.645 J-7.601 K0.000 F480.000
G1 X-11.984 Y16.559 Z12.300 F480.000
G2 X-10.671 Y17.439 Z12.300 I8.152 J-10.751 K0.000 F480.000
G1 X-3.654 Y10.421 Z12.300 F480.000
G2 X-1.921 Y10.881 Z12.300 I3.495 J-9.683 K0.000 F480.000
G1 X-9.265 Y18.224 Z12.300 F480.000
G2 X-7.759 Y18.911 Z12.300 I6.603 J-12.492 K0.000 F480.000
G1 X0.105 Y11.047 Z12.300 F480.000
G2 X2.616 Y10.727 Z12.300 I-0.062 J-10.517 K0.000 F480.000
G1 X-6.156 Y19.500 Z12.300 F480.000
G2 X-4.421 Y19.957 Z12.300 I3.803 J-10.926 K0.000 F480.000
G1 X6.983 Y8.552 Z12.300 F480.000
G1 X6.983 Y8.552 Z11.800 F480.000
G1 X-4.421 Y19.957 Z11.800 F480.000
G3 X-6.156 Y19.500 Z11.800 I2.068 J-11.383 K0.000 F480.000
G1 X2.616 Y10.727 Z11.800 F480.000
G3 X0.105 Y11.047 Z11.800 I-2.574 J-10.198 K0.000 F480.000
G1 X-7.759 Y18.911 Z11.800 F480.000
G3 X-9.265 Y18.224 Z11.800 I5.098 J-13.179 K0.000 F480.000
G1 X-1.921 Y10.881 Z11.800 F480.000
G3 X-3.654 Y10.421 Z11.800 I1.762 J-10.142 K0.000 F480.000
G1 X-10.671 Y17.439 Z11.800 F480.000
G3 X-11.984 Y16.559 Z11.800 I6.839 J-11.630 K0.000 F480.000
G1 X-5.176 Y9.752 Z11.800 F480.000
G3 X-6.530 Y8.913 Z11.800 I4.292 J-8.439 K0.000 F480.000
G1 X-12.532 Y14.915 Z11.800 F480.000
G2 X-13.273 Y13.465 Z11.800 I-3.007 J0.623 K0.000 F480.000
G1 X-7.711 Y7.902 Z11.800 F480.000
G3 X-8.746 Y6.745 Z11.800 I5.819 J-6.247 K0.000 F480.000
G1 X-14.608 Y12.607 Z11.800 F480.000
G2 X-16.162 Y12.526 Z11.800 I-0.933 J2.919 K0.000 F480.000
G3 X-16.398 Y12.206 Z11.800 I2.609 J-2.173 K0.000 F480.000
G1 X-9.619 Y5.426 Z11.800 F480.000
G3 X-10.317 Y3.932 Z11.800 I7.508 J-4.416 K0.000 F480.000
G1 X-17.289 Y10.905 Z11.800 F480.000
G3 X-18.096 Y9.519 Z11.800 I11.405 J-7.571 K0.000 F480.000
G1 X-10.815 Y2.238 Z11.800 F480.000
G3 X-11.040 Y0.272 Z11.800 I8.850 J-2.012 K0.000 F480.000
G1 X-18.799 Y8.030 Z11.800 F480.000
G3 X-19.401 Y6.441 Z11.800 I13.247 J-5.933 K0.000 F480.000
G1 X-10.835 Y-2.126 Z11.800 F480.000
G3 X-9.459 Y-5.694 Z11.800 I10.364 J1.948 K0.000 F480.000
G1 X-19.888 Y4.735 Z11.800 F480.000
G0 Z20.000
G0 X-19.893 Y4.736 Z20.000
G0 X-19.893 Y4.736 Z20.000
G1 X-19.893 Y4.736 Z11.800 F480.000
G2 X-16.162 Y12.526 Z11.800 I19.848 J-4.718 K0.000 F480.000
G3 X-12.526 Y16.162 Z11.800 I0.620 J3.016 K0.000 F480.000
G2 X-2.571 Y20.285 Z11.800 I12.507 J-16.118 K0.000 F480.000
G3 X2.571 Y20.285 Z11.800 I2.571 J1.694 K0.000 F480.000
G2 X12.526 Y16.162 Z11.800 I-2.553 J-20.241 K0.000 F480.000
G3 X16.162 Y12.526 Z11.800 I3.016 J-0.620 K0.000 F480.000
G2 X20.285 Y2.571 Z11.800 I-16.118 J-12.507 K0.000 F480.000
G3 X20.285 Y-2.571 Z11.800 I1.694 J-2.571 K0.000 F480.000
G2 X16.162 Y-12.526 Z11.800 I-20.241 J2.553 K0.000 F480.000
G3 X12.526 Y-16.162 Z11.800 I-0.620 J-3.016 K0.000 F480.000
G2 X2.571 Y-20.285 Z11.800 I-12.507 J16.118 K0.000 F480.000
G3 X-2.571 Y-20.285 Z11.800 I-2.571 J-1.694 K0.000 F480.000
G2 X-12.526 Y-16.162 Z11.800 I2.553 J20.241 K0.000 F480.000
G3 X-16.162 Y-12.526 Z11.800 I-3.016 J0.620 K0.000 F480.000
G2 X-20.285 Y-2.571 Z11.800 I16.118 J12.507 K0.000 F480.000
G3 X-20.285 Y2.571 Z11.800 I-1.694 J2.571 K0.000 F480.000
G2 X-19.893 Y4.736 Z11.800 I20.241 J-2.553 K0.000 F480.000
G0 Z20.000
G0 X-10.748 Y2.560 Z20.000
G0 X-10.748 Y2.560 Z20.000
G1 X-10.748 Y2.560 Z11.800 F480.000
G3 X-11.040 Y-0.426 Z11.800 I10.748 J-2.558 K0.000 F480.000
G3 X0.426 Y-11.042 Z11.800 I11.040 J0.425 K0.000 F480.000
G3 X11.040 Y0.426 Z11.800 I-0.426 J11.040 K0.000 F480.000
G3 X-10.748 Y2.560 Z11.800 I-11.040 J-0.425 K0.000 F480.000
G0 Z20.000
G0 X-17.093 Y-11.212 Z20.000
G0 X-17.093 Y-11.212 Z20.000
G1 X-17.093 Y-11.212 Z11.800 F480.000
G1 X-15.836 Y-12.469 Z11.800 F480.000
G3 X-16.162 Y-12.526 Z11.800 I0.208 J-2.174 K0.000 F480.000
G2 X-17.093 Y-11.212 Z11.800 I8.654 J7.119 K0.000 F480.000
G0 Z20.000
G0 X-11.212 Y-17.093 Z20.000
G0 X-11.212 Y-17.093 Z20.000
G1 X-11.212 Y-17.093 Z11.800 F480.000
G1 X-12.469 Y-15.836 Z11.800 F480.000
G2 X-12.526 Y-16.162 Z11.800 I-2.174 J0.208 K0.000 F480.000
G3 X-11.212 Y-17.093 Z11.800 I8.224 J10.214 K0.000 F480.000
G3 X-6.856 Y-19.257 Z11.800 I10.743 J16.156 K0.000 F480.000
G1 X-19.257 Y-6.856 Z11.800 F480.000
G2 X-20.086 Y-3.835 Z11.800 I16.778 J6.227 K0.000 F480.000
G1 X-3.835 Y-20.086 Z11.800 F480.000
G3 X-2.571 Y-20.285 Z11.800 I2.254 J10.176 K0.000 F480.000
G2 X-2.048 Y-19.681 Z11.800 I2.009 J-1.212 K0.000 F480.000
G1 X-19.681 Y-2.048 Z11.800 F480.000
G3 X-18.957 Y-0.580 Z11.800 I-2.243 J2.020 K0.000 F480.000
G1 X-0.580 Y-18.957 Z11.800 F480.000
G2 X2.571 Y-20.285 Z11.800 I0.584 J-3.016 K0.000 F480.000
G3 X2.893 Y-20.238 Z11.800 I-0.246 J2.762 K0.000 F480.000
G1 X-20.238 Y2.893 Z11.800 F480.000
G2 X-19.888 Y4.735 Z11.800 I15.877 J-2.063 K0.000 F480.000
G1 X-9.459 Y-5.694 Z11.800 F480.000
G3 X-5.666 Y-9.487 Z11.800 I9.359 J5.567 K0.000 F480.000
G1 X4.735 Y-19.888 Z11.800 F480.000
G3 X6.441 Y-19.401 Z11.800 I-2.567 J12.241 K0.000 F480.000
G1 X-2.120 Y-10.840 Z11.800 F480.000
G3 X0.271 Y-11.039 Z11.800 I2.033 J9.964 K0.000 F480.000
G1 X8.030 Y-18.799 Z11.800 F480.000
G3 X9.519 Y-18.096 Z11.800 I-4.908 J12.338 K0.000 F480.000
G1 X2.237 Y-10.814 Z11.800 F480.000
G3 X3.938 Y-10.323 Z11.800 I-1.947 J9.947 K0.000 F480.000
G1 X10.905 Y-17.289 Z11.800 F480.000
G3 X12.206 Y-16.398 Z11.800 I-6.944 J11.537 K0.000 F480.000
G1 X5.425 Y-9.618 Z11.800 F480.000
G3 X6.743 Y-8.744 Z11.800 I-3.948 J7.382 K0.000 F480.000
G1 X12.607 Y-14.608 Z11.800 F480.000
G2 X13.465 Y-13.273 Z11.800 I2.875 J-0.903 K0.000 F480.000
G1 X7.907 Y-7.715 Z11.800 F480.000
G3 X8.907 Y-6.524 Z11.800 I-6.486 J6.461 K0.000 F480.000
G1 X14.915 Y-12.532 Z11.800 F480.000
G2 X16.162 Y-12.526 Z11.800 I0.637 J-2.829 K0.000 F480.000
G3 X16.559 Y-11.984 Z11.800 I-4.420 J3.655 K0.000 F480.000
G1 X9.758 Y-5.183 Z11.800 F480.000
G3 X10.421 Y-3.654 Z11.800 I-8.652 J4.661 K0.000 F480.000
G1 X17.439 Y-10.671 Z11.800 F480.000
G3 X18.224 Y-9.265 Z11.800 I-10.036 J6.532 K0.000 F480.000
G1 X10.873 Y-1.914 Z11.800 F480.000
G3 X11.040 Y0.111 Z11.800 I-8.833 J1.748 K0.000 F480.000
G1 X18.911 Y-7.759 Z11.800 F480.000
G3 X19.500 Y-6.156 Z11.800 I-13.368 J5.825 K0.000 F480.000
G1 X10.733 Y2.611 Z11.800 F480.000
G3 X8.607 Y6.929 Z11.800 I-10.660 J-2.566 K0.000 F480.000
G1 X19.957 Y-4.421 Z11.800 F480.000
G3 X20.285 Y-2.571 Z11.800 I-14.877 J3.597 K0.000 F480.000
G2 X19.400 Y-1.672 Z11.800 I1.570 J2.431 K0.000 F480.000
G1 X-1.672 Y19.400 Z11.800 F480.000
G3 X0.884 Y19.036 Z11.800 I1.669 J2.567 K0.000 F480.000
G1 X19.036 Y0.884 Z11.800 F480.000
G2 X19.869 Y2.243 Z11.800 I2.911 J-0.850 K0.000 F480.000
G1 X2.243 Y19.869 Z11.800 F480.000
G3 X2.571 Y20.285 Z11.800 I-1.255 J1.330 K0.000 F480.000
G2 X4.326 Y19.978 Z11.800 I-1.132 J-11.614 K0.000 F480.000
G1 X19.978 Y4.326 Z11.800 F480.000
G3 X19.034 Y7.462 Z11.800 I-18.166 J-3.757 K0.000 F480.000
G1 X7.462 Y19.034 Z11.800 F480.000
G2 X12.526 Y16.162 Z11.800 I-7.300 J-18.772 K0.000 F480.000
G3 X16.162 Y12.526 Z11.800 I3.016 J-0.620 K0.000 F480.000
G1 X16.162 Y12.526 Z11.300 F480.000
G2 X12.526 Y16.162 Z11.300 I-0.620 J3.016 K0.000 F480.000
G3 X7.462 Y19.034 Z11.300 I-12.364 J-15.900 K0.000 F480.000
G1 X19.034 Y7.462 Z11.300 F480.000
G2 X19.978 Y4.326 Z11.300 I-17.222 J-6.893 K0.000 F480.000
G1 X4.326 Y19.978 Z11.300 F480.000
G3 X2.571 Y20.285 Z11.300 I-2.887 J-11.306 K0.000 F480.000
G2 X2.243 Y19.869 Z11.300 I-1.584 J0.914 K0.000 F480.000
G1 X19.869 Y2.243 Z11.300 F480.000
G3 X19.036 Y0.884 Z11.300 I2.078 J-2.209 K0.000 F480.000
G1 X0.884 Y19.036 Z11.300 F480.000
G2 X-1.672 Y19.400 Z11.300 I-0.887 J2.931 K0.000 F480.000
G1 X19.400 Y-1.672 Z11.300 F480.000
G3 X20.285 Y-2.571 Z11.300 I2.455 J1.532 K0.000 F480.000
G2 X19.957 Y-4.421 Z11.300 I-15.206 J1.747 K0.000 F480.000
G1 X8.607 Y6.929 Z11.300 F480.000
G2 X10.733 Y2.611 Z11.300 I-8.534 J-6.884 K0.000 F480.000
G1 X19.500 Y-6.156 Z11.300 F480.000
G2 X18.911 Y-7.759 Z11.300 I-13.958 J4.222 K0.000 F480.000
G1 X11.040 Y0.111 Z11.300 F480.000
G2 X10.873 Y-1.914 Z11.300 I-9.000 J-0.277 K0.000 F480.000
G1 X18.224 Y-9.265 Z11.300 F480.000
G2 X17.439 Y-10.671 Z11.300 I-10.822 J5.126 K0.000 F480.000
G1 X10.421 Y-3.654 Z11.300 F480.000
G2 X9.758 Y-5.183 Z11.300 I-9.315 J3.132 K0.000 F480.000
G1 X16.559 Y-11.984 Z11.300 F480.000
G2 X16.162 Y-12.526 Z11.300 I-4.817 J3.113 K0.000 F480.000
G3 X14.915 Y-12.532 Z11.300 I-0.610 J-2.835 K0.000 F480.000
G1 X8.907 Y-6.524 Z11.300 F480.000
G2 X7.907 Y-7.715 Z11.300 I-7.486 J5.270 K0.000 F480.000
G1 X13.465 Y-13.273 Z11.300 F480.000
G3 X12.607 Y-14.608 Z11.300 I2.018 J-2.238 K0.000 F480.000
G1 X6.743 Y-8.744 Z11.300 F480.000
G2 X5.425 Y-9.618 Z11.300 I-5.266 J6.507 K0.000 F480.000
G1 X12.206 Y-16.398 Z11.300 F480.000
G2 X10.905 Y-17.289 Z11.300 I-8.245 J10.646 K0.000 F480.000
G1 X3.938 Y-10.323 Z11.300 F480.000
G2 X2.237 Y-10.814 Z11.300 I-3.648 J9.457 K0.000 F480.000
G1 X9.519 Y-18.096 Z11.300 F480.000
G2 X8.030 Y-18.799 Z11.300 I-6.397 J11.635 K0.000 F480.000
G1 X0.271 Y-11.039 Z11.300 F480.000
G2 X-2.120 Y-10.840 Z11.300 I-0.358 J10.163 K0.000 F480.000
G1 X6.441 Y-19.401 Z11.300 F480.000
G2 X4.735 Y-19.888 Z11.300 I-4.273 J11.755 K0.000 F480.000
G1 X-5.666 Y-9.487 Z11.300 F480.000
G2 X-9.459 Y-5.694 Z11.300 I5.567 J9.359 K0.000 F480.000
G1 X-19.888 Y4.735 Z11.300 F480.000
G3 X-20.238 Y2.893 Z11.300 I15.527 J-3.905 K0.000 F480.000
G1 X2.893 Y-20.238 Z11.300 F480.000
G2 X2.571 Y-20.285 Z11.300 I-0.567 J2.715 K0.000 F480.000
G3 X-0.580 Y-18.957 Z11.300 I-2.567 J-1.688 K0.000 F480.000
G1 X-18.957 Y-0.580 Z11.300 F480.000
G2 X-19.681 Y-2.048 Z11.300 I-2.968 J0.552 K0.000 F480.000
G1 X-2.048 Y-19.681 Z11.300 F480.000
G3 X-2.571 Y-20.285 Z11.300 I1.485 J-1.816 K0.000 F480.000
G2 X-3.835 Y-20.086 Z11.300 I0.990 J10.376 K0.000 F480.000
G1 X-20.086 Y-3.835 Z11.300 F480.000
G3 X-19.257 Y-6.856 Z11.300 I17.607 J3.206 K0.000 F480.000
G1 X-6.856 Y-19.257 Z11.300 F480.000
G2 X-11.212 Y-17.093 Z11.300 I6.386 J18.321 K0.000 F480.000
G2 X-12.526 Y-16.162 Z11.300 I6.911 J11.145 K0.000 F480.000
G3 X-12.469 Y-15.836 Z11.300 I-2.117 J0.534 K0.000 F480.000
G1 X-11.212 Y-17.093 Z11.300 F480.000
G0 Z20.000
G0 X-11.216 Y-17.098 Z20.000
G0 X-11.216 Y-17.098 Z20.000
G1 X-11.216 Y-17.098 Z11.300 F480.000
G2 X-12.526 Y-16.162 Z11.300 I11.197 J17.054 K0.000 F480.000
G3 X-16.162 Y-12.526 Z11.300 I-3.016 J0.620 K0.000 F480.000
G2 X-20.285 Y-2.571 Z11.300 I16.118 J12.507 K0.000 F480.000
G3 X-20.285 Y2.571 Z11.300 I-1.694 J2.571 K0.000 F480.000
G2 X-16.162 Y12.526 Z11.300 I20.241 J-2.553 K0.000 F480.000
G3 X-12.526 Y16.162 Z11.300 I0.620 J3.016 K0.000 F480.000
G2 X-2.571 Y20.285 Z11.300 I12.507 J-16.118 K0.000 F480.000
G3 X2.571 Y20.285 Z11.300 I2.571 J1.694 K0.000 F480.000
G2 X12.526 Y16.162 Z11.300 I-2.553 J-20.241 K0.000 F480.000
G3 X16.162 Y12.526 Z11.300 I3.016 J-0.620 K0.000 F480.000
G2 X20.285 Y2.571 Z11.300 I-16.118 J-12.507 K0.000 F480.000
G3 X20.285 Y-2.571 Z11.300 I1.694 J-2.571 K0.000 F480.000
G2 X16.162 Y-12.526 Z11.300 I-20.241 J2.553 K0.000 F480.000
G3 X12.526 Y-16.162 Z11.300 I-0.620 J-3.016 K0.000 F480.000
G2 X2.571 Y-20.285 Z11.300 I-12.507 J16.118 K0.000 F480.000
G3 X-2.571 Y-20.285 Z11.300 I-2.571 J-1.694 K0.000 F480.000
G2 X-11.216 Y-17.098 Z11.300 I2.553 J20.241 K0.000 F480.000
G0 Z20.000
G0 X-15.836 Y-12.469 Z20.000
G0 X-15.836 Y-12.469 Z20.000
G1 X-15.836 Y-12.469 Z11.300 F480.000
G3 X-16.162 Y-12.526 Z11.300 I0.208 J-2.174 K0.000 F480.000
G2 X-17.093 Y-11.212 Z11.300 I8.654 J7.119 K0.000 F480.000
G1 X-15.836 Y-12.469 Z11.300 F480.000
G0 Z20.000
G0 X-8.681 Y-6.836 Z20.000
G0 X-8.681 Y-6.836 Z20.000
G1 X-8.681 Y-6.836 Z11.300 F480.000
G3 X11.040 Y0.426 Z11.300 I8.681 J6.835 K0.000 F480.000
G3 X-0.426 Y11.042 Z11.300 I-11.040 J-0.425 K0.000 F480.000
G3 X-11.040 Y-0.426 Z11.300 I0.426 J-11.040 K0.000 F480.000
G3 X-8.681 Y-6.836 Z11.300 I11.040 J0.425 K0.000 F480.000
G0 Z20.000
G0 X-19.888 Y4.735 Z20.000
G0 X-19.888 Y4.735 Z20.000
G1 X-19.888 Y4.735 Z11.300 F480.000
G1 X-9.459 Y-5.694 Z11.300 F480.000
G2 X-10.835 Y-2.126 Z11.300 I8.989 J5.516 K0.000 F480.000
G1 X-19.401 Y6.441 Z11.300 F480.000
G2 X-18.799 Y8.030 Z11.300 I13.849 J-4.343 K0.000 F480.000
G1 X-11.040 Y0.272 Z11.300 F480.000
G2 X-10.815 Y2.238 Z11.300 I9.076 J-0.046 K0.000 F480.000
G1 X-18.096 Y9.519 Z11.300 F480.000
G2 X-17.289 Y10.905 Z11.300 I12.211 J-6.186 K0.000 F480.000
G1 X-10.317 Y3.932 Z11.300 F480.000
G2 X-9.619 Y5.426 Z11.300 I8.206 J-2.922 K0.000 F480.000
G1 X-16.398 Y12.206 Z11.300 F480.000
G2 X-16.162 Y12.526 Z11.300 I2.845 J-1.853 K0.000 F480.000
G3 X-14.608 Y12.607 Z11.300 I0.621 J3.001 K0.000 F480.000
G1 X-8.746 Y6.745 Z11.300 F480.000
