(Exported by FreeCAD)
(Post Processor: grbl_post)
(Output Time:2022-09-03 13:44:36.649755)
(begin preamble)
G17 G90
G21
(begin operation: T2: Mill Bit standard)
(Path: T2: Mill Bit standard)
(T2: Mill Bit standard)
(begin toolchange)
; M6 T2
M3 S0.0000
(finish operation: T2: Mill Bit standard)
(begin operation: Pocket_3D003)
(Path: Pocket_3D003)
(Pocket_3D003)
G0 Z20.8000
G0 X14.4599 Y14.4599
G0 Z18.8000
G1 X14.4599 Y14.4599 Z15.3000 F360.00
G2 X-1.1931 Y-20.4139 Z15.3000 I-14.4597 J-14.4597 F1440.00
G1 X-1.1747 Y-19.7942 Z15.3000 F1440.00
G3 X19.7942 Y-1.1747 Z15.3000 I1.1747 J19.7942 F1440.00
G3 X1.1747 Y19.7942 Z15.3000 I-19.7942 J1.1747 F1440.00
G3 X-19.7942 Y1.1747 Z15.3000 I-1.1747 J-19.7942 F1440.00
G3 X-1.1747 Y-19.7942 Z15.3000 I19.7942 J-1.1747 F1440.00
G1 X-1.1931 Y-20.4139 Z15.3000 F1440.00
G2 X-20.4139 Y1.2025 Z15.3000 I1.1928 J20.4142 F1440.00
G2 X1.2114 Y20.4134 Z15.3000 I20.4137 J-1.2022 F1440.00
G2 X14.4599 Y14.4599 Z15.3000 I-1.2112 J-20.4132 F1440.00
G0 X14.4599 Y14.4599 Z20.8000
G0 X14.0213 Y14.0213 Z20.8000
G1 X14.0213 Y14.0213 Z15.3000 F360.00
G2 X-1.1747 Y-19.7942 Z15.3000 I-14.0213 J-14.0213 F1440.00
G2 X-19.7942 Y1.1747 Z15.3000 I1.1747 J19.7942 F1440.00
G2 X1.1747 Y19.7942 Z15.3000 I19.7942 J-1.1747 F1440.00
G2 X14.0213 Y14.0213 Z15.3000 I-1.1747 J-19.7942 F1440.00
G1 X14.0213 Y14.0213 Z14.8000 F360.00
G3 X1.1747 Y19.7942 Z14.8000 I-14.0213 J-14.0213 F1440.00
G3 X-19.7942 Y1.1747 Z14.8000 I-1.1747 J-19.7942 F1440.00
G3 X-1.1747 Y-19.7942 Z14.8000 I19.7942 J-1.1747 F1440.00
G1 X-1.1931 Y-20.4139 Z14.8000 F1440.00
G2 X-20.4139 Y1.2025 Z14.8000 I1.1928 J20.4142 F1440.00
G2 X1.2114 Y20.4134 Z14.8000 I20.4137 J-1.2022 F1440.00
G2 X-1.1931 Y-20.4139 Z14.8000 I-1.2112 J-20.4132 F1440.00
G1 X-1.1747 Y-19.7942 Z14.8000 F1440.00
G3 X14.0213 Y14.0213 Z14.8000 I1.1747 J19.7942 F1440.00
G0 X14.0213 Y14.0213 Z20.8000
G0 X14.0222 Y14.0222 Z20.8000
G1 X14.0222 Y14.0222 Z14.8000 F360.00
G2 X-0.2948 Y-19.8203 Z14.8000 I-14.0187 J-14.0190 F1440.00
G1 X-1.1747 Y-19.7942 Z14.8000 F1440.00
G2 X-19.7942 Y1.1747 Z14.8000 I1.1747 J19.7942 F1440.00
G2 X1.1747 Y19.7942 Z14.8000 I19.7942 J-1.1747 F1440.00
G2 X14.0222 Y14.0222 Z14.8000 I-1.1712 J-19.7911 F1440.00
G0 X14.0222 Y14.0222 Z20.8000
G0 X7.8131 Y7.8127 Z20.8000
G1 X7.8131 Y7.8127 Z14.8000 F360.00
G2 X-0.0348 Y-11.0496 Z14.8000 I-7.8127 J-7.8132 F1440.00
G1 X-0.2948 Y-19.8203 Z14.8000 F1440.00
G1 X-0.0348 Y-11.0496 Z14.8000 F1440.00
G2 X-11.0496 Y0.0517 Z14.8000 I0.0343 J11.0491 F1440.00
G2 X0.0695 Y11.0484 Z14.8000 I11.0490 J-0.0522 F1440.00
G2 X7.8131 Y7.8127 Z14.8000 I-0.0691 J-11.0489 F1440.00
G0 X7.8131 Y7.8127 Z20.8000
G0 X1.2000 Y3.4500 Z20.8000
G1 X1.2000 Y3.4500 Z14.8000 F360.00
G1 X1.2000 Y1.7500 Z14.8000 F1440.00
G3 X2.9500 Y0.2000 Z14.8000 I1.5699 J0.0096 F1440.00
G1 X2.9500 Y-0.2000 Z14.8000 F1440.00
G3 X1.2000 Y-1.7500 Z14.8000 I-0.1801 J-1.5596 F1440.00
G1 X1.2000 Y-3.4500 Z14.8000 F1440.00
G1 X-0.5800 Y-3.4500 Z14.8000 F1440.00
G1 X-0.5800 Y-2.8300 Z14.8000 F1440.00
G1 X-0.5800 Y-1.7500 Z14.8000 F1440.00
G1 X-0.5800 Y-2.8300 Z14.8000 F1440.00
G1 X-0.5800 Y-3.4500 Z14.8000 F1440.00
G1 X-1.2000 Y-3.4500 Z14.8000 F1440.00
G1 X-1.2000 Y-1.7500 Z14.8000 F1440.00
G3 X-2.9500 Y-0.2000 Z14.8000 I-1.5699 J-0.0096 F1440.00
G1 X-2.9500 Y0.2000 Z14.8000 F1440.00
G3 X-1.2000 Y1.7500 Z14.8000 I0.1801 J1.5596 F1440.00
G1 X-1.2000 Y3.4500 Z14.8000 F1440.00
G1 X1.2000 Y3.4500 Z14.8000 F1440.00
G0 X1.2000 Y3.4500 Z20.8000
G0 X0.5800 Y2.8300 Z20.8000
G1 X0.5800 Y2.8300 Z14.8000 F360.00
G1 X0.5800 Y1.7500 Z14.8000 F1440.00
G1 X0.5800 Y2.8300 Z14.8000 F1440.00
G1 X-0.5800 Y2.8300 Z14.8000 F1440.00
G2 X-0.6276 Y1.3012 Z14.8000 I-6.8143 J-0.5529 F1440.00
G2 X-1.4747 Y-0.0000 Z14.8000 I-2.0877 J0.4327 F1440.00
G2 X-0.5800 Y-1.7500 Z14.8000 I-1.2550 J-1.7454 F1440.00
G3 X-1.4747 Y-0.0000 Z14.8000 I-2.1497 J0.0046 F1440.00
G3 X-0.6276 Y1.3012 Z14.8000 I-1.2406 J1.7340 F1440.00
G3 X-0.5800 Y2.8300 Z14.8000 I-6.7667 J0.9759 F1440.00
G1 X0.5800 Y2.8300 Z14.8000 F1440.00
G0 X0.5800 Y2.8300 Z20.8000
G0 X0.5800 Y1.7500 Z20.8000
G1 X0.5800 Y1.7500 Z14.8000 F360.00
G3 X1.4747 Y-0.0000 Z14.8000 I2.1497 J-0.0046 F1440.00
G2 X0.5800 Y1.7500 Z14.8000 I1.2550 J1.7454 F1440.00
G0 X0.5800 Y1.7500 Z20.8000
G0 X1.4747 Y-0.0000 Z20.8000
G1 X1.4747 Y-0.0000 Z14.8000 F360.00
G3 X0.6276 Y-1.3012 Z14.8000 I1.2406 J-1.7340 F1440.00
G2 X1.4747 Y-0.0000 Z14.8000 I2.0877 J-0.4327 F1440.00
G0 X1.4747 Y-0.0000 Z20.8000
G0 X0.6276 Y-1.3012 Z20.8000
G1 X0.6276 Y-1.3012 Z14.8000 F360.00
G3 X0.5800 Y-2.8300 Z14.8000 I6.7667 J-0.9759 F1440.00
G2 X0.6276 Y-1.3012 Z14.8000 I6.8143 J0.5529 F1440.00
G0 X0.6276 Y-1.3012 Z20.8000
G0 X0.5800 Y-2.8300 Z20.8000
G1 X0.5800 Y-2.8300 Z14.8000 F360.00
G1 X-0.5800 Y-2.8300 Z14.8000 F1440.00
G1 X0.5800 Y-2.8300 Z14.8000 F1440.00
G1 X0.5800 Y-2.8300 Z14.3000 F360.00
G2 X0.6276 Y-1.3012 Z14.3000 I6.8143 J0.5529 F1440.00
G3 X0.5800 Y-2.8300 Z14.3000 I6.7667 J-0.9759 F1440.00
G1 X0.5800 Y-2.8300 Z14.3000 F360.00
G1 X-0.5800 Y-2.8300 Z14.3000 F1440.00
G1 X0.5800 Y-2.8300 Z14.3000 F1440.00
G0 X0.5800 Y-2.8300 Z20.8000
G0 X0.5800 Y-3.4500 Z20.8000
G1 X0.5800 Y-3.4500 Z14.3000 F360.00
G1 X-0.5800 Y-3.4500 Z14.3000 F1440.00
G1 X-0.5800 Y-2.8300 Z14.3000 F1440.00
G1 X-0.5800 Y-1.7500 Z14.3000 F1440.00
G1 X-0.5800 Y-2.8300 Z14.3000 F1440.00
G1 X-0.5800 Y-3.4500 Z14.3000 F1440.00
G1 X-1.2000 Y-3.4500 Z14.3000 F1440.00
G1 X-1.2000 Y-1.7500 Z14.3000 F1440.00
G3 X-2.9500 Y-0.2000 Z14.3000 I-1.5699 J-0.0096 F1440.00
G1 X-2.9500 Y0.2000 Z14.3000 F1440.00
G3 X-1.2000 Y1.7500 Z14.3000 I0.1801 J1.5596 F1440.00
G1 X-1.2000 Y3.4500 Z14.3000 F1440.00
G1 X1.2000 Y3.4500 Z14.3000 F1440.00
G1 X1.2000 Y1.7500 Z14.3000 F1440.00
G3 X2.9500 Y0.2000 Z14.3000 I1.5699 J0.0096 F1440.00
G1 X2.9500 Y-0.2000 Z14.3000 F1440.00
G3 X1.2000 Y-1.7500 Z14.3000 I-0.1801 J-1.5596 F1440.00
G1 X1.2000 Y-3.4500 Z14.3000 F1440.00
G1 X0.5800 Y-3.4500 Z14.3000 F1440.00
G0 X0.5800 Y-3.4500 Z20.8000
G0 X-0.5800 Y-1.7500 Z20.8000
G1 X-0.5800 Y-1.7500 Z14.3000 F360.00
G3 X-1.4747 Y-0.0000 Z14.3000 I-2.1497 J0.0046 F1440.00
G3 X-0.6276 Y1.3012 Z14.3000 I-1.2406 J1.7340 F1440.00
G3 X-0.5800 Y2.8300 Z14.3000 I-6.7667 J0.9759 F1440.00
G1 X0.5800 Y2.8300 Z14.3000 F1440.00
G1 X0.5800 Y1.7500 Z14.3000 F1440.00
G1 X0.5800 Y2.8300 Z14.3000 F1440.00
G1 X-0.5800 Y2.8300 Z14.3000 F1440.00
G2 X-0.6276 Y1.3012 Z14.3000 I-6.8143 J-0.5529 F1440.00
G2 X-1.4747 Y-0.0000 Z14.3000 I-2.0877 J0.4327 F1440.00
G2 X-0.5800 Y-1.7500 Z14.3000 I-1.2550 J-1.7454 F1440.00
G0 X-0.5800 Y-1.7500 Z20.8000
G0 X0.6276 Y-1.3012 Z20.8000
G1 X0.6276 Y-1.3012 Z14.3000 F360.00
G2 X1.4747 Y-0.0000 Z14.3000 I2.0877 J-0.4327 F1440.00
G3 X0.6276 Y-1.3012 Z14.3000 I1.2406 J-1.7340 F1440.00
G0 X0.6276 Y-1.3012 Z20.8000
G0 X1.4747 Y-0.0000 Z20.8000
G1 X1.4747 Y-0.0000 Z14.3000 F360.00
G2 X0.5800 Y1.7500 Z14.3000 I1.2550 J1.7454 F1440.00
G3 X1.4747 Y-0.0000 Z14.3000 I2.1497 J-0.0046 F1440.00
G0 X1.4747 Y-0.0000 Z20.8000
G0 X11.0496 Y0.0033 Z20.8000
G1 X11.0496 Y0.0033 Z14.3000 F360.00
G2 X-0.0348 Y-11.0496 Z14.3000 I-11.0492 J-0.0038 F1440.00
G1 X-0.2948 Y-19.8203 Z14.3000 F1440.00
G1 X-0.0348 Y-11.0496 Z14.3000 F1440.00
G2 X-11.0496 Y0.0517 Z14.3000 I0.0343 J11.0491 F1440.00
G2 X0.0695 Y11.0484 Z14.3000 I11.0490 J-0.0522 F1440.00
G2 X11.0496 Y0.0033 Z14.3000 I-0.0691 J-11.0489 F1440.00
G0 X11.0496 Y0.0033 Z20.8000
G0 X19.8290 Y0.0059 Z20.8000
G1 X19.8290 Y0.0059 Z14.3000 F360.00
G3 X1.1747 Y19.7942 Z14.3000 I-19.8290 J-0.0059 F1440.00
G3 X-19.7942 Y1.1747 Z14.3000 I-1.1747 J-19.7942 F1440.00
G3 X-1.1747 Y-19.7942 Z14.3000 I19.7942 J-1.1747 F1440.00
G1 X-1.1931 Y-20.4139 Z14.3000 F1440.00
G2 X-20.4139 Y1.2025 Z14.3000 I1.1928 J20.4142 F1440.00
G2 X1.2114 Y20.4134 Z14.3000 I20.4137 J-1.2022 F1440.00
G2 X-1.1931 Y-20.4139 Z14.3000 I-1.2112 J-20.4132 F1440.00
G1 X-1.1747 Y-19.7942 Z14.3000 F1440.00
G3 X19.8290 Y0.0059 Z14.3000 I1.1747 J19.7942 F1440.00
G0 X19.8290 Y0.0059 Z20.8000
G0 X19.8291 Y0.0059 Z20.8000
G1 X19.8291 Y0.0059 Z14.3000 F360.00
G2 X-0.2948 Y-19.8203 Z14.3000 I-19.8257 J-0.0027 F1440.00
G1 X-1.1747 Y-19.7942 Z14.3000 F1440.00
G2 X-19.7942 Y1.1747 Z14.3000 I1.1747 J19.7942 F1440.00
G2 X1.1747 Y19.7942 Z14.3000 I19.7942 J-1.1747 F1440.00
G2 X19.8291 Y0.0059 Z14.3000 I-1.1712 J-19.7911 F1440.00
G1 X19.8291 Y0.0059 Z13.8000 F360.00
G2 X-0.2948 Y-19.8203 Z13.8000 I-19.8257 J-0.0027 F1440.00
G1 X-1.1747 Y-19.7942 Z13.8000 F1440.00
G2 X-19.7942 Y1.1747 Z13.8000 I1.1747 J19.7942 F1440.00
G2 X1.1747 Y19.7942 Z13.8000 I19.7942 J-1.1747 F1440.00
G2 X19.8291 Y0.0059 Z13.8000 I-1.1712 J-19.7911 F1440.00
G0 X19.8291 Y0.0059 Z20.8000
G0 X19.8290 Y0.0059 Z20.8000
G1 X19.8290 Y0.0059 Z13.8000 F360.00
G3 X1.1747 Y19.7942 Z13.8000 I-19.8290 J-0.0059 F1440.00
G3 X-19.7942 Y1.1747 Z13.8000 I-1.1747 J-19.7942 F1440.00
G3 X-1.1747 Y-19.7942 Z13.8000 I19.7942 J-1.1747 F1440.00
G1 X-1.1931 Y-20.4139 Z13.8000 F1440.00
G2 X-20.4139 Y1.2025 Z13.8000 I1.1928 J20.4142 F1440.00
G2 X1.2114 Y20.4134 Z13.8000 I20.4137 J-1.2022 F1440.00
G2 X-1.1931 Y-20.4139 Z13.8000 I-1.2112 J-20.4132 F1440.00
G1 X-1.1747 Y-19.7942 Z13.8000 F1440.00
G3 X19.8290 Y0.0059 Z13.8000 I1.1747 J19.7942 F1440.00
G0 X19.8290 Y0.0059 Z20.8000
G0 X11.0496 Y0.0031 Z20.8000
G1 X11.0496 Y0.0031 Z13.8000 F360.00
G2 X-0.0348 Y-11.0496 Z13.8000 I-11.0492 J-0.0036 F1440.00
G1 X-0.2948 Y-19.8203 Z13.8000 F1440.00
G1 X-0.0348 Y-11.0496 Z13.8000 F1440.00
G2 X-11.0496 Y0.0517 Z13.8000 I0.0343 J11.0491 F1440.00
G2 X0.0695 Y11.0484 Z13.8000 I11.0490 J-0.0522 F1440.00
G2 X11.0496 Y0.0031 Z13.8000 I-0.0691 J-11.0489 F1440.00
G0 X11.0496 Y0.0031 Z20.8000
G0 X2.9500 Y0.0031 Z20.8000
G1 X2.9500 Y0.0031 Z13.8000 F360.00
G1 X2.9500 Y-0.2000 Z13.8000 F1440.00
G3 X1.2000 Y-1.7500 Z13.8000 I-0.1801 J-1.5596 F1440.00
G1 X1.2000 Y-3.4500 Z13.8000 F1440.00
G1 X-0.5800 Y-3.4500 Z13.8000 F1440.00
G1 X-0.5800 Y-2.8300 Z13.8000 F1440.00
G1 X-0.5800 Y-1.7500 Z13.8000 F1440.00
G1 X-0.5800 Y-2.8300 Z13.8000 F1440.00
G1 X-0.5800 Y-3.4500 Z13.8000 F1440.00
G1 X-1.2000 Y-3.4500 Z13.8000 F1440.00
G1 X-1.2000 Y-1.7500 Z13.8000 F1440.00
G3 X-2.9500 Y-0.2000 Z13.8000 I-1.5699 J-0.0096 F1440.00
G1 X-2.9500 Y0.2000 Z13.8000 F1440.00
G3 X-1.2000 Y1.7500 Z13.8000 I0.1801 J1.5596 F1440.00
G1 X-1.2000 Y3.4500 Z13.8000 F1440.00
G1 X1.2000 Y3.4500 Z13.8000 F1440.00
G1 X1.2000 Y1.7500 Z13.8000 F1440.00
G3 X2.9500 Y0.2000 Z13.8000 I1.5699 J0.0096 F1440.00
G1 X2.9500 Y0.0031 Z13.8000 F1440.00
G0 X2.9500 Y0.0031 Z20.8000
G0 X1.4747 Y-0.0000 Z20.8000
G1 X1.4747 Y-0.0000 Z13.8000 F360.00
G2 X0.5800 Y1.7500 Z13.8000 I1.2550 J1.7454 F1440.00
G3 X1.4747 Y-0.0000 Z13.8000 I2.1497 J-0.0046 F1440.00
G1 X1.4747 Y-0.0000 Z13.8000 F360.00
G3 X0.6276 Y-1.3012 Z13.8000 I1.2406 J-1.7340 F1440.00
G2 X1.4747 Y-0.0000 Z13.8000 I2.0877 J-0.4327 F1440.00
G0 X1.4747 Y-0.0000 Z20.8000
G0 X0.6276 Y-1.3012 Z20.8000
G1 X0.6276 Y-1.3012 Z13.8000 F360.00
G3 X0.5800 Y-2.8300 Z13.8000 I6.7667 J-0.9759 F1440.00
G2 X0.6276 Y-1.3012 Z13.8000 I6.8143 J0.5529 F1440.00
G0 X0.6276 Y-1.3012 Z20.8000
G0 X-0.5986 Y-1.4634 Z20.8000
G1 X-0.5986 Y-1.4634 Z13.8000 F360.00
G3 X-1.4747 Y-0.0000 Z13.8000 I-2.1312 J-0.2819 F1440.00
G3 X-0.6276 Y1.3012 Z13.8000 I-1.2406 J1.7340 F1440.00
G3 X-0.5800 Y2.8300 Z13.8000 I-6.7667 J0.9759 F1440.00
G1 X0.5800 Y2.8300 Z13.8000 F1440.00
G1 X0.5800 Y1.7500 Z13.8000 F1440.00
G1 X0.5800 Y2.8300 Z13.8000 F1440.00
G1 X-0.5800 Y2.8300 Z13.8000 F1440.00
G2 X-0.6276 Y1.3012 Z13.8000 I-6.8143 J-0.5529 F1440.00
G2 X-1.4747 Y-0.0000 Z13.8000 I-2.0877 J0.4327 F1440.00
G2 X-0.5800 Y-1.7500 Z13.8000 I-1.2550 J-1.7454 F1440.00
G3 X-0.5986 Y-1.4634 Z13.8000 I-2.1497 J0.0046 F1440.00
G0 X-0.5986 Y-1.4634 Z20.8000
G0 X-0.5800 Y-2.8300 Z20.8000
G1 X-0.5800 Y-2.8300 Z13.8000 F360.00
G1 X0.5800 Y-2.8300 Z13.8000 F1440.00
G1 X-0.5800 Y-2.8300 Z13.8000 F1440.00
G1 X-0.5800 Y-2.8300 Z13.3000 F360.00
G1 X0.5800 Y-2.8300 Z13.3000 F1440.00
G1 X-0.5800 Y-2.8300 Z13.3000 F1440.00
G1 X-0.5800 Y-2.8300 Z13.3000 F360.00
G1 X-0.5800 Y-1.7500 Z13.3000 F1440.00
G1 X-0.5800 Y-2.8300 Z13.3000 F1440.00
G1 X-0.5800 Y-3.4500 Z13.3000 F1440.00
G1 X-1.2000 Y-3.4500 Z13.3000 F1440.00
G1 X-1.2000 Y-1.7500 Z13.3000 F1440.00
G3 X-2.9500 Y-0.2000 Z13.3000 I-1.5699 J-0.0096 F1440.00
G1 X-2.9500 Y0.2000 Z13.3000 F1440.00
G3 X-1.2000 Y1.7500 Z13.3000 I0.1801 J1.5596 F1440.00
G1 X-1.2000 Y3.4500 Z13.3000 F1440.00
G1 X1.2000 Y3.4500 Z13.3000 F1440.00
G1 X1.2000 Y1.7500 Z13.3000 F1440.00
G3 X2.9500 Y0.2000 Z13.3000 I1.5699 J0.0096 F1440.00
G1 X2.9500 Y-0.2000 Z13.3000 F1440.00
G3 X1.2000 Y-1.7500 Z13.3000 I-0.1801 J-1.5596 F1440.00
G1 X1.2000 Y-3.4500 Z13.3000 F1440.00
G1 X-0.5800 Y-3.4500 Z13.3000 F1440.00
G1 X-0.5800 Y-2.8300 Z13.3000 F1440.00
G0 X-0.5800 Y-2.8300 Z20.8000
G0 X-0.5800 Y-1.7500 Z20.8000
G1 X-0.5800 Y-1.7500 Z13.3000 F360.00
G3 X-1.4747 Y-0.0000 Z13.3000 I-2.1497 J0.0046 F1440.00
G3 X-0.6276 Y1.3012 Z13.3000 I-1.2406 J1.7340 F1440.00
G3 X-0.5800 Y2.8300 Z13.3000 I-6.7667 J0.9759 F1440.00
G1 X0.5800 Y2.8300 Z13.3000 F1440.00
G1 X0.5800 Y1.7500 Z13.3000 F1440.00
G1 X0.5800 Y2.8300 Z13.3000 F1440.00
G1 X-0.5800 Y2.8300 Z13.3000 F1440.00
G2 X-0.6276 Y1.3012 Z13.3000 I-6.8143 J-0.5529 F1440.00
G2 X-1.4747 Y-0.0000 Z13.3000 I-2.0877 J0.4327 F1440.00
G2 X-0.5800 Y-1.7500 Z13.3000 I-1.2550 J-1.7454 F1440.00
G0 X-0.5800 Y-1.7500 Z20.8000
G0 X0.5725 Y-1.8262 Z20.8000
G1 X0.5725 Y-1.8262 Z13.3000 F360.00
G3 X0.5800 Y-2.8300 Z13.3000 I6.8218 J-0.4510 F1440.00
G2 X0.6276 Y-1.3012 Z13.3000 I6.8143 J0.5529 F1440.00
G3 X0.5725 Y-1.8262 Z13.3000 I6.7667 J-0.9759 F1440.00
G0 X0.5725 Y-1.8262 Z20.8000
G0 X0.6276 Y-1.3012 Z20.8000
G1 X0.6276 Y-1.3012 Z13.3000 F360.00
G2 X1.4747 Y-0.0000 Z13.3000 I2.0877 J-0.4327 F1440.00
G3 X0.6276 Y-1.3012 Z13.3000 I1.2406 J-1.7340 F1440.00
G0 X0.6276 Y-1.3012 Z20.8000
G0 X1.4747 Y-0.0000 Z20.8000
G1 X1.4747 Y-0.0000 Z13.3000 F360.00
G2 X0.5800 Y1.7500 Z13.3000 I1.2550 J1.7454 F1440.00
G3 X1.4747 Y-0.0000 Z13.3000 I2.1497 J-0.0046 F1440.00
G0 X1.4747 Y-0.0000 Z20.8000
G0 X11.0496 Y0.0033 Z20.8000
G1 X11.0496 Y0.0033 Z13.3000 F360.00
G2 X-0.0348 Y-11.0496 Z13.3000 I-11.0492 J-0.0038 F1440.00
G1 X-0.2948 Y-19.8203 Z13.3000 F1440.00
G1 X-0.0348 Y-11.0496 Z13.3000 F1440.00
G2 X-11.0496 Y0.0517 Z13.3000 I0.0343 J11.0491 F1440.00
G2 X0.0695 Y11.0484 Z13.3000 I11.0490 J-0.0522 F1440.00
G2 X11.0496 Y0.0033 Z13.3000 I-0.0691 J-11.0489 F1440.00
G0 X11.0496 Y0.0033 Z20.8000
G0 X19.8290 Y0.0059 Z20.8000
G1 X19.8290 Y0.0059 Z13.3000 F360.00
G3 X1.1747 Y19.7942 Z13.3000 I-19.8290 J-0.0059 F1440.00
G3 X-19.7942 Y1.1747 Z13.3000 I-1.1747 J-19.7942 F1440.00
G3 X-1.1747 Y-19.7942 Z13.3000 I19.7942 J-1.1747 F1440.00
G1 X-1.1931 Y-20.4139 Z13.3000 F1440.00
G2 X-20.4139 Y1.2025 Z13.3000 I1.1928 J20.4142 F1440.00
G2 X1.2114 Y20.4134 Z13.3000 I20.4137 J-1.2022 F1440.00
G2 X-1.1931 Y-20.4139 Z13.3000 I-1.2112 J-20.4132 F1440.00
G1 X-1.1747 Y-19.7942 Z13.3000 F1440.00
G3 X19.8290 Y0.0059 Z13.3000 I1.1747 J19.7942 F1440.00
G0 X19.8290 Y0.0059 Z20.8000
G0 X19.8291 Y0.0059 Z20.8000
G1 X19.8291 Y0.0059 Z13.3000 F360.00
G2 X-0.2948 Y-19.8203 Z13.3000 I-19.8257 J-0.0027 F1440.00
G1 X-1.1747 Y-19.7942 Z13.3000 F1440.00
G2 X-19.7942 Y1.1747 Z13.3000 I1.1747 J19.7942 F1440.00
G2 X1.1747 Y19.7942 Z13.3000 I19.7942 J-1.1747 F1440.00
G2 X19.8291 Y0.0059 Z13.3000 I-1.1712 J-19.7911 F1440.00
G1 X19.8291 Y0.0059 Z12.8000 F360.00
G2 X-0.2948 Y-19.8203 Z12.8000 I-19.8257 J-0.0027 F1440.00
G1 X-1.1747 Y-19.7942 Z12.8000 F1440.00
G2 X-19.7942 Y1.1747 Z12.8000 I1.1747 J19.7942 F1440.00
G2 X1.1747 Y19.7942 Z12.8000 I19.7942 J-1.1747 F1440.00
G2 X19.8291 Y0.0059 Z12.8000 I-1.1712 J-19.7911 F1440.00
G0 X19.8291 Y0.0059 Z20.8000
G0 X19.8290 Y0.0059 Z20.8000
G1 X19.8290 Y0.0059 Z12.8000 F360.00
G3 X1.1747 Y19.7942 Z12.8000 I-19.8290 J-0.0059 F1440.00
G3 X-19.7942 Y1.1747 Z12.8000 I-1.1747 J-19.7942 F1440.00
G3 X-1.1747 Y-19.7942 Z12.8000 I19.7942 J-1.1747 F1440.00
G1 X-1.1931 Y-20.4139 Z12.8000 F1440.00
G2 X-20.4139 Y1.2025 Z12.8000 I1.1928 J20.4142 F1440.00
G2 X1.2114 Y20.4134 Z12.8000 I20.4137 J-1.2022 F1440.00
G2 X-1.1931 Y-20.4139 Z12.8000 I-1.2112 J-20.4132 F1440.00
G1 X-1.1747 Y-19.7942 Z12.8000 F1440.00
G3 X19.8290 Y0.0059 Z12.8000 I1.1747 J19.7942 F1440.00
G0 X19.8290 Y0.0059 Z20.8000
G0 X11.0496 Y0.0031 Z20.8000
G1 X11.0496 Y0.0031 Z12.8000 F360.00
G2 X-0.0348 Y-11.0496 Z12.8000 I-11.0492 J-0.0036 F1440.00
G1 X-0.2948 Y-19.8203 Z12.8000 F1440.00
G1 X-0.0348 Y-11.0496 Z12.8000 F1440.00
G2 X-11.0496 Y0.0517 Z12.8000 I0.0343 J11.0491 F1440.00
G2 X0.0695 Y11.0484 Z12.8000 I11.0490 J-0.0522 F1440.00
G2 X11.0496 Y0.0031 Z12.8000 I-0.0691 J-11.0489 F1440.00
G0 X11.0496 Y0.0031 Z20.8000
G0 X2.9500 Y0.0031 Z20.8000
G1 X2.9500 Y0.0031 Z12.8000 F360.00
G1 X2.9500 Y-0.2000 Z12.8000 F1440.00
G3 X1.2000 Y-1.7500 Z12.8000 I-0.1801 J-1.5596 F1440.00
G1 X1.2000 Y-3.4500 Z12.8000 F1440.00
G1 X-0.5800 Y-3.4500 Z12.8000 F1440.00
G1 X-0.5800 Y-2.8300 Z12.8000 F1440.00
G1 X-0.5800 Y-1.7500 Z12.8000 F1440.00
G1 X-0.5800 Y-2.8300 Z12.8000 F1440.00
G1 X-0.5800 Y-3.4500 Z12.8000 F1440.00
G1 X-1.2000 Y-3.4500 Z12.8000 F1440.00
G1 X-1.2000 Y-1.7500 Z12.8000 F1440.00
G3 X-2.9500 Y-0.2000 Z12.8000 I-1.5699 J-0.0096 F1440.00
G1 X-2.9500 Y0.2000 Z12.8000 F1440.00
G3 X-1.2000 Y1.7500 Z12.8000 I0.1801 J1.5596 F1440.00
G1 X-1.2000 Y3.4500 Z12.8000 F1440.00
G1 X1.2000 Y3.4500 Z12.8000 F1440.00
G1 X1.2000 Y1.7500 Z12.8000 F1440.00
G3 X2.9500 Y0.2000 Z12.8000 I1.5699 J0.0096 F1440.00
G1 X2.9500 Y0.0031 Z12.8000 F1440.00
G0 X2.9500 Y0.0031 Z20.8000
G0 X1.4747 Y-0.0000 Z20.8000
G1 X1.4747 Y-0.0000 Z12.8000 F360.00
G3 X0.6276 Y-1.3012 Z12.8000 I1.2406 J-1.7340 F1440.00
G2 X1.4747 Y-0.0000 Z12.8000 I2.0877 J-0.4327 F1440.00
G1 X1.4747 Y-0.0000 Z12.8000 F360.00
G2 X0.5800 Y1.7500 Z12.8000 I1.2550 J1.7454 F1440.00
G3 X1.4747 Y-0.0000 Z12.8000 I2.1497 J-0.0046 F1440.00
G0 X1.4747 Y-0.0000 Z20.8000
G0 X0.6276 Y-1.3012 Z20.8000
G1 X0.6276 Y-1.3012 Z12.8000 F360.00
G3 X0.5800 Y-2.8300 Z12.8000 I6.7667 J-0.9759 F1440.00
G2 X0.6276 Y-1.3012 Z12.8000 I6.8143 J0.5529 F1440.00
G0 X0.6276 Y-1.3012 Z20.8000
G0 X-0.5986 Y-1.4634 Z20.8000
G1 X-0.5986 Y-1.4634 Z12.8000 F360.00
G3 X-1.4747 Y-0.0000 Z12.8000 I-2.1312 J-0.2819 F1440.00
G3 X-0.6276 Y1.3012 Z12.8000 I-1.2406 J1.7340 F1440.00
G3 X-0.5800 Y2.8300 Z12.8000 I-6.7667 J0.9759 F1440.00
G1 X0.5800 Y2.8300 Z12.8000 F1440.00
G1 X0.5800 Y1.7500 Z12.8000 F1440.00
G1 X0.5800 Y2.8300 Z12.8000 F1440.00
G1 X-0.5800 Y2.8300 Z12.8000 F1440.00
G2 X-0.6276 Y1.3012 Z12.8000 I-6.8143 J-0.5529 F1440.00
G2 X-1.4747 Y-0.0000 Z12.8000 I-2.0877 J0.4327 F1440.00
G2 X-0.5800 Y-1.7500 Z12.8000 I-1.2550 J-1.7454 F1440.00
G3 X-0.5986 Y-1.4634 Z12.8000 I-2.1497 J0.0046 F1440.00
G0 X-0.5986 Y-1.4634 Z20.8000
G0 X-0.5800 Y-2.8300 Z20.8000
G1 X-0.5800 Y-2.8300 Z12.8000 F360.00
G1 X0.5800 Y-2.8300 Z12.8000 F1440.00
G1 X-0.5800 Y-2.8300 Z12.8000 F1440.00
G1 X-0.5800 Y-2.8300 Z12.3000 F360.00
G1 X0.5800 Y-2.8300 Z12.3000 F1440.00
G1 X-0.5800 Y-2.8300 Z12.3000 F1440.00
G1 X-0.5800 Y-2.8300 Z12.3000 F360.00
G1 X-0.5800 Y-1.7500 Z12.3000 F1440.00
G1 X-0.5800 Y-2.8300 Z12.3000 F1440.00
G1 X-0.5800 Y-3.4500 Z12.3000 F1440.00
G1 X-1.2000 Y-3.4500 Z12.3000 F1440.00
G1 X-1.2000 Y-1.7500 Z12.3000 F1440.00
G3 X-2.9500 Y-0.2000 Z12.3000 I-1.5699 J-0.0096 F1440.00
G1 X-2.9500 Y0.2000 Z12.3000 F1440.00
G3 X-1.2000 Y1.7500 Z12.3000 I0.1801 J1.5596 F1440.00
G1 X-1.2000 Y3.4500 Z12.3000 F1440.00
G1 X1.2000 Y3.4500 Z12.3000 F1440.00
G1 X1.2000 Y1.7500 Z12.3000 F1440.00
G3 X2.9500 Y0.2000 Z12.3000 I1.5699 J0.0096 F1440.00
G1 X2.9500 Y-0.2000 Z12.3000 F1440.00
G3 X1.2000 Y-1.7500 Z12.3000 I-0.1801 J-1.5596 F1440.00
G1 X1.2000 Y-3.4500 Z12.3000 F1440.00
G1 X-0.5800 Y-3.4500 Z12.3000 F1440.00
G1 X-0.5800 Y-2.8300 Z12.3000 F1440.00
G0 X-0.5800 Y-2.8300 Z20.8000
G0 X-0.5800 Y-1.7500 Z20.8000
G1 X-0.5800 Y-1.7500 Z12.3000 F360.00
G3 X-1.4747 Y-0.0000 Z12.3000 I-2.1497 J0.0046 F1440.00
G3 X-0.6276 Y1.3012 Z12.3000 I-1.2406 J1.7340 F1440.00
G3 X-0.5800 Y2.8300 Z12.3000 I-6.7667 J0.9759 F1440.00
G1 X0.5800 Y2.8300 Z12.3000 F1440.00
G1 X0.5800 Y1.7500 Z12.3000 F1440.00
G1 X0.5800 Y2.8300 Z12.3000 F1440.00
G1 X-0.5800 Y2.8300 Z12.3000 F1440.00
G2 X-0.6276 Y1.3012 Z12.3000 I-6.8143 J-0.5529 F1440.00
G2 X-1.4747 Y-0.0000 Z12.3000 I-2.0877 J0.4327 F1440.00
G2 X-0.5800 Y-1.7500 Z12.3000 I-1.2550 J-1.7454 F1440.00
G0 X-0.5800 Y-1.7500 Z20.8000
G0 X0.5725 Y-1.8262 Z20.8000
G1 X0.5725 Y-1.8262 Z12.3000 F360.00
G3 X0.5800 Y-2.8300 Z12.3000 I6.8218 J-0.4510 F1440.00
G2 X0.6276 Y-1.3012 Z12.3000 I6.8143 J0.5529 F1440.00
G3 X0.5725 Y-1.8262 Z12.3000 I6.7667 J-0.9759 F1440.00
G0 X0.5725 Y-1.8262 Z20.8000
G0 X0.6276 Y-1.3012 Z20.8000
G1 X0.6276 Y-1.3012 Z12.3000 F360.00
G2 X1.4747 Y-0.0000 Z12.3000 I2.0877 J-0.4327 F1440.00
G3 X0.6276 Y-1.3012 Z12.3000 I1.2406 J-1.7340 F1440.00
G0 X0.6276 Y-1.3012 Z20.8000
G0 X1.4747 Y-0.0000 Z20.8000
G1 X1.4747 Y-0.0000 Z12.3000 F360.00
G2 X0.5800 Y1.7500 Z12.3000 I1.2550 J1.7454 F1440.00
G3 X1.4747 Y-0.0000 Z12.3000 I2.1497 J-0.0046 F1440.00
G0 X1.4747 Y-0.0000 Z20.8000
G0 X11.0496 Y0.0033 Z20.8000
G1 X11.0496 Y0.0033 Z12.3000 F360.00
G2 X-0.0348 Y-11.0496 Z12.3000 I-11.0492 J-0.0038 F1440.00
G1 X-0.2948 Y-19.8203 Z12.3000 F1440.00
G1 X-0.0348 Y-11.0496 Z12.3000 F1440.00
G2 X-11.0496 Y0.0517 Z12.3000 I0.0343 J11.0491 F1440.00
G2 X0.0695 Y11.0484 Z12.3000 I11.0490 J-0.0522 F1440.00
G2 X11.0496 Y0.0033 Z12.3000 I-0.0691 J-11.0489 F1440.00
G0 X11.0496 Y0.0033 Z20.8000
G0 X19.8290 Y0.0059 Z20.8000
G1 X19.8290 Y0.0059 Z12.3000 F360.00
G3 X1.1747 Y19.7942 Z12.3000 I-19.8290 J-0.0059 F1440.00
G3 X-19.7942 Y1.1747 Z12.3000 I-1.1747 J-19.7942 F1440.00
G3 X-1.1747 Y-19.7942 Z12.3000 I19.7942 J-1.1747 F1440.00
G1 X-1.1931 Y-20.4139 Z12.3000 F1440.00
G2 X-20.4139 Y1.2025 Z12.3000 I1.1928 J20.4142 F1440.00
G2 X1.2114 Y20.4134 Z12.3000 I20.4137 J-1.2022 F1440.00
G2 X-1.1931 Y-20.4139 Z12.3000 I-1.2112 J-20.4132 F1440.00
G1 X-1.1747 Y-19.7942 Z12.3000 F1440.00
G3 X19.8290 Y0.0059 Z12.3000 I1.1747 J19.7942 F1440.00
G0 X19.8290 Y0.0059 Z20.8000
G0 X19.8291 Y0.0059 Z20.8000
G1 X19.8291 Y0.0059 Z12.3000 F360.00
G2 X-0.2948 Y-19.8203 Z12.3000 I-19.8257 J-0.0027 F1440.00
G1 X-1.1747 Y-19.7942 Z12.3000 F1440.00
G2 X-19.7942 Y1.1747 Z12.3000 I1.1747 J19.7942 F1440.00
G2 X1.1747 Y19.7942 Z12.3000 I19.7942 J-1.1747 F1440.00
G2 X19.8291 Y0.0059 Z12.3000 I-1.1712 J-19.7911 F1440.00
G1 X19.8291 Y0.0059 Z11.8000 F360.00
G2 X-0.2948 Y-19.8203 Z11.8000 I-19.8257 J-0.0027 F1440.00
G1 X-1.1747 Y-19.7942 Z11.8000 F1440.00
G2 X-19.7942 Y1.1747 Z11.8000 I1.1747 J19.7942 F1440.00
G2 X1.1747 Y19.7942 Z11.8000 I19.7942 J-1.1747 F1440.00
G2 X19.8291 Y0.0059 Z11.8000 I-1.1712 J-19.7911 F1440.00
G0 X19.8291 Y0.0059 Z20.8000
G0 X19.8290 Y0.0059 Z20.8000
G1 X19.8290 Y0.0059 Z11.8000 F360.00
G3 X1.1747 Y19.7942 Z11.8000 I-19.8290 J-0.0059 F1440.00
G3 X-19.7942 Y1.1747 Z11.8000 I-1.1747 J-19.7942 F1440.00
G3 X-1.1747 Y-19.7942 Z11.8000 I19.7942 J-1.1747 F1440.00
G1 X-1.1931 Y-20.4139 Z11.8000 F1440.00
G2 X-20.4139 Y1.2025 Z11.8000 I1.1928 J20.4142 F1440.00
G2 X1.2114 Y20.4134 Z11.8000 I20.4137 J-1.2022 F1440.00
G2 X-1.1931 Y-20.4139 Z11.8000 I-1.2112 J-20.4132 F1440.00
G1 X-1.1747 Y-19.7942 Z11.8000 F1440.00
G3 X19.8290 Y0.0059 Z11.8000 I1.1747 J19.7942 F1440.00
G0 X19.8290 Y0.0059 Z20.8000
G0 X11.0496 Y0.0031 Z20.8000
G1 X11.0496 Y0.0031 Z11.8000 F360.00
G2 X-0.0348 Y-11.0496 Z11.8000 I-11.0492 J-0.0036 F1440.00
G1 X-0.2948 Y-19.8203 Z11.8000 F1440.00
G1 X-0.0348 Y-11.0496 Z11.8000 F1440.00
G2 X-11.0496 Y0.0517 Z11.8000 I0.0343 J11.0491 F1440.00
G2 X0.0695 Y11.0484 Z11.8000 I11.0490 J-0.0522 F1440.00
G2 X11.0496 Y0.0031 Z11.8000 I-0.0691 J-11.0489 F1440.00
G0 X11.0496 Y0.0031 Z20.8000
G0 X2.9500 Y0.0031 Z20.8000
G1 X2.9500 Y0.0031 Z11.8000 F360.00
G1 X2.9500 Y-0.2000 Z11.8000 F1440.00
G3 X1.2000 Y-1.7500 Z11.8000 I-0.1801 J-1.5596 F1440.00
G1 X1.2000 Y-3.4500 Z11.8000 F1440.00
G1 X-0.5800 Y-3.4500 Z11.8000 F1440.00
G1 X-0.5800 Y-2.8300 Z11.8000 F1440.00
G1 X-0.5800 Y-1.7500 Z11.8000 F1440.00
G1 X-0.5800 Y-2.8300 Z11.8000 F1440.00
G1 X-0.5800 Y-3.4500 Z11.8000 F1440.00
G1 X-1.2000 Y-3.4500 Z11.8000 F1440.00
G1 X-1.2000 Y-1.7500 Z11.8000 F1440.00
G3 X-2.9500 Y-0.2000 Z11.8000 I-1.5699 J-0.0096 F1440.00
G1 X-2.9500 Y0.2000 Z11.8000 F1440.00
G3 X-1.2000 Y1.7500 Z11.8000 I0.1801 J1.5596 F1440.00
G1 X-1.2000 Y3.4500 Z11.8000 F1440.00
G1 X1.2000 Y3.4500 Z11.8000 F1440.00
G1 X1.2000 Y1.7500 Z11.8000 F1440.00
G3 X2.9500 Y0.2000 Z11.8000 I1.5699 J0.0096 F1440.00
G1 X2.9500 Y0.0031 Z11.8000 F1440.00
G0 X2.9500 Y0.0031 Z20.8000
G0 X1.4747 Y-0.0000 Z20.8000
G1 X1.4747 Y-0.0000 Z11.8000 F360.00
G3 X0.6276 Y-1.3012 Z11.8000 I1.2406 J-1.7340 F1440.00
G2 X1.4747 Y-0.0000 Z11.8000 I2.0877 J-0.4327 F1440.00
G1 X1.4747 Y-0.0000 Z11.8000 F360.00
G2 X0.5800 Y1.7500 Z11.8000 I1.2550 J1.7454 F1440.00
G3 X1.4747 Y-0.0000 Z11.8000 I2.1497 J-0.0046 F1440.00
G0 X1.4747 Y-0.0000 Z20.8000
G0 X0.6276 Y-1.3012 Z20.8000
G1 X0.6276 Y-1.3012 Z11.8000 F360.00
G3 X0.5800 Y-2.8300 Z11.8000 I6.7667 J-0.9759 F1440.00
G2 X0.6276 Y-1.3012 Z11.8000 I6.8143 J0.5529 F1440.00
G0 X0.6276 Y-1.3012 Z20.8000
G0 X-0.5986 Y-1.4634 Z20.8000
G1 X-0.5986 Y-1.4634 Z11.8000 F360.00
G3 X-1.4747 Y-0.0000 Z11.8000 I-2.1312 J-0.2819 F1440.00
G3 X-0.6276 Y1.3012 Z11.8000 I-1.2406 J1.7340 F1440.00
G3 X-0.5800 Y2.8300 Z11.8000 I-6.7667 J0.9759 F1440.00
G1 X0.5800 Y2.8300 Z11.8000 F1440.00
G1 X0.5800 Y1.7500 Z11.8000 F1440.00
G1 X0.5800 Y2.8300 Z11.8000 F1440.00
G1 X-0.5800 Y2.8300 Z11.8000 F1440.00
G2 X-0.6276 Y1.3012 Z11.8000 I-6.8143 J-0.5529 F1440.00
G2 X-1.4747 Y-0.0000 Z11.8000 I-2.0877 J0.4327 F1440.00
G2 X-0.5800 Y-1.7500 Z11.8000 I-1.2550 J-1.7454 F1440.00
G3 X-0.5986 Y-1.4634 Z11.8000 I-2.1497 J0.0046 F1440.00
G0 X-0.5986 Y-1.4634 Z20.8000
G0 X-0.5800 Y-2.8300 Z20.8000
G1 X-0.5800 Y-2.8300 Z11.8000 F360.00
G1 X0.5800 Y-2.8300 Z11.8000 F1440.00
G1 X-0.5800 Y-2.8300 Z11.8000 F1440.00
G1 X-0.5800 Y-2.8300 Z11.3000 F360.00
G1 X0.5800 Y-2.8300 Z11.3000 F1440.00
G1 X-0.5800 Y-2.8300 Z11.3000 F1440.00
G1 X-0.5800 Y-2.8300 Z11.3000 F360.00
G1 X-0.5800 Y-1.7500 Z11.3000 F1440.00
G1 X-0.5800 Y-2.8300 Z11.3000 F1440.00
G1 X-0.5800 Y-3.4500 Z11.3000 F1440.00
G1 X-1.2000 Y-3.4500 Z11.3000 F1440.00
G1 X-1.2000 Y-1.7500 Z11.3000 F1440.00
G3 X-2.9500 Y-0.2000 Z11.3000 I-1.5699 J-0.0096 F1440.00
G1 X-2.9500 Y0.2000 Z11.3000 F1440.00
G3 X-1.2000 Y1.7500 Z11.3000 I0.1801 J1.5596 F1440.00
G1 X-1.2000 Y3.4500 Z11.3000 F1440.00
G1 X1.2000 Y3.4500 Z11.3000 F1440.00
G1 X1.2000 Y1.7500 Z11.3000 F1440.00
G3 X2.9500 Y0.2000 Z11.3000 I1.5699 J0.0096 F1440.00
G1 X2.9500 Y-0.2000 Z11.3000 F1440.00
G3 X1.2000 Y-1.7500 Z11.3000 I-0.1801 J-1.5596 F1440.00
G1 X1.2000 Y-3.4500 Z11.3000 F1440.00
G1 X-0.5800 Y-3.4500 Z11.3000 F1440.00
G1 X-0.5800 Y-2.8300 Z11.3000 F1440.00
G0 X-0.5800 Y-2.8300 Z20.8000
G0 X-0.5800 Y-1.7500 Z20.8000
G1 X-0.5800 Y-1.7500 Z11.3000 F360.00
G3 X-1.4747 Y-0.0000 Z11.3000 I-2.1497 J0.0046 F1440.00
G3 X-0.6276 Y1.3012 Z11.3000 I-1.2406 J1.7340 F1440.00
G3 X-0.5800 Y2.8300 Z11.3000 I-6.7667 J0.9759 F1440.00
G1 X0.5800 Y2.8300 Z11.3000 F1440.00
G1 X0.5800 Y1.7500 Z11.3000 F1440.00
G1 X0.5800 Y2.8300 Z11.3000 F1440.00
G1 X-0.5800 Y2.8300 Z11.3000 F1440.00
G2 X-0.6276 Y1.3012 Z11.3000 I-6.8143 J-0.5529 F1440.00
G2 X-1.4747 Y-0.0000 Z11.3000 I-2.0877 J0.4327 F1440.00
G2 X-0.5800 Y-1.7500 Z11.3000 I-1.2550 J-1.7454 F1440.00
G0 X-0.5800 Y-1.7500 Z20.8000
G0 X0.5725 Y-1.8262 Z20.8000
G1 X0.5725 Y-1.8262 Z11.3000 F360.00
G3 X0.5800 Y-2.8300 Z11.3000 I6.8218 J-0.4510 F1440.00
G2 X0.6276 Y-1.3012 Z11.3000 I6.8143 J0.5529 F1440.00
G3 X0.5725 Y-1.8262 Z11.3000 I6.7667 J-0.9759 F1440.00
G0 X0.5725 Y-1.8262 Z20.8000
G0 X0.6276 Y-1.3012 Z20.8000
G1 X0.6276 Y-1.3012 Z11.3000 F360.00
G2 X1.4747 Y-0.0000 Z11.3000 I2.0877 J-0.4327 F1440.00
G3 X0.6276 Y-1.3012 Z11.3000 I1.2406 J-1.7340 F1440.00
G0 X0.6276 Y-1.3012 Z20.8000
G0 X1.4747 Y-0.0000 Z20.8000
G1 X1.4747 Y-0.0000 Z11.3000 F360.00
G2 X0.5800 Y1.7500 Z11.3000 I1.2550 J1.7454 F1440.00
G3 X1.4747 Y-0.0000 Z11.3000 I2.1497 J-0.0046 F1440.00
G0 X1.4747 Y-0.0000 Z20.8000
G0 X11.0496 Y0.0033 Z20.8000
G1 X11.0496 Y0.0033 Z11.3000 F360.00
G2 X-0.0348 Y-11.0496 Z11.3000 I-11.0492 J-0.0038 F1440.00
G1 X-0.2948 Y-19.8203 Z11.3000 F1440.00
G1 X-0.0348 Y-11.0496 Z11.3000 F1440.00
G2 X-11.0496 Y0.0517 Z11.3000 I0.0343 J11.0491 F1440.00
G2 X0.0695 Y11.0484 Z11.3000 I11.0490 J-0.0522 F1440.00
G2 X11.0496 Y0.0033 Z11.3000 I-0.0691 J-11.0489 F1440.00
G0 X11.0496 Y0.0033 Z20.8000
G0 X19.8290 Y0.0059 Z20.8000
G1 X19.8290 Y0.0059 Z11.3000 F360.00
G3 X1.1747 Y19.7942 Z11.3000 I-19.8290 J-0.0059 F1440.00
G3 X-19.7942 Y1.1747 Z11.3000 I-1.1747 J-19.7942 F1440.00
G3 X-1.1747 Y-19.7942 Z11.3000 I19.7942 J-1.1747 F1440.00
G1 X-1.1931 Y-20.4139 Z11.3000 F1440.00
G2 X-20.4139 Y1.2025 Z11.3000 I1.1928 J20.4142 F1440.00
G2 X1.2114 Y20.4134 Z11.3000 I20.4137 J-1.2022 F1440.00
G2 X-1.1931 Y-20.4139 Z11.3000 I-1.2112 J-20.4132 F1440.00
G1 X-1.1747 Y-19.7942 Z11.3000 F1440.00
G3 X19.8290 Y0.0059 Z11.3000 I1.1747 J19.7942 F1440.00
G0 X19.8290 Y0.0059 Z20.8000
G0 X19.8291 Y0.0059 Z20.8000
G1 X19.8291 Y0.0059 Z11.3000 F360.00
G2 X-0.2948 Y-19.8203 Z11.3000 I-19.8257 J-0.0027 F1440.00
G1 X-1.1747 Y-19.7942 Z11.3000 F1440.00
G2 X-19.7942 Y1.1747 Z11.3000 I1.1747 J19.7942 F1440.00
G2 X1.1747 Y19.7942 Z11.3000 I19.7942 J-1.1747 F1440.00
G2 X19.8291 Y0.0059 Z11.3000 I-1.1712 J-19.7911 F1440.00
G0 X19.8291 Y0.0059 Z20.8000
G0 X16.9492 Y0.0051 Z20.8000
G1 X16.9492 Y0.0051 Z10.8000 F360.00
G2 X-1.0882 Y-16.9135 Z10.8000 I-16.9488 J-0.0048 F1440.00
G1 X-1.0680 Y-16.2939 Z10.8000 F1440.00
G3 X16.2939 Y-1.0680 Z10.8000 I1.0680 J16.2939 F1440.00
G3 X1.0680 Y16.2939 Z10.8000 I-16.2939 J1.0680 F1440.00
G3 X-16.2939 Y1.0680 Z10.8000 I-1.0680 J-16.2939 F1440.00
G3 X-1.0680 Y-16.2939 Z10.8000 I16.2939 J-1.0680 F1440.00
G1 X-1.0882 Y-16.9135 Z10.8000 F1440.00
G2 X-16.9135 Y1.0987 Z10.8000 I1.0879 J16.9139 F1440.00
G2 X1.1085 Y16.9129 Z10.8000 I16.9132 J-1.0984 F1440.00
G2 X16.9492 Y0.0051 Z10.8000 I-1.1082 J-16.9126 F1440.00
G0 X16.9492 Y0.0051 Z20.8000
G0 X16.3290 Y0.0050 Z20.8000
G1 X16.3290 Y0.0050 Z10.8000 F360.00
G2 X-0.2074 Y-16.3220 Z10.8000 I-16.3260 J-0.0024 F1440.00
G1 X-1.0680 Y-16.2939 Z10.8000 F1440.00
G2 X-16.2939 Y1.0680 Z10.8000 I1.0680 J16.2939 F1440.00
G2 X1.0680 Y16.2939 Z10.8000 I16.2939 J-1.0680 F1440.00
G2 X16.3290 Y0.0050 Z10.8000 I-1.0650 J-16.2913 F1440.00
G0 X16.3290 Y0.0050 Z20.8000
G0 X11.0496 Y0.0032 Z20.8000
G1 X11.0496 Y0.0032 Z10.8000 F360.00
G2 X-0.0348 Y-11.0496 Z10.8000 I-11.0492 J-0.0037 F1440.00
G1 X-0.2074 Y-16.3220 Z10.8000 F1440.00
G1 X-0.0348 Y-11.0496 Z10.8000 F1440.00
G2 X-11.0496 Y0.0517 Z10.8000 I0.0343 J11.0491 F1440.00
G2 X0.0695 Y11.0484 Z10.8000 I11.0490 J-0.0522 F1440.00
G2 X11.0496 Y0.0032 Z10.8000 I-0.0691 J-11.0489 F1440.00
G0 X11.0496 Y0.0032 Z20.8000
G0 X2.9500 Y0.0032 Z20.8000
G1 X2.9500 Y0.0032 Z10.8000 F360.00
G1 X2.9500 Y-0.2000 Z10.8000 F1440.00
G3 X1.2000 Y-1.7500 Z10.8000 I-0.1801 J-1.5596 F1440.00
G1 X1.2000 Y-3.4500 Z10.8000 F1440.00
G1 X-0.5800 Y-3.4500 Z10.8000 F1440.00
G1 X-0.5800 Y-2.8300 Z10.8000 F1440.00
G1 X-0.5800 Y-1.7500 Z10.8000 F1440.00
G1 X-0.5800 Y-2.8300 Z10.8000 F1440.00
G1 X-0.5800 Y-3.4500 Z10.8000 F1440.00
G1 X-1.2000 Y-3.4500 Z10.8000 F1440.00
G1 X-1.2000 Y-1.7500 Z10.8000 F1440.00
G3 X-2.9500 Y-0.2000 Z10.8000 I-1.5699 J-0.0096 F1440.00
G1 X-2.9500 Y0.2000 Z10.8000 F1440.00
G3 X-1.2000 Y1.7500 Z10.8000 I0.1801 J1.5596 F1440.00
G1 X-1.2000 Y3.4500 Z10.8000 F1440.00
G1 X1.2000 Y3.4500 Z10.8000 F1440.00
G1 X1.2000 Y1.7500 Z10.8000 F1440.00
G3 X2.9500 Y0.2000 Z10.8000 I1.5699 J0.0096 F1440.00
G1 X2.9500 Y0.0032 Z10.8000 F1440.00
G0 X2.9500 Y0.0032 Z20.8000
G0 X1.4747 Y-0.0000 Z20.8000
G1 X1.4747 Y-0.0000 Z10.8000 F360.00
G2 X0.5800 Y1.7500 Z10.8000 I1.2550 J1.7454 F1440.00
G3 X1.4747 Y-0.0000 Z10.8000 I2.1497 J-0.0046 F1440.00
G1 X1.4747 Y-0.0000 Z10.8000 F360.00
G3 X0.6276 Y-1.3012 Z10.8000 I1.2406 J-1.7340 F1440.00
G2 X1.4747 Y-0.0000 Z10.8000 I2.0877 J-0.4327 F1440.00
G0 X1.4747 Y-0.0000 Z20.8000
G0 X0.6276 Y-1.3012 Z20.8000
G1 X0.6276 Y-1.3012 Z10.8000 F360.00
G3 X0.5800 Y-2.8300 Z10.8000 I6.7667 J-0.9759 F1440.00
G2 X0.6276 Y-1.3012 Z10.8000 I6.8143 J0.5529 F1440.00
G0 X0.6276 Y-1.3012 Z20.8000
G0 X-0.5986 Y-1.4634 Z20.8000
G1 X-0.5986 Y-1.4634 Z10.8000 F360.00
G3 X-1.4747 Y-0.0000 Z10.8000 I-2.1312 J-0.2819 F1440.00
G3 X-0.6276 Y1.3012 Z10.8000 I-1.2406 J1.7340 F1440.00
G3 X-0.5800 Y2.8300 Z10.8000 I-6.7667 J0.9759 F1440.00
G1 X0.5800 Y2.8300 Z10.8000 F1440.00
G1 X0.5800 Y1.7500 Z10.8000 F1440.00
G1 X0.5800 Y2.8300 Z10.8000 F1440.00
G1 X-0.5800 Y2.8300 Z10.8000 F1440.00
G2 X-0.6276 Y1.3012 Z10.8000 I-6.8143 J-0.5529 F1440.00
G2 X-1.4747 Y-0.0000 Z10.8000 I-2.0877 J0.4327 F1440.00
G2 X-0.5800 Y-1.7500 Z10.8000 I-1.2550 J-1.7454 F1440.00
G3 X-0.5986 Y-1.4634 Z10.8000 I-2.1497 J0.0046 F1440.00
G0 X-0.5986 Y-1.4634 Z20.8000
G0 X-0.5800 Y-2.8300 Z20.8000
G1 X-0.5800 Y-2.8300 Z10.8000 F360.00
G1 X0.5800 Y-2.8300 Z10.8000 F1440.00
G1 X-0.5800 Y-2.8300 Z10.8000 F1440.00
G1 X-0.5800 Y-2.8300 Z10.3000 F360.00
G1 X-0.5800 Y-1.7500 Z10.3000 F1440.00
G1 X-0.5800 Y-2.8300 Z10.3000 F1440.00
G1 X-0.5800 Y-3.4500 Z10.3000 F1440.00
G1 X-1.2000 Y-3.4500 Z10.3000 F1440.00
G1 X-1.2000 Y-1.7500 Z10.3000 F1440.00
G3 X-2.9500 Y-0.2000 Z10.3000 I-1.5699 J-0.0096 F1440.00
G1 X-2.9500 Y0.2000 Z10.3000 F1440.00
G3 X-1.2000 Y1.7500 Z10.3000 I0.1801 J1.5596 F1440.00
G1 X-1.2000 Y3.4500 Z10.3000 F1440.00
G1 X1.2000 Y3.4500 Z10.3000 F1440.00
G1 X1.2000 Y1.7500 Z10.3000 F1440.00
G3 X2.9500 Y0.2000 Z10.3000 I1.5699 J0.0096 F1440.00
G1 X2.9500 Y-0.2000 Z10.3000 F1440.00
G3 X1.2000 Y-1.7500 Z10.3000 I-0.1801 J-1.5596 F1440.00
G1 X1.2000 Y-3.4500 Z10.3000 F1440.00
G1 X-0.5800 Y-3.4500 Z10.3000 F1440.00
G1 X-0.5800 Y-2.8300 Z10.3000 F1440.00
G1 X-0.5800 Y-2.8300 Z10.3000 F360.00
G1 X0.5800 Y-2.8300 Z10.3000 F1440.00
G1 X-0.5800 Y-2.8300 Z10.3000 F1440.00
G0 X-0.5800 Y-2.8300 Z20.8000
G0 X-0.5800 Y-1.7500 Z20.8000
G1 X-0.5800 Y-1.7500 Z10.3000 F360.00
G3 X-1.4747 Y-0.0000 Z10.3000 I-2.1497 J0.0046 F1440.00
G3 X-0.6276 Y1.3012 Z10.3000 I-1.2406 J1.7340 F1440.00
G3 X-0.5800 Y2.8300 Z10.3000 I-6.7667 J0.9759 F1440.00
G1 X0.5800 Y2.8300 Z10.3000 F1440.00
G1 X0.5800 Y1.7500 Z10.3000 F1440.00
G1 X0.5800 Y2.8300 Z10.3000 F1440.00
G1 X-0.5800 Y2.8300 Z10.3000 F1440.00
G2 X-0.6276 Y1.3012 Z10.3000 I-6.8143 J-0.5529 F1440.00
G2 X-1.4747 Y-0.0000 Z10.3000 I-2.0877 J0.4327 F1440.00
G2 X-0.5800 Y-1.7500 Z10.3000 I-1.2550 J-1.7454 F1440.00
G0 X-0.5800 Y-1.7500 Z20.8000
G0 X0.5725 Y-1.8262 Z20.8000
G1 X0.5725 Y-1.8262 Z10.3000 F360.00
G3 X0.5800 Y-2.8300 Z10.3000 I6.8218 J-0.4510 F1440.00
G2 X0.6276 Y-1.3012 Z10.3000 I6.8143 J0.5529 F1440.00
G3 X0.5725 Y-1.8262 Z10.3000 I6.7667 J-0.9759 F1440.00
G0 X0.5725 Y-1.8262 Z20.8000
G0 X0.6276 Y-1.3012 Z20.8000
G1 X0.6276 Y-1.3012 Z10.3000 F360.00
G2 X1.4747 Y-0.0000 Z10.3000 I2.0877 J-0.4327 F1440.00
G3 X0.6276 Y-1.3012 Z10.3000 I1.2406 J-1.7340 F1440.00
G0 X0.6276 Y-1.3012 Z20.8000
G0 X1.4747 Y-0.0000 Z20.8000
G1 X1.4747 Y-0.0000 Z10.3000 F360.00
G2 X0.5800 Y1.7500 Z10.3000 I1.2550 J1.7454 F1440.00
G3 X1.4747 Y-0.0000 Z10.3000 I2.1497 J-0.0046 F1440.00
G0 X1.4747 Y-0.0000 Z20.8000
G0 X11.0496 Y0.0033 Z20.8000
G1 X11.0496 Y0.0033 Z10.3000 F360.00
G2 X-0.0348 Y-11.0496 Z10.3000 I-11.0492 J-0.0038 F1440.00
G1 X-0.2074 Y-16.3220 Z10.3000 F1440.00
G1 X-0.0348 Y-11.0496 Z10.3000 F1440.00
G2 X-11.0496 Y0.0517 Z10.3000 I0.0343 J11.0491 F1440.00
G2 X0.0695 Y11.0484 Z10.3000 I11.0490 J-0.0522 F1440.00
G2 X11.0496 Y0.0033 Z10.3000 I-0.0691 J-11.0489 F1440.00
G0 X11.0496 Y0.0033 Z20.8000
G0 X16.3288 Y0.0049 Z20.8000
G1 X16.3288 Y0.0049 Z10.3000 F360.00
G3 X1.0680 Y16.2939 Z10.3000 I-16.3288 J-0.0049 F1440.00
G3 X-16.2939 Y1.0680 Z10.3000 I-1.0680 J-16.2939 F1440.00
G3 X-1.0680 Y-16.2939 Z10.3000 I16.2939 J-1.0680 F1440.00
G1 X-1.0882 Y-16.9135 Z10.3000 F1440.00
G2 X-16.9135 Y1.0987 Z10.3000 I1.0879 J16.9139 F1440.00
G2 X1.1085 Y16.9129 Z10.3000 I16.9132 J-1.0984 F1440.00
G2 X-1.0882 Y-16.9135 Z10.3000 I-1.1082 J-16.9126 F1440.00
G1 X-1.0680 Y-16.2939 Z10.3000 F1440.00
G3 X16.3288 Y0.0049 Z10.3000 I1.0680 J16.2939 F1440.00
G0 X16.3288 Y0.0049 Z20.8000
G0 X16.3290 Y0.0049 Z20.8000
G1 X16.3290 Y0.0049 Z10.3000 F360.00
G2 X-0.2074 Y-16.3220 Z10.3000 I-16.3260 J-0.0022 F1440.00
G1 X-1.0680 Y-16.2939 Z10.3000 F1440.00
G2 X-16.2939 Y1.0680 Z10.3000 I1.0680 J16.2939 F1440.00
G2 X1.0680 Y16.2939 Z10.3000 I16.2939 J-1.0680 F1440.00
G2 X16.3290 Y0.0049 Z10.3000 I-1.0650 J-16.2913 F1440.00
G1 X16.3290 Y0.0049 Z9.8000 F360.00
G2 X-0.2074 Y-16.3220 Z9.8000 I-16.3260 J-0.0022 F1440.00
G1 X-1.0680 Y-16.2939 Z9.8000 F1440.00
G2 X-16.2939 Y1.0680 Z9.8000 I1.0680 J16.2939 F1440.00
G2 X1.0680 Y16.2939 Z9.8000 I16.2939 J-1.0680 F1440.00
G2 X16.3290 Y0.0049 Z9.8000 I-1.0650 J-16.2913 F1440.00
G0 X16.3290 Y0.0049 Z20.8000
G0 X16.3288 Y0.0049 Z20.8000
G1 X16.3288 Y0.0049 Z9.8000 F360.00
G3 X1.0680 Y16.2939 Z9.8000 I-16.3288 J-0.0049 F1440.00
G3 X-16.2939 Y1.0680 Z9.8000 I-1.0680 J-16.2939 F1440.00
G3 X-1.0680 Y-16.2939 Z9.8000 I16.2939 J-1.0680 F1440.00
G1 X-1.0882 Y-16.9135 Z9.8000 F1440.00
G2 X-16.9135 Y1.0987 Z9.8000 I1.0879 J16.9139 F1440.00
G2 X1.1085 Y16.9129 Z9.8000 I16.9132 J-1.0984 F1440.00
G2 X-1.0882 Y-16.9135 Z9.8000 I-1.1082 J-16.9126 F1440.00
G1 X-1.0680 Y-16.2939 Z9.8000 F1440.00
G3 X16.3288 Y0.0049 Z9.8000 I1.0680 J16.2939 F1440.00
G0 X16.3288 Y0.0049 Z20.8000
G0 X11.0496 Y0.0031 Z20.8000
G1 X11.0496 Y0.0031 Z9.8000 F360.00
G2 X-0.0348 Y-11.0496 Z9.8000 I-11.0492 J-0.0036 F1440.00
G1 X-0.2074 Y-16.3220 Z9.8000 F1440.00
G1 X-0.0348 Y-11.0496 Z9.8000 F1440.00
G2 X-11.0496 Y0.0517 Z9.8000 I0.0343 J11.0491 F1440.00
G2 X0.0695 Y11.0484 Z9.8000 I11.0490 J-0.0522 F1440.00
G2 X11.0496 Y0.0031 Z9.8000 I-0.0691 J-11.0489 F1440.00
G0 X11.0496 Y0.0031 Z20.8000
G0 X2.9500 Y0.0031 Z20.8000
G1 X2.9500 Y0.0031 Z9.8000 F360.00
G1 X2.9500 Y-0.2000 Z9.8000 F1440.00
G3 X1.2000 Y-1.7500 Z9.8000 I-0.1801 J-1.5596 F1440.00
G1 X1.2000 Y-3.4500 Z9.8000 F1440.00
G1 X-0.5800 Y-3.4500 Z9.8000 F1440.00
G1 X-0.5800 Y-2.8300 Z9.8000 F1440.00
G1 X-0.5800 Y-1.7500 Z9.8000 F1440.00
G1 X-0.5800 Y-2.8300 Z9.8000 F1440.00
G1 X-0.5800 Y-3.4500 Z9.8000 F1440.00
G1 X-1.2000 Y-3.4500 Z9.8000 F1440.00
G1 X-1.2000 Y-1.7500 Z9.8000 F1440.00
G3 X-2.9500 Y-0.2000 Z9.8000 I-1.5699 J-0.0096 F1440.00
G1 X-2.9500 Y0.2000 Z9.8000 F1440.00
G3 X-1.2000 Y1.7500 Z9.8000 I0.1801 J1.5596 F1440.00
G1 X-1.2000 Y3.4500 Z9.8000 F1440.00
G1 X1.2000 Y3.4500 Z9.8000 F1440.00
G1 X1.2000 Y1.7500 Z9.8000 F1440.00
G3 X2.9500 Y0.2000 Z9.8000 I1.5699 J0.0096 F1440.00
G1 X2.9500 Y0.0031 Z9.8000 F1440.00
G0 X2.9500 Y0.0031 Z20.8000
G0 X1.4747 Y-0.0000 Z20.8000
G1 X1.4747 Y-0.0000 Z9.8000 F360.00
G3 X0.6276 Y-1.3012 Z9.8000 I1.2406 J-1.7340 F1440.00
G2 X1.4747 Y-0.0000 Z9.8000 I2.0877 J-0.4327 F1440.00
G1 X1.4747 Y-0.0000 Z9.8000 F360.00
G2 X0.5800 Y1.7500 Z9.8000 I1.2550 J1.7454 F1440.00
G3 X1.4747 Y-0.0000 Z9.8000 I2.1497 J-0.0046 F1440.00
G0 X1.4747 Y-0.0000 Z20.8000
G0 X0.6276 Y-1.3012 Z20.8000
G1 X0.6276 Y-1.3012 Z9.8000 F360.00
G3 X0.5800 Y-2.8300 Z9.8000 I6.7667 J-0.9759 F1440.00
G2 X0.6276 Y-1.3012 Z9.8000 I6.8143 J0.5529 F1440.00
G0 X0.6276 Y-1.3012 Z20.8000
G0 X-0.5986 Y-1.4634 Z20.8000
G1 X-0.5986 Y-1.4634 Z9.8000 F360.00
G3 X-1.4747 Y-0.0000 Z9.8000 I-2.1312 J-0.2819 F1440.00
G3 X-0.6276 Y1.3012 Z9.8000 I-1.2406 J1.7340 F1440.00
G3 X-0.5800 Y2.8300 Z9.8000 I-6.7667 J0.9759 F1440.00
G1 X0.5800 Y2.8300 Z9.8000 F1440.00
G1 X0.5800 Y1.7500 Z9.8000 F1440.00
G1 X0.5800 Y2.8300 Z9.8000 F1440.00
G1 X-0.5800 Y2.8300 Z9.8000 F1440.00
G2 X-0.6276 Y1.3012 Z9.8000 I-6.8143 J-0.5529 F1440.00
G2 X-1.4747 Y-0.0000 Z9.8000 I-2.0877 J0.4327 F1440.00
G2 X-0.5800 Y-1.7500 Z9.8000 I-1.2550 J-1.7454 F1440.00
G3 X-0.5986 Y-1.4634 Z9.8000 I-2.1497 J0.0046 F1440.00
G0 X-0.5986 Y-1.4634 Z20.8000
G0 X-0.5800 Y-2.8300 Z20.8000
G1 X-0.5800 Y-2.8300 Z9.8000 F360.00
G1 X0.5800 Y-2.8300 Z9.8000 F1440.00
G1 X-0.5800 Y-2.8300 Z9.8000 F1440.00
G1 X-0.5800 Y-2.8300 Z9.3000 F360.00
G1 X0.5800 Y-2.8300 Z9.3000 F1440.00
G1 X-0.5800 Y-2.8300 Z9.3000 F1440.00
G1 X-0.5800 Y-2.8300 Z9.3000 F360.00
G1 X-0.5800 Y-1.7500 Z9.3000 F1440.00
G1 X-0.5800 Y-2.8300 Z9.3000 F1440.00
G1 X-0.5800 Y-3.4500 Z9.3000 F1440.00
G1 X-1.2000 Y-3.4500 Z9.3000 F1440.00
G1 X-1.2000 Y-1.7500 Z9.3000 F1440.00
G3 X-2.9500 Y-0.2000 Z9.3000 I-1.5699 J-0.0096 F1440.00
G1 X-2.9500 Y0.2000 Z9.3000 F1440.00
G3 X-1.2000 Y1.7500 Z9.3000 I0.1801 J1.5596 F1440.00
G1 X-1.2000 Y3.4500 Z9.3000 F1440.00
G1 X1.2000 Y3.4500 Z9.3000 F1440.00
G1 X1.2000 Y1.7500 Z9.3000 F1440.00
G3 X2.9500 Y0.2000 Z9.3000 I1.5699 J0.0096 F1440.00
G1 X2.9500 Y-0.2000 Z9.3000 F1440.00
G3 X1.2000 Y-1.7500 Z9.3000 I-0.1801 J-1.5596 F1440.00
G1 X1.2000 Y-3.4500 Z9.3000 F1440.00
G1 X-0.5800 Y-3.4500 Z9.3000 F1440.00
G1 X-0.5800 Y-2.8300 Z9.3000 F1440.00
G0 X-0.5800 Y-2.8300 Z20.8000
G0 X-0.5800 Y-1.7500 Z20.8000
G1 X-0.5800 Y-1.7500 Z9.3000 F360.00
G3 X-1.4747 Y-0.0000 Z9.3000 I-2.1497 J0.0046 F1440.00
G3 X-0.6276 Y1.3012 Z9.3000 I-1.2406 J1.7340 F1440.00
G3 X-0.5800 Y2.8300 Z9.3000 I-6.7667 J0.9759 F1440.00
G1 X0.5800 Y2.8300 Z9.3000 F1440.00
G1 X0.5800 Y1.7500 Z9.3000 F1440.00
G1 X0.5800 Y2.8300 Z9.3000 F1440.00
G1 X-0.5800 Y2.8300 Z9.3000 F1440.00
G2 X-0.6276 Y1.3012 Z9.3000 I-6.8143 J-0.5529 F1440.00
G2 X-1.4747 Y-0.0000 Z9.3000 I-2.0877 J0.4327 F1440.00
G2 X-0.5800 Y-1.7500 Z9.3000 I-1.2550 J-1.7454 F1440.00
G0 X-0.5800 Y-1.7500 Z20.8000
G0 X0.5725 Y-1.8262 Z20.8000
G1 X0.5725 Y-1.8262 Z9.3000 F360.00
G3 X0.5800 Y-2.8300 Z9.3000 I6.8218 J-0.4510 F1440.00
G2 X0.6276 Y-1.3012 Z9.3000 I6.8143 J0.5529 F1440.00
G3 X0.5725 Y-1.8262 Z9.3000 I6.7667 J-0.9759 F1440.00
G0 X0.5725 Y-1.8262 Z20.8000
G0 X0.6276 Y-1.3012 Z20.8000
G1 X0.6276 Y-1.3012 Z9.3000 F360.00
G2 X1.4747 Y-0.0000 Z9.3000 I2.0877 J-0.4327 F1440.00
G3 X0.6276 Y-1.3012 Z9.3000 I1.2406 J-1.7340 F1440.00
G0 X0.6276 Y-1.3012 Z20.8000
G0 X1.4747 Y-0.0000 Z20.8000
G1 X1.4747 Y-0.0000 Z9.3000 F360.00
G2 X0.5800 Y1.7500 Z9.3000 I1.2550 J1.7454 F1440.00
G3 X1.4747 Y-0.0000 Z9.3000 I2.1497 J-0.0046 F1440.00
G0 X1.4747 Y-0.0000 Z20.8000
G0 X11.0496 Y0.0033 Z20.8000
G1 X11.0496 Y0.0033 Z9.3000 F360.00
G2 X-0.0348 Y-11.0496 Z9.3000 I-11.0492 J-0.0038 F1440.00
G1 X-0.2074 Y-16.3220 Z9.3000 F1440.00
G1 X-0.0348 Y-11.0496 Z9.3000 F1440.00
G2 X-11.0496 Y0.0517 Z9.3000 I0.0343 J11.0491 F1440.00
G2 X0.0695 Y11.0484 Z9.3000 I11.0490 J-0.0522 F1440.00
G2 X11.0496 Y0.0033 Z9.3000 I-0.0691 J-11.0489 F1440.00
G0 X11.0496 Y0.0033 Z20.8000
G0 X16.3288 Y0.0049 Z20.8000
G1 X16.3288 Y0.0049 Z9.3000 F360.00
G3 X1.0680 Y16.2939 Z9.3000 I-16.3288 J-0.0049 F1440.00
G3 X-16.2939 Y1.0680 Z9.3000 I-1.0680 J-16.2939 F1440.00
G3 X-1.0680 Y-16.2939 Z9.3000 I16.2939 J-1.0680 F1440.00
G1 X-1.0882 Y-16.9135 Z9.3000 F1440.00
G2 X-16.9135 Y1.0987 Z9.3000 I1.0879 J16.9139 F1440.00
G2 X1.1085 Y16.9129 Z9.3000 I16.9132 J-1.0984 F1440.00
G2 X-1.0882 Y-16.9135 Z9.3000 I-1.1082 J-16.9126 F1440.00
G1 X-1.0680 Y-16.2939 Z9.3000 F1440.00
G3 X16.3288 Y0.0049 Z9.3000 I1.0680 J16.2939 F1440.00
G0 X16.3288 Y0.0049 Z20.8000
G0 X16.3290 Y0.0049 Z20.8000
G1 X16.3290 Y0.0049 Z9.3000 F360.00
G2 X-0.2074 Y-16.3220 Z9.3000 I-16.3260 J-0.0022 F1440.00
G1 X-1.0680 Y-16.2939 Z9.3000 F1440.00
G2 X-16.2939 Y1.0680 Z9.3000 I1.0680 J16.2939 F1440.00
G2 X1.0680 Y16.2939 Z9.3000 I16.2939 J-1.0680 F1440.00
G2 X16.3290 Y0.0049 Z9.3000 I-1.0650 J-16.2913 F1440.00
G1 X16.3290 Y0.0049 Z8.8000 F360.00
G2 X-0.2074 Y-16.3220 Z8.8000 I-16.3260 J-0.0022 F1440.00
G1 X-1.0680 Y-16.2939 Z8.8000 F1440.00
G2 X-16.2939 Y1.0680 Z8.8000 I1.0680 J16.2939 F1440.00
G2 X1.0680 Y16.2939 Z8.8000 I16.2939 J-1.0680 F1440.00
G2 X16.3290 Y0.0049 Z8.8000 I-1.0650 J-16.2913 F1440.00
G0 X16.3290 Y0.0049 Z20.8000
G0 X16.3288 Y0.0049 Z20.8000
G1 X16.3288 Y0.0049 Z8.8000 F360.00
G3 X1.0680 Y16.2939 Z8.8000 I-16.3288 J-0.0049 F1440.00
G3 X-16.2939 Y1.0680 Z8.8000 I-1.0680 J-16.2939 F1440.00
G3 X-1.0680 Y-16.2939 Z8.8000 I16.2939 J-1.0680 F1440.00
G1 X-1.0882 Y-16.9135 Z8.8000 F1440.00
G2 X-16.9135 Y1.0987 Z8.8000 I1.0879 J16.9139 F1440.00
G2 X1.1085 Y16.9129 Z8.8000 I16.9132 J-1.0984 F1440.00
G2 X-1.0882 Y-16.9135 Z8.8000 I-1.1082 J-16.9126 F1440.00
G1 X-1.0680 Y-16.2939 Z8.8000 F1440.00
G3 X16.3288 Y0.0049 Z8.8000 I1.0680 J16.2939 F1440.00
G0 X16.3288 Y0.0049 Z20.8000
G0 X11.0496 Y0.0031 Z20.8000
G1 X11.0496 Y0.0031 Z8.8000 F360.00
G2 X-0.0348 Y-11.0496 Z8.8000 I-11.0492 J-0.0036 F1440.00
G1 X-0.2074 Y-16.3220 Z8.8000 F1440.00
G1 X-0.0348 Y-11.0496 Z8.8000 F1440.00
G2 X-11.0496 Y0.0517 Z8.8000 I0.0343 J11.0491 F1440.00
G2 X0.0695 Y11.0484 Z8.8000 I11.0490 J-0.0522 F1440.00
G2 X11.0496 Y0.0031 Z8.8000 I-0.0691 J-11.0489 F1440.00
G0 X11.0496 Y0.0031 Z20.8000
G0 X2.9500 Y0.0031 Z20.8000
G1 X2.9500 Y0.0031 Z8.8000 F360.00
G1 X2.9500 Y-0.2000 Z8.8000 F1440.00
G3 X1.2000 Y-1.7500 Z8.8000 I-0.1801 J-1.5596 F1440.00
G1 X1.2000 Y-3.4500 Z8.8000 F1440.00
G1 X-0.5800 Y-3.4500 Z8.8000 F1440.00
G1 X-0.5800 Y-2.8300 Z8.8000 F1440.00
G1 X-0.5800 Y-1.7500 Z8.8000 F1440.00
G1 X-0.5800 Y-2.8300 Z8.8000 F1440.00
G1 X-0.5800 Y-3.4500 Z8.8000 F1440.00
G1 X-1.2000 Y-3.4500 Z8.8000 F1440.00
G1 X-1.2000 Y-1.7500 Z8.8000 F1440.00
G3 X-2.9500 Y-0.2000 Z8.8000 I-1.5699 J-0.0096 F1440.00
G1 X-2.9500 Y0.2000 Z8.8000 F1440.00
G3 X-1.2000 Y1.7500 Z8.8000 I0.1801 J1.5596 F1440.00
G1 X-1.2000 Y3.4500 Z8.8000 F1440.00
G1 X1.2000 Y3.4500 Z8.8000 F1440.00
G1 X1.2000 Y1.7500 Z8.8000 F1440.00
G3 X2.9500 Y0.2000 Z8.8000 I1.5699 J0.0096 F1440.00
G1 X2.9500 Y0.0031 Z8.8000 F1440.00
G0 X2.9500 Y0.0031 Z20.8000
G0 X1.4747 Y-0.0000 Z20.8000
G1 X1.4747 Y-0.0000 Z8.8000 F360.00
G2 X0.5800 Y1.7500 Z8.8000 I1.2550 J1.7454 F1440.00
G3 X1.4747 Y-0.0000 Z8.8000 I2.1497 J-0.0046 F1440.00
G1 X1.4747 Y-0.0000 Z8.8000 F360.00
G3 X0.6276 Y-1.3012 Z8.8000 I1.2406 J-1.7340 F1440.00
G2 X1.4747 Y-0.0000 Z8.8000 I2.0877 J-0.4327 F1440.00
G0 X1.4747 Y-0.0000 Z20.8000
G0 X0.6276 Y-1.3012 Z20.8000
G1 X0.6276 Y-1.3012 Z8.8000 F360.00
G3 X0.5800 Y-2.8300 Z8.8000 I6.7667 J-0.9759 F1440.00
G2 X0.6276 Y-1.3012 Z8.8000 I6.8143 J0.5529 F1440.00
G0 X0.6276 Y-1.3012 Z20.8000
G0 X-0.5986 Y-1.4634 Z20.8000
G1 X-0.5986 Y-1.4634 Z8.8000 F360.00
G3 X-1.4747 Y-0.0000 Z8.8000 I-2.1312 J-0.2819 F1440.00
G3 X-0.6276 Y1.3012 Z8.8000 I-1.2406 J1.7340 F1440.00
G3 X-0.5800 Y2.8300 Z8.8000 I-6.7667 J0.9759 F1440.00
G1 X0.5800 Y2.8300 Z8.8000 F1440.00
G1 X0.5800 Y1.7500 Z8.8000 F1440.00
G1 X0.5800 Y2.8300 Z8.8000 F1440.00
G1 X-0.5800 Y2.8300 Z8.8000 F1440.00
G2 X-0.6276 Y1.3012 Z8.8000 I-6.8143 J-0.5529 F1440.00
G2 X-1.4747 Y-0.0000 Z8.8000 I-2.0877 J0.4327 F1440.00
G2 X-0.5800 Y-1.7500 Z8.8000 I-1.2550 J-1.7454 F1440.00
G3 X-0.5986 Y-1.4634 Z8.8000 I-2.1497 J0.0046 F1440.00
G0 X-0.5986 Y-1.4634 Z20.8000
G0 X-0.5800 Y-2.8300 Z20.8000
G1 X-0.5800 Y-2.8300 Z8.8000 F360.00
G1 X0.5800 Y-2.8300 Z8.8000 F1440.00
G1 X-0.5800 Y-2.8300 Z8.8000 F1440.00
G1 X-0.5800 Y-2.8300 Z8.3000 F360.00
G1 X-0.5800 Y-1.7500 Z8.3000 F1440.00
G1 X-0.5800 Y-2.8300 Z8.3000 F1440.00
G1 X-0.5800 Y-3.4500 Z8.3000 F1440.00
G1 X-1.2000 Y-3.4500 Z8.3000 F1440.00
G1 X-1.2000 Y-1.7500 Z8.3000 F1440.00
G3 X-2.9500 Y-0.2000 Z8.3000 I-1.5699 J-0.0096 F1440.00
G1 X-2.9500 Y0.2000 Z8.3000 F1440.00
G3 X-1.2000 Y1.7500 Z8.3000 I0.1801 J1.5596 F1440.00
G1 X-1.2000 Y3.4500 Z8.3000 F1440.00
G1 X1.2000 Y3.4500 Z8.3000 F1440.00
G1 X1.2000 Y1.7500 Z8.3000 F1440.00
G3 X2.9500 Y0.2000 Z8.3000 I1.5699 J0.0096 F1440.00
G1 X2.9500 Y-0.2000 Z8.3000 F1440.00
G3 X1.2000 Y-1.7500 Z8.3000 I-0.1801 J-1.5596 F1440.00
G1 X1.2000 Y-3.4500 Z8.3000 F1440.00
G1 X-0.5800 Y-3.4500 Z8.3000 F1440.00
G1 X-0.5800 Y-2.8300 Z8.3000 F1440.00
G1 X-0.5800 Y-2.8300 Z8.3000 F360.00
G1 X0.5800 Y-2.8300 Z8.3000 F1440.00
G1 X-0.5800 Y-2.8300 Z8.3000 F1440.00
G0 X-0.5800 Y-2.8300 Z20.8000
G0 X-0.5800 Y-1.7500 Z20.8000
G1 X-0.5800 Y-1.7500 Z8.3000 F360.00
G3 X-1.4747 Y-0.0000 Z8.3000 I-2.1497 J0.0046 F1440.00
G3 X-0.6276 Y1.3012 Z8.3000 I-1.2406 J1.7340 F1440.00
G3 X-0.5800 Y2.8300 Z8.3000 I-6.7667 J0.9759 F1440.00
G1 X0.5800 Y2.8300 Z8.3000 F1440.00
G1 X0.5800 Y1.7500 Z8.3000 F1440.00
G1 X0.5800 Y2.8300 Z8.3000 F1440.00
G1 X-0.5800 Y2.8300 Z8.3000 F1440.00
G2 X-0.6276 Y1.3012 Z8.3000 I-6.8143 J-0.5529 F1440.00
G2 X-1.4747 Y-0.0000 Z8.3000 I-2.0877 J0.4327 F1440.00
G2 X-0.5800 Y-1.7500 Z8.3000 I-1.2550 J-1.7454 F1440.00
G0 X-0.5800 Y-1.7500 Z20.8000
G0 X0.5725 Y-1.8262 Z20.8000
G1 X0.5725 Y-1.8262 Z8.3000 F360.00
G3 X0.5800 Y-2.8300 Z8.3000 I6.8218 J-0.4510 F1440.00
G2 X0.6276 Y-1.3012 Z8.3000 I6.8143 J0.5529 F1440.00
G3 X0.5725 Y-1.8262 Z8.3000 I6.7667 J-0.9759 F1440.00
G0 X0.5725 Y-1.8262 Z20.8000
G0 X0.6276 Y-1.3012 Z20.8000
G1 X0.6276 Y-1.3012 Z8.3000 F360.00
G2 X1.4747 Y-0.0000 Z8.3000 I2.0877 J-0.4327 F1440.00
G3 X0.6276 Y-1.3012 Z8.3000 I1.2406 J-1.7340 F1440.00
G0 X0.6276 Y-1.3012 Z20.8000
G0 X1.4747 Y-0.0000 Z20.8000
G1 X1.4747 Y-0.0000 Z8.3000 F360.00
G2 X0.5800 Y1.7500 Z8.3000 I1.2550 J1.7454 F1440.00
G3 X1.4747 Y-0.0000 Z8.3000 I2.1497 J-0.0046 F1440.00
G0 X1.4747 Y-0.0000 Z20.8000
G0 X11.0496 Y0.0033 Z20.8000
G1 X11.0496 Y0.0033 Z8.3000 F360.00
G2 X-0.0348 Y-11.0496 Z8.3000 I-11.0492 J-0.0038 F1440.00
G1 X-0.2074 Y-16.3220 Z8.3000 F1440.00
G1 X-0.0348 Y-11.0496 Z8.3000 F1440.00
G2 X-11.0496 Y0.0517 Z8.3000 I0.0343 J11.0491 F1440.00
G2 X0.0695 Y11.0484 Z8.3000 I11.0490 J-0.0522 F1440.00
G2 X11.0496 Y0.0033 Z8.3000 I-0.0691 J-11.0489 F1440.00
G0 X11.0496 Y0.0033 Z20.8000
G0 X16.3288 Y0.0049 Z20.8000
G1 X16.3288 Y0.0049 Z8.3000 F360.00
G3 X1.0680 Y16.2939 Z8.3000 I-16.3288 J-0.0049 F1440.00
G3 X-16.2939 Y1.0680 Z8.3000 I-1.0680 J-16.2939 F1440.00
G3 X-1.0680 Y-16.2939 Z8.3000 I16.2939 J-1.0680 F1440.00
G1 X-1.0882 Y-16.9135 Z8.3000 F1440.00
G2 X-16.9135 Y1.0987 Z8.3000 I1.0879 J16.9139 F1440.00
G2 X1.1085 Y16.9129 Z8.3000 I16.9132 J-1.0984 F1440.00
G2 X-1.0882 Y-16.9135 Z8.3000 I-1.1082 J-16.9126 F1440.00
G1 X-1.0680 Y-16.2939 Z8.3000 F1440.00
G3 X16.3288 Y0.0049 Z8.3000 I1.0680 J16.2939 F1440.00
G0 X16.3288 Y0.0049 Z20.8000
G0 X16.3290 Y0.0049 Z20.8000
G1 X16.3290 Y0.0049 Z8.3000 F360.00
G2 X-0.2074 Y-16.3220 Z8.3000 I-16.3260 J-0.0022 F1440.00
G1 X-1.0680 Y-16.2939 Z8.3000 F1440.00
G2 X-16.2939 Y1.0680 Z8.3000 I1.0680 J16.2939 F1440.00
G2 X1.0680 Y16.2939 Z8.3000 I16.2939 J-1.0680 F1440.00
G2 X16.3290 Y0.0049 Z8.3000 I-1.0650 J-16.2913 F1440.00
G1 X16.3290 Y0.0049 Z7.8000 F360.00
G2 X-0.2074 Y-16.3220 Z7.8000 I-16.3260 J-0.0022 F1440.00
G1 X-1.0680 Y-16.2939 Z7.8000 F1440.00
G2 X-16.2939 Y1.0680 Z7.8000 I1.0680 J16.2939 F1440.00
G2 X1.0680 Y16.2939 Z7.8000 I16.2939 J-1.0680 F1440.00
G2 X16.3290 Y0.0049 Z7.8000 I-1.0650 J-16.2913 F1440.00
G0 X16.3290 Y0.0049 Z20.8000
G0 X16.3288 Y0.0049 Z20.8000
G1 X16.3288 Y0.0049 Z7.8000 F360.00
G3 X1.0680 Y16.2939 Z7.8000 I-16.3288 J-0.0049 F1440.00
G3 X-16.2939 Y1.0680 Z7.8000 I-1.0680 J-16.2939 F1440.00
G3 X-1.0680 Y-16.2939 Z7.8000 I16.2939 J-1.0680 F1440.00
G1 X-1.0882 Y-16.9135 Z7.8000 F1440.00
G2 X-16.9135 Y1.0987 Z7.8000 I1.0879 J16.9139 F1440.00
G2 X1.1085 Y16.9129 Z7.8000 I16.9132 J-1.0984 F1440.00
G2 X-1.0882 Y-16.9135 Z7.8000 I-1.1082 J-16.9126 F1440.00
G1 X-1.0680 Y-16.2939 Z7.8000 F1440.00
G3 X16.3288 Y0.0049 Z7.8000 I1.0680 J16.2939 F1440.00
G0 X16.3288 Y0.0049 Z20.8000
G0 X11.0496 Y0.0031 Z20.8000
G1 X11.0496 Y0.0031 Z7.8000 F360.00
G2 X-0.0348 Y-11.0496 Z7.8000 I-11.0492 J-0.0036 F1440.00
G1 X-0.2074 Y-16.3220 Z7.8000 F1440.00
G1 X-0.0348 Y-11.0496 Z7.8000 F1440.00
G2 X-11.0496 Y0.0517 Z7.8000 I0.0343 J11.0491 F1440.00
G2 X0.0695 Y11.0484 Z7.8000 I11.0490 J-0.0522 F1440.00
G2 X11.0496 Y0.0031 Z7.8000 I-0.0691 J-11.0489 F1440.00
G0 X11.0496 Y0.0031 Z20.8000
G0 X2.9500 Y0.0031 Z20.8000
G1 X2.9500 Y0.0031 Z7.8000 F360.00
G1 X2.9500 Y-0.2000 Z7.8000 F1440.00
G1 X-2.9500 Y-0.2000 Z7.8000 F1440.00
G1 X-2.9500 Y0.2000 Z7.8000 F1440.00
G1 X2.9500 Y0.2000 Z7.8000 F1440.00
G1 X2.9500 Y0.0031 Z7.8000 F1440.00
G1 X2.9500 Y0.0031 Z7.3000 F360.00
G1 X2.9500 Y-0.2000 Z7.3000 F1440.00
G1 X-2.9500 Y-0.2000 Z7.3000 F1440.00
G1 X-2.9500 Y0.2000 Z7.3000 F1440.00
G1 X2.9500 Y0.2000 Z7.3000 F1440.00
G1 X2.9500 Y0.0031 Z7.3000 F1440.00
G0 X2.9500 Y0.0031 Z20.8000
G0 X11.0496 Y0.0131 Z20.8000
G1 X11.0496 Y0.0131 Z7.3000 F360.00
G2 X-0.0348 Y-11.0496 Z7.3000 I-11.0492 J-0.0136 F1440.00
G1 X-0.2074 Y-16.3220 Z7.3000 F1440.00
G1 X-0.0348 Y-11.0496 Z7.3000 F1440.00
G2 X-11.0496 Y0.0517 Z7.3000 I0.0343 J11.0491 F1440.00
G2 X0.0695 Y11.0484 Z7.3000 I11.0490 J-0.0522 F1440.00
G2 X11.0496 Y0.0131 Z7.3000 I-0.0691 J-11.0489 F1440.00
G0 X11.0496 Y0.0131 Z20.8000
G0 X16.3288 Y0.0193 Z20.8000
G1 X16.3288 Y0.0193 Z7.3000 F360.00
G3 X1.0680 Y16.2939 Z7.3000 I-16.3288 J-0.0193 F1440.00
G3 X-16.2939 Y1.0680 Z7.3000 I-1.0680 J-16.2939 F1440.00
G3 X-1.0680 Y-16.2939 Z7.3000 I16.2939 J-1.0680 F1440.00
G1 X-1.0882 Y-16.9135 Z7.3000 F1440.00
G2 X-16.9135 Y1.0987 Z7.3000 I1.0879 J16.9139 F1440.00
G2 X1.1085 Y16.9129 Z7.3000 I16.9132 J-1.0984 F1440.00
G2 X-1.0882 Y-16.9135 Z7.3000 I-1.1082 J-16.9126 F1440.00
G1 X-1.0680 Y-16.2939 Z7.3000 F1440.00
G3 X16.3288 Y0.0193 Z7.3000 I1.0680 J16.2939 F1440.00
G0 X16.3288 Y0.0193 Z20.8000
G0 X16.3290 Y0.0193 Z20.8000
G1 X16.3290 Y0.0193 Z7.3000 F360.00
G2 X-0.2074 Y-16.3220 Z7.3000 I-16.3260 J-0.0167 F1440.00
G1 X-1.0680 Y-16.2939 Z7.3000 F1440.00
G2 X-16.2939 Y1.0680 Z7.3000 I1.0680 J16.2939 F1440.00
G2 X1.0680 Y16.2939 Z7.3000 I16.2939 J-1.0680 F1440.00
G2 X16.3290 Y0.0193 Z7.3000 I-1.0650 J-16.2913 F1440.00
G1 X16.3290 Y0.0193 Z6.8000 F360.00
G2 X-0.2074 Y-16.3220 Z6.8000 I-16.3260 J-0.0167 F1440.00
G1 X-1.0680 Y-16.2939 Z6.8000 F1440.00
G2 X-16.2939 Y1.0680 Z6.8000 I1.0680 J16.2939 F1440.00
G2 X1.0680 Y16.2939 Z6.8000 I16.2939 J-1.0680 F1440.00
G2 X16.3290 Y0.0193 Z6.8000 I-1.0650 J-16.2913 F1440.00
G0 X16.3290 Y0.0193 Z20.8000
G0 X16.3288 Y0.0193 Z20.8000
G1 X16.3288 Y0.0193 Z6.8000 F360.00
G3 X1.0680 Y16.2939 Z6.8000 I-16.3288 J-0.0193 F1440.00
G3 X-16.2939 Y1.0680 Z6.8000 I-1.0680 J-16.2939 F1440.00
G3 X-1.0680 Y-16.2939 Z6.8000 I16.2939 J-1.0680 F1440.00
G1 X-1.0882 Y-16.9135 Z6.8000 F1440.00
G2 X-16.9135 Y1.0987 Z6.8000 I1.0879 J16.9139 F1440.00
G2 X1.1085 Y16.9129 Z6.8000 I16.9132 J-1.0984 F1440.00
G2 X-1.0882 Y-16.9135 Z6.8000 I-1.1082 J-16.9126 F1440.00
G1 X-1.0680 Y-16.2939 Z6.8000 F1440.00
G3 X16.3288 Y0.0193 Z6.8000 I1.0680 J16.2939 F1440.00
G0 X16.3288 Y0.0193 Z20.8000
G0 X11.0496 Y0.0129 Z20.8000
G1 X11.0496 Y0.0129 Z6.8000 F360.00
G2 X-0.0348 Y-11.0496 Z6.8000 I-11.0492 J-0.0134 F1440.00
G1 X-0.2074 Y-16.3220 Z6.8000 F1440.00
G1 X-0.0348 Y-11.0496 Z6.8000 F1440.00
G2 X-11.0496 Y0.0517 Z6.8000 I0.0343 J11.0491 F1440.00
G2 X0.0695 Y11.0484 Z6.8000 I11.0490 J-0.0522 F1440.00
G2 X11.0496 Y0.0129 Z6.8000 I-0.0691 J-11.0489 F1440.00
G1 X11.0496 Y0.0129 Z6.3000 F360.00
G2 X-0.0348 Y-11.0496 Z6.3000 I-11.0492 J-0.0134 F1440.00
G1 X-0.2074 Y-16.3220 Z6.3000 F1440.00
G1 X-0.0348 Y-11.0496 Z6.3000 F1440.00
G2 X-11.0496 Y0.0517 Z6.3000 I0.0343 J11.0491 F1440.00
G2 X0.0695 Y11.0484 Z6.3000 I11.0490 J-0.0522 F1440.00
G2 X11.0496 Y0.0129 Z6.3000 I-0.0691 J-11.0489 F1440.00
G0 X11.0496 Y0.0129 Z20.8000
G0 X16.3288 Y0.0191 Z20.8000
G1 X16.3288 Y0.0191 Z6.3000 F360.00
G3 X1.0680 Y16.2939 Z6.3000 I-16.3288 J-0.0191 F1440.00
G3 X-16.2939 Y1.0680 Z6.3000 I-1.0680 J-16.2939 F1440.00
G3 X-1.0680 Y-16.2939 Z6.3000 I16.2939 J-1.0680 F1440.00
G1 X-1.0882 Y-16.9135 Z6.3000 F1440.00
G2 X-16.9135 Y1.0987 Z6.3000 I1.0879 J16.9139 F1440.00
G2 X1.1085 Y16.9129 Z6.3000 I16.9132 J-1.0984 F1440.00
G2 X-1.0882 Y-16.9135 Z6.3000 I-1.1082 J-16.9126 F1440.00
G1 X-1.0680 Y-16.2939 Z6.3000 F1440.00
G3 X16.3288 Y0.0191 Z6.3000 I1.0680 J16.2939 F1440.00
G0 X16.3288 Y0.0191 Z20.8000
G0 X16.3290 Y0.0191 Z20.8000
G1 X16.3290 Y0.0191 Z6.3000 F360.00
G2 X-0.2074 Y-16.3220 Z6.3000 I-16.3260 J-0.0165 F1440.00
G1 X-1.0680 Y-16.2939 Z6.3000 F1440.00
G2 X-16.2939 Y1.0680 Z6.3000 I1.0680 J16.2939 F1440.00
G2 X1.0680 Y16.2939 Z6.3000 I16.2939 J-1.0680 F1440.00
G2 X16.3290 Y0.0191 Z6.3000 I-1.0650 J-16.2913 F1440.00
G1 X16.3290 Y0.0191 Z5.8000 F360.00
G2 X-0.2074 Y-16.3220 Z5.8000 I-16.3260 J-0.0165 F1440.00
G1 X-1.0680 Y-16.2939 Z5.8000 F1440.00
G2 X-16.2939 Y1.0680 Z5.8000 I1.0680 J16.2939 F1440.00
G2 X1.0680 Y16.2939 Z5.8000 I16.2939 J-1.0680 F1440.00
G2 X16.3290 Y0.0191 Z5.8000 I-1.0650 J-16.2913 F1440.00
G0 X16.3290 Y0.0191 Z20.8000
G0 X16.3288 Y0.0191 Z20.8000
G1 X16.3288 Y0.0191 Z5.8000 F360.00
G3 X1.0680 Y16.2939 Z5.8000 I-16.3288 J-0.0191 F1440.00
G3 X-16.2939 Y1.0680 Z5.8000 I-1.0680 J-16.2939 F1440.00
G3 X-1.0680 Y-16.2939 Z5.8000 I16.2939 J-1.0680 F1440.00
G1 X-1.0882 Y-16.9135 Z5.8000 F1440.00
G2 X-16.9135 Y1.0987 Z5.8000 I1.0879 J16.9139 F1440.00
G2 X1.1085 Y16.9129 Z5.8000 I16.9132 J-1.0984 F1440.00
G2 X-1.0882 Y-16.9135 Z5.8000 I-1.1082 J-16.9126 F1440.00
G1 X-1.0680 Y-16.2939 Z5.8000 F1440.00
G3 X16.3288 Y0.0191 Z5.8000 I1.0680 J16.2939 F1440.00
G0 X16.3288 Y0.0191 Z20.8000
G0 X11.0496 Y0.0127 Z20.8000
G1 X11.0496 Y0.0127 Z5.8000 F360.00
G2 X-0.0348 Y-11.0496 Z5.8000 I-11.0492 J-0.0133 F1440.00
G1 X-0.2074 Y-16.3220 Z5.8000 F1440.00
G1 X-0.0348 Y-11.0496 Z5.8000 F1440.00
G2 X-11.0496 Y0.0517 Z5.8000 I0.0343 J11.0491 F1440.00
G2 X0.0695 Y11.0484 Z5.8000 I11.0490 J-0.0522 F1440.00
G2 X11.0496 Y0.0127 Z5.8000 I-0.0691 J-11.0489 F1440.00
G1 X11.0496 Y0.0127 Z5.3000 F360.00
G2 X-0.0348 Y-11.0496 Z5.3000 I-11.0492 J-0.0133 F1440.00
G1 X-0.2074 Y-16.3220 Z5.3000 F1440.00
G1 X-0.0348 Y-11.0496 Z5.3000 F1440.00
G2 X-11.0496 Y0.0517 Z5.3000 I0.0343 J11.0491 F1440.00
G2 X0.0695 Y11.0484 Z5.3000 I11.0490 J-0.0522 F1440.00
G2 X11.0496 Y0.0127 Z5.3000 I-0.0691 J-11.0489 F1440.00
G0 X11.0496 Y0.0127 Z20.8000
G0 X16.3288 Y0.0188 Z20.8000
G1 X16.3288 Y0.0188 Z5.3000 F360.00
G3 X1.0680 Y16.2939 Z5.3000 I-16.3288 J-0.0188 F1440.00
G3 X-16.2939 Y1.0680 Z5.3000 I-1.0680 J-16.2939 F1440.00
G3 X-1.0680 Y-16.2939 Z5.3000 I16.2939 J-1.0680 F1440.00
G1 X-1.0882 Y-16.9135 Z5.3000 F1440.00
G2 X-16.9135 Y1.0987 Z5.3000 I1.0879 J16.9139 F1440.00
G2 X1.1085 Y16.9129 Z5.3000 I16.9132 J-1.0984 F1440.00
G2 X-1.0882 Y-16.9135 Z5.3000 I-1.1082 J-16.9126 F1440.00
G1 X-1.0680 Y-16.2939 Z5.3000 F1440.00
G3 X16.3288 Y0.0188 Z5.3000 I1.0680 J16.2939 F1440.00
G0 X16.3288 Y0.0188 Z20.8000
G0 X16.3290 Y0.0188 Z20.8000
G1 X16.3290 Y0.0188 Z5.3000 F360.00
G2 X-0.2074 Y-16.3220 Z5.3000 I-16.3260 J-0.0162 F1440.00
G1 X-1.0680 Y-16.2939 Z5.3000 F1440.00
G2 X-16.2939 Y1.0680 Z5.3000 I1.0680 J16.2939 F1440.00
G2 X1.0680 Y16.2939 Z5.3000 I16.2939 J-1.0680 F1440.00
G2 X16.3290 Y0.0188 Z5.3000 I-1.0650 J-16.2913 F1440.00
G1 X16.3290 Y0.0188 Z4.8000 F360.00
G2 X-0.2074 Y-16.3220 Z4.8000 I-16.3260 J-0.0162 F1440.00
G1 X-1.0680 Y-16.2939 Z4.8000 F1440.00
G2 X-16.2939 Y1.0680 Z4.8000 I1.0680 J16.2939 F1440.00
G2 X1.0680 Y16.2939 Z4.8000 I16.2939 J-1.0680 F1440.00
G2 X16.3290 Y0.0188 Z4.8000 I-1.0650 J-16.2913 F1440.00
G0 X16.3290 Y0.0188 Z20.8000
G0 X16.3288 Y0.0188 Z20.8000
G1 X16.3288 Y0.0188 Z4.8000 F360.00
G3 X1.0680 Y16.2939 Z4.8000 I-16.3288 J-0.0188 F1440.00
G3 X-16.2939 Y1.0680 Z4.8000 I-1.0680 J-16.2939 F1440.00
G3 X-1.0680 Y-16.2939 Z4.8000 I16.2939 J-1.0680 F1440.00
G1 X-1.0882 Y-16.9135 Z4.8000 F1440.00
G2 X-16.9135 Y1.0987 Z4.8000 I1.0879 J16.9139 F1440.00
G2 X1.1085 Y16.9129 Z4.8000 I16.9132 J-1.0984 F1440.00
G2 X-1.0882 Y-16.9135 Z4.8000 I-1.1082 J-16.9126 F1440.00
G1 X-1.0680 Y-16.2939 Z4.8000 F1440.00
G3 X16.3288 Y0.0188 Z4.8000 I1.0680 J16.2939 F1440.00
G0 X16.3288 Y0.0188 Z20.8000
G0 X11.0496 Y0.0126 Z20.8000
G1 X11.0496 Y0.0126 Z4.8000 F360.00
G2 X-0.0348 Y-11.0496 Z4.8000 I-11.0492 J-0.0131 F1440.00
G1 X-0.2074 Y-16.3220 Z4.8000 F1440.00
G1 X-0.0348 Y-11.0496 Z4.8000 F1440.00
G2 X-11.0496 Y0.0517 Z4.8000 I0.0343 J11.0491 F1440.00
G2 X0.0695 Y11.0484 Z4.8000 I11.0490 J-0.0522 F1440.00
G2 X11.0496 Y0.0126 Z4.8000 I-0.0691 J-11.0489 F1440.00
G1 X11.0496 Y0.0126 Z4.3000 F360.00
G2 X-0.0348 Y-11.0496 Z4.3000 I-11.0492 J-0.0131 F1440.00
G1 X-0.2074 Y-16.3220 Z4.3000 F1440.00
G1 X-0.0348 Y-11.0496 Z4.3000 F1440.00
G2 X-11.0496 Y0.0517 Z4.3000 I0.0343 J11.0491 F1440.00
G2 X0.0695 Y11.0484 Z4.3000 I11.0490 J-0.0522 F1440.00
G2 X11.0496 Y0.0126 Z4.3000 I-0.0691 J-11.0489 F1440.00
G0 X11.0496 Y0.0126 Z20.8000
G0 X16.3288 Y0.0186 Z20.8000
G1 X16.3288 Y0.0186 Z4.3000 F360.00
G3 X1.0680 Y16.2939 Z4.3000 I-16.3288 J-0.0186 F1440.00
G3 X-16.2939 Y1.0680 Z4.3000 I-1.0680 J-16.2939 F1440.00
G3 X-1.0680 Y-16.2939 Z4.3000 I16.2939 J-1.0680 F1440.00
G1 X-1.0882 Y-16.9135 Z4.3000 F1440.00
G2 X-16.9135 Y1.0987 Z4.3000 I1.0879 J16.9139 F1440.00
G2 X1.1085 Y16.9129 Z4.3000 I16.9132 J-1.0984 F1440.00
G2 X-1.0882 Y-16.9135 Z4.3000 I-1.1082 J-16.9126 F1440.00
G1 X-1.0680 Y-16.2939 Z4.3000 F1440.00
G3 X16.3288 Y0.0186 Z4.3000 I1.0680 J16.2939 F1440.00
G0 X16.3288 Y0.0186 Z20.8000
G0 X16.3290 Y0.0186 Z20.8000
G1 X16.3290 Y0.0186 Z4.3000 F360.00
G2 X-0.2074 Y-16.3220 Z4.3000 I-16.3260 J-0.0160 F1440.00
G1 X-1.0680 Y-16.2939 Z4.3000 F1440.00
G2 X-16.2939 Y1.0680 Z4.3000 I1.0680 J16.2939 F1440.00
G2 X1.0680 Y16.2939 Z4.3000 I16.2939 J-1.0680 F1440.00
G2 X16.3290 Y0.0186 Z4.3000 I-1.0650 J-16.2913 F1440.00
G1 X16.3290 Y0.0186 Z3.8000 F360.00
G2 X-0.2074 Y-16.3220 Z3.8000 I-16.3260 J-0.0160 F1440.00
G1 X-1.0680 Y-16.2939 Z3.8000 F1440.00
G2 X-16.2939 Y1.0680 Z3.8000 I1.0680 J16.2939 F1440.00
G2 X1.0680 Y16.2939 Z3.8000 I16.2939 J-1.0680 F1440.00
G2 X16.3290 Y0.0186 Z3.8000 I-1.0650 J-16.2913 F1440.00
G0 X16.3290 Y0.0186 Z20.8000
G0 X16.3288 Y0.0186 Z20.8000
G1 X16.3288 Y0.0186 Z3.8000 F360.00
G3 X1.0680 Y16.2939 Z3.8000 I-16.3288 J-0.0186 F1440.00
G3 X-16.2939 Y1.0680 Z3.8000 I-1.0680 J-16.2939 F1440.00
G3 X-1.0680 Y-16.2939 Z3.8000 I16.2939 J-1.0680 F1440.00
G1 X-1.0882 Y-16.9135 Z3.8000 F1440.00
G2 X-16.9135 Y1.0987 Z3.8000 I1.0879 J16.9139 F1440.00
G2 X1.1085 Y16.9129 Z3.8000 I16.9132 J-1.0984 F1440.00
G2 X-1.0882 Y-16.9135 Z3.8000 I-1.1082 J-16.9126 F1440.00
G1 X-1.0680 Y-16.2939 Z3.8000 F1440.00
G3 X16.3288 Y0.0186 Z3.8000 I1.0680 J16.2939 F1440.00
G0 X16.3288 Y0.0186 Z20.8000
G0 X11.0496 Y0.0124 Z20.8000
G1 X11.0496 Y0.0124 Z3.8000 F360.00
G2 X-0.0348 Y-11.0496 Z3.8000 I-11.0492 J-0.0129 F1440.00
G1 X-0.2074 Y-16.3220 Z3.8000 F1440.00
G1 X-0.0348 Y-11.0496 Z3.8000 F1440.00
G2 X-11.0496 Y0.0517 Z3.8000 I0.0343 J11.0491 F1440.00
G2 X0.0695 Y11.0484 Z3.8000 I11.0490 J-0.0522 F1440.00
G2 X11.0496 Y0.0124 Z3.8000 I-0.0691 J-11.0489 F1440.00
G1 X11.0496 Y0.0124 Z3.3000 F360.00
G2 X-0.0348 Y-11.0496 Z3.3000 I-11.0492 J-0.0129 F1440.00
G1 X-0.2074 Y-16.3220 Z3.3000 F1440.00
G1 X-0.0348 Y-11.0496 Z3.3000 F1440.00
G2 X-11.0496 Y0.0517 Z3.3000 I0.0343 J11.0491 F1440.00
G2 X0.0695 Y11.0484 Z3.3000 I11.0490 J-0.0522 F1440.00
G2 X11.0496 Y0.0124 Z3.3000 I-0.0691 J-11.0489 F1440.00
G0 X11.0496 Y0.0124 Z20.8000
G0 X16.3288 Y0.0184 Z20.8000
G1 X16.3288 Y0.0184 Z3.3000 F360.00
G3 X1.0680 Y16.2939 Z3.3000 I-16.3288 J-0.0184 F1440.00
G3 X-16.2939 Y1.0680 Z3.3000 I-1.0680 J-16.2939 F1440.00
G3 X-1.0680 Y-16.2939 Z3.3000 I16.2939 J-1.0680 F1440.00
G1 X-1.0882 Y-16.9135 Z3.3000 F1440.00
G2 X-16.9135 Y1.0987 Z3.3000 I1.0879 J16.9139 F1440.00
G2 X1.1085 Y16.9129 Z3.3000 I16.9132 J-1.0984 F1440.00
G2 X-1.0882 Y-16.9135 Z3.3000 I-1.1082 J-16.9126 F1440.00
G1 X-1.0680 Y-16.2939 Z3.3000 F1440.00
G3 X16.3288 Y0.0184 Z3.3000 I1.0680 J16.2939 F1440.00
G0 X16.3288 Y0.0184 Z20.8000
G0 X16.3290 Y0.0184 Z20.8000
G1 X16.3290 Y0.0184 Z3.3000 F360.00
G2 X-0.2074 Y-16.3220 Z3.3000 I-16.3260 J-0.0157 F1440.00
G1 X-1.0680 Y-16.2939 Z3.3000 F1440.00
G2 X-16.2939 Y1.0680 Z3.3000 I1.0680 J16.2939 F1440.00
G2 X1.0680 Y16.2939 Z3.3000 I16.2939 J-1.0680 F1440.00
G2 X16.3290 Y0.0184 Z3.3000 I-1.0650 J-16.2913 F1440.00
G0 X16.3290 Y0.0184 Z20.8000
G0 X15.2491 Y0.0172 Z20.8000
G1 X15.2491 Y0.0172 Z2.8000 F360.00
G3 X0.0000 Y15.2491 Z2.8000 I-15.2487 J-0.0168 F1440.00
G3 X-0.0212 Y-15.2484 Z2.8000 I-0.0004 J-15.2487 F1440.00
G1 X0.0000 Y-14.6287 Z2.8000 F1440.00
G2 X0.0000 Y14.6287 Z2.8000 I0.0000 J14.6287 F1440.00
G2 X0.0212 Y-14.6280 Z2.8000 I0.0004 J-14.6284 F1440.00
G1 X0.0000 Y-14.0084 Z2.8000 F1440.00
G2 X0.0000 Y14.0084 Z2.8000 I-0.0000 J14.0084 F1440.00
G2 X0.0212 Y-14.0076 Z2.8000 I0.0004 J-14.0080 F1440.00
G1 X0.0000 Y-13.3880 Z2.8000 F1440.00
G1 X0.0212 Y-13.3873 Z2.8000 F1440.00
G1 X0.0000 Y-12.7676 Z2.8000 F1440.00
G1 X0.0212 Y-13.3873 Z2.8000 F1440.00
G3 X0.0000 Y13.3880 Z2.8000 I-0.0208 J13.3876 F1440.00
G3 X0.0000 Y-13.3880 Z2.8000 I-0.0000 J-13.3880 F1440.00
G1 X0.0212 Y-14.0076 Z2.8000 F1440.00
G1 X0.0000 Y-14.0084 Z2.8000 F1440.00
G1 X0.0212 Y-14.6280 Z2.8000 F1440.00
G1 X0.0000 Y-14.6287 Z2.8000 F1440.00
G1 X-0.0212 Y-15.2484 Z2.8000 F1440.00
G3 X15.2491 Y0.0172 Z2.8000 I0.0215 J15.2487 F1440.00
G0 X15.2491 Y0.0172 Z20.8000
G0 X12.7676 Y0.0144 Z20.8000
G1 X12.7676 Y0.0144 Z2.8000 F360.00
G2 X0.0212 Y-12.7669 Z2.8000 I-12.7673 J-0.0141 F1440.00
G1 X0.0000 Y-12.7676 Z2.8000 F1440.00
G2 X0.0000 Y12.7676 Z2.8000 I0.0000 J12.7676 F1440.00
G2 X12.7676 Y0.0144 Z2.8000 I0.0004 J-12.7673 F1440.00
G0 X12.7676 Y0.0144 Z20.8000
G0 X12.1473 Y0.0138 Z20.8000
G1 X12.1473 Y0.0138 Z2.8000 F360.00
G3 X0.0000 Y12.1473 Z2.8000 I-12.1457 J-0.0122 F1440.00
G3 X0.0000 Y-12.1473 Z2.8000 I-0.0000 J-12.1473 F1440.00
G1 X0.0212 Y-12.7669 Z2.8000 F1440.00
G1 X0.0000 Y-12.1473 Z2.8000 F1440.00
G1 X0.1070 Y-12.1436 Z2.8000 F1440.00
G1 X0.0695 Y-11.0484 Z2.8000 F1440.00
G2 X-11.0486 Y-0.0341 Z2.8000 I-0.0689 J11.0491 F1440.00
G2 X-0.0000 Y11.0500 Z2.8000 I11.0493 J0.0348 F1440.00
G2 X0.0695 Y-11.0484 Z2.8000 I-0.0007 J-11.0493 F1440.00
G1 X0.1070 Y-12.1436 Z2.8000 F1440.00
G3 X12.1473 Y0.0138 Z2.8000 I-0.1054 J12.1452 F1440.00
G1 X12.1473 Y0.0138 Z2.3000 F360.00
G3 X0.0000 Y12.1473 Z2.3000 I-12.1457 J-0.0122 F1440.00
G3 X0.0000 Y-12.1473 Z2.3000 I-0.0000 J-12.1473 F1440.00
G1 X0.0212 Y-12.7669 Z2.3000 F1440.00
G1 X0.0000 Y-12.1473 Z2.3000 F1440.00
G1 X0.1070 Y-12.1436 Z2.3000 F1440.00
G1 X0.0695 Y-11.0484 Z2.3000 F1440.00
G2 X-11.0486 Y-0.0341 Z2.3000 I-0.0689 J11.0491 F1440.00
G2 X-0.0000 Y11.0500 Z2.3000 I11.0493 J0.0348 F1440.00
G2 X0.0695 Y-11.0484 Z2.3000 I-0.0007 J-11.0493 F1440.00
G1 X0.1070 Y-12.1436 Z2.3000 F1440.00
G3 X12.1473 Y0.0138 Z2.3000 I-0.1054 J12.1452 F1440.00
G0 X12.1473 Y0.0138 Z20.8000
G0 X12.7676 Y0.0145 Z20.8000
G1 X12.7676 Y0.0145 Z2.3000 F360.00
G2 X0.0212 Y-12.7669 Z2.3000 I-12.7673 J-0.0141 F1440.00
G1 X0.0000 Y-12.7676 Z2.3000 F1440.00
G2 X0.0000 Y12.7676 Z2.3000 I0.0000 J12.7676 F1440.00
G2 X12.7676 Y0.0145 Z2.3000 I0.0004 J-12.7673 F1440.00
G0 X12.7676 Y0.0145 Z20.8000
G0 X13.3880 Y0.0152 Z20.8000
G1 X13.3880 Y0.0152 Z2.3000 F360.00
G3 X0.0000 Y13.3880 Z2.3000 I-13.3876 J-0.0148 F1440.00
G3 X0.0000 Y-13.3880 Z2.3000 I-0.0000 J-13.3880 F1440.00
G1 X0.0212 Y-14.0076 Z2.3000 F1440.00
G1 X0.0000 Y-14.0084 Z2.3000 F1440.00
G1 X0.0212 Y-14.6280 Z2.3000 F1440.00
G1 X0.0000 Y-14.6287 Z2.3000 F1440.00
G1 X-0.0212 Y-15.2484 Z2.3000 F1440.00
G3 X15.2491 Y-0.0102 Z2.3000 I0.0215 J15.2487 F1440.00
G3 X0.0000 Y15.2491 Z2.3000 I-15.2487 J0.0106 F1440.00
G3 X-0.0212 Y-15.2484 Z2.3000 I-0.0004 J-15.2487 F1440.00
G1 X0.0000 Y-14.6287 Z2.3000 F1440.00
G2 X0.0000 Y14.6287 Z2.3000 I0.0000 J14.6287 F1440.00
G2 X0.0212 Y-14.6280 Z2.3000 I0.0004 J-14.6284 F1440.00
G1 X0.0000 Y-14.0084 Z2.3000 F1440.00
G2 X0.0000 Y14.0084 Z2.3000 I-0.0000 J14.0084 F1440.00
G2 X0.0212 Y-14.0076 Z2.3000 I0.0004 J-14.0080 F1440.00
G1 X0.0000 Y-13.3880 Z2.3000 F1440.00
G1 X0.0212 Y-13.3873 Z2.3000 F1440.00
G1 X0.0000 Y-12.7676 Z2.3000 F1440.00
G1 X0.0212 Y-13.3873 Z2.3000 F1440.00
G3 X13.3880 Y0.0152 Z2.3000 I-0.0208 J13.3876 F1440.00
G1 X13.3880 Y0.0152 Z2.0000 F360.00
G3 X0.0000 Y13.3880 Z2.0000 I-13.3876 J-0.0148 F1440.00
G3 X0.0000 Y-13.3880 Z2.0000 I-0.0000 J-13.3880 F1440.00
G1 X0.0212 Y-14.0076 Z2.0000 F1440.00
G1 X0.0000 Y-14.0084 Z2.0000 F1440.00
G1 X0.0212 Y-14.6280 Z2.0000 F1440.00
G1 X0.0000 Y-14.6287 Z2.0000 F1440.00
G1 X-0.0212 Y-15.2484 Z2.0000 F1440.00
G3 X15.2491 Y-0.0102 Z2.0000 I0.0215 J15.2487 F1440.00
G3 X0.0000 Y15.2491 Z2.0000 I-15.2487 J0.0106 F1440.00
G3 X-0.0212 Y-15.2484 Z2.0000 I-0.0004 J-15.2487 F1440.00
G1 X0.0000 Y-14.6287 Z2.0000 F1440.00
G2 X0.0000 Y14.6287 Z2.0000 I0.0000 J14.6287 F1440.00
G2 X0.0212 Y-14.6280 Z2.0000 I0.0004 J-14.6284 F1440.00
G1 X0.0000 Y-14.0084 Z2.0000 F1440.00
G2 X0.0000 Y14.0084 Z2.0000 I-0.0000 J14.0084 F1440.00
G2 X0.0212 Y-14.0076 Z2.0000 I0.0004 J-14.0080 F1440.00
G1 X0.0000 Y-13.3880 Z2.0000 F1440.00
G1 X0.0212 Y-13.3873 Z2.0000 F1440.00
G1 X0.0000 Y-12.7676 Z2.0000 F1440.00
G1 X0.0212 Y-13.3873 Z2.0000 F1440.00
G3 X13.3880 Y0.0152 Z2.0000 I-0.0208 J13.3876 F1440.00
G0 X13.3880 Y0.0152 Z20.8000
G0 X12.7676 Y0.0145 Z20.8000
G1 X12.7676 Y0.0145 Z2.0000 F360.00
G2 X0.0212 Y-12.7669 Z2.0000 I-12.7673 J-0.0141 F1440.00
G1 X0.0000 Y-12.7676 Z2.0000 F1440.00
G2 X0.0000 Y12.7676 Z2.0000 I0.0000 J12.7676 F1440.00
G2 X12.7676 Y0.0145 Z2.0000 I0.0004 J-12.7673 F1440.00
G0 X12.7676 Y0.0145 Z20.8000
G0 X12.1473 Y0.0139 Z20.8000
G1 X12.1473 Y0.0139 Z2.0000 F360.00
G3 X0.0000 Y12.1473 Z2.0000 I-12.1457 J-0.0123 F1440.00
G3 X0.0000 Y-12.1473 Z2.0000 I-0.0000 J-12.1473 F1440.00
G1 X0.0212 Y-12.7669 Z2.0000 F1440.00
G1 X0.0000 Y-12.1473 Z2.0000 F1440.00
G1 X0.1070 Y-12.1436 Z2.0000 F1440.00
G1 X0.0695 Y-11.0484 Z2.0000 F1440.00
G2 X-11.0486 Y-0.0341 Z2.0000 I-0.0689 J11.0491 F1440.00
G2 X-0.0000 Y11.0500 Z2.0000 I11.0493 J0.0348 F1440.00
G2 X0.0695 Y-11.0484 Z2.0000 I-0.0007 J-11.0493 F1440.00
G1 X0.1070 Y-12.1436 Z2.0000 F1440.00
G3 X12.1473 Y0.0139 Z2.0000 I-0.1054 J12.1452 F1440.00
G0 Z20.8000
(finish operation: Pocket_3D003)
(begin operation: Contour)
(Path: Contour)
(Contour)
(Compensated Tool Path. Diameter: 3.1)
G0 Z20.8000
G0 X16.6519 Y16.6519
G0 Z18.8000
G1 X16.6519 Y16.6519 Z15.3000 F360.00
G2 X2.8309 Y-23.3786 Z15.3000 I-16.6519 J-16.6519 F1440.00
G2 X-2.8309 Y23.3786 Z15.3000 I-2.8309 J23.3786 F1440.00
G2 X16.6519 Y16.6519 Z15.3000 I2.8309 J-23.3786 F1440.00
G1 X16.6519 Y16.6519 Z14.8000 F360.00
G2 X2.8309 Y-23.3786 Z14.8000 I-16.6519 J-16.6519 F1440.00
G2 X-2.8309 Y23.3786 Z14.8000 I-2.8309 J23.3786 F1440.00
G2 X16.6519 Y16.6519 Z14.8000 I2.8309 J-23.3786 F1440.00
G1 X16.6519 Y16.6519 Z14.3000 F360.00
G2 X2.8309 Y-23.3786 Z14.3000 I-16.6519 J-16.6519 F1440.00
G2 X-2.8309 Y23.3786 Z14.3000 I-2.8309 J23.3786 F1440.00
G2 X16.6519 Y16.6519 Z14.3000 I2.8309 J-23.3786 F1440.00
G1 X16.6519 Y16.6519 Z13.8000 F360.00
G2 X2.8309 Y-23.3786 Z13.8000 I-16.6519 J-16.6519 F1440.00
G2 X-2.8309 Y23.3786 Z13.8000 I-2.8309 J23.3786 F1440.00
G2 X16.6519 Y16.6519 Z13.8000 I2.8309 J-23.3786 F1440.00
G1 X16.6519 Y16.6519 Z13.3000 F360.00
G2 X2.8309 Y-23.3786 Z13.3000 I-16.6519 J-16.6519 F1440.00
G2 X-2.8309 Y23.3786 Z13.3000 I-2.8309 J23.3786 F1440.00
G2 X16.6519 Y16.6519 Z13.3000 I2.8309 J-23.3786 F1440.00
G1 X16.6519 Y16.6519 Z12.8000 F360.00
G2 X2.8309 Y-23.3786 Z12.8000 I-16.6519 J-16.6519 F1440.00
G2 X-2.8309 Y23.3786 Z12.8000 I-2.8309 J23.3786 F1440.00
G2 X16.6519 Y16.6519 Z12.8000 I2.8309 J-23.3786 F1440.00
G1 X16.6519 Y16.6519 Z12.3000 F360.00
G2 X2.8309 Y-23.3786 Z12.3000 I-16.6519 J-16.6519 F1440.00
G2 X-2.8309 Y23.3786 Z12.3000 I-2.8309 J23.3786 F1440.00
G2 X16.6519 Y16.6519 Z12.3000 I2.8309 J-23.3786 F1440.00
G1 X16.6519 Y16.6519 Z11.8000 F360.00
G2 X2.8309 Y-23.3786 Z11.8000 I-16.6519 J-16.6519 F1440.00
G2 X-2.8309 Y23.3786 Z11.8000 I-2.8309 J23.3786 F1440.00
G2 X16.6519 Y16.6519 Z11.8000 I2.8309 J-23.3786 F1440.00
G1 X16.6519 Y16.6519 Z11.3000 F360.00
G2 X2.8309 Y-23.3786 Z11.3000 I-16.6519 J-16.6519 F1440.00
G2 X-2.8309 Y23.3786 Z11.3000 I-2.8309 J23.3786 F1440.00
G2 X16.6519 Y16.6519 Z11.3000 I2.8309 J-23.3786 F1440.00
G1 X16.6519 Y16.6519 Z10.8000 F360.00
G2 X2.8309 Y-23.3786 Z10.8000 I-16.6519 J-16.6519 F1440.00
G2 X-2.8309 Y23.3786 Z10.8000 I-2.8309 J23.3786 F1440.00
G2 X16.6519 Y16.6519 Z10.8000 I2.8309 J-23.3786 F1440.00
G1 X16.6519 Y16.6519 Z10.3000 F360.00
G2 X2.8309 Y-23.3786 Z10.3000 I-16.6519 J-16.6519 F1440.00
G2 X-2.8309 Y23.3786 Z10.3000 I-2.8309 J23.3786 F1440.00
G2 X16.6519 Y16.6519 Z10.3000 I2.8309 J-23.3786 F1440.00
G1 X16.6519 Y16.6519 Z9.8000 F360.00
G2 X2.8309 Y-23.3786 Z9.8000 I-16.6519 J-16.6519 F1440.00
G2 X-2.8309 Y23.3786 Z9.8000 I-2.8309 J23.3786 F1440.00
G2 X16.6519 Y16.6519 Z9.8000 I2.8309 J-23.3786 F1440.00
G1 X16.6519 Y16.6519 Z9.3000 F360.00
G2 X2.8309 Y-23.3786 Z9.3000 I-16.6519 J-16.6519 F1440.00
G2 X-2.8309 Y23.3786 Z9.3000 I-2.8309 J23.3786 F1440.00
G2 X16.6519 Y16.6519 Z9.3000 I2.8309 J-23.3786 F1440.00
G1 X16.6519 Y16.6519 Z8.8000 F360.00
G2 X2.8309 Y-23.3786 Z8.8000 I-16.6519 J-16.6519 F1440.00
G2 X-2.8309 Y23.3786 Z8.8000 I-2.8309 J23.3786 F1440.00
G2 X16.6519 Y16.6519 Z8.8000 I2.8309 J-23.3786 F1440.00
G1 X16.6519 Y16.6519 Z8.3000 F360.00
G2 X2.8309 Y-23.3786 Z8.3000 I-16.6519 J-16.6519 F1440.00
G2 X-2.8309 Y23.3786 Z8.3000 I-2.8309 J23.3786 F1440.00
G2 X16.6519 Y16.6519 Z8.3000 I2.8309 J-23.3786 F1440.00
G1 X16.6519 Y16.6519 Z7.8000 F360.00
G2 X2.8309 Y-23.3786 Z7.8000 I-16.6519 J-16.6519 F1440.00
G2 X-2.8309 Y23.3786 Z7.8000 I-2.8309 J23.3786 F1440.00
G2 X16.6519 Y16.6519 Z7.8000 I2.8309 J-23.3786 F1440.00
G1 X16.6519 Y16.6519 Z7.3000 F360.00
G2 X2.8309 Y-23.3786 Z7.3000 I-16.6519 J-16.6519 F1440.00
G2 X-2.8309 Y23.3786 Z7.3000 I-2.8309 J23.3786 F1440.00
G2 X16.6519 Y16.6519 Z7.3000 I2.8309 J-23.3786 F1440.00
G1 X16.6519 Y16.6519 Z6.8000 F360.00
G2 X2.8309 Y-23.3786 Z6.8000 I-16.6519 J-16.6519 F1440.00
G2 X-2.8309 Y23.3786 Z6.8000 I-2.8309 J23.3786 F1440.00
G2 X16.6519 Y16.6519 Z6.8000 I2.8309 J-23.3786 F1440.00
G1 X16.6519 Y16.6519 Z6.3000 F360.00
G2 X2.8309 Y-23.3786 Z6.3000 I-16.6519 J-16.6519 F1440.00
G2 X-2.8309 Y23.3786 Z6.3000 I-2.8309 J23.3786 F1440.00
G2 X16.6519 Y16.6519 Z6.3000 I2.8309 J-23.3786 F1440.00
G1 X16.6519 Y16.6519 Z5.8000 F360.00
G2 X2.8309 Y-23.3786 Z5.8000 I-16.6519 J-16.6519 F1440.00
G2 X-2.8309 Y23.3786 Z5.8000 I-2.8309 J23.3786 F1440.00
G2 X16.6519 Y16.6519 Z5.8000 I2.8309 J-23.3786 F1440.00
G1 X16.6519 Y16.6519 Z5.3000 F360.00
G2 X2.8309 Y-23.3786 Z5.3000 I-16.6519 J-16.6519 F1440.00
G2 X-2.8309 Y23.3786 Z5.3000 I-2.8309 J23.3786 F1440.00
G2 X16.6519 Y16.6519 Z5.3000 I2.8309 J-23.3786 F1440.00
G1 X16.6519 Y16.6519 Z4.8000 F360.00
G2 X2.8309 Y-23.3786 Z4.8000 I-16.6519 J-16.6519 F1440.00
G2 X-2.8309 Y23.3786 Z4.8000 I-2.8309 J23.3786 F1440.00
G2 X16.6519 Y16.6519 Z4.8000 I2.8309 J-23.3786 F1440.00
G1 X16.6519 Y16.6519 Z4.3000 F360.00
G2 X2.8309 Y-23.3786 Z4.3000 I-16.6519 J-16.6519 F1440.00
G2 X-2.8309 Y23.3786 Z4.3000 I-2.8309 J23.3786 F1440.00
G2 X16.6519 Y16.6519 Z4.3000 I2.8309 J-23.3786 F1440.00
G1 X16.6519 Y16.6519 Z3.8000 F360.00
G2 X2.8309 Y-23.3786 Z3.8000 I-16.6519 J-16.6519 F1440.00
G2 X-2.8309 Y23.3786 Z3.8000 I-2.8309 J23.3786 F1440.00
G2 X16.6519 Y16.6519 Z3.8000 I2.8309 J-23.3786 F1440.00
G1 X16.6519 Y16.6519 Z3.3000 F360.00
G2 X2.8309 Y-23.3786 Z3.3000 I-16.6519 J-16.6519 F1440.00
G2 X-2.8309 Y23.3786 Z3.3000 I-2.8309 J23.3786 F1440.00
G2 X16.6519 Y16.6519 Z3.3000 I2.8309 J-23.3786 F1440.00
G1 X16.6519 Y16.6519 Z2.8000 F360.00
G2 X2.8309 Y-23.3786 Z2.8000 I-16.6519 J-16.6519 F1440.00
G2 X-2.8309 Y23.3786 Z2.8000 I-2.8309 J23.3786 F1440.00
G2 X16.6519 Y16.6519 Z2.8000 I2.8309 J-23.3786 F1440.00
G1 X16.6519 Y16.6519 Z2.3000 F360.00
G2 X2.8309 Y-23.3786 Z2.3000 I-16.6519 J-16.6519 F1440.00
G2 X-2.8309 Y23.3786 Z2.3000 I-2.8309 J23.3786 F1440.00
G2 X16.6519 Y16.6519 Z2.3000 I2.8309 J-23.3786 F1440.00
G1 X16.6519 Y16.6519 Z1.8000 F360.00
G2 X2.8309 Y-23.3786 Z1.8000 I-16.6519 J-16.6519 F1440.00
G2 X-2.8309 Y23.3786 Z1.8000 I-2.8309 J23.3786 F1440.00
G2 X16.6519 Y16.6519 Z1.8000 I2.8309 J-23.3786 F1440.00
G1 X16.6519 Y16.6519 Z1.3000 F360.00
G2 X2.8309 Y-23.3786 Z1.3000 I-16.6519 J-16.6519 F1440.00
G2 X-2.8309 Y23.3786 Z1.3000 I-2.8309 J23.3786 F1440.00
G2 X16.6519 Y16.6519 Z1.3000 I2.8309 J-23.3786 F1440.00
G1 X16.6519 Y16.6519 Z0.8000 F360.00
G2 X2.8309 Y-23.3786 Z0.8000 I-16.6519 J-16.6519 F1440.00
G2 X-2.8309 Y23.3786 Z0.8000 I-2.8309 J23.3786 F1440.00
G2 X16.6519 Y16.6519 Z0.8000 I2.8309 J-23.3786 F1440.00
G1 X16.6519 Y16.6519 Z0.3000 F360.00
G2 X2.8309 Y-23.3786 Z0.3000 I-16.6519 J-16.6519 F1440.00
G2 X-2.8309 Y23.3786 Z0.3000 I-2.8309 J23.3786 F1440.00
G2 X16.6519 Y16.6519 Z0.3000 I2.8309 J-23.3786 F1440.00
G1 X16.6519 Y16.6519 Z0.0000 F360.00
G2 X2.8309 Y-23.3786 Z0.0000 I-16.6519 J-16.6519 F1440.00
G2 X-2.8309 Y23.3786 Z0.0000 I-2.8309 J23.3786 F1440.00
G2 X16.6519 Y16.6519 Z0.0000 I2.8309 J-23.3786 F1440.00
G0 Z20.8000
(finish operation: Contour)
(begin postamble)
M5
G17 G90
; M2
