
;Exported by FreeCAD
;Post Processor: centroid_post
;CAM file: /home/lu/FreeCAD/Projects/midi_pad/midi_pad.FCStd
;Output Time: 2022-08-21 11:04:38.634411
G90 G80 G40 G49
;T1=T1__Default_tool
;begin preamble
G53 G00 G17
G20
;begin operation
;T1: Default tool
M6 T1
M3 S1000
;end operation: T1: Default tool
;begin operation
;Pocket_3D
G0 Z12.7000
G0 X4.9117 Y4.9117
G0 Z10.7000
G1 X4.9117 Y4.9117 Z8.7000 F300.0
G2 X6.9462 Y-0.0000 Z8.7000 I-4.9117 J-4.9117 F300.0
G2 X-0.0000 Y-6.9462 Z8.7000 I-6.9462 J-0.0000 F300.0
G2 X-6.9462 Y0.0000 Z8.7000 I0.0000 J6.9462 F300.0
G2 X4.9117 Y4.9117 Z8.7000 I6.9462 J0.0000 F300.0
G0 X4.9117 Y4.9117 Z12.7000
G0 X5.1105 Y4.7045 Z12.7000
G1 X5.1105 Y4.7045 Z8.7000 F300.0
G3 X1.5676 Y6.7625 Z8.7000 I-5.0765 J-4.6609 F300.0
G1 X6.7625 Y1.5676 Z8.7000 F300.0
G2 X6.9421 Y-0.0970 Z8.7000 I-6.2669 J-1.5185 F300.0
G1 X-0.0970 Y6.9421 Z8.7000 F300.0
G3 X-1.4309 Y6.7911 Z8.7000 I-0.0417 J-5.5979 F300.0
G1 X6.7911 Y-1.4309 Z8.7000 F300.0
G2 X6.4465 Y-2.5713 Z8.7000 I-5.3451 J0.9928 F300.0
G1 X-2.5713 Y6.4465 Z8.7000 F300.0
G3 X-3.5646 Y5.9549 Z8.7000 I1.7989 J-4.8836 F300.0
G1 X5.9549 Y-3.5646 Z8.7000 F300.0
G2 X5.3395 Y-4.4341 Z8.7000 I-4.2689 J2.3688 F300.0
G1 X-4.4341 Y5.3395 Z8.7000 F300.0
G3 X-5.1900 Y4.6105 Z8.7000 I2.7991 J-3.6592 F300.0
G1 X4.6105 Y-5.1900 Z8.7000 F300.0
G2 X3.7688 Y-5.8332 Z8.7000 I-3.1096 J3.1973 F300.0
G1 X-5.8332 Y3.7688 Z8.7000 F300.0
G3 X-6.3540 Y2.8047 Z8.7000 I5.5570 J-3.6248 F300.0
G1 X2.8047 Y-6.3540 Z8.7000 F300.0
G2 X1.7003 Y-6.7346 Z8.7000 I-2.7690 J6.2424 F300.0
G1 X-6.7346 Y1.7003 Z8.7000 F300.0
G3 X-6.9292 Y0.4100 Z8.7000 I5.0862 J-1.4268 F300.0
G1 X0.4100 Y-6.9292 Z8.7000 F300.0
G2 X-1.1552 Y-6.8489 Z8.7000 I-0.4464 J6.5941 F300.0
G1 X-6.8489 Y-1.1552 Z8.7000 F300.0
G3 X-5.9997 Y-3.4894 Z8.7000 I6.5875 J1.0751 F300.0
G3 X-3.4894 Y-5.9997 Z8.7000 I5.8816 J3.3713 F300.0
G1 X-5.9997 Y-3.4894 Z8.7000 F300.0
G1 X-5.9997 Y-3.4894 Z7.7000 F300.0
G1 X-3.4894 Y-5.9997 Z7.7000 F300.0
G2 X-5.9997 Y-3.4894 Z7.7000 I3.3713 J5.8816 F300.0
G2 X-6.8489 Y-1.1552 Z7.7000 I5.7383 J3.4093 F300.0
G1 X-1.1552 Y-6.8489 Z7.7000 F300.0
G3 X0.4100 Y-6.9292 Z7.7000 I1.1188 J6.5138 F300.0
G1 X-6.9292 Y0.4100 Z7.7000 F300.0
G2 X-6.7346 Y1.7003 Z7.7000 I5.2807 J-0.1365 F300.0
G1 X1.7003 Y-6.7346 Z7.7000 F300.0
G3 X2.8047 Y-6.3540 Z7.7000 I-1.6646 J6.6229 F300.0
G1 X-6.3540 Y2.8047 Z7.7000 F300.0
G2 X-5.8332 Y3.7688 Z7.7000 I6.0779 J-2.6607 F300.0
G1 X3.7688 Y-5.8332 Z7.7000 F300.0
G3 X4.6105 Y-5.1900 Z7.7000 I-2.2678 J3.8404 F300.0
G1 X-5.1900 Y4.6105 Z7.7000 F300.0
G2 X-4.4341 Y5.3395 Z7.7000 I3.5550 J-2.9303 F300.0
G1 X5.3395 Y-4.4341 Z7.7000 F300.0
G3 X5.9549 Y-3.5646 Z7.7000 I-3.6535 J3.2383 F300.0
G1 X-3.5646 Y5.9549 Z7.7000 F300.0
G2 X-2.5713 Y6.4465 Z7.7000 I2.7922 J-4.3919 F300.0
G1 X6.4465 Y-2.5713 Z7.7000 F300.0
G3 X6.7911 Y-1.4309 Z7.7000 I-5.0005 J2.1332 F300.0
G1 X-1.4309 Y6.7911 Z7.7000 F300.0
G2 X-0.0970 Y6.9421 Z7.7000 I1.2922 J-5.4469 F300.0
G1 X6.9421 Y-0.0970 Z7.7000 F300.0
G3 X6.7625 Y1.5676 Z7.7000 I-6.4465 J0.1461 F300.0
G1 X1.5676 Y6.7625 Z7.7000 F300.0
G2 X5.1105 Y4.7045 Z7.7000 I-1.5337 J-6.7189 F300.0
G1 X5.1105 Y4.7045 Z7.7000 F300.0
G2 X6.9462 Y-0.0000 Z7.7000 I-5.1105 J-4.7045 F300.0
G2 X-0.0000 Y-6.9462 Z7.7000 I-6.9462 J-0.0000 F300.0
G2 X-6.9462 Y0.0000 Z7.7000 I0.0000 J6.9462 F300.0
G2 X5.1105 Y4.7045 Z7.7000 I6.9462 J0.0000 F300.0
G0 Z12.7000
;end operation: Pocket_3D
;begin postamble
M5 M25
G49 H0
G90 G80 G40 G49
M99
