(Exported by FreeCAD)
(Post Processor: grbl_post)
(Output Time:2022-08-23 10:53:10.489337)
(begin preamble)
G17 G90
G21
(begin operation: T2: Mill Bit standard)
(Path: T2: Mill Bit standard)
(T2: Mill Bit standard)
(begin toolchange)
; M6 T2
M3 S12000.0000
(finish operation: T2: Mill Bit standard)
(begin operation: MillFace)
(Path: MillFace)
(MillFace)
G0 Z18.0000
G0 X-16.9500 Y17.1314
G0 Z17.0000
G1 X-16.9500 Y17.1314 Z11.9000 F900.00
G1 X-16.7214 Y17.3600 Z11.9000 F900.00
G1 X-16.9500 Y17.3600 Z11.9000 F900.00
G1 X-16.9500 Y17.1314 Z11.9000 F900.00
G1 X-16.9500 Y15.8161 Z11.9000 F900.00
G1 X-15.4061 Y17.3600 Z11.9000 F900.00
G1 X-14.0909 Y17.3600 Z11.9000 F900.00
G1 X-16.9500 Y14.5009 Z11.9000 F900.00
G1 X-16.9500 Y13.1857 Z11.9000 F900.00
G1 X-12.7757 Y17.3600 Z11.9000 F900.00
G1 X-11.4605 Y17.3600 Z11.9000 F900.00
G1 X-16.9500 Y11.8705 Z11.9000 F900.00
G1 X-16.9500 Y10.5553 Z11.9000 F900.00
G1 X-10.1453 Y17.3600 Z11.9000 F900.00
G1 X-8.8301 Y17.3600 Z11.9000 F900.00
G1 X-16.9500 Y9.2401 Z11.9000 F900.00
G1 X-16.9500 Y7.9248 Z11.9000 F900.00
G1 X-7.5148 Y17.3600 Z11.9000 F900.00
G1 X-6.1996 Y17.3600 Z11.9000 F900.00
G1 X-16.9500 Y6.6096 Z11.9000 F900.00
G1 X-16.9500 Y5.2944 Z11.9000 F900.00
G1 X-4.8844 Y17.3600 Z11.9000 F900.00
G1 X-3.5692 Y17.3600 Z11.9000 F900.00
G1 X-16.9500 Y3.9792 Z11.9000 F900.00
G1 X-16.9500 Y2.6640 Z11.9000 F900.00
G1 X-2.2540 Y17.3600 Z11.9000 F900.00
G1 X-0.9387 Y17.3600 Z11.9000 F900.00
G1 X-16.9500 Y1.3487 Z11.9000 F900.00
G1 X-16.9500 Y0.0335 Z11.9000 F900.00
G1 X0.3765 Y17.3600 Z11.9000 F900.00
G1 X1.6917 Y17.3600 Z11.9000 F900.00
G1 X-16.9500 Y-1.2817 Z11.9000 F900.00
G1 X-16.9500 Y-2.5969 Z11.9000 F900.00
G1 X3.0069 Y17.3600 Z11.9000 F900.00
G1 X4.3221 Y17.3600 Z11.9000 F900.00
G1 X-16.9500 Y-3.9121 Z11.9000 F900.00
G1 X-16.9500 Y-5.2273 Z11.9000 F900.00
G1 X5.6373 Y17.3600 Z11.9000 F900.00
G1 X6.9526 Y17.3600 Z11.9000 F900.00
G1 X-16.9500 Y-6.5426 Z11.9000 F900.00
G1 X-16.9500 Y-7.8578 Z11.9000 F900.00
G1 X8.2678 Y17.3600 Z11.9000 F900.00
G1 X9.5830 Y17.3600 Z11.9000 F900.00
G1 X-16.9500 Y-9.1730 Z11.9000 F900.00
G1 X-16.9500 Y-10.4882 Z11.9000 F900.00
G1 X10.8982 Y17.3600 Z11.9000 F900.00
G1 X12.2134 Y17.3600 Z11.9000 F900.00
G1 X-16.9500 Y-11.8034 Z11.9000 F900.00
G1 X-16.9500 Y-13.1187 Z11.9000 F900.00
G1 X13.5287 Y17.3600 Z11.9000 F900.00
G1 X14.8439 Y17.3600 Z11.9000 F900.00
G1 X-16.9500 Y-14.4339 Z11.9000 F900.00
G1 X-16.9500 Y-15.7491 Z11.9000 F900.00
G1 X16.1591 Y17.3600 Z11.9000 F900.00
G1 X16.9500 Y17.3600 Z11.9000 F900.00
G1 X16.9500 Y16.8357 Z11.9000 F900.00
G1 X-16.9500 Y-17.0643 Z11.9000 F900.00
G1 X-16.9500 Y-17.3600 Z11.9000 F900.00
G1 X-15.9305 Y-17.3600 Z11.9000 F900.00
G1 X16.9500 Y15.5205 Z11.9000 F900.00
G1 X16.9500 Y14.2052 Z11.9000 F900.00
G1 X-14.6152 Y-17.3600 Z11.9000 F900.00
G1 X-13.3000 Y-17.3600 Z11.9000 F900.00
G1 X16.9500 Y12.8900 Z11.9000 F900.00
G1 X16.9500 Y11.5748 Z11.9000 F900.00
G1 X-11.9848 Y-17.3600 Z11.9000 F900.00
G1 X-10.6696 Y-17.3600 Z11.9000 F900.00
G1 X16.9500 Y10.2596 Z11.9000 F900.00
G1 X16.9500 Y8.9444 Z11.9000 F900.00
G1 X-9.3544 Y-17.3600 Z11.9000 F900.00
G1 X-8.0392 Y-17.3600 Z11.9000 F900.00
G1 X16.9500 Y7.6292 Z11.9000 F900.00
G1 X16.9500 Y6.3139 Z11.9000 F900.00
G1 X-6.7239 Y-17.3600 Z11.9000 F900.00
G1 X-5.4087 Y-17.3600 Z11.9000 F900.00
G1 X16.9500 Y4.9987 Z11.9000 F900.00
G1 X16.9500 Y3.6835 Z11.9000 F900.00
G1 X-4.0935 Y-17.3600 Z11.9000 F900.00
G1 X-2.7783 Y-17.3600 Z11.9000 F900.00
G1 X16.9500 Y2.3683 Z11.9000 F900.00
G1 X16.9500 Y1.0531 Z11.9000 F900.00
G1 X-1.4631 Y-17.3600 Z11.9000 F900.00
G1 X-0.1478 Y-17.3600 Z11.9000 F900.00
G1 X16.9500 Y-0.2622 Z11.9000 F900.00
G1 X16.9500 Y-1.5774 Z11.9000 F900.00
G1 X1.1674 Y-17.3600 Z11.9000 F900.00
G1 X2.4826 Y-17.3600 Z11.9000 F900.00
G1 X16.9500 Y-2.8926 Z11.9000 F900.00
G1 X16.9500 Y-4.2078 Z11.9000 F900.00
G1 X3.7978 Y-17.3600 Z11.9000 F900.00
G1 X5.1130 Y-17.3600 Z11.9000 F900.00
G1 X16.9500 Y-5.5230 Z11.9000 F900.00
G1 X16.9500 Y-6.8383 Z11.9000 F900.00
G1 X6.4283 Y-17.3600 Z11.9000 F900.00
G1 X7.7435 Y-17.3600 Z11.9000 F900.00
G1 X16.9500 Y-8.1535 Z11.9000 F900.00
G1 X16.9500 Y-9.4687 Z11.9000 F900.00
G1 X9.0587 Y-17.3600 Z11.9000 F900.00
G1 X10.3739 Y-17.3600 Z11.9000 F900.00
G1 X16.9500 Y-10.7839 Z11.9000 F900.00
G1 X16.9500 Y-12.0991 Z11.9000 F900.00
G1 X11.6891 Y-17.3600 Z11.9000 F900.00
G1 X13.0043 Y-17.3600 Z11.9000 F900.00
G1 X16.9500 Y-13.4143 Z11.9000 F900.00
G1 X16.9500 Y-14.7296 Z11.9000 F900.00
G1 X14.3196 Y-17.3600 Z11.9000 F900.00
G1 X15.6348 Y-17.3600 Z11.9000 F900.00
G1 X16.9500 Y-16.0448 Z11.9000 F900.00
G1 X16.9500 Y-17.3600 Z11.9000 F900.00
G1 X16.9500 Y-17.3600 Z8.8000 F900.00
G1 X16.9500 Y-16.0448 Z8.8000 F900.00
G1 X15.6348 Y-17.3600 Z8.8000 F900.00
G1 X14.3196 Y-17.3600 Z8.8000 F900.00
G1 X16.9500 Y-14.7296 Z8.8000 F900.00
G1 X16.9500 Y-13.4143 Z8.8000 F900.00
G1 X13.0043 Y-17.3600 Z8.8000 F900.00
G1 X11.6891 Y-17.3600 Z8.8000 F900.00
G1 X16.9500 Y-12.0991 Z8.8000 F900.00
G1 X16.9500 Y-10.7839 Z8.8000 F900.00
G1 X10.3739 Y-17.3600 Z8.8000 F900.00
G1 X9.0587 Y-17.3600 Z8.8000 F900.00
G1 X16.9500 Y-9.4687 Z8.8000 F900.00
G1 X16.9500 Y-8.1535 Z8.8000 F900.00
G1 X7.7435 Y-17.3600 Z8.8000 F900.00
G1 X6.4283 Y-17.3600 Z8.8000 F900.00
G1 X16.9500 Y-6.8383 Z8.8000 F900.00
G1 X16.9500 Y-5.5230 Z8.8000 F900.00
G1 X5.1130 Y-17.3600 Z8.8000 F900.00
G1 X3.7978 Y-17.3600 Z8.8000 F900.00
G1 X16.9500 Y-4.2078 Z8.8000 F900.00
G1 X16.9500 Y-2.8926 Z8.8000 F900.00
G1 X2.4826 Y-17.3600 Z8.8000 F900.00
G1 X1.1674 Y-17.3600 Z8.8000 F900.00
G1 X16.9500 Y-1.5774 Z8.8000 F900.00
G1 X16.9500 Y-0.2622 Z8.8000 F900.00
G1 X-0.1478 Y-17.3600 Z8.8000 F900.00
G1 X-1.4631 Y-17.3600 Z8.8000 F900.00
G1 X16.9500 Y1.0531 Z8.8000 F900.00
G1 X16.9500 Y2.3683 Z8.8000 F900.00
G1 X-2.7783 Y-17.3600 Z8.8000 F900.00
G1 X-4.0935 Y-17.3600 Z8.8000 F900.00
G1 X16.9500 Y3.6835 Z8.8000 F900.00
G1 X16.9500 Y4.9987 Z8.8000 F900.00
G1 X-5.4087 Y-17.3600 Z8.8000 F900.00
G1 X-6.7239 Y-17.3600 Z8.8000 F900.00
G1 X16.9500 Y6.3139 Z8.8000 F900.00
G1 X16.9500 Y7.6292 Z8.8000 F900.00
G1 X-8.0392 Y-17.3600 Z8.8000 F900.00
G1 X-9.3544 Y-17.3600 Z8.8000 F900.00
G1 X16.9500 Y8.9444 Z8.8000 F900.00
G1 X16.9500 Y10.2596 Z8.8000 F900.00
G1 X-10.6696 Y-17.3600 Z8.8000 F900.00
G1 X-11.9848 Y-17.3600 Z8.8000 F900.00
G1 X16.9500 Y11.5748 Z8.8000 F900.00
G1 X16.9500 Y12.8900 Z8.8000 F900.00
G1 X-13.3000 Y-17.3600 Z8.8000 F900.00
G1 X-14.6152 Y-17.3600 Z8.8000 F900.00
G1 X16.9500 Y14.2052 Z8.8000 F900.00
G1 X16.9500 Y15.5205 Z8.8000 F900.00
G1 X-15.9305 Y-17.3600 Z8.8000 F900.00
G1 X-16.9500 Y-17.3600 Z8.8000 F900.00
G1 X-16.9500 Y-17.0643 Z8.8000 F900.00
G1 X16.9500 Y16.8357 Z8.8000 F900.00
G1 X16.9500 Y17.3600 Z8.8000 F900.00
G1 X16.1591 Y17.3600 Z8.8000 F900.00
G1 X-16.9500 Y-15.7491 Z8.8000 F900.00
G1 X-16.9500 Y-14.4339 Z8.8000 F900.00
G1 X14.8439 Y17.3600 Z8.8000 F900.00
G1 X13.5287 Y17.3600 Z8.8000 F900.00
G1 X-16.9500 Y-13.1187 Z8.8000 F900.00
G1 X-16.9500 Y-11.8034 Z8.8000 F900.00
G1 X12.2134 Y17.3600 Z8.8000 F900.00
G1 X10.8982 Y17.3600 Z8.8000 F900.00
G1 X-16.9500 Y-10.4882 Z8.8000 F900.00
G1 X-16.9500 Y-9.1730 Z8.8000 F900.00
G1 X9.5830 Y17.3600 Z8.8000 F900.00
G1 X8.2678 Y17.3600 Z8.8000 F900.00
G1 X-16.9500 Y-7.8578 Z8.8000 F900.00
G1 X-16.9500 Y-6.5426 Z8.8000 F900.00
G1 X6.9526 Y17.3600 Z8.8000 F900.00
G1 X5.6373 Y17.3600 Z8.8000 F900.00
G1 X-16.9500 Y-5.2273 Z8.8000 F900.00
G1 X-16.9500 Y-3.9121 Z8.8000 F900.00
G1 X4.3221 Y17.3600 Z8.8000 F900.00
G1 X3.0069 Y17.3600 Z8.8000 F900.00
G1 X-16.9500 Y-2.5969 Z8.8000 F900.00
G1 X-16.9500 Y-1.2817 Z8.8000 F900.00
G1 X1.6917 Y17.3600 Z8.8000 F900.00
G1 X0.3765 Y17.3600 Z8.8000 F900.00
G1 X-16.9500 Y0.0335 Z8.8000 F900.00
G1 X-16.9500 Y1.3487 Z8.8000 F900.00
G1 X-0.9387 Y17.3600 Z8.8000 F900.00
G1 X-2.2540 Y17.3600 Z8.8000 F900.00
G1 X-16.9500 Y2.6640 Z8.8000 F900.00
G1 X-16.9500 Y3.9792 Z8.8000 F900.00
G1 X-3.5692 Y17.3600 Z8.8000 F900.00
G1 X-4.8844 Y17.3600 Z8.8000 F900.00
G1 X-16.9500 Y5.2944 Z8.8000 F900.00
G1 X-16.9500 Y6.6096 Z8.8000 F900.00
G1 X-6.1996 Y17.3600 Z8.8000 F900.00
G1 X-7.5148 Y17.3600 Z8.8000 F900.00
G1 X-16.9500 Y7.9248 Z8.8000 F900.00
G1 X-16.9500 Y9.2401 Z8.8000 F900.00
G1 X-8.8301 Y17.3600 Z8.8000 F900.00
G1 X-10.1453 Y17.3600 Z8.8000 F900.00
G1 X-16.9500 Y10.5553 Z8.8000 F900.00
G1 X-16.9500 Y11.8705 Z8.8000 F900.00
G1 X-11.4605 Y17.3600 Z8.8000 F900.00
G1 X-12.7757 Y17.3600 Z8.8000 F900.00
G1 X-16.9500 Y13.1857 Z8.8000 F900.00
G1 X-16.9500 Y14.5009 Z8.8000 F900.00
G1 X-14.0909 Y17.3600 Z8.8000 F900.00
G1 X-15.4061 Y17.3600 Z8.8000 F900.00
G1 X-16.9500 Y15.8161 Z8.8000 F900.00
G1 X-16.9500 Y17.1314 Z8.8000 F900.00
G1 X-16.9500 Y17.3600 Z8.8000 F900.00
G1 X-16.7214 Y17.3600 Z8.8000 F900.00
G1 X-16.9500 Y17.1314 Z8.8000 F900.00
G1 X-16.9500 Y17.1314 Z6.0000 F900.00
G1 X-16.7214 Y17.3600 Z6.0000 F900.00
G1 X-16.9500 Y17.3600 Z6.0000 F900.00
G1 X-16.9500 Y17.1314 Z6.0000 F900.00
G1 X-16.9500 Y15.8161 Z6.0000 F900.00
G1 X-15.4061 Y17.3600 Z6.0000 F900.00
G1 X-14.0909 Y17.3600 Z6.0000 F900.00
G1 X-16.9500 Y14.5009 Z6.0000 F900.00
G1 X-16.9500 Y13.1857 Z6.0000 F900.00
G1 X-12.7757 Y17.3600 Z6.0000 F900.00
G1 X-11.4605 Y17.3600 Z6.0000 F900.00
G1 X-16.9500 Y11.8705 Z6.0000 F900.00
G1 X-16.9500 Y10.5553 Z6.0000 F900.00
G1 X-10.1453 Y17.3600 Z6.0000 F900.00
G1 X-8.8301 Y17.3600 Z6.0000 F900.00
G1 X-16.9500 Y9.2401 Z6.0000 F900.00
G1 X-16.9500 Y7.9248 Z6.0000 F900.00
G1 X-7.5148 Y17.3600 Z6.0000 F900.00
G1 X-6.1996 Y17.3600 Z6.0000 F900.00
G1 X-16.9500 Y6.6096 Z6.0000 F900.00
G1 X-16.9500 Y5.2944 Z6.0000 F900.00
G1 X-4.8844 Y17.3600 Z6.0000 F900.00
G1 X-3.5692 Y17.3600 Z6.0000 F900.00
G1 X-16.9500 Y3.9792 Z6.0000 F900.00
G1 X-16.9500 Y2.6640 Z6.0000 F900.00
G1 X-2.2540 Y17.3600 Z6.0000 F900.00
G1 X-0.9387 Y17.3600 Z6.0000 F900.00
G1 X-16.9500 Y1.3487 Z6.0000 F900.00
G1 X-16.9500 Y0.0335 Z6.0000 F900.00
G1 X0.3765 Y17.3600 Z6.0000 F900.00
G1 X1.6917 Y17.3600 Z6.0000 F900.00
G1 X-16.9500 Y-1.2817 Z6.0000 F900.00
G1 X-16.9500 Y-2.5969 Z6.0000 F900.00
G1 X3.0069 Y17.3600 Z6.0000 F900.00
G1 X4.3221 Y17.3600 Z6.0000 F900.00
G1 X-16.9500 Y-3.9121 Z6.0000 F900.00
G1 X-16.9500 Y-5.2273 Z6.0000 F900.00
G1 X5.6373 Y17.3600 Z6.0000 F900.00
G1 X6.9526 Y17.3600 Z6.0000 F900.00
G1 X-16.9500 Y-6.5426 Z6.0000 F900.00
G1 X-16.9500 Y-7.8578 Z6.0000 F900.00
G1 X8.2678 Y17.3600 Z6.0000 F900.00
G1 X9.5830 Y17.3600 Z6.0000 F900.00
G1 X-16.9500 Y-9.1730 Z6.0000 F900.00
G1 X-16.9500 Y-10.4882 Z6.0000 F900.00
G1 X10.8982 Y17.3600 Z6.0000 F900.00
G1 X12.2134 Y17.3600 Z6.0000 F900.00
G1 X-16.9500 Y-11.8034 Z6.0000 F900.00
G1 X-16.9500 Y-13.1187 Z6.0000 F900.00
G1 X13.5287 Y17.3600 Z6.0000 F900.00
G1 X14.8439 Y17.3600 Z6.0000 F900.00
G1 X-16.9500 Y-14.4339 Z6.0000 F900.00
G1 X-16.9500 Y-15.7491 Z6.0000 F900.00
G1 X16.1591 Y17.3600 Z6.0000 F900.00
G1 X16.9500 Y17.3600 Z6.0000 F900.00
G1 X16.9500 Y16.8357 Z6.0000 F900.00
G1 X-16.9500 Y-17.0643 Z6.0000 F900.00
G1 X-16.9500 Y-17.3600 Z6.0000 F900.00
G1 X-15.9305 Y-17.3600 Z6.0000 F900.00
G1 X16.9500 Y15.5205 Z6.0000 F900.00
G1 X16.9500 Y14.2052 Z6.0000 F900.00
G1 X-14.6152 Y-17.3600 Z6.0000 F900.00
G1 X-13.3000 Y-17.3600 Z6.0000 F900.00
G1 X16.9500 Y12.8900 Z6.0000 F900.00
G1 X16.9500 Y11.5748 Z6.0000 F900.00
G1 X-11.9848 Y-17.3600 Z6.0000 F900.00
G1 X-10.6696 Y-17.3600 Z6.0000 F900.00
G1 X16.9500 Y10.2596 Z6.0000 F900.00
G1 X16.9500 Y8.9444 Z6.0000 F900.00
G1 X-9.3544 Y-17.3600 Z6.0000 F900.00
G1 X-8.0392 Y-17.3600 Z6.0000 F900.00
G1 X16.9500 Y7.6292 Z6.0000 F900.00
G1 X16.9500 Y6.3139 Z6.0000 F900.00
G1 X-6.7239 Y-17.3600 Z6.0000 F900.00
G1 X-5.4087 Y-17.3600 Z6.0000 F900.00
G1 X16.9500 Y4.9987 Z6.0000 F900.00
G1 X16.9500 Y3.6835 Z6.0000 F900.00
G1 X-4.0935 Y-17.3600 Z6.0000 F900.00
G1 X-2.7783 Y-17.3600 Z6.0000 F900.00
G1 X16.9500 Y2.3683 Z6.0000 F900.00
G1 X16.9500 Y1.0531 Z6.0000 F900.00
G1 X-1.4631 Y-17.3600 Z6.0000 F900.00
G1 X-0.1478 Y-17.3600 Z6.0000 F900.00
G1 X16.9500 Y-0.2622 Z6.0000 F900.00
G1 X16.9500 Y-1.5774 Z6.0000 F900.00
G1 X1.1674 Y-17.3600 Z6.0000 F900.00
G1 X2.4826 Y-17.3600 Z6.0000 F900.00
G1 X16.9500 Y-2.8926 Z6.0000 F900.00
G1 X16.9500 Y-4.2078 Z6.0000 F900.00
G1 X3.7978 Y-17.3600 Z6.0000 F900.00
G1 X5.1130 Y-17.3600 Z6.0000 F900.00
G1 X16.9500 Y-5.5230 Z6.0000 F900.00
G1 X16.9500 Y-6.8383 Z6.0000 F900.00
G1 X6.4283 Y-17.3600 Z6.0000 F900.00
G1 X7.7435 Y-17.3600 Z6.0000 F900.00
G1 X16.9500 Y-8.1535 Z6.0000 F900.00
G1 X16.9500 Y-9.4687 Z6.0000 F900.00
G1 X9.0587 Y-17.3600 Z6.0000 F900.00
G1 X10.3739 Y-17.3600 Z6.0000 F900.00
G1 X16.9500 Y-10.7839 Z6.0000 F900.00
G1 X16.9500 Y-12.0991 Z6.0000 F900.00
G1 X11.6891 Y-17.3600 Z6.0000 F900.00
G1 X13.0043 Y-17.3600 Z6.0000 F900.00
G1 X16.9500 Y-13.4143 Z6.0000 F900.00
G1 X16.9500 Y-14.7296 Z6.0000 F900.00
G1 X14.3196 Y-17.3600 Z6.0000 F900.00
G1 X15.6348 Y-17.3600 Z6.0000 F900.00
G1 X16.9500 Y-16.0448 Z6.0000 F900.00
G1 X16.9500 Y-17.3600 Z6.0000 F900.00
G0 Z18.0000
(finish operation: MillFace)
(begin operation: Drilling)
(Path: Drilling)
(Drilling)
(Begin Drilling)
G0 Z18.0000
G90
; G98
G83 X0.0000 Y0.0000 Z0.0000 F900.00 Q1.0000 R10.0000
; G80
G0 Z18.0000
(finish operation: Drilling)
(begin operation: Drilling001)
(Path: Drilling001)
(Drilling001)
(Begin Drilling)
G0 Z18.0000
G90
; G98
G83 X-8.2500 Y-8.2500 Z0.0000 F900.00 Q1.0000 R10.0000
G83 X8.2500 Y-8.2500 Z0.0000 F900.00 Q1.0000 R10.0000
G83 X8.2500 Y8.2500 Z0.0000 F900.00 Q1.0000 R10.0000
G83 X-8.2500 Y8.2500 Z0.0000 F900.00 Q1.0000 R10.0000
; G80
G0 Z18.0000
(finish operation: Drilling001)
(begin operation: Pocket_3D002)
(Path: Pocket_3D002)
(Pocket_3D002)
G0 Z18.0000
G0 X9.5230 Y9.9308
G0 Z17.0000
G1 X9.5230 Y9.9308 Z11.9000 F900.00
G2 X9.9500 Y8.8491 Z11.9000 I-1.0365 J-1.0342 F900.00
G1 X9.9500 Y-8.8491 Z11.9000 F900.00
G2 X8.4391 Y-10.3600 Z11.9000 I-1.4634 J-0.0475 F900.00
G1 X-8.4391 Y-10.3600 Z11.9000 F900.00
G2 X-9.9500 Y-8.8491 Z11.9000 I-0.0475 J1.4634 F900.00
G1 X-9.9500 Y8.8491 Z11.9000 F900.00
G2 X-8.4391 Y10.3600 Z11.9000 I1.4634 J0.0475 F900.00
G1 X8.4391 Y10.3600 Z11.9000 F900.00
G2 X9.5230 Y9.9308 Z11.9000 I0.0475 J-1.4634 F900.00
G0 X9.5230 Y9.9308 Z18.0000
G0 X-9.5219 Y9.9319 Z18.0000
G1 X-9.5219 Y9.9319 Z11.9000 F900.00
G3 X-9.9500 Y8.8491 Z11.9000 I1.0593 J-1.0448 F900.00
G1 X-9.9500 Y7.2680 Z11.9000 F900.00
G1 X-6.8580 Y10.3600 Z11.9000 F900.00
G1 X-4.6221 Y10.3600 Z11.9000 F900.00
G1 X-9.9500 Y5.0321 Z11.9000 F900.00
G1 X-9.9500 Y2.7962 Z11.9000 F900.00
G1 X-2.3862 Y10.3600 Z11.9000 F900.00
G1 X-0.1503 Y10.3600 Z11.9000 F900.00
G1 X-9.9500 Y0.5603 Z11.9000 F900.00
G1 X-9.9500 Y-1.6755 Z11.9000 F900.00
G1 X2.0855 Y10.3600 Z11.9000 F900.00
G1 X4.3214 Y10.3600 Z11.9000 F900.00
G1 X-9.9500 Y-3.9114 Z11.9000 F900.00
G1 X-9.9500 Y-6.1473 Z11.9000 F900.00
G1 X6.5573 Y10.3600 Z11.9000 F900.00
G1 X8.4391 Y10.3600 Z11.9000 F900.00
G2 X8.7619 Y10.3288 Z11.9000 I0.0629 J-1.0348 F900.00
G1 X-9.9500 Y-8.3831 Z11.9000 F900.00
G3 X-9.7877 Y-9.5661 Z11.9000 I2.1063 J-0.3136 F900.00
G3 X-9.3822 Y-10.0512 Z11.9000 I1.2131 J0.6019 F900.00
G1 X9.9037 Y9.2347 Z11.9000 F900.00
G2 X9.9500 Y8.8491 Z11.9000 I-1.1942 J-0.3389 F900.00
G1 X9.9500 Y7.0451 Z11.9000 F900.00
G1 X-7.4551 Y-10.3600 Z11.9000 F900.00
G1 X-5.2192 Y-10.3600 Z11.9000 F900.00
G1 X9.9500 Y4.8092 Z11.9000 F900.00
G1 X9.9500 Y2.5734 Z11.9000 F900.00
G1 X-2.9834 Y-10.3600 Z11.9000 F900.00
G1 X-0.7475 Y-10.3600 Z11.9000 F900.00
G1 X9.9500 Y0.3375 Z11.9000 F900.00
G1 X9.9500 Y-1.8984 Z11.9000 F900.00
G1 X1.4884 Y-10.3600 Z11.9000 F900.00
G1 X3.7242 Y-10.3600 Z11.9000 F900.00
G1 X9.9500 Y-4.1342 Z11.9000 F900.00
G1 X9.9500 Y-6.3701 Z11.9000 F900.00
G1 X5.9601 Y-10.3600 Z11.9000 F900.00
G1 X8.1960 Y-10.3600 Z11.9000 F900.00
G1 X9.9500 Y-8.6060 Z11.9000 F900.00
G2 X9.1561 Y-10.1977 Z11.9000 I-1.5166 J-0.2374 F900.00
G2 X8.1960 Y-10.3600 Z11.9000 I-0.7715 J1.6428 F900.00
G1 X8.1960 Y-10.3600 Z8.8000 F900.00
G3 X9.1561 Y-10.1977 Z8.8000 I0.1886 J1.8052 F900.00
G3 X9.9500 Y-8.6060 Z8.8000 I-0.7227 J1.3543 F900.00
G1 X8.1960 Y-10.3600 Z8.8000 F900.00
G1 X5.9601 Y-10.3600 Z8.8000 F900.00
G1 X9.9500 Y-6.3701 Z8.8000 F900.00
G1 X9.9500 Y-4.1342 Z8.8000 F900.00
G1 X3.7242 Y-10.3600 Z8.8000 F900.00
G1 X1.4884 Y-10.3600 Z8.8000 F900.00
G1 X9.9500 Y-1.8984 Z8.8000 F900.00
G1 X9.9500 Y0.3375 Z8.8000 F900.00
G1 X-0.7475 Y-10.3600 Z8.8000 F900.00
G1 X-2.9834 Y-10.3600 Z8.8000 F900.00
G1 X9.9500 Y2.5734 Z8.8000 F900.00
G1 X9.9500 Y4.8092 Z8.8000 F900.00
G1 X-5.2192 Y-10.3600 Z8.8000 F900.00
G1 X-7.4551 Y-10.3600 Z8.8000 F900.00
G1 X9.9500 Y7.0451 Z8.8000 F900.00
G1 X9.9500 Y8.8491 Z8.8000 F900.00
G3 X9.9037 Y9.2347 Z8.8000 I-1.2405 J0.0468 F900.00
G1 X-9.3822 Y-10.0512 Z8.8000 F900.00
G2 X-9.7877 Y-9.5661 Z8.8000 I0.8076 J1.0870 F900.00
G2 X-9.9500 Y-8.3831 Z8.8000 I1.9439 J0.8693 F900.00
G1 X8.7619 Y10.3288 Z8.8000 F900.00
G3 X8.4391 Y10.3600 Z8.8000 I-0.2599 J-1.0036 F900.00
G1 X6.5573 Y10.3600 Z8.8000 F900.00
G1 X-9.9500 Y-6.1473 Z8.8000 F900.00
G1 X-9.9500 Y-3.9114 Z8.8000 F900.00
G1 X4.3214 Y10.3600 Z8.8000 F900.00
G1 X2.0855 Y10.3600 Z8.8000 F900.00
G1 X-9.9500 Y-1.6755 Z8.8000 F900.00
G1 X-9.9500 Y0.5603 Z8.8000 F900.00
G1 X-0.1503 Y10.3600 Z8.8000 F900.00
G1 X-2.3862 Y10.3600 Z8.8000 F900.00
G1 X-9.9500 Y2.7962 Z8.8000 F900.00
G1 X-9.9500 Y5.0321 Z8.8000 F900.00
G1 X-4.6221 Y10.3600 Z8.8000 F900.00
G1 X-6.8580 Y10.3600 Z8.8000 F900.00
G1 X-9.9500 Y7.2680 Z8.8000 F900.00
G1 X-9.9500 Y8.8491 Z8.8000 F900.00
G2 X-9.5219 Y9.9319 Z8.8000 I1.4873 J0.0380 F900.00
G1 X-9.5219 Y9.9319 Z8.8000 F900.00
G2 X-8.4391 Y10.3600 Z8.8000 I1.0353 J-1.0353 F900.00
G1 X8.4391 Y10.3600 Z8.8000 F900.00
G2 X9.9500 Y8.8491 Z8.8000 I0.0475 J-1.4634 F900.00
G1 X9.9500 Y-8.8491 Z8.8000 F900.00
G2 X8.4391 Y-10.3600 Z8.8000 I-1.4634 J-0.0475 F900.00
G1 X-8.4391 Y-10.3600 Z8.8000 F900.00
G2 X-9.9500 Y-8.8491 Z8.8000 I-0.0475 J1.4634 F900.00
G1 X-9.9500 Y8.8491 Z8.8000 F900.00
G2 X-9.5219 Y9.9319 Z8.8000 I1.4634 J0.0475 F900.00
G1 X-9.5219 Y9.9319 Z5.7000 F900.00
G3 X-9.9500 Y8.8491 Z5.7000 I1.0593 J-1.0448 F900.00
G1 X-9.9500 Y7.4323 Z5.7000 F900.00
G1 X-9.7752 Y7.4427 Z5.7000 F900.00
G1 X-7.5669 Y9.6510 Z5.7000 F900.00
G3 X-7.2166 Y8.7077 Z5.7000 I1.7433 J0.1108 F900.00
G2 X-7.1580 Y7.8241 Z5.7000 I-1.0603 J-0.5141 F900.00
G2 X-7.9257 Y7.0564 Z5.7000 I-1.1162 J0.3485 F900.00
G1 X-7.1580 Y7.8241 Z5.7000 F900.00
G0 X-7.1580 Y7.8241 Z18.0000
G0 X-7.1559 Y7.8235 Z18.0000
G1 X-7.1559 Y7.8235 Z5.7000 F900.00
G2 X-8.7809 Y7.0979 Z5.7000 I-1.1378 J0.3660 F900.00
G3 X-9.9500 Y7.4323 Z5.7000 I-1.0208 J-1.3580 F900.00
G1 X-9.9500 Y8.8491 Z5.7000 F900.00
G2 X-8.7261 Y10.3374 Z5.7000 I1.4573 J0.0490 F900.00
G2 X-7.4363 Y10.3600 Z5.7000 I0.7884 J-8.1829 F900.00
G3 X-7.3641 Y8.9632 Z5.7000 I1.3722 J-0.6294 F900.00
G2 X-7.0985 Y8.1951 Z5.7000 I-1.0404 J-0.7897 F900.00
G2 X-7.1559 Y7.8235 Z5.7000 I-1.1952 J-0.0056 F900.00
G0 X-7.1559 Y7.8235 Z18.0000
G0 X-4.3247 Y4.7269 Z18.0000
G1 X-4.3247 Y4.7269 Z5.7000 F900.00
G2 X6.3907 Y0.0050 Z5.7000 I4.3173 J-4.7220 F900.00
G2 X-6.4056 Y0.0050 Z5.7000 I-6.3981 J0.0000 F900.00
G2 X-4.3247 Y4.7269 Z5.7000 I6.3981 J0.0000 F900.00
G0 X-4.3247 Y4.7269 Z18.0000
G0 X-2.3041 Y5.9704 Z18.0000
G1 X-2.3041 Y5.9704 Z5.7000 F900.00
G3 X-5.9728 Y2.3016 Z5.7000 I2.2488 J-5.9176 F900.00
G1 X-2.3041 Y5.9704 Z5.7000 F900.00
G2 X0.3471 Y6.3857 Z5.7000 I2.2430 J-5.6489 F900.00
G1 X-6.3881 Y-0.3495 Z5.7000 F900.00
G3 X-6.0049 Y-2.2022 Z5.7000 I5.7753 J0.2288 F900.00
G1 X2.1997 Y6.0024 Z5.7000 F900.00
G2 X3.6682 Y5.2351 Z5.7000 I-1.8821 J-5.3908 F900.00
G1 X-5.2375 Y-3.6707 Z5.7000 F900.00
G3 X-4.1742 Y-4.8432 Z5.7000 I4.6748 J3.1713 F900.00
G1 X4.8407 Y4.1717 Z5.7000 F900.00
G2 X5.7286 Y2.8237 Z5.7000 I-4.2726 J-3.7805 F900.00
G1 X-2.8261 Y-5.7310 Z5.7000 F900.00
G3 X-1.1458 Y-6.2865 Z5.7000 I2.6574 J5.2193 F900.00
G1 X6.2841 Y1.1433 Z5.7000 F900.00
G2 X6.2912 Y-1.0855 Z5.7000 I-5.9699 J-1.1334 F900.00
G2 X1.0830 Y-6.2936 Z5.7000 I-6.2761 J1.0679 F900.00
G1 X6.2912 Y-1.0855 Z5.7000 F900.00
G0 X6.2912 Y-1.0855 Z18.0000
G0 X7.9697 Y-7.0414 Z18.0000
G1 X7.9697 Y-7.0414 Z5.7000 F900.00
G2 X8.7851 Y-7.0996 Z5.7000 I0.3270 J-1.1603 F900.00
G3 X9.9500 Y-7.4325 Z5.7000 I1.0167 J1.3532 F900.00
G1 X9.9500 Y-8.8491 Z5.7000 F900.00
G2 X8.7261 Y-10.3374 Z5.7000 I-1.4573 J-0.0490 F900.00
G2 X7.4367 Y-10.3600 Z5.7000 I-0.7882 J8.1804 F900.00
G3 X7.3689 Y-8.9715 Z5.7000 I-1.3747 J0.6288 F900.00
G2 X7.9697 Y-7.0414 Z5.7000 I0.9278 J0.7698 F900.00
G0 X7.9697 Y-7.0414 Z18.0000
G0 X7.3615 Y-8.9586 Z18.0000
G1 X7.3615 Y-8.9586 Z5.7000 F900.00
G2 X9.0656 Y-7.2545 Z5.7000 I0.9456 J0.7585 F900.00
G1 X7.3615 Y-8.9586 Z5.7000 F900.00
G2 X7.4367 Y-10.3600 Z5.7000 I-1.3190 J-0.7734 F900.00
G1 X8.1960 Y-10.3600 Z5.7000 F900.00
G3 X9.1561 Y-10.1977 Z5.7000 I0.1886 J1.8052 F900.00
G3 X9.9500 Y-8.6060 Z5.7000 I-0.7227 J1.3543 F900.00
G1 X8.1960 Y-10.3600 Z5.7000 F900.00
G0 X8.1960 Y-10.3600 Z18.0000
G0 X-7.1086 Y-8.3470 Z18.0000
G1 X-7.1086 Y-8.3470 Z5.7000 F900.00
G2 X-7.2166 Y-8.7077 Z5.7000 I-1.1715 J0.1541 F900.00
G3 X-7.4363 Y-10.3600 Z5.7000 I1.2595 J-1.0082 F900.00
G1 X-8.4391 Y-10.3600 Z5.7000 F900.00
G2 X-9.9500 Y-8.8491 Z5.7000 I-0.0475 J1.4634 F900.00
G1 X-9.9500 Y-7.4323 Z5.7000 F900.00
G3 X-9.0672 Y-7.2555 Z5.7000 I0.1893 J1.3468 F900.00
G2 X-7.0985 Y-8.1951 Z5.7000 I0.7581 J-0.9439 F900.00
G2 X-7.1086 Y-8.3470 Z5.7000 I-1.1816 J0.0021 F900.00
G0 X-7.1086 Y-8.3470 Z18.0000
G0 X-7.4429 Y-10.3477 Z18.0000
G1 X-7.4429 Y-10.3477 Z5.7000 F900.00
G1 X-7.4363 Y-10.3600 Z5.7000 F900.00
G1 X-7.4551 Y-10.3600 Z5.7000 F900.00
G2 X-7.3641 Y-8.9632 Z5.7000 I1.5435 J0.6008 F900.00
G3 X-7.1574 Y-7.8264 Z5.7000 I-0.9732 J0.7642 F900.00
G1 X-9.3822 Y-10.0512 Z5.7000 F900.00
G2 X-9.7877 Y-9.5661 Z5.7000 I0.8076 J1.0870 F900.00
G2 X-9.9500 Y-8.3831 Z5.7000 I1.9439 J0.8693 F900.00
G1 X-8.6022 Y-7.0353 Z5.7000 F900.00
G1 X-8.7809 Y-7.0979 Z5.7000 F900.00
G2 X-9.9500 Y-7.4323 Z5.7000 I-1.0208 J1.3580 F900.00
G1 X-9.9500 Y-8.3831 Z5.7000 F900.00
G0 X-9.9500 Y-8.3831 Z18.0000
G0 X7.4088 Y7.3859 Z18.0000
G1 X7.4088 Y7.3859 Z5.7000 F900.00
G2 X7.3689 Y8.9715 Z5.7000 I0.8981 J0.8159 F900.00
G3 X7.4367 Y10.3600 Z5.7000 I-1.3258 J0.7606 F900.00
G1 X8.4391 Y10.3600 Z5.7000 F900.00
G2 X9.9500 Y8.8491 Z5.7000 I0.0475 J-1.4634 F900.00
G1 X9.9500 Y7.4325 Z5.7000 F900.00
G3 X9.0646 Y7.2541 Z5.7000 I-0.1882 J-1.3522 F900.00
G2 X7.4088 Y7.3859 Z5.7000 I-0.7577 J0.9477 F900.00
G0 X7.4088 Y7.3859 Z18.0000
G0 X7.7820 Y7.1130 Z18.0000
G1 X7.7820 Y7.1130 Z5.7000 F900.00
G3 X8.7851 Y7.0996 Z5.7000 I0.5157 J1.0540 F900.00
G2 X9.9500 Y7.4325 Z5.7000 I1.0167 J-1.3532 F900.00
G1 X9.9500 Y8.8491 Z5.7000 F900.00
G3 X9.9037 Y9.2347 Z5.7000 I-1.2405 J0.0468 F900.00
G1 X7.7820 Y7.1130 Z5.7000 F900.00
G2 X7.3216 Y8.8885 Z5.7000 I0.5082 J1.0792 F900.00
G1 X8.7619 Y10.3288 Z5.7000 F900.00
G1 X8.7261 Y10.3374 Z5.7000 F900.00
G3 X7.4367 Y10.3600 Z5.7000 I-0.7882 J-8.1804 F900.00
G2 X7.3216 Y8.8885 Z5.7000 I-1.4067 J-0.6303 F900.00
G1 X7.3216 Y8.8885 Z2.6000 F900.00
G3 X7.4367 Y10.3600 Z2.6000 I-1.2917 J0.8413 F900.00
G2 X8.7261 Y10.3374 Z2.6000 I0.5012 J-8.2030 F900.00
G1 X8.7619 Y10.3288 Z2.6000 F900.00
G1 X7.3216 Y8.8885 Z2.6000 F900.00
G3 X7.7820 Y7.1130 Z2.6000 I0.9686 J-0.6963 F900.00
G1 X9.9037 Y9.2347 Z2.6000 F900.00
G2 X9.9500 Y8.8491 Z2.6000 I-1.1942 J-0.3389 F900.00
G1 X9.9500 Y7.4325 Z2.6000 F900.00
G3 X8.7851 Y7.0996 Z2.6000 I-0.1482 J-1.6861 F900.00
G2 X7.7820 Y7.1130 Z2.6000 I-0.4875 J1.0674 F900.00
G0 X7.7820 Y7.1130 Z18.0000
G0 X7.7800 Y7.1088 Z18.0000
G1 X7.7800 Y7.1088 Z2.6000 F900.00
G2 X7.3689 Y8.9715 Z2.6000 I0.5269 J1.0930 F900.00
G3 X7.4367 Y10.3600 Z2.6000 I-1.3258 J0.7606 F900.00
G1 X8.4391 Y10.3600 Z2.6000 F900.00
G2 X9.9500 Y8.8491 Z2.6000 I0.0475 J-1.4634 F900.00
G1 X9.9500 Y7.4325 Z2.6000 F900.00
G3 X9.0646 Y7.2541 Z2.6000 I-0.1882 J-1.3522 F900.00
G2 X7.7800 Y7.1088 Z2.6000 I-0.7577 J0.9477 F900.00
G0 X7.7800 Y7.1088 Z18.0000
G0 X4.7194 Y4.3169 Z18.0000
G1 X4.7194 Y4.3169 Z2.6000 F900.00
G2 X6.3907 Y0.0050 Z2.6000 I-4.7269 J-4.3119 F900.00
G2 X-6.4056 Y0.0050 Z2.6000 I-6.3981 J0.0000 F900.00
G2 X4.7194 Y4.3169 Z2.6000 I6.3981 J0.0000 F900.00
G0 X4.7194 Y4.3169 Z18.0000
G0 X6.2912 Y-1.0855 Z18.0000
G1 X6.2912 Y-1.0855 Z2.6000 F900.00
G1 X1.0830 Y-6.2936 Z2.6000 F900.00
G3 X6.2912 Y-1.0855 Z2.6000 I-1.0679 J6.2761 F900.00
G3 X6.2841 Y1.1433 Z2.6000 I-5.9771 J1.0953 F900.00
G1 X-1.1458 Y-6.2865 Z2.6000 F900.00
G2 X-2.8261 Y-5.7310 Z2.6000 I0.9771 J5.7749 F900.00
G1 X5.7286 Y2.8237 Z2.6000 F900.00
G3 X4.8407 Y4.1717 Z2.6000 I-5.1605 J-2.4325 F900.00
G1 X-4.1742 Y-4.8432 Z2.6000 F900.00
G2 X-5.2375 Y-3.6707 Z2.6000 I3.6115 J4.3438 F900.00
G1 X3.6682 Y5.2351 Z2.6000 F900.00
G3 X2.1997 Y6.0024 Z2.6000 I-3.3507 J-4.6234 F900.00
G1 X-6.0049 Y-2.2022 Z2.6000 F900.00
G2 X-6.3881 Y-0.3495 Z2.6000 I5.3921 J2.0814 F900.00
G1 X0.3471 Y6.3857 Z2.6000 F900.00
G3 X-2.3041 Y5.9704 Z2.6000 I-0.4082 J-6.0642 F900.00
G1 X-5.9728 Y2.3016 Z2.6000 F900.00
G2 X-2.3041 Y5.9704 Z2.6000 I5.9176 J-2.2488 F900.00
G0 X-2.3041 Y5.9704 Z18.0000
G0 X-7.1730 Y7.7742 Z18.0000
G1 X-7.1730 Y7.7742 Z2.6000 F900.00
G2 X-8.7809 Y7.0979 Z2.6000 I-1.1208 J0.4152 F900.00
G3 X-9.9500 Y7.4323 Z2.6000 I-1.0208 J-1.3580 F900.00
G1 X-9.9500 Y8.8491 Z2.6000 F900.00
G2 X-8.7261 Y10.3374 Z2.6000 I1.4573 J0.0490 F900.00
G2 X-7.4363 Y10.3600 Z2.6000 I0.7884 J-8.1829 F900.00
G3 X-7.3641 Y8.9632 Z2.6000 I1.3722 J-0.6294 F900.00
G2 X-7.0985 Y8.1951 Z2.6000 I-1.0404 J-0.7897 F900.00
G2 X-7.1730 Y7.7742 Z2.6000 I-1.1952 J-0.0056 F900.00
G0 X-7.1730 Y7.7742 Z18.0000
G0 X-7.1580 Y7.8241 Z18.0000
G1 X-7.1580 Y7.8241 Z2.6000 F900.00
G1 X-7.9257 Y7.0564 Z2.6000 F900.00
G3 X-7.1580 Y7.8241 Z2.6000 I-0.3485 J1.1162 F900.00
G3 X-7.2166 Y8.7077 Z2.6000 I-1.1189 J0.3696 F900.00
G2 X-7.5669 Y9.6510 Z2.6000 I1.3929 J1.0541 F900.00
G1 X-9.7752 Y7.4427 Z2.6000 F900.00
G1 X-9.9500 Y7.4323 Z2.6000 F900.00
G1 X-9.9500 Y8.8491 Z2.6000 F900.00
G2 X-9.5219 Y9.9319 Z2.6000 I1.4873 J0.0380 F900.00
G0 X-9.5219 Y9.9319 Z18.0000
G0 X-8.3900 Y-6.9915 Z18.0000
G1 X-8.3900 Y-6.9915 Z2.6000 F900.00
G2 X-7.0985 Y-8.1951 Z2.6000 I0.0808 J-1.2080 F900.00
G2 X-7.2166 Y-8.7077 Z2.6000 I-1.1816 J0.0021 F900.00
G3 X-7.4363 Y-10.3600 Z2.6000 I1.2595 J-1.0082 F900.00
G1 X-8.4391 Y-10.3600 Z2.6000 F900.00
G2 X-9.9500 Y-8.8491 Z2.6000 I-0.0475 J1.4634 F900.00
G1 X-9.9500 Y-7.4323 Z2.6000 F900.00
G3 X-9.0672 Y-7.2555 Z2.6000 I0.1893 J1.3468 F900.00
G2 X-8.3900 Y-6.9915 Z2.6000 I0.7581 J-0.9439 F900.00
G0 X-8.3900 Y-6.9915 Z18.0000
G0 X-9.9500 Y-8.3831 Z18.0000
G1 X-9.9500 Y-8.3831 Z2.6000 F900.00
G1 X-9.9500 Y-7.4323 Z2.6000 F900.00
G3 X-8.7809 Y-7.0979 Z2.6000 I0.1483 J1.6924 F900.00
G1 X-8.6022 Y-7.0353 Z2.6000 F900.00
G1 X-9.9500 Y-8.3831 Z2.6000 F900.00
G3 X-9.7877 Y-9.5661 Z2.6000 I2.1063 J-0.3136 F900.00
G3 X-9.3822 Y-10.0512 Z2.6000 I1.2131 J0.6019 F900.00
G1 X-7.1574 Y-7.8264 Z2.6000 F900.00
G2 X-7.3641 Y-8.9632 Z2.6000 I-1.1799 J-0.3726 F900.00
G3 X-7.4551 Y-10.3600 Z2.6000 I1.4525 J-0.7960 F900.00
G1 X-7.4363 Y-10.3600 Z2.6000 F900.00
G1 X-7.4429 Y-10.3477 Z2.6000 F900.00
G0 X-7.4429 Y-10.3477 Z18.0000
G0 X7.1022 Y-8.3646 Z18.0000
G1 X7.1022 Y-8.3646 Z2.6000 F900.00
G2 X8.7851 Y-7.0996 Z2.6000 I1.1945 J0.1629 F900.00
G3 X9.9500 Y-7.4325 Z2.6000 I1.0167 J1.3532 F900.00
G1 X9.9500 Y-8.8491 Z2.6000 F900.00
G2 X8.7261 Y-10.3374 Z2.6000 I-1.4573 J-0.0490 F900.00
G2 X7.4367 Y-10.3600 Z2.6000 I-0.7882 J8.1804 F900.00
G3 X7.3689 Y-8.9715 Z2.6000 I-1.3747 J0.6288 F900.00
G2 X7.1022 Y-8.3646 Z2.6000 I0.9278 J0.7698 F900.00
G0 X7.1022 Y-8.3646 Z18.0000
G0 X7.3615 Y-8.9586 Z18.0000
G1 X7.3615 Y-8.9586 Z2.6000 F900.00
G2 X9.0656 Y-7.2545 Z2.6000 I0.9456 J0.7585 F900.00
G1 X7.3615 Y-8.9586 Z2.6000 F900.00
G2 X7.4367 Y-10.3600 Z2.6000 I-1.3190 J-0.7734 F900.00
G1 X8.1960 Y-10.3600 Z2.6000 F900.00
G3 X9.1561 Y-10.1977 Z2.6000 I0.1886 J1.8052 F900.00
G3 X9.9500 Y-8.6060 Z2.6000 I-0.7227 J1.3543 F900.00
G1 X8.1960 Y-10.3600 Z2.6000 F900.00
G1 X8.1960 Y-10.3600 Z1.0000 F900.00
G1 X9.9500 Y-8.6060 Z1.0000 F900.00
G2 X9.1561 Y-10.1977 Z1.0000 I-1.5166 J-0.2374 F900.00
G2 X8.1960 Y-10.3600 Z1.0000 I-0.7715 J1.6428 F900.00
G1 X7.4367 Y-10.3600 Z1.0000 F900.00
G3 X7.3615 Y-8.9586 Z1.0000 I-1.3941 J0.6280 F900.00
G1 X9.0656 Y-7.2545 Z1.0000 F900.00
G3 X7.3615 Y-8.9586 Z1.0000 I-0.7585 J-0.9456 F900.00
G0 X7.3615 Y-8.9586 Z18.0000
G0 X7.3596 Y-8.9602 Z18.0000
G1 X7.3596 Y-8.9602 Z1.0000 F900.00
G2 X8.7851 Y-7.0996 Z1.0000 I0.9371 J0.7584 F900.00
G3 X9.9500 Y-7.4325 Z1.0000 I1.0167 J1.3532 F900.00
G1 X9.9500 Y-8.8491 Z1.0000 F900.00
G2 X8.7261 Y-10.3374 Z1.0000 I-1.4573 J-0.0490 F900.00
G2 X7.4367 Y-10.3600 Z1.0000 I-0.7882 J8.1804 F900.00
G3 X7.3689 Y-8.9715 Z1.0000 I-1.3747 J0.6288 F900.00
G2 X7.3596 Y-8.9602 Z1.0000 I0.9278 J0.7698 F900.00
G0 X7.3596 Y-8.9602 Z18.0000
G0 X4.0546 Y-4.9383 Z18.0000
G1 X4.0546 Y-4.9383 Z1.0000 F900.00
G2 X-6.4056 Y0.0050 Z1.0000 I-4.0621 J4.9432 F900.00
G2 X-0.0074 Y6.4031 Z1.0000 I6.3981 J0.0000 F900.00
G2 X6.3907 Y0.0050 Z1.0000 I-0.0000 J-6.3981 F900.00
G2 X4.0546 Y-4.9383 Z1.0000 I-6.3981 J0.0000 F900.00
G0 X4.0546 Y-4.9383 Z18.0000
G0 X6.2912 Y-1.0855 Z18.0000
G1 X6.2912 Y-1.0855 Z1.0000 F900.00
G1 X1.0830 Y-6.2936 Z1.0000 F900.00
G3 X6.2912 Y-1.0855 Z1.0000 I-1.0679 J6.2761 F900.00
G3 X6.2841 Y1.1433 Z1.0000 I-5.9771 J1.0953 F900.00
G1 X-1.1458 Y-6.2865 Z1.0000 F900.00
G2 X-2.8261 Y-5.7310 Z1.0000 I0.9771 J5.7749 F900.00
G1 X5.7286 Y2.8237 Z1.0000 F900.00
G3 X4.8407 Y4.1717 Z1.0000 I-5.1605 J-2.4325 F900.00
G1 X-4.1742 Y-4.8432 Z1.0000 F900.00
G2 X-5.2375 Y-3.6707 Z1.0000 I3.6115 J4.3438 F900.00
G1 X3.6682 Y5.2351 Z1.0000 F900.00
G3 X2.1997 Y6.0024 Z1.0000 I-3.3507 J-4.6234 F900.00
G1 X-6.0049 Y-2.2022 Z1.0000 F900.00
G2 X-6.3881 Y-0.3495 Z1.0000 I5.3921 J2.0814 F900.00
G1 X0.3471 Y6.3857 Z1.0000 F900.00
G3 X-2.3041 Y5.9704 Z1.0000 I-0.4082 J-6.0642 F900.00
G1 X-5.9728 Y2.3016 Z1.0000 F900.00
G2 X-2.3041 Y5.9704 Z1.0000 I5.9176 J-2.2488 F900.00
G0 X-2.3041 Y5.9704 Z18.0000
G0 X-7.1730 Y7.7742 Z18.0000
G1 X-7.1730 Y7.7742 Z1.0000 F900.00
G2 X-8.7809 Y7.0979 Z1.0000 I-1.1208 J0.4152 F900.00
G3 X-9.9500 Y7.4323 Z1.0000 I-1.0208 J-1.3580 F900.00
G1 X-9.9500 Y8.8491 Z1.0000 F900.00
G2 X-8.7261 Y10.3374 Z1.0000 I1.4573 J0.0490 F900.00
G2 X-7.4363 Y10.3600 Z1.0000 I0.7884 J-8.1829 F900.00
G3 X-7.3641 Y8.9632 Z1.0000 I1.3722 J-0.6294 F900.00
G2 X-7.0985 Y8.1951 Z1.0000 I-1.0404 J-0.7897 F900.00
G2 X-7.1730 Y7.7742 Z1.0000 I-1.1952 J-0.0056 F900.00
G0 X-7.1730 Y7.7742 Z18.0000
G0 X-7.1580 Y7.8241 Z18.0000
G1 X-7.1580 Y7.8241 Z1.0000 F900.00
G1 X-7.9257 Y7.0564 Z1.0000 F900.00
G3 X-7.1580 Y7.8241 Z1.0000 I-0.3485 J1.1162 F900.00
G3 X-7.2166 Y8.7077 Z1.0000 I-1.1189 J0.3696 F900.00
G2 X-7.5669 Y9.6510 Z1.0000 I1.3929 J1.0541 F900.00
G1 X-9.7752 Y7.4427 Z1.0000 F900.00
G1 X-9.9500 Y7.4323 Z1.0000 F900.00
G1 X-9.9500 Y8.8491 Z1.0000 F900.00
G2 X-9.5219 Y9.9319 Z1.0000 I1.4873 J0.0380 F900.00
G0 X-9.5219 Y9.9319 Z18.0000
G0 X7.0992 Y8.3190 Z18.0000
G1 X7.0992 Y8.3190 Z1.0000 F900.00
G2 X7.3689 Y8.9715 Z1.0000 I1.2077 J-0.1172 F900.00
G3 X7.4367 Y10.3600 Z1.0000 I-1.3258 J0.7606 F900.00
G1 X8.4391 Y10.3600 Z1.0000 F900.00
G2 X9.9500 Y8.8491 Z1.0000 I0.0475 J-1.4634 F900.00
G1 X9.9500 Y7.4325 Z1.0000 F900.00
G3 X9.0646 Y7.2541 Z1.0000 I-0.1882 J-1.3522 F900.00
G2 X7.0992 Y8.3190 Z1.0000 I-0.7577 J0.9477 F900.00
G0 X7.0992 Y8.3190 Z18.0000
G0 X7.3216 Y8.8885 Z18.0000
G1 X7.3216 Y8.8885 Z1.0000 F900.00
G3 X7.4367 Y10.3600 Z1.0000 I-1.2917 J0.8413 F900.00
G2 X8.7261 Y10.3374 Z1.0000 I0.5012 J-8.2030 F900.00
G1 X8.7619 Y10.3288 Z1.0000 F900.00
G1 X7.3216 Y8.8885 Z1.0000 F900.00
G3 X7.7820 Y7.1130 Z1.0000 I0.9686 J-0.6963 F900.00
G1 X9.9037 Y9.2347 Z1.0000 F900.00
G2 X9.9500 Y8.8491 Z1.0000 I-1.1942 J-0.3389 F900.00
G1 X9.9500 Y7.4325 Z1.0000 F900.00
G3 X8.7851 Y7.0996 Z1.0000 I-0.1482 J-1.6861 F900.00
G2 X7.7820 Y7.1130 Z1.0000 I-0.4875 J1.0674 F900.00
G0 X7.7820 Y7.1130 Z18.0000
G0 X-7.4321 Y-7.3649 Z18.0000
G1 X-7.4321 Y-7.3649 Z1.0000 F900.00
G2 X-7.0985 Y-8.1951 Z1.0000 I-0.8770 J-0.8346 F900.00
G2 X-7.2166 Y-8.7077 Z1.0000 I-1.1816 J0.0021 F900.00
G3 X-7.4363 Y-10.3600 Z1.0000 I1.2595 J-1.0082 F900.00
G1 X-8.4391 Y-10.3600 Z1.0000 F900.00
G2 X-9.9500 Y-8.8491 Z1.0000 I-0.0475 J1.4634 F900.00
G1 X-9.9500 Y-7.4323 Z1.0000 F900.00
G3 X-9.0672 Y-7.2555 Z1.0000 I0.1893 J1.3468 F900.00
G2 X-7.4321 Y-7.3649 Z1.0000 I0.7581 J-0.9439 F900.00
G0 X-7.4321 Y-7.3649 Z18.0000
G0 X-9.9500 Y-8.3831 Z18.0000
G1 X-9.9500 Y-8.3831 Z1.0000 F900.00
G1 X-9.9500 Y-7.4323 Z1.0000 F900.00
G3 X-8.7809 Y-7.0979 Z1.0000 I0.1483 J1.6924 F900.00
G1 X-8.6022 Y-7.0353 Z1.0000 F900.00
G1 X-9.9500 Y-8.3831 Z1.0000 F900.00
G3 X-9.7877 Y-9.5661 Z1.0000 I2.1063 J-0.3136 F900.00
G3 X-9.3822 Y-10.0512 Z1.0000 I1.2131 J0.6019 F900.00
G1 X-7.1574 Y-7.8264 Z1.0000 F900.00
G2 X-7.3641 Y-8.9632 Z1.0000 I-1.1799 J-0.3726 F900.00
G3 X-7.4551 Y-10.3600 Z1.0000 I1.4525 J-0.7960 F900.00
G1 X-7.4363 Y-10.3600 Z1.0000 F900.00
G1 X-7.4429 Y-10.3477 Z1.0000 F900.00
G0 Z18.0000
(finish operation: Pocket_3D002)
(begin operation: Profile_Faces)
(Path: Profile_Faces)
(Profile_Faces)
(Compensated Tool Path. Diameter: 3.1)
G0 Z18.0000
G0 X11.2982 Y11.2600
G0 Z17.0000
G1 X11.2982 Y11.2600 Z11.9000 F900.00
G3 X5.7530 Y11.6510 Z11.9000 I-3.0028 J-3.0700 F900.00
G3 X-5.7491 Y11.6496 Z11.9000 I-5.7497 J-11.5886 F900.00
G3 X-11.7249 Y5.6041 Z11.9000 I-2.5456 J-3.4600 F900.00
G3 X-11.7222 Y-5.6007 Z11.9000 I11.6670 J-5.5996 F900.00
G3 X-5.7517 Y-11.6516 Z11.9000 I3.4276 J-2.5890 F900.00
G3 X2.1088 Y-12.8267 Z11.9000 I5.7519 J11.5976 F900.00
G3 X5.7504 Y-11.6490 Z11.9000 I-2.0178 J12.4581 F900.00
G3 X11.7232 Y-5.6031 Z11.9000 I2.5450 J3.4591 F900.00
G3 X11.7215 Y5.6009 Z11.9000 I-11.6540 J5.6002 F900.00
G3 X11.2982 Y11.2600 Z11.9000 I-3.4262 J2.5891 F900.00
G1 X11.2982 Y11.2600 Z8.8000 F900.00
G3 X5.7530 Y11.6510 Z8.8000 I-3.0028 J-3.0700 F900.00
G3 X-5.7491 Y11.6496 Z8.8000 I-5.7497 J-11.5886 F900.00
G3 X-11.7249 Y5.6041 Z8.8000 I-2.5456 J-3.4600 F900.00
G3 X-11.7222 Y-5.6007 Z8.8000 I11.6670 J-5.5996 F900.00
G3 X-5.7517 Y-11.6516 Z8.8000 I3.4276 J-2.5890 F900.00
G3 X2.1088 Y-12.8267 Z8.8000 I5.7519 J11.5976 F900.00
G3 X5.7504 Y-11.6490 Z8.8000 I-2.0178 J12.4581 F900.00
G3 X11.7232 Y-5.6031 Z8.8000 I2.5450 J3.4591 F900.00
G3 X11.7215 Y5.6009 Z8.8000 I-11.6540 J5.6002 F900.00
G3 X11.2982 Y11.2600 Z8.8000 I-3.4262 J2.5891 F900.00
G1 X11.2982 Y11.2600 Z5.7000 F900.00
G3 X5.7530 Y11.6510 Z5.7000 I-3.0028 J-3.0700 F900.00
G3 X-5.7491 Y11.6496 Z5.7000 I-5.7497 J-11.5886 F900.00
G3 X-11.7249 Y5.6041 Z5.7000 I-2.5456 J-3.4600 F900.00
G3 X-11.7222 Y-5.6007 Z5.7000 I11.6670 J-5.5996 F900.00
G3 X-5.7517 Y-11.6516 Z5.7000 I3.4276 J-2.5890 F900.00
G3 X2.1088 Y-12.8267 Z5.7000 I5.7519 J11.5976 F900.00
G3 X5.7504 Y-11.6490 Z5.7000 I-2.0178 J12.4581 F900.00
G3 X11.7232 Y-5.6031 Z5.7000 I2.5450 J3.4591 F900.00
G3 X11.7215 Y5.6009 Z5.7000 I-11.6540 J5.6002 F900.00
G3 X11.2982 Y11.2600 Z5.7000 I-3.4262 J2.5891 F900.00
G1 X11.2982 Y11.2600 Z2.6000 F900.00
G3 X5.7530 Y11.6510 Z2.6000 I-3.0028 J-3.0700 F900.00
G3 X-5.7491 Y11.6496 Z2.6000 I-5.7497 J-11.5886 F900.00
G3 X-11.7249 Y5.6041 Z2.6000 I-2.5456 J-3.4600 F900.00
G3 X-11.7222 Y-5.6007 Z2.6000 I11.6670 J-5.5996 F900.00
G3 X-5.7517 Y-11.6516 Z2.6000 I3.4276 J-2.5890 F900.00
G3 X2.1088 Y-12.8267 Z2.6000 I5.7519 J11.5976 F900.00
G3 X5.7504 Y-11.6490 Z2.6000 I-2.0178 J12.4581 F900.00
G3 X11.7232 Y-5.6031 Z2.6000 I2.5450 J3.4591 F900.00
G3 X11.7215 Y5.6009 Z2.6000 I-11.6540 J5.6002 F900.00
G3 X11.2982 Y11.2600 Z2.6000 I-3.4262 J2.5891 F900.00
G1 X11.2982 Y11.2600 Z1.0000 F900.00
G3 X5.7530 Y11.6510 Z1.0000 I-3.0028 J-3.0700 F900.00
G3 X-5.7491 Y11.6496 Z1.0000 I-5.7497 J-11.5886 F900.00
G3 X-11.7249 Y5.6041 Z1.0000 I-2.5456 J-3.4600 F900.00
G3 X-11.7222 Y-5.6007 Z1.0000 I11.6670 J-5.5996 F900.00
G3 X-5.7517 Y-11.6516 Z1.0000 I3.4276 J-2.5890 F900.00
G3 X2.1088 Y-12.8267 Z1.0000 I5.7519 J11.5976 F900.00
G3 X5.7504 Y-11.6490 Z1.0000 I-2.0178 J12.4581 F900.00
G3 X11.7232 Y-5.6031 Z1.0000 I2.5450 J3.4591 F900.00
G3 X11.7215 Y5.6009 Z1.0000 I-11.6540 J5.6002 F900.00
G3 X11.2982 Y11.2600 Z1.0000 I-3.4262 J2.5891 F900.00
G0 Z18.0000
(finish operation: Profile_Faces)
(begin operation: TagDressup)
(Path: TagDressup)
G0 Z18.0000
G0 X11.7146 Y12.1255 Z18.0000
G0 X11.7146 Y12.1255 Z17.0000
G1 X11.7146 Y12.1255 Z11.9000 F900.00
G2 X13.0452 Y9.0316 Z11.9000 I-3.2202 J-3.2180 F900.00
G1 X13.0500 Y-8.9100 Z11.9000 F900.00
G2 X8.6216 Y-13.4552 Z11.9000 I-4.5525 J0.0056 F900.00
G1 X-8.5000 Y-13.4600 Z11.9000 F900.00
G2 X-13.0452 Y-9.0316 Z11.9000 I0.0056 J4.5525 F900.00
G1 X-13.0500 Y8.9100 Z11.9000 F900.00
G2 X-8.6216 Y13.4552 Z11.9000 I4.5525 J-0.0056 F900.00
G1 X8.5000 Y13.4600 Z11.9000 F900.00
G2 X11.7146 Y12.1255 Z11.9000 I-0.0056 J-4.5525 F900.00
G1 X11.7146 Y12.1255 Z8.8000 F900.00
G2 X13.0452 Y9.0316 Z8.8000 I-3.2202 J-3.2180 F900.00
G1 X13.0500 Y-8.9100 Z8.8000 F900.00
G2 X8.6216 Y-13.4552 Z8.8000 I-4.5525 J0.0056 F900.00
G1 X-8.5000 Y-13.4600 Z8.8000 F900.00
G2 X-13.0452 Y-9.0316 Z8.8000 I0.0056 J4.5525 F900.00
G1 X-13.0500 Y8.9100 Z8.8000 F900.00
G2 X-8.6216 Y13.4552 Z8.8000 I4.5525 J-0.0056 F900.00
G1 X8.5000 Y13.4600 Z8.8000 F900.00
G2 X11.7146 Y12.1255 Z8.8000 I-0.0056 J-4.5525 F900.00
G1 X11.7146 Y12.1255 Z5.7000 F900.00
G2 X13.0452 Y9.0316 Z5.7000 I-3.2202 J-3.2180 F900.00
G1 X13.0500 Y-8.9100 Z5.7000 F900.00
G2 X8.6216 Y-13.4552 Z5.7000 I-4.5525 J0.0056 F900.00
G1 X-8.5000 Y-13.4600 Z5.7000 F900.00
G2 X-13.0452 Y-9.0316 Z5.7000 I0.0056 J4.5525 F900.00
G1 X-13.0500 Y8.9100 Z5.7000 F900.00
G2 X-8.6216 Y13.4552 Z5.7000 I4.5525 J-0.0056 F900.00
G1 X8.5000 Y13.4600 Z5.7000 F900.00
G2 X11.7146 Y12.1255 Z5.7000 I-0.0056 J-4.5525 F900.00
G1 X11.7146 Y12.1255 Z2.6000 F900.00
G2 X13.0452 Y9.0316 Z2.6000 I-3.2202 J-3.2180 F900.00
G1 X13.0500 Y-8.9100 Z2.6000 F900.00
G2 X8.6216 Y-13.4552 Z2.6000 I-4.5525 J0.0056 F900.00
G1 X-8.5000 Y-13.4600 Z2.6000 F900.00
G2 X-13.0452 Y-9.0316 Z2.6000 I0.0056 J4.5525 F900.00
G1 X-13.0500 Y8.9100 Z2.6000 F900.00
G2 X-8.6216 Y13.4552 Z2.6000 I4.5525 J-0.0056 F900.00
G1 X8.5000 Y13.4600 Z2.6000 F900.00
G2 X11.7146 Y12.1255 Z2.6000 I-0.0056 J-4.5525 F900.00
G1 X11.7146 Y12.1255 Z0.0000 F900.00
G2 X13.0452 Y9.0316 Z0.0000 I-3.2202 J-3.2180 F900.00
G1 X13.0461 Y5.5958 Z0.0000 F900.00
G1 X13.0465 Y4.0958 Z1.5000 F900.00
G1 X13.0487 Y-3.9742 Z1.5000 F900.00
G1 X13.0491 Y-5.4742 Z0.0000 F900.00
G1 X13.0500 Y-8.9100 Z0.0000 F900.00
G2 X8.6216 Y-13.4552 Z0.0000 I-4.5525 J0.0056 F900.00
G1 X5.5958 Y-13.4561 Z0.0000 F900.00
G1 X4.0958 Y-13.4565 Z1.5000 F900.00
G1 X-3.9742 Y-13.4587 Z1.5000 F900.00
G1 X-5.4742 Y-13.4592 Z0.0000 F900.00
G1 X-8.5000 Y-13.4600 Z0.0000 F900.00
G2 X-13.0452 Y-9.0316 Z0.0000 I0.0056 J4.5525 F900.00
G1 X-13.0461 Y-5.5958 Z0.0000 F900.00
G1 X-13.0465 Y-4.0958 Z1.5000 F900.00
G1 X-13.0487 Y3.9742 Z1.5000 F900.00
G1 X-13.0491 Y5.4742 Z0.0000 F900.00
G1 X-13.0500 Y8.9100 Z0.0000 F900.00
G2 X-8.6216 Y13.4552 Z0.0000 I4.5525 J-0.0056 F900.00
G1 X-5.5958 Y13.4561 Z0.0000 F900.00
G1 X-4.0958 Y13.4565 Z1.5000 F900.00
G1 X3.9742 Y13.4587 Z1.5000 F900.00
G1 X5.4742 Y13.4592 Z0.0000 F900.00
G1 X8.5000 Y13.4600 Z0.0000 F900.00
G2 X11.7146 Y12.1255 Z0.0000 I-0.0056 J-4.5525 F900.00
G0 X11.7146 Y12.1255 Z18.0000
(finish operation: TagDressup)
(begin postamble)
M5
G17 G90
; M2
