(.../pcb-gcode-3_6_0_4/pcb-gcode.ulp)
(Copyright 2005 - 2012 by John Johnson)
(See readme.txt for licensing terms.)
(This file generated from the board:)
(.../EAGLE/midi_pad_laser_optimized2.brd)
(Current profile is .../pcb-gcode-3_6_0_4/profiles/generic.pp  )
(This file generated 08.09.22 00:37)
(Settings from pcb-machine.h)
(  Tool Size)
(0.1000 )
(Z Axis Settings)
(  High     Up        Down     Drill)
(5.0000 	4.0000 	0.0000 	2.0000 )
(spindle on time = 3.0000)
(milling depth = 1.0000)
(text depth = 1.0000)
(tool change at 12.7000 15.2400 25.4000 )
(feed rate xy = F3000.00 )
(feed rate z  = F9000.00 )
(Settings from pcb-defaults.h)
(isolate min = 0.0254)
(isolate max = 0.4000)
(isolate step = 0.0635)
(Generated top outlines, bottom outlines, )
(Unit of measure: mm)
(Metric Mode)
G21
(Absolute Coordinates)
G90
G00 X0.0000 Y0.0000 
M03
G04 P3.000000
G00 Z4.0000 
G00 X-97.5954 Y68.4954 
G01 Z0.0000 F9000.00 
G01 X-97.5954 Y68.6646 F3000.00 
G01 X-97.5689 Y68.8318 
G01 X-97.5166 Y68.9928 
G01 X-97.4398 Y69.1436 
G01 X-97.3403 Y69.2806 
G01 X-97.2206 Y69.4003 
G01 X-97.0836 Y69.4998 
G01 X-96.9328 Y69.5766 
G01 X-96.7718 Y69.6289 
G01 X-96.6046 Y69.6554 
G01 X-96.4354 Y69.6554 
G01 X-96.2682 Y69.6289 
G01 X-96.1072 Y69.5766 
G01 X-95.9564 Y69.4998 
G01 X-95.8194 Y69.4003 
G01 X-95.6997 Y69.2806 
G01 X-95.6002 Y69.1436 
G01 X-95.5234 Y68.9928 
G01 X-95.4711 Y68.8318 
G01 X-95.4446 Y68.6646 
G01 X-95.4446 Y68.4954 
G01 X-95.4711 Y68.3282 
G01 X-95.5234 Y68.1672 
G01 X-95.6002 Y68.0164 
G01 X-95.6997 Y67.8794 
G01 X-95.8194 Y67.7597 
G01 X-95.9564 Y67.6602 
G01 X-96.1072 Y67.5834 
G01 X-96.2682 Y67.5311 
G01 X-96.4354 Y67.5046 
G01 X-96.6046 Y67.5046 
G01 X-96.7718 Y67.5311 
G01 X-96.9328 Y67.5834 
G01 X-97.0836 Y67.6602 
G01 X-97.2206 Y67.7597 
G01 X-97.3403 Y67.8794 
G01 X-97.4398 Y68.0164 
G01 X-97.5166 Y68.1672 
G01 X-97.5689 Y68.3282 
G01 X-97.5954 Y68.4954 
G00 Z4.0000 
G00 X-102.6754 Y73.5754 
G01 Z0.0000 F9000.00 
G01 X-102.6754 Y73.7446 F3000.00 
G01 X-102.6489 Y73.9118 
G01 X-102.5966 Y74.0728 
G01 X-102.5198 Y74.2236 
G01 X-102.4203 Y74.3606 
G01 X-102.3006 Y74.4803 
G01 X-102.1636 Y74.5798 
G01 X-102.0128 Y74.6566 
G01 X-101.8518 Y74.7089 
G01 X-101.6846 Y74.7354 
G01 X-101.5154 Y74.7354 
G01 X-101.3482 Y74.7089 
G01 X-101.1872 Y74.6566 
G01 X-101.0364 Y74.5798 
G01 X-100.8994 Y74.4803 
G01 X-100.7797 Y74.3606 
G01 X-100.6802 Y74.2236 
G01 X-100.6034 Y74.0728 
G01 X-100.5511 Y73.9118 
G01 X-100.5246 Y73.7446 
G01 X-100.5246 Y73.5754 
G01 X-100.5511 Y73.4082 
G01 X-100.6034 Y73.2472 
G01 X-100.6802 Y73.0964 
G01 X-100.7797 Y72.9594 
G01 X-100.8994 Y72.8397 
G01 X-101.0364 Y72.7402 
G01 X-101.1872 Y72.6634 
G01 X-101.3482 Y72.6111 
G01 X-101.5154 Y72.5846 
G01 X-101.6846 Y72.5846 
G01 X-101.8518 Y72.6111 
G01 X-102.0128 Y72.6634 
G01 X-102.1636 Y72.7402 
G01 X-102.3006 Y72.8397 
G01 X-102.4203 Y72.9594 
G01 X-102.5198 Y73.0964 
G01 X-102.5966 Y73.2472 
G01 X-102.6489 Y73.4082 
G01 X-102.6754 Y73.5754 
G00 Z4.0000 
G00 X-98.2718 Y53.5703 
G01 Z0.0000 F9000.00 
G01 X-98.2718 Y53.6022 F3000.00 
G01 X-98.2760 Y53.6337 
G01 X-98.2718 Y53.6653 
G01 X-98.2718 Y58.4834 
G01 X-98.2390 Y58.6060 
G01 X-98.1755 Y58.7158 
G01 X-98.0858 Y58.8055 
G01 X-97.9760 Y58.8690 
G01 X-97.8534 Y58.9018 
G01 X-95.8216 Y58.9018 
G01 X-95.6990 Y58.8690 
G01 X-95.5892 Y58.8055 
G01 X-95.4995 Y58.7158 
G01 X-95.4360 Y58.6060 
G01 X-95.4032 Y58.4834 
G01 X-95.4032 Y31.6866 
G01 X-95.4360 Y31.5640 
G01 X-95.4995 Y31.4542 
G01 X-95.5892 Y31.3645 
G01 X-105.1142 Y21.8395 
G01 X-105.2240 Y21.7760 
G01 X-105.3466 Y21.7432 
G01 X-133.4134 Y21.7432 
G01 X-133.5360 Y21.7760 
G01 X-133.6458 Y21.8395 
G01 X-133.7355 Y21.9292 
G01 X-143.2605 Y31.4542 
G01 X-143.3240 Y31.5640 
G01 X-143.3568 Y31.6866 
G01 X-143.3568 Y59.7534 
G01 X-143.3240 Y59.8760 
G01 X-143.2605 Y59.9858 
G01 X-143.1708 Y60.0755 
G01 X-133.6458 Y69.6005 
G01 X-133.5360 Y69.6640 
G01 X-133.4134 Y69.6968 
G01 X-105.3466 Y69.6968 
G01 X-105.2240 Y69.6640 
G01 X-105.1142 Y69.6005 
G01 X-105.0245 Y69.5108 
G01 X-103.2593 Y67.7457 
G01 X-103.2419 Y67.7632 
G01 X-103.1463 Y67.8270 
G01 X-103.0402 Y67.8710 
G01 X-102.9275 Y67.8934 
G01 X-102.8125 Y67.8934 
G01 X-102.6998 Y67.8710 
G01 X-102.5937 Y67.8270 
G01 X-102.4981 Y67.7632 
G01 X-102.4168 Y67.6819 
G01 X-102.3530 Y67.5863 
G01 X-102.3090 Y67.4802 
G01 X-102.2866 Y67.3675 
G01 X-102.2866 Y66.7730 
G01 X-95.4995 Y59.9858 
G01 X-95.4360 Y59.8760 
G01 X-95.4032 Y59.7534 
G01 X-95.4032 Y59.6266 
G01 X-95.4360 Y59.5040 
G01 X-95.4995 Y59.3942 
G01 X-95.5892 Y59.3045 
G01 X-95.6990 Y59.2410 
G01 X-95.8216 Y59.2082 
G01 X-101.0284 Y59.2082 
G01 X-101.1510 Y59.2410 
G01 X-101.2608 Y59.3045 
G01 X-101.3505 Y59.3942 
G01 X-108.7846 Y66.8282 
G01 X-111.4347 Y66.8282 
G01 X-111.4663 Y66.8240 
G01 X-111.4978 Y66.8282 
G01 X-111.5297 Y66.8282 
G01 X-111.5588 Y66.8360 
G01 X-115.0012 Y66.8360 
G01 X-115.0303 Y66.8282 
G01 X-115.0622 Y66.8282 
G01 X-115.0937 Y66.8240 
G01 X-115.1253 Y66.8282 
G01 X-123.6347 Y66.8282 
G01 X-123.6663 Y66.8240 
G01 X-123.6978 Y66.8282 
G01 X-123.7297 Y66.8282 
G01 X-123.7588 Y66.8360 
G01 X-127.2012 Y66.8360 
G01 X-127.2303 Y66.8282 
G01 X-127.2622 Y66.8282 
G01 X-127.2937 Y66.8240 
G01 X-127.3253 Y66.8282 
G01 X-129.9754 Y66.8282 
G01 X-140.4882 Y56.3154 
G01 X-140.4882 Y53.6653 
G01 X-140.4840 Y53.6338 
G01 X-140.4882 Y53.6022 
G01 X-140.4882 Y53.5703 
G01 X-140.4960 Y53.5412 
G01 X-140.4960 Y50.0988 
G01 X-140.4882 Y50.0697 
G01 X-140.4882 Y50.0378 
G01 X-140.4840 Y50.0062 
G01 X-140.4882 Y49.9747 
G01 X-140.4882 Y41.4653 
G01 X-140.4840 Y41.4338 
G01 X-140.4882 Y41.4022 
G01 X-140.4882 Y41.3703 
G01 X-140.4960 Y41.3412 
G01 X-140.4960 Y37.8988 
G01 X-140.4882 Y37.8697 
G01 X-140.4882 Y37.8378 
G01 X-140.4840 Y37.8062 
G01 X-140.4882 Y37.7747 
G01 X-140.4882 Y35.1246 
G01 X-129.9754 Y24.6118 
G01 X-127.3253 Y24.6118 
G01 X-127.2937 Y24.6160 
G01 X-127.2622 Y24.6118 
G01 X-127.2303 Y24.6118 
G01 X-127.2012 Y24.6040 
G01 X-123.7588 Y24.6040 
G01 X-123.7297 Y24.6118 
G01 X-123.6978 Y24.6118 
G01 X-123.6663 Y24.6160 
G01 X-123.6347 Y24.6118 
G01 X-115.1253 Y24.6118 
G01 X-115.0937 Y24.6160 
G01 X-115.0622 Y24.6118 
G01 X-115.0303 Y24.6118 
G01 X-115.0012 Y24.6040 
G01 X-111.5588 Y24.6040 
G01 X-111.5297 Y24.6118 
G01 X-111.4978 Y24.6118 
G01 X-111.4663 Y24.6160 
G01 X-111.4347 Y24.6118 
G01 X-108.7846 Y24.6118 
G01 X-98.2718 Y35.1246 
G01 X-98.2718 Y37.7747 
G01 X-98.2760 Y37.8063 
G01 X-98.2718 Y37.8378 
G01 X-98.2718 Y37.8697 
G01 X-98.2640 Y37.8988 
G01 X-98.2640 Y41.3412 
G01 X-98.2718 Y41.3703 
G01 X-98.2718 Y41.4022 
G01 X-98.2760 Y41.4337 
G01 X-98.2718 Y41.4653 
G01 X-98.2718 Y49.9747 
G01 X-98.2760 Y50.0063 
G01 X-98.2718 Y50.0378 
G01 X-98.2718 Y50.0697 
G01 X-98.2640 Y50.0988 
G01 X-98.2640 Y53.5412 
G01 X-98.2718 Y53.5703 
G00 Z4.0000 
G00 X-14.6566 Y13.1056 
G01 Z0.0000 F9000.00 
G01 X-14.6105 Y13.0365 F3000.00 
G01 X-14.5569 Y12.9072 
G01 X-14.5296 Y12.7700 
G01 X-14.5296 Y12.6300 
G01 X-14.5569 Y12.4928 
G01 X-14.6105 Y12.3635 
G01 X-14.6882 Y12.2471 
G01 X-14.7871 Y12.1482 
G01 X-14.9035 Y12.0705 
G01 X-15.0328 Y12.0169 
G01 X-15.1700 Y11.9896 
G01 X-19.7366 Y11.9896 
G01 X-19.7366 Y11.3725 
G01 X-19.7590 Y11.2598 
G01 X-19.8030 Y11.1537 
G01 X-19.8668 Y11.0581 
G01 X-19.9481 Y10.9768 
G01 X-20.0437 Y10.9130 
G01 X-20.1498 Y10.8690 
G01 X-20.2625 Y10.8466 
G01 X-77.5275 Y10.8466 
G01 X-77.6402 Y10.8690 
G01 X-77.7463 Y10.9130 
G01 X-77.8419 Y10.9768 
G01 X-77.9232 Y11.0581 
G01 X-77.9870 Y11.1537 
G01 X-78.0310 Y11.2598 
G01 X-78.0534 Y11.3725 
G01 X-78.0534 Y11.6246 
G01 X-119.4646 Y11.6246 
G01 X-119.6318 Y11.6511 
G01 X-119.7928 Y11.7034 
G01 X-119.9436 Y11.7802 
G01 X-120.0806 Y11.8797 
G01 X-120.2003 Y11.9994 
G01 X-120.2998 Y12.1364 
G01 X-120.3766 Y12.2872 
G01 X-120.4289 Y12.4482 
G01 X-120.4554 Y12.6154 
G01 X-120.4554 Y17.9671 
G01 X-120.4714 Y18.0681 
G01 X-120.4714 Y20.2719 
G01 X-120.4445 Y20.4416 
G01 X-120.3914 Y20.6050 
G01 X-120.3134 Y20.7580 
G01 X-120.2125 Y20.8970 
G01 X-120.0910 Y21.0185 
G01 X-119.9520 Y21.1194 
G01 X-119.7990 Y21.1974 
G01 X-119.6356 Y21.2505 
G01 X-119.4659 Y21.2774 
G01 X-119.2941 Y21.2774 
G01 X-119.1244 Y21.2505 
G01 X-118.9610 Y21.1974 
G01 X-118.8080 Y21.1194 
G01 X-118.6690 Y21.0185 
G01 X-118.5475 Y20.8970 
G01 X-118.4466 Y20.7580 
G01 X-118.3686 Y20.6050 
G01 X-118.3155 Y20.4416 
G01 X-118.2886 Y20.2719 
G01 X-118.2886 Y18.0681 
G01 X-118.3046 Y17.9671 
G01 X-118.3046 Y13.7754 
G01 X-78.0534 Y13.7754 
G01 X-78.0534 Y14.0275 
G01 X-78.0310 Y14.1402 
G01 X-77.9870 Y14.2463 
G01 X-77.9232 Y14.3419 
G01 X-77.8419 Y14.4232 
G01 X-77.7463 Y14.4870 
G01 X-77.6402 Y14.5310 
G01 X-77.5275 Y14.5534 
G01 X-67.8934 Y14.5534 
G01 X-67.8934 Y19.1075 
G01 X-67.8710 Y19.2202 
G01 X-67.8270 Y19.3263 
G01 X-67.7632 Y19.4219 
G01 X-67.6819 Y19.5032 
G01 X-67.5863 Y19.5670 
G01 X-67.4802 Y19.6110 
G01 X-67.3675 Y19.6334 
G01 X-67.2527 Y19.6334 
G01 X-67.1907 Y19.7551 
G01 X-67.0662 Y19.9265 
G01 X-66.9165 Y20.0762 
G01 X-66.7451 Y20.2007 
G01 X-66.5565 Y20.2968 
G01 X-66.3550 Y20.3623 
G01 X-66.1459 Y20.3954 
G01 X-65.9341 Y20.3954 
G01 X-65.7250 Y20.3623 
G01 X-65.5235 Y20.2968 
G01 X-65.3349 Y20.2007 
G01 X-65.1635 Y20.0762 
G01 X-65.0138 Y19.9265 
G01 X-64.8893 Y19.7551 
G01 X-64.8273 Y19.6334 
G01 X-64.7125 Y19.6334 
G01 X-64.5998 Y19.6110 
G01 X-64.4937 Y19.5670 
G01 X-64.3981 Y19.5032 
G01 X-64.3168 Y19.4219 
G01 X-64.2530 Y19.3263 
G01 X-64.2090 Y19.2202 
G01 X-64.1866 Y19.1075 
G01 X-64.1866 Y14.5534 
G01 X-48.8434 Y14.5534 
G01 X-48.8434 Y19.7425 
G01 X-48.8210 Y19.8552 
G01 X-48.7770 Y19.9613 
G01 X-48.7132 Y20.0569 
G01 X-48.6319 Y20.1382 
G01 X-48.5363 Y20.2020 
G01 X-48.4302 Y20.2460 
G01 X-48.3175 Y20.2684 
G01 X-47.5622 Y20.2684 
G01 X-47.5065 Y20.2968 
G01 X-47.3050 Y20.3623 
G01 X-47.0959 Y20.3954 
G01 X-46.8841 Y20.3954 
G01 X-46.6750 Y20.3623 
G01 X-46.4735 Y20.2968 
G01 X-46.4177 Y20.2684 
G01 X-45.6625 Y20.2684 
G01 X-45.5498 Y20.2460 
G01 X-45.4437 Y20.2020 
G01 X-45.3481 Y20.1382 
G01 X-45.2668 Y20.0569 
G01 X-45.2030 Y19.9613 
G01 X-45.1590 Y19.8552 
G01 X-45.1366 Y19.7425 
G01 X-45.1366 Y14.5534 
G01 X-29.7934 Y14.5534 
G01 X-29.7934 Y19.1075 
G01 X-29.7710 Y19.2202 
G01 X-29.7270 Y19.3263 
G01 X-29.6632 Y19.4219 
G01 X-29.5819 Y19.5032 
G01 X-29.4863 Y19.5670 
G01 X-29.3802 Y19.6110 
G01 X-29.2675 Y19.6334 
G01 X-29.1527 Y19.6334 
G01 X-29.0907 Y19.7551 
G01 X-28.9662 Y19.9265 
G01 X-28.8165 Y20.0762 
G01 X-28.6451 Y20.2007 
G01 X-28.4565 Y20.2968 
G01 X-28.2550 Y20.3623 
G01 X-28.0459 Y20.3954 
G01 X-27.8341 Y20.3954 
G01 X-27.6250 Y20.3623 
G01 X-27.4235 Y20.2968 
G01 X-27.2349 Y20.2007 
G01 X-27.0635 Y20.0762 
G01 X-26.9138 Y19.9265 
G01 X-26.7893 Y19.7551 
G01 X-26.7273 Y19.6334 
G01 X-26.6125 Y19.6334 
G01 X-26.4998 Y19.6110 
G01 X-26.3937 Y19.5670 
G01 X-26.2981 Y19.5032 
G01 X-26.2168 Y19.4219 
G01 X-26.1530 Y19.3263 
G01 X-26.1090 Y19.2202 
G01 X-26.0866 Y19.1075 
G01 X-26.0866 Y14.5534 
G01 X-20.2625 Y14.5534 
G01 X-20.1498 Y14.5310 
G01 X-20.0437 Y14.4870 
G01 X-19.9481 Y14.4232 
G01 X-19.8668 Y14.3419 
G01 X-19.8030 Y14.2463 
G01 X-19.7590 Y14.1402 
G01 X-19.7366 Y14.0275 
G01 X-19.7366 Y13.4104 
G01 X-15.8234 Y13.4104 
G01 X-15.8234 Y128.8296 
G01 X-16.9696 Y128.8296 
G01 X-17.0794 Y128.7197 
G01 X-17.2164 Y128.6202 
G01 X-17.3672 Y128.5434 
G01 X-17.5282 Y128.4911 
G01 X-17.6954 Y128.4646 
G01 X-24.0308 Y128.4646 
G01 X-24.1723 Y128.4422 
G01 X-24.3415 Y128.4422 
G01 X-24.3819 Y128.4486 
G01 X-26.5019 Y128.4486 
G01 X-26.6716 Y128.4755 
G01 X-26.8350 Y128.5286 
G01 X-26.9880 Y128.6065 
G01 X-27.1270 Y128.7075 
G01 X-27.2485 Y128.8290 
G01 X-27.3494 Y128.9680 
G01 X-27.4274 Y129.1210 
G01 X-27.4805 Y129.2844 
G01 X-27.5074 Y129.4541 
G01 X-27.5074 Y129.6259 
G01 X-27.4805 Y129.7956 
G01 X-27.4274 Y129.9590 
G01 X-27.3494 Y130.1120 
G01 X-27.2485 Y130.2510 
G01 X-27.1270 Y130.3725 
G01 X-26.9880 Y130.4734 
G01 X-26.8350 Y130.5514 
G01 X-26.6716 Y130.6045 
G01 X-26.5019 Y130.6314 
G01 X-24.2981 Y130.6314 
G01 X-24.1971 Y130.6154 
G01 X-17.6954 Y130.6154 
G01 X-17.5282 Y130.5889 
G01 X-17.3672 Y130.5366 
G01 X-17.2164 Y130.4598 
G01 X-17.0794 Y130.3603 
G01 X-16.9696 Y130.2504 
G01 X-15.1700 Y130.2504 
G01 X-15.0328 Y130.2231 
G01 X-14.9035 Y130.1695 
G01 X-14.7871 Y130.0918 
G01 X-14.6882 Y129.9929 
G01 X-14.6105 Y129.8765 
G01 X-14.5569 Y129.7472 
G01 X-14.5296 Y129.6100 
G01 X-14.5296 Y129.4700 
G01 X-14.5569 Y129.3328 
G01 X-14.6105 Y129.2035 
G01 X-14.6566 Y129.1344 
G01 X-14.6566 Y13.1056 
G00 Z4.0000 
G00 X-124.3754 Y16.9504 
G01 Z0.0000 F9000.00 
G01 X-124.2082 Y16.9239 F3000.00 
G01 X-124.0472 Y16.8716 
G01 X-123.8964 Y16.7948 
G01 X-123.7594 Y16.6953 
G01 X-123.6397 Y16.5756 
G01 X-123.5402 Y16.4386 
G01 X-123.4634 Y16.2878 
G01 X-123.4111 Y16.1268 
G01 X-123.3846 Y15.9596 
G01 X-123.3846 Y15.7904 
G01 X-123.4111 Y15.6232 
G01 X-123.4634 Y15.4622 
G01 X-123.5402 Y15.3114 
G01 X-123.6397 Y15.1744 
G01 X-123.7594 Y15.0547 
G01 X-123.8964 Y14.9552 
G01 X-124.0472 Y14.8784 
G01 X-124.2082 Y14.8261 
G01 X-124.3754 Y14.7996 
G01 X-140.4196 Y14.7996 
G01 X-140.5868 Y14.8261 
G01 X-140.7478 Y14.8784 
G01 X-140.8986 Y14.9552 
G01 X-141.0356 Y15.0547 
G01 X-150.5606 Y24.5797 
G01 X-150.6803 Y24.6994 
G01 X-150.7798 Y24.8364 
G01 X-150.8566 Y24.9872 
G01 X-150.9089 Y25.1482 
G01 X-150.9354 Y25.3154 
G01 X-150.9354 Y45.8046 
G01 X-150.9089 Y45.9718 
G01 X-150.8566 Y46.1328 
G01 X-150.7798 Y46.2836 
G01 X-150.6803 Y46.4206 
G01 X-150.5606 Y46.5403 
G01 X-150.4236 Y46.6398 
G01 X-150.2728 Y46.7166 
G01 X-150.1118 Y46.7689 
G01 X-149.9446 Y46.7954 
G01 X-147.1329 Y46.7954 
G01 X-147.0319 Y46.8114 
G01 X-144.8281 Y46.8114 
G01 X-144.6584 Y46.7845 
G01 X-144.4950 Y46.7314 
G01 X-144.3420 Y46.6534 
G01 X-144.2030 Y46.5525 
G01 X-144.0815 Y46.4310 
G01 X-143.9805 Y46.2920 
G01 X-143.9026 Y46.1390 
G01 X-143.8495 Y45.9756 
G01 X-143.8226 Y45.8059 
G01 X-143.8226 Y45.6341 
G01 X-143.8495 Y45.4644 
G01 X-143.9026 Y45.3010 
G01 X-143.9805 Y45.1480 
G01 X-144.0815 Y45.0090 
G01 X-144.2030 Y44.8875 
G01 X-144.3420 Y44.7866 
G01 X-144.4950 Y44.7086 
G01 X-144.6584 Y44.6555 
G01 X-144.8281 Y44.6286 
G01 X-147.0319 Y44.6286 
G01 X-147.1329 Y44.6446 
G01 X-148.7846 Y44.6446 
G01 X-148.7846 Y25.8454 
G01 X-139.8896 Y16.9504 
G01 X-124.3754 Y16.9504 
G00 Z4.0000 
G00 X-116.0211 Y31.9794 
G01 Z0.0000 F9000.00 
G01 X-116.0475 Y31.9430 F3000.00 
G01 X-116.1690 Y31.8215 
G01 X-116.3080 Y31.7206 
G01 X-116.4610 Y31.6426 
G01 X-116.6244 Y31.5895 
G01 X-116.7941 Y31.5626 
G01 X-116.9659 Y31.5626 
G01 X-117.1356 Y31.5895 
G01 X-117.2990 Y31.6426 
G01 X-117.4520 Y31.7206 
G01 X-117.5910 Y31.8215 
G01 X-117.7125 Y31.9430 
G01 X-117.7389 Y31.9794 
G01 X-118.7752 Y31.9794 
G01 X-118.8309 Y32.0025 
G01 X-118.8735 Y32.0451 
G01 X-118.8966 Y32.1008 
G01 X-118.8966 Y38.1302 
G01 X-118.8735 Y38.1859 
G01 X-118.8309 Y38.2285 
G01 X-118.7752 Y38.2516 
G01 X-114.9048 Y38.2516 
G01 X-114.8491 Y38.2285 
G01 X-114.8065 Y38.1859 
G01 X-114.7834 Y38.1302 
G01 X-114.7834 Y32.1008 
G01 X-114.8065 Y32.0451 
G01 X-114.8491 Y32.0025 
G01 X-114.9048 Y31.9794 
G01 X-114.9652 Y31.9794 
G01 X-116.0211 Y31.9794 
G00 Z4.0000 
G00 X-115.7886 Y20.2719 
G01 Z0.0000 F9000.00 
G01 X-115.7886 Y20.2415 F3000.00 
G01 X-103.0343 Y20.1323 
G01 X-102.9401 Y20.2007 
G01 X-102.7515 Y20.2968 
G01 X-102.5500 Y20.3623 
G01 X-102.3409 Y20.3954 
G01 X-102.1291 Y20.3954 
G01 X-101.9200 Y20.3623 
G01 X-101.7185 Y20.2968 
G01 X-101.5299 Y20.2007 
G01 X-101.3585 Y20.0762 
G01 X-101.2088 Y19.9265 
G01 X-101.0843 Y19.7551 
G01 X-100.9882 Y19.5665 
G01 X-100.9227 Y19.3650 
G01 X-100.8896 Y19.1559 
G01 X-100.8896 Y18.9441 
G01 X-100.9227 Y18.7350 
G01 X-100.9882 Y18.5335 
G01 X-101.0843 Y18.3449 
G01 X-101.2088 Y18.1735 
G01 X-101.3585 Y18.0238 
G01 X-101.5299 Y17.8993 
G01 X-101.7185 Y17.8032 
G01 X-101.9200 Y17.7377 
G01 X-102.1291 Y17.7046 
G01 X-102.3409 Y17.7046 
G01 X-102.5500 Y17.7377 
G01 X-102.7515 Y17.8032 
G01 X-102.9401 Y17.8993 
G01 X-103.0534 Y17.9816 
G01 X-115.7886 Y18.0907 
G01 X-115.7886 Y18.0681 
G01 X-115.8155 Y17.8984 
G01 X-115.8686 Y17.7350 
G01 X-115.9466 Y17.5820 
G01 X-116.0475 Y17.4430 
G01 X-116.1690 Y17.3215 
G01 X-116.3080 Y17.2205 
G01 X-116.4610 Y17.1426 
G01 X-116.6244 Y17.0895 
G01 X-116.7941 Y17.0626 
G01 X-116.9659 Y17.0626 
G01 X-117.1356 Y17.0895 
G01 X-117.2990 Y17.1426 
G01 X-117.4520 Y17.2205 
G01 X-117.5910 Y17.3215 
G01 X-117.7125 Y17.4430 
G01 X-117.8134 Y17.5820 
G01 X-117.8914 Y17.7350 
G01 X-117.9445 Y17.8984 
G01 X-117.9714 Y18.0681 
G01 X-117.9714 Y20.2719 
G01 X-117.9445 Y20.4416 
G01 X-117.8914 Y20.6050 
G01 X-117.8134 Y20.7580 
G01 X-117.7125 Y20.8970 
G01 X-117.5910 Y21.0185 
G01 X-117.4520 Y21.1194 
G01 X-117.2990 Y21.1974 
G01 X-117.1356 Y21.2505 
G01 X-116.9659 Y21.2774 
G01 X-116.7941 Y21.2774 
G01 X-116.6244 Y21.2505 
G01 X-116.4610 Y21.1974 
G01 X-116.3080 Y21.1194 
G01 X-116.1690 Y21.0185 
G01 X-116.0475 Y20.8970 
G01 X-115.9466 Y20.7580 
G01 X-115.8686 Y20.6050 
G01 X-115.8155 Y20.4416 
G01 X-115.7886 Y20.2719 
G00 Z4.0000 
G00 X-140.0530 Y53.5034 
G01 Z0.0000 F9000.00 
G01 X-136.8070 Y53.5034 F3000.00 
G01 X-136.7793 Y53.4919 
G01 X-136.7581 Y53.4707 
G01 X-136.7466 Y53.4430 
G01 X-136.7466 Y50.1970 
G01 X-136.7581 Y50.1693 
G01 X-136.7793 Y50.1481 
G01 X-136.8070 Y50.1366 
G01 X-140.0530 Y50.1366 
G01 X-140.0807 Y50.1481 
G01 X-140.1019 Y50.1693 
G01 X-140.1134 Y50.1970 
G01 X-140.1134 Y53.4430 
G01 X-140.1019 Y53.4707 
G01 X-140.0807 Y53.4919 
G01 X-140.0530 Y53.5034 
G00 Z4.0000 
G00 X-140.0530 Y41.3034 
G01 Z0.0000 F9000.00 
G01 X-136.8070 Y41.3034 F3000.00 
G01 X-136.7793 Y41.2919 
G01 X-136.7581 Y41.2707 
G01 X-136.7466 Y41.2430 
G01 X-136.7466 Y37.9970 
G01 X-136.7581 Y37.9693 
G01 X-136.7793 Y37.9481 
G01 X-136.8070 Y37.9366 
G01 X-140.0530 Y37.9366 
G01 X-140.0807 Y37.9481 
G01 X-140.1019 Y37.9693 
G01 X-140.1134 Y37.9970 
G01 X-140.1134 Y41.2430 
G01 X-140.1019 Y41.2707 
G01 X-140.0807 Y41.2919 
G01 X-140.0530 Y41.3034 
G00 Z4.0000 
G00 X-105.6394 Y49.0789 
G01 Z0.0000 F9000.00 
G01 X-105.6030 Y49.0525 F3000.00 
G01 X-105.4815 Y48.9310 
G01 X-105.3805 Y48.7920 
G01 X-105.3026 Y48.6390 
G01 X-105.2495 Y48.4756 
G01 X-105.2226 Y48.3059 
G01 X-105.2226 Y48.1341 
G01 X-105.2495 Y47.9644 
G01 X-105.3026 Y47.8010 
G01 X-105.3805 Y47.6480 
G01 X-105.4815 Y47.5090 
G01 X-105.6030 Y47.3875 
G01 X-105.6394 Y47.3611 
G01 X-105.6394 Y46.3248 
G01 X-105.6625 Y46.2691 
G01 X-105.7051 Y46.2265 
G01 X-105.7608 Y46.2034 
G01 X-111.7902 Y46.2034 
G01 X-111.8459 Y46.2265 
G01 X-111.8885 Y46.2691 
G01 X-111.9116 Y46.3248 
G01 X-111.9116 Y50.1952 
G01 X-111.8885 Y50.2509 
G01 X-111.8459 Y50.2935 
G01 X-111.7902 Y50.3166 
G01 X-105.7608 Y50.3166 
G01 X-105.7051 Y50.2935 
G01 X-105.6625 Y50.2509 
G01 X-105.6394 Y50.1952 
G01 X-105.6394 Y50.1348 
G01 X-105.6394 Y49.0789 
G00 Z4.0000 
G00 X-111.5966 Y66.3930 
G01 Z0.0000 F9000.00 
G01 X-111.5966 Y63.1470 F3000.00 
G01 X-111.6081 Y63.1193 
G01 X-111.6293 Y63.0981 
G01 X-111.6570 Y63.0866 
G01 X-114.9030 Y63.0866 
G01 X-114.9307 Y63.0981 
G01 X-114.9519 Y63.1193 
G01 X-114.9634 Y63.1470 
G01 X-114.9634 Y66.3930 
G01 X-114.9519 Y66.4207 
G01 X-114.9307 Y66.4419 
G01 X-114.9030 Y66.4534 
G01 X-111.6570 Y66.4534 
G01 X-111.6293 Y66.4419 
G01 X-111.6081 Y66.4207 
G01 X-111.5966 Y66.3930 
G00 Z4.0000 
G00 X-123.7966 Y66.3930 
G01 Z0.0000 F9000.00 
G01 X-123.7966 Y63.1470 F3000.00 
G01 X-123.8081 Y63.1193 
G01 X-123.8293 Y63.0981 
G01 X-123.8570 Y63.0866 
G01 X-127.1030 Y63.0866 
G01 X-127.1307 Y63.0981 
G01 X-127.1519 Y63.1193 
G01 X-127.1634 Y63.1470 
G01 X-127.1634 Y66.3930 
G01 X-127.1519 Y66.4207 
G01 X-127.1307 Y66.4419 
G01 X-127.1030 Y66.4534 
G01 X-123.8570 Y66.4534 
G01 X-123.8293 Y66.4419 
G01 X-123.8081 Y66.4207 
G01 X-123.7966 Y66.3930 
G00 Z4.0000 
G00 X-117.7389 Y59.4606 
G01 Z0.0000 F9000.00 
G01 X-117.7125 Y59.4970 F3000.00 
G01 X-117.5910 Y59.6185 
G01 X-117.4520 Y59.7194 
G01 X-117.2990 Y59.7974 
G01 X-117.1356 Y59.8505 
G01 X-116.9659 Y59.8774 
G01 X-116.7941 Y59.8774 
G01 X-116.6244 Y59.8505 
G01 X-116.4610 Y59.7974 
G01 X-116.3080 Y59.7194 
G01 X-116.1690 Y59.6185 
G01 X-116.0475 Y59.4970 
G01 X-116.0211 Y59.4606 
G01 X-114.9048 Y59.4606 
G01 X-114.8491 Y59.4375 
G01 X-114.8065 Y59.3949 
G01 X-114.7834 Y59.3392 
G01 X-114.7834 Y53.3098 
G01 X-114.8065 Y53.2541 
G01 X-114.8491 Y53.2115 
G01 X-114.9048 Y53.1884 
G01 X-118.7752 Y53.1884 
G01 X-118.8309 Y53.2115 
G01 X-118.8735 Y53.2541 
G01 X-118.8966 Y53.3098 
G01 X-118.8966 Y59.3392 
G01 X-118.8735 Y59.3949 
G01 X-118.8309 Y59.4375 
G01 X-118.7752 Y59.4606 
G01 X-118.7148 Y59.4606 
G01 X-117.7389 Y59.4606 
G00 Z4.0000 
G00 X-121.0211 Y31.9794 
G01 Z0.0000 F9000.00 
G01 X-121.0475 Y31.9430 F3000.00 
G01 X-121.1690 Y31.8215 
G01 X-121.3080 Y31.7206 
G01 X-121.4610 Y31.6426 
G01 X-121.6244 Y31.5895 
G01 X-121.7941 Y31.5626 
G01 X-121.9659 Y31.5626 
G01 X-122.1356 Y31.5895 
G01 X-122.2990 Y31.6426 
G01 X-122.4520 Y31.7206 
G01 X-122.5910 Y31.8215 
G01 X-122.7125 Y31.9430 
G01 X-122.7389 Y31.9794 
G01 X-123.8552 Y31.9794 
G01 X-123.9109 Y32.0025 
G01 X-123.9535 Y32.0451 
G01 X-123.9766 Y32.1008 
G01 X-123.9766 Y38.1302 
G01 X-123.9535 Y38.1859 
G01 X-123.9109 Y38.2285 
G01 X-123.8552 Y38.2516 
G01 X-119.9848 Y38.2516 
G01 X-119.9291 Y38.2285 
G01 X-119.8865 Y38.1859 
G01 X-119.8634 Y38.1302 
G01 X-119.8634 Y32.1008 
G01 X-119.8865 Y32.0451 
G01 X-119.9291 Y32.0025 
G01 X-119.9848 Y31.9794 
G01 X-120.0452 Y31.9794 
G01 X-121.0211 Y31.9794 
G00 Z4.0000 
G00 X-130.8854 Y18.9441 
G01 Z0.0000 F9000.00 
G01 X-130.8854 Y19.1559 F3000.00 
G01 X-130.8523 Y19.3650 
G01 X-130.7868 Y19.5665 
G01 X-130.6907 Y19.7551 
G01 X-130.5662 Y19.9265 
G01 X-130.4165 Y20.0762 
G01 X-130.2451 Y20.2007 
G01 X-130.0565 Y20.2968 
G01 X-129.8550 Y20.3623 
G01 X-129.6459 Y20.3954 
G01 X-129.4341 Y20.3954 
G01 X-129.2250 Y20.3623 
G01 X-129.0235 Y20.2968 
G01 X-128.9226 Y20.2454 
G01 X-122.9714 Y20.2454 
G01 X-122.9714 Y20.2719 
G01 X-122.9445 Y20.4416 
G01 X-122.8914 Y20.6050 
G01 X-122.8134 Y20.7580 
G01 X-122.7125 Y20.8970 
G01 X-122.5910 Y21.0185 
G01 X-122.4520 Y21.1194 
G01 X-122.2990 Y21.1974 
G01 X-122.1356 Y21.2505 
G01 X-121.9659 Y21.2774 
G01 X-121.7941 Y21.2774 
G01 X-121.6244 Y21.2505 
G01 X-121.4610 Y21.1974 
G01 X-121.3080 Y21.1194 
G01 X-121.1690 Y21.0185 
G01 X-121.0475 Y20.8970 
G01 X-120.9466 Y20.7580 
G01 X-120.8686 Y20.6050 
G01 X-120.8155 Y20.4416 
G01 X-120.7886 Y20.2719 
G01 X-120.7886 Y18.0681 
G01 X-120.8155 Y17.8984 
G01 X-120.8686 Y17.7350 
G01 X-120.9466 Y17.5820 
G01 X-121.0475 Y17.4430 
G01 X-121.1690 Y17.3215 
G01 X-121.3080 Y17.2205 
G01 X-121.4610 Y17.1426 
G01 X-121.6244 Y17.0895 
G01 X-121.7941 Y17.0626 
G01 X-121.9659 Y17.0626 
G01 X-122.1356 Y17.0895 
G01 X-122.2990 Y17.1426 
G01 X-122.4520 Y17.2205 
G01 X-122.5910 Y17.3215 
G01 X-122.7125 Y17.4430 
G01 X-122.8134 Y17.5820 
G01 X-122.8914 Y17.7350 
G01 X-122.9445 Y17.8984 
G01 X-122.9714 Y18.0681 
G01 X-122.9714 Y18.0946 
G01 X-128.5927 Y18.0946 
G01 X-128.6635 Y18.0238 
G01 X-128.8349 Y17.8993 
G01 X-129.0235 Y17.8032 
G01 X-129.2250 Y17.7377 
G01 X-129.4341 Y17.7046 
G01 X-129.6459 Y17.7046 
G01 X-129.8550 Y17.7377 
G01 X-130.0565 Y17.8032 
G01 X-130.2451 Y17.8993 
G01 X-130.4165 Y18.0238 
G01 X-130.5662 Y18.1735 
G01 X-130.6907 Y18.3449 
G01 X-130.7868 Y18.5335 
G01 X-130.8523 Y18.7350 
G01 X-130.8854 Y18.9441 
G00 Z4.0000 
G00 X-102.3882 Y53.6653 
G01 Z0.0000 F9000.00 
G01 X-102.3840 Y53.6338 F3000.00 
G01 X-102.3882 Y53.6022 
G01 X-102.3882 Y53.5703 
G01 X-102.3960 Y53.5412 
G01 X-102.3960 Y50.0988 
G01 X-102.3882 Y50.0697 
G01 X-102.3882 Y50.0378 
G01 X-102.3840 Y50.0062 
G01 X-102.3882 Y49.9747 
G01 X-102.3882 Y41.4653 
G01 X-102.3840 Y41.4338 
G01 X-102.3882 Y41.4022 
G01 X-102.3882 Y41.3703 
G01 X-102.3960 Y41.3412 
G01 X-102.3960 Y37.8988 
G01 X-102.3882 Y37.8697 
G01 X-102.3882 Y37.8378 
G01 X-102.3840 Y37.8062 
G01 X-102.3882 Y37.7747 
G01 X-102.3882 Y36.8181 
G01 X-102.3535 Y36.8068 
G01 X-102.1649 Y36.7107 
G01 X-101.9935 Y36.5862 
G01 X-101.8438 Y36.4365 
G01 X-101.7193 Y36.2651 
G01 X-101.6232 Y36.0765 
G01 X-101.5577 Y35.8750 
G01 X-101.5246 Y35.6659 
G01 X-101.5246 Y35.4541 
G01 X-101.5577 Y35.2450 
G01 X-101.6232 Y35.0435 
G01 X-101.7193 Y34.8549 
G01 X-101.8438 Y34.6835 
G01 X-101.9935 Y34.5338 
G01 X-102.1649 Y34.4093 
G01 X-102.3535 Y34.3132 
G01 X-102.3882 Y34.3019 
G01 X-102.3882 Y32.9566 
G01 X-102.4210 Y32.8340 
G01 X-102.4845 Y32.7242 
G01 X-102.5742 Y32.6345 
G01 X-106.3842 Y28.8245 
G01 X-106.4940 Y28.7610 
G01 X-106.6166 Y28.7282 
G01 X-111.4347 Y28.7282 
G01 X-111.4662 Y28.7240 
G01 X-111.4978 Y28.7282 
G01 X-111.5297 Y28.7282 
G01 X-111.5588 Y28.7360 
G01 X-115.0012 Y28.7360 
G01 X-115.0303 Y28.7282 
G01 X-115.0622 Y28.7282 
G01 X-115.0938 Y28.7240 
G01 X-115.1253 Y28.7282 
G01 X-123.6347 Y28.7282 
G01 X-123.6662 Y28.7240 
G01 X-123.6978 Y28.7282 
G01 X-123.7297 Y28.7282 
G01 X-123.7588 Y28.7360 
G01 X-127.2012 Y28.7360 
G01 X-127.2303 Y28.7282 
G01 X-127.2622 Y28.7282 
G01 X-127.2938 Y28.7240 
G01 X-127.3253 Y28.7282 
G01 X-128.2819 Y28.7282 
G01 X-128.2932 Y28.6935 
G01 X-128.3893 Y28.5049 
G01 X-128.5138 Y28.3335 
G01 X-128.6635 Y28.1838 
G01 X-128.8349 Y28.0593 
G01 X-129.0235 Y27.9632 
G01 X-129.2250 Y27.8977 
G01 X-129.4341 Y27.8646 
G01 X-129.6459 Y27.8646 
G01 X-129.8550 Y27.8977 
G01 X-130.0565 Y27.9632 
G01 X-130.2451 Y28.0593 
G01 X-130.4165 Y28.1838 
G01 X-130.5662 Y28.3335 
G01 X-130.6907 Y28.5049 
G01 X-130.7868 Y28.6935 
G01 X-130.7981 Y28.7282 
G01 X-132.1434 Y28.7282 
G01 X-132.2660 Y28.7610 
G01 X-132.3758 Y28.8245 
G01 X-132.4655 Y28.9142 
G01 X-136.2755 Y32.7242 
G01 X-136.3390 Y32.8340 
G01 X-136.3718 Y32.9566 
G01 X-136.3718 Y37.7747 
G01 X-136.3760 Y37.8063 
G01 X-136.3718 Y37.8378 
G01 X-136.3718 Y37.8697 
G01 X-136.3640 Y37.8988 
G01 X-136.3640 Y41.3412 
G01 X-136.3718 Y41.3703 
G01 X-136.3718 Y41.4022 
G01 X-136.3760 Y41.4337 
G01 X-136.3718 Y41.4653 
G01 X-136.3718 Y49.9747 
G01 X-136.3760 Y50.0063 
G01 X-136.3718 Y50.0378 
G01 X-136.3718 Y50.0697 
G01 X-136.3640 Y50.0988 
G01 X-136.3640 Y53.5412 
G01 X-136.3718 Y53.5703 
G01 X-136.3718 Y53.6022 
G01 X-136.3760 Y53.6337 
G01 X-136.3718 Y53.6653 
G01 X-136.3718 Y54.6219 
G01 X-136.4065 Y54.6332 
G01 X-136.5951 Y54.7293 
G01 X-136.7665 Y54.8538 
G01 X-136.9162 Y55.0035 
G01 X-137.0407 Y55.1749 
G01 X-137.1368 Y55.3635 
G01 X-137.2023 Y55.5650 
G01 X-137.2354 Y55.7741 
G01 X-137.2354 Y55.9859 
G01 X-137.2023 Y56.1950 
G01 X-137.1368 Y56.3965 
G01 X-137.0407 Y56.5851 
G01 X-136.9162 Y56.7565 
G01 X-136.7665 Y56.9062 
G01 X-136.5951 Y57.0307 
G01 X-136.4065 Y57.1268 
G01 X-136.3718 Y57.1381 
G01 X-136.3718 Y58.4834 
G01 X-136.3390 Y58.6060 
G01 X-136.2755 Y58.7158 
G01 X-136.1858 Y58.8055 
G01 X-132.3758 Y62.6155 
G01 X-132.2660 Y62.6790 
G01 X-132.1434 Y62.7118 
G01 X-127.3253 Y62.7118 
G01 X-127.2937 Y62.7160 
G01 X-127.2621 Y62.7118 
G01 X-127.2303 Y62.7118 
G01 X-127.2012 Y62.7040 
G01 X-123.7588 Y62.7040 
G01 X-123.7297 Y62.7118 
G01 X-123.6979 Y62.7118 
G01 X-123.6663 Y62.7160 
G01 X-123.6347 Y62.7118 
G01 X-115.1253 Y62.7118 
G01 X-115.0937 Y62.7160 
G01 X-115.0621 Y62.7118 
G01 X-115.0303 Y62.7118 
G01 X-115.0012 Y62.7040 
G01 X-111.5588 Y62.7040 
G01 X-111.5297 Y62.7118 
G01 X-111.4978 Y62.7118 
G01 X-111.4663 Y62.7160 
G01 X-111.4347 Y62.7118 
G01 X-110.5602 Y62.7118 
G01 X-110.5407 Y62.7501 
G01 X-110.4162 Y62.9215 
G01 X-110.2665 Y63.0712 
G01 X-110.0951 Y63.1957 
G01 X-109.9065 Y63.2918 
G01 X-109.7050 Y63.3573 
G01 X-109.4959 Y63.3904 
G01 X-109.2841 Y63.3904 
G01 X-109.0750 Y63.3573 
G01 X-108.8735 Y63.2918 
G01 X-108.6849 Y63.1957 
G01 X-108.5135 Y63.0712 
G01 X-108.3638 Y62.9215 
G01 X-108.2393 Y62.7501 
G01 X-108.2198 Y62.7118 
G01 X-106.6166 Y62.7118 
G01 X-106.4940 Y62.6790 
G01 X-106.3842 Y62.6155 
G01 X-106.2945 Y62.5258 
G01 X-102.4845 Y58.7158 
G01 X-102.4210 Y58.6060 
G01 X-102.3882 Y58.4834 
G01 X-102.3882 Y58.3566 
G01 X-102.4210 Y58.2340 
G01 X-102.4845 Y58.1242 
G01 X-102.5742 Y58.0345 
G01 X-102.6840 Y57.9710 
G01 X-102.8066 Y57.9382 
G01 X-106.1084 Y57.9382 
G01 X-106.2310 Y57.9710 
G01 X-106.3408 Y58.0345 
G01 X-106.4305 Y58.1242 
G01 X-108.1496 Y59.8432 
G01 X-115.7165 Y59.8432 
G01 X-115.8391 Y59.8760 
G01 X-115.9489 Y59.9395 
G01 X-116.0386 Y60.0292 
G01 X-116.0450 Y60.0356 
G01 X-116.5868 Y60.2600 
G01 X-117.1732 Y60.2600 
G01 X-117.7150 Y60.0356 
G01 X-117.8111 Y59.9395 
G01 X-117.9209 Y59.8760 
G01 X-118.0435 Y59.8432 
G01 X-120.7165 Y59.8432 
G01 X-120.8391 Y59.8760 
G01 X-120.9489 Y59.9395 
G01 X-121.0450 Y60.0356 
G01 X-121.5868 Y60.2600 
G01 X-122.1732 Y60.2600 
G01 X-122.7150 Y60.0356 
G01 X-122.8111 Y59.9395 
G01 X-122.9209 Y59.8760 
G01 X-123.0435 Y59.8432 
G01 X-129.9754 Y59.8432 
G01 X-133.5032 Y56.3154 
G01 X-133.5032 Y49.3835 
G01 X-133.5360 Y49.2609 
G01 X-133.5995 Y49.1511 
G01 X-133.6892 Y49.0614 
G01 X-133.6956 Y49.0550 
G01 X-133.9200 Y48.5132 
G01 X-133.9200 Y47.9268 
G01 X-133.6956 Y47.3850 
G01 X-133.5995 Y47.2889 
G01 X-133.5360 Y47.1791 
G01 X-133.5032 Y47.0565 
G01 X-133.5032 Y44.3835 
G01 X-133.5360 Y44.2609 
G01 X-133.5995 Y44.1511 
G01 X-133.6892 Y44.0614 
G01 X-133.6956 Y44.0550 
G01 X-133.9200 Y43.5132 
G01 X-133.9200 Y42.9268 
G01 X-133.6956 Y42.3850 
G01 X-133.5995 Y42.2889 
G01 X-133.5360 Y42.1791 
G01 X-133.5032 Y42.0565 
G01 X-133.5032 Y35.1246 
G01 X-129.9754 Y31.5968 
G01 X-123.0435 Y31.5968 
G01 X-122.9792 Y31.5796 
G01 X-122.9209 Y31.5640 
G01 X-122.9111 Y31.5583 
G01 X-122.8111 Y31.5005 
G01 X-122.7214 Y31.4108 
G01 X-122.7150 Y31.4044 
G01 X-122.1732 Y31.1800 
G01 X-121.5868 Y31.1800 
G01 X-121.0450 Y31.4044 
G01 X-121.0386 Y31.4108 
G01 X-120.9489 Y31.5005 
G01 X-120.8507 Y31.5572 
G01 X-120.8391 Y31.5640 
G01 X-120.7836 Y31.5788 
G01 X-120.7165 Y31.5968 
G01 X-118.0435 Y31.5968 
G01 X-117.9792 Y31.5796 
G01 X-117.9209 Y31.5640 
G01 X-117.9111 Y31.5583 
G01 X-117.8111 Y31.5005 
G01 X-117.7214 Y31.4108 
G01 X-117.7150 Y31.4044 
G01 X-117.1732 Y31.1800 
G01 X-116.5868 Y31.1800 
G01 X-116.0450 Y31.4044 
G01 X-116.0386 Y31.4108 
G01 X-115.9489 Y31.5005 
G01 X-115.8507 Y31.5572 
G01 X-115.8391 Y31.5640 
G01 X-115.7836 Y31.5788 
G01 X-115.7165 Y31.5968 
G01 X-108.7846 Y31.5968 
G01 X-105.2568 Y35.1246 
G01 X-105.2568 Y42.0565 
G01 X-105.2261 Y42.1711 
G01 X-105.2240 Y42.1791 
G01 X-105.1998 Y42.2208 
G01 X-105.1605 Y42.2889 
G01 X-105.0708 Y42.3786 
G01 X-105.0644 Y42.3850 
G01 X-104.8400 Y42.9268 
G01 X-104.8400 Y43.5132 
G01 X-105.0644 Y44.0550 
G01 X-105.0708 Y44.0614 
G01 X-105.1605 Y44.1511 
G01 X-105.2172 Y44.2493 
G01 X-105.2240 Y44.2609 
G01 X-105.2388 Y44.3164 
G01 X-105.2568 Y44.3835 
G01 X-105.2568 Y47.0565 
G01 X-105.2396 Y47.1208 
G01 X-105.2240 Y47.1791 
G01 X-105.2183 Y47.1889 
G01 X-105.1605 Y47.2889 
G01 X-105.0708 Y47.3786 
G01 X-105.0644 Y47.3850 
G01 X-104.8400 Y47.9268 
G01 X-104.8400 Y48.5132 
G01 X-105.0644 Y49.0550 
G01 X-105.0708 Y49.0614 
G01 X-105.1605 Y49.1511 
G01 X-105.2172 Y49.2493 
G01 X-105.2240 Y49.2609 
G01 X-105.2388 Y49.3164 
G01 X-105.2568 Y49.3835 
G01 X-105.2568 Y57.2134 
G01 X-105.2240 Y57.3360 
G01 X-105.1605 Y57.4458 
G01 X-105.0708 Y57.5355 
G01 X-104.9610 Y57.5990 
G01 X-104.8384 Y57.6318 
G01 X-102.8066 Y57.6318 
G01 X-102.6840 Y57.5990 
G01 X-102.5742 Y57.5355 
G01 X-102.4845 Y57.4458 
G01 X-102.4210 Y57.3360 
G01 X-102.3882 Y57.2134 
G01 X-102.3882 Y57.0866 
G01 X-102.3882 Y53.6653 
G00 Z4.0000 
G00 X-137.8704 Y72.2841 
G01 Z0.0000 F9000.00 
G01 X-137.8704 Y72.4959 F3000.00 
G01 X-137.8373 Y72.7050 
G01 X-137.7718 Y72.9065 
G01 X-137.6757 Y73.0951 
G01 X-137.5512 Y73.2665 
G01 X-137.4015 Y73.4162 
G01 X-137.2301 Y73.5407 
G01 X-137.0415 Y73.6368 
G01 X-136.8400 Y73.7023 
G01 X-136.6309 Y73.7354 
G01 X-136.4191 Y73.7354 
G01 X-136.2100 Y73.7023 
G01 X-136.0085 Y73.6368 
G01 X-135.8199 Y73.5407 
G01 X-135.7071 Y73.4587 
G01 X-122.9714 Y73.3544 
G01 X-122.9714 Y73.3719 
G01 X-122.9445 Y73.5416 
G01 X-122.8914 Y73.7049 
G01 X-122.8134 Y73.8580 
G01 X-122.7125 Y73.9970 
G01 X-122.5910 Y74.1185 
G01 X-122.4520 Y74.2194 
G01 X-122.2990 Y74.2974 
G01 X-122.1356 Y74.3505 
G01 X-121.9659 Y74.3774 
G01 X-121.7941 Y74.3774 
G01 X-121.6244 Y74.3505 
G01 X-121.4610 Y74.2974 
G01 X-121.3080 Y74.2194 
G01 X-121.1690 Y74.1185 
G01 X-121.0475 Y73.9970 
G01 X-120.9466 Y73.8580 
G01 X-120.8686 Y73.7049 
G01 X-120.8155 Y73.5416 
G01 X-120.7886 Y73.3719 
G01 X-120.7886 Y71.1681 
G01 X-120.8155 Y70.9984 
G01 X-120.8686 Y70.8350 
G01 X-120.9466 Y70.6820 
G01 X-121.0475 Y70.5430 
G01 X-121.1690 Y70.4215 
G01 X-121.3080 Y70.3205 
G01 X-121.4610 Y70.2426 
G01 X-121.6244 Y70.1895 
G01 X-121.7941 Y70.1626 
G01 X-121.9659 Y70.1626 
G01 X-122.1356 Y70.1895 
G01 X-122.2990 Y70.2426 
G01 X-122.4520 Y70.3205 
G01 X-122.5910 Y70.4215 
G01 X-122.7125 Y70.5430 
G01 X-122.8134 Y70.6820 
G01 X-122.8914 Y70.8350 
G01 X-122.9445 Y70.9984 
G01 X-122.9714 Y71.1681 
G01 X-122.9714 Y71.2035 
G01 X-135.7253 Y71.3080 
G01 X-135.8199 Y71.2393 
G01 X-136.0085 Y71.1432 
G01 X-136.2100 Y71.0777 
G01 X-136.4191 Y71.0446 
G01 X-136.6309 Y71.0446 
G01 X-136.8400 Y71.0777 
G01 X-137.0415 Y71.1432 
G01 X-137.2301 Y71.2393 
G01 X-137.4015 Y71.3638 
G01 X-137.5512 Y71.5135 
G01 X-137.6757 Y71.6849 
G01 X-137.7718 Y71.8735 
G01 X-137.8373 Y72.0750 
G01 X-137.8704 Y72.2841 
G00 Z4.0000 
G00 X-105.6394 Y44.0789 
G01 Z0.0000 F9000.00 
G01 X-105.6030 Y44.0525 F3000.00 
G01 X-105.4815 Y43.9310 
G01 X-105.3805 Y43.7920 
G01 X-105.3026 Y43.6390 
G01 X-105.2495 Y43.4756 
G01 X-105.2226 Y43.3059 
G01 X-105.2226 Y43.1341 
G01 X-105.2495 Y42.9644 
G01 X-105.3026 Y42.8010 
G01 X-105.3805 Y42.6480 
G01 X-105.4815 Y42.5090 
G01 X-105.6030 Y42.3875 
G01 X-105.6394 Y42.3611 
G01 X-105.6394 Y41.2448 
G01 X-105.6625 Y41.1891 
G01 X-105.7051 Y41.1465 
G01 X-105.7608 Y41.1234 
G01 X-111.7902 Y41.1234 
G01 X-111.8459 Y41.1465 
G01 X-111.8885 Y41.1891 
G01 X-111.9116 Y41.2448 
G01 X-111.9116 Y45.1152 
G01 X-111.8885 Y45.1709 
G01 X-111.8459 Y45.2135 
G01 X-111.7902 Y45.2366 
G01 X-105.7608 Y45.2366 
G01 X-105.7051 Y45.2135 
G01 X-105.6625 Y45.1709 
G01 X-105.6394 Y45.1152 
G01 X-105.6394 Y45.0548 
G01 X-105.6394 Y44.0789 
G00 Z4.0000 
G00 X-94.0554 Y62.7591 
G01 Z0.0000 F9000.00 
G01 X-94.0554 Y62.9709 F3000.00 
G01 X-94.0223 Y63.1800 
G01 X-93.9568 Y63.3815 
G01 X-93.8607 Y63.5701 
G01 X-93.7362 Y63.7415 
G01 X-93.5865 Y63.8912 
G01 X-93.4151 Y64.0157 
G01 X-93.2265 Y64.1118 
G01 X-93.0250 Y64.1773 
G01 X-92.8159 Y64.2104 
G01 X-92.6041 Y64.2104 
G01 X-92.3950 Y64.1773 
G01 X-92.1935 Y64.1118 
G01 X-92.0049 Y64.0157 
G01 X-91.8335 Y63.8912 
G01 X-91.6838 Y63.7415 
G01 X-91.5593 Y63.5701 
G01 X-91.4632 Y63.3815 
G01 X-91.3977 Y63.1800 
G01 X-91.3646 Y62.9709 
G01 X-91.3646 Y62.7591 
G01 X-91.3977 Y62.5500 
G01 X-91.4632 Y62.3485 
G01 X-91.5593 Y62.1599 
G01 X-91.6413 Y62.0471 
G01 X-91.7456 Y49.3114 
G01 X-91.7281 Y49.3114 
G01 X-91.5584 Y49.2845 
G01 X-91.3950 Y49.2314 
G01 X-91.2420 Y49.1534 
G01 X-91.1030 Y49.0525 
G01 X-90.9815 Y48.9310 
G01 X-90.8805 Y48.7920 
G01 X-90.8026 Y48.6390 
G01 X-90.7495 Y48.4756 
G01 X-90.7226 Y48.3059 
G01 X-90.7226 Y48.1341 
G01 X-90.7495 Y47.9644 
G01 X-90.8026 Y47.8010 
G01 X-90.8805 Y47.6480 
G01 X-90.9815 Y47.5090 
G01 X-91.1030 Y47.3875 
G01 X-91.2420 Y47.2866 
G01 X-91.3950 Y47.2086 
G01 X-91.5584 Y47.1555 
G01 X-91.7281 Y47.1286 
G01 X-93.9319 Y47.1286 
G01 X-94.1016 Y47.1555 
G01 X-94.2649 Y47.2086 
G01 X-94.4180 Y47.2866 
G01 X-94.5570 Y47.3875 
G01 X-94.6785 Y47.5090 
G01 X-94.7794 Y47.6480 
G01 X-94.8574 Y47.8010 
G01 X-94.9105 Y47.9644 
G01 X-94.9374 Y48.1341 
G01 X-94.9374 Y48.3059 
G01 X-94.9105 Y48.4756 
G01 X-94.8574 Y48.6390 
G01 X-94.7794 Y48.7920 
G01 X-94.6785 Y48.9310 
G01 X-94.5570 Y49.0525 
G01 X-94.4180 Y49.1534 
G01 X-94.2649 Y49.2314 
G01 X-94.1016 Y49.2845 
G01 X-93.9319 Y49.3114 
G01 X-93.8965 Y49.3114 
G01 X-93.7920 Y62.0653 
G01 X-93.8607 Y62.1599 
G01 X-93.9568 Y62.3485 
G01 X-94.0223 Y62.5500 
G01 X-94.0554 Y62.7591 
G00 Z4.0000 
G00 X-94.0554 Y35.4541 
G01 Z0.0000 F9000.00 
G01 X-94.0554 Y35.6659 F3000.00 
G01 X-94.0223 Y35.8750 
G01 X-93.9568 Y36.0765 
G01 X-93.8607 Y36.2651 
G01 X-93.8208 Y36.3201 
G01 X-93.9016 Y38.1113 
G01 X-93.9054 Y38.1354 
G01 X-93.9054 Y38.1957 
G01 X-93.9081 Y38.2561 
G01 X-93.9054 Y38.2803 
G01 X-93.9054 Y42.1286 
G01 X-93.9319 Y42.1286 
G01 X-94.1016 Y42.1555 
G01 X-94.2649 Y42.2086 
G01 X-94.4180 Y42.2866 
G01 X-94.5570 Y42.3875 
G01 X-94.6785 Y42.5090 
G01 X-94.7794 Y42.6480 
G01 X-94.8574 Y42.8010 
G01 X-94.9105 Y42.9644 
G01 X-94.9374 Y43.1341 
G01 X-94.9374 Y43.3059 
G01 X-94.9105 Y43.4756 
G01 X-94.8574 Y43.6390 
G01 X-94.7794 Y43.7920 
G01 X-94.6785 Y43.9310 
G01 X-94.5570 Y44.0525 
G01 X-94.4180 Y44.1534 
G01 X-94.2649 Y44.2314 
G01 X-94.1016 Y44.2845 
G01 X-93.9319 Y44.3114 
G01 X-91.7281 Y44.3114 
G01 X-91.5584 Y44.2845 
G01 X-91.3950 Y44.2314 
G01 X-91.2420 Y44.1534 
G01 X-91.1030 Y44.0525 
G01 X-90.9815 Y43.9310 
G01 X-90.8805 Y43.7920 
G01 X-90.8026 Y43.6390 
G01 X-90.7495 Y43.4756 
G01 X-90.7226 Y43.3059 
G01 X-90.7226 Y43.1341 
G01 X-90.7495 Y42.9644 
G01 X-90.8026 Y42.8010 
G01 X-90.8805 Y42.6480 
G01 X-90.9815 Y42.5090 
G01 X-91.1030 Y42.3875 
G01 X-91.2420 Y42.2866 
G01 X-91.3950 Y42.2086 
G01 X-91.5584 Y42.1555 
G01 X-91.7281 Y42.1286 
G01 X-91.7546 Y42.1286 
G01 X-91.7546 Y38.2443 
G01 X-91.6723 Y36.4207 
G01 X-91.5593 Y36.2651 
G01 X-91.4632 Y36.0765 
G01 X-91.3977 Y35.8750 
G01 X-91.3646 Y35.6659 
G01 X-91.3646 Y35.4541 
G01 X-91.3977 Y35.2450 
G01 X-91.4632 Y35.0435 
G01 X-91.5593 Y34.8549 
G01 X-91.6838 Y34.6835 
G01 X-91.8335 Y34.5338 
G01 X-92.0049 Y34.4093 
G01 X-92.1935 Y34.3132 
G01 X-92.3950 Y34.2477 
G01 X-92.6041 Y34.2146 
G01 X-92.8159 Y34.2146 
G01 X-93.0250 Y34.2477 
G01 X-93.2265 Y34.3132 
G01 X-93.4151 Y34.4093 
G01 X-93.5865 Y34.5338 
G01 X-93.7362 Y34.6835 
G01 X-93.8607 Y34.8549 
G01 X-93.9568 Y35.0435 
G01 X-94.0223 Y35.2450 
G01 X-94.0554 Y35.4541 
G00 Z4.0000 
G00 X-133.1206 Y47.3611 
G01 Z0.0000 F9000.00 
G01 X-133.1570 Y47.3875 F3000.00 
G01 X-133.2785 Y47.5090 
G01 X-133.3794 Y47.6480 
G01 X-133.4574 Y47.8010 
G01 X-133.5105 Y47.9644 
G01 X-133.5374 Y48.1341 
G01 X-133.5374 Y48.3059 
G01 X-133.5105 Y48.4756 
G01 X-133.4574 Y48.6390 
G01 X-133.3794 Y48.7920 
G01 X-133.2785 Y48.9310 
G01 X-133.1570 Y49.0525 
G01 X-133.1206 Y49.0789 
G01 X-133.1206 Y50.1952 
G01 X-133.0975 Y50.2509 
G01 X-133.0549 Y50.2935 
G01 X-132.9992 Y50.3166 
G01 X-126.9698 Y50.3166 
G01 X-126.9141 Y50.2935 
G01 X-126.8715 Y50.2509 
G01 X-126.8484 Y50.1952 
G01 X-126.8484 Y46.3248 
G01 X-126.8715 Y46.2691 
G01 X-126.9141 Y46.2265 
G01 X-126.9698 Y46.2034 
G01 X-132.9992 Y46.2034 
G01 X-133.0549 Y46.2265 
G01 X-133.0975 Y46.2691 
G01 X-133.1206 Y46.3248 
G01 X-133.1206 Y46.3852 
G01 X-133.1206 Y47.3611 
G00 Z4.0000 
G00 X-147.3954 Y55.7741 
G01 Z0.0000 F9000.00 
G01 X-147.3954 Y55.9859 F3000.00 
G01 X-147.3623 Y56.1950 
G01 X-147.2968 Y56.3965 
G01 X-147.2007 Y56.5851 
G01 X-147.0762 Y56.7565 
G01 X-146.9265 Y56.9062 
G01 X-146.7551 Y57.0307 
G01 X-146.5665 Y57.1268 
G01 X-146.3650 Y57.1923 
G01 X-146.1559 Y57.2254 
G01 X-145.9441 Y57.2254 
G01 X-145.7349 Y57.1923 
G01 X-145.5335 Y57.1268 
G01 X-145.3449 Y57.0307 
G01 X-145.1735 Y56.9062 
G01 X-145.0238 Y56.7565 
G01 X-144.8993 Y56.5851 
G01 X-144.8032 Y56.3965 
G01 X-144.7377 Y56.1950 
G01 X-144.7046 Y55.9859 
G01 X-144.7046 Y55.7741 
G01 X-144.7377 Y55.5650 
G01 X-144.8032 Y55.3635 
G01 X-144.8993 Y55.1749 
G01 X-144.9746 Y55.0712 
G01 X-144.9746 Y49.3114 
G01 X-144.8281 Y49.3114 
G01 X-144.6584 Y49.2845 
G01 X-144.4950 Y49.2314 
G01 X-144.3420 Y49.1534 
G01 X-144.2030 Y49.0525 
G01 X-144.0815 Y48.9310 
G01 X-143.9805 Y48.7920 
G01 X-143.9026 Y48.6390 
G01 X-143.8495 Y48.4756 
G01 X-143.8226 Y48.3059 
G01 X-143.8226 Y48.1341 
G01 X-143.8495 Y47.9644 
G01 X-143.9026 Y47.8010 
G01 X-143.9805 Y47.6480 
G01 X-144.0815 Y47.5090 
G01 X-144.2030 Y47.3875 
G01 X-144.3420 Y47.2866 
G01 X-144.4950 Y47.2086 
G01 X-144.6584 Y47.1555 
G01 X-144.8281 Y47.1286 
G01 X-147.0319 Y47.1286 
G01 X-147.2016 Y47.1555 
G01 X-147.3649 Y47.2086 
G01 X-147.5180 Y47.2866 
G01 X-147.6570 Y47.3875 
G01 X-147.7785 Y47.5090 
G01 X-147.8794 Y47.6480 
G01 X-147.9574 Y47.8010 
G01 X-148.0105 Y47.9644 
G01 X-148.0374 Y48.1341 
G01 X-148.0374 Y48.3059 
G01 X-148.0105 Y48.4756 
G01 X-147.9574 Y48.6390 
G01 X-147.8794 Y48.7920 
G01 X-147.7785 Y48.9310 
G01 X-147.6570 Y49.0525 
G01 X-147.5180 Y49.1534 
G01 X-147.3649 Y49.2314 
G01 X-147.2016 Y49.2845 
G01 X-147.1254 Y49.2966 
G01 X-147.1254 Y55.0712 
G01 X-147.2007 Y55.1749 
G01 X-147.2968 Y55.3635 
G01 X-147.3623 Y55.5650 
G01 X-147.3954 Y55.7741 
G00 Z4.0000 
G00 X-34.1257 Y81.8420 
G01 Z0.0000 F9000.00 
G01 X-34.1228 Y81.8313 F3000.00 
G01 X-34.1257 Y81.8096 
G01 X-34.1257 Y81.7877 
G01 X-34.1299 Y81.7775 
G01 X-34.1314 Y81.7665 
G01 X-34.1423 Y81.7476 
G01 X-34.1507 Y81.7273 
G01 X-34.1585 Y81.7195 
G01 X-34.4902 Y81.1450 
G01 X-34.6906 Y80.3971 
G01 X-34.6906 Y79.6229 
G01 X-34.4902 Y78.8750 
G01 X-34.1585 Y78.3005 
G01 X-34.1507 Y78.2927 
G01 X-34.1423 Y78.2724 
G01 X-34.1314 Y78.2535 
G01 X-34.1299 Y78.2425 
G01 X-34.1257 Y78.2323 
G01 X-34.1257 Y78.2104 
G01 X-34.1228 Y78.1887 
G01 X-34.1257 Y78.1780 
G01 X-34.1257 Y73.6273 
G01 X-34.1507 Y73.5669 
G01 X-34.1969 Y73.5207 
G01 X-34.2215 Y73.5105 
G01 X-34.2477 Y73.3449 
G01 X-34.3132 Y73.1435 
G01 X-34.4093 Y72.9549 
G01 X-34.5338 Y72.7835 
G01 X-34.6835 Y72.6338 
G01 X-34.8549 Y72.5093 
G01 X-35.0435 Y72.4132 
G01 X-35.2450 Y72.3477 
G01 X-35.4541 Y72.3146 
G01 X-35.6659 Y72.3146 
G01 X-35.8750 Y72.3477 
G01 X-36.0765 Y72.4132 
G01 X-36.2651 Y72.5093 
G01 X-36.4365 Y72.6338 
G01 X-36.5862 Y72.7835 
G01 X-36.7107 Y72.9549 
G01 X-36.8068 Y73.1435 
G01 X-36.8723 Y73.3449 
G01 X-36.8985 Y73.5105 
G01 X-36.9231 Y73.5207 
G01 X-36.9693 Y73.5669 
G01 X-36.9943 Y73.6273 
G01 X-36.9943 Y85.1227 
G01 X-36.9693 Y85.1831 
G01 X-36.9231 Y85.2293 
G01 X-35.8756 Y86.2767 
G01 X-35.7821 Y86.3986 
G01 X-35.5986 Y86.5821 
G01 X-35.3926 Y86.7402 
G01 X-35.1678 Y86.8700 
G01 X-34.9279 Y86.9693 
G01 X-34.6772 Y87.0365 
G01 X-34.4198 Y87.0704 
G01 X-34.1602 Y87.0704 
G01 X-33.9028 Y87.0365 
G01 X-33.6521 Y86.9693 
G01 X-33.4122 Y86.8700 
G01 X-33.1874 Y86.7402 
G01 X-32.9814 Y86.5821 
G01 X-32.7979 Y86.3986 
G01 X-32.6398 Y86.1926 
G01 X-32.5100 Y85.9678 
G01 X-32.4107 Y85.7279 
G01 X-32.3435 Y85.4772 
G01 X-32.3096 Y85.2198 
G01 X-32.3096 Y84.9602 
G01 X-32.3435 Y84.7028 
G01 X-32.4107 Y84.4521 
G01 X-32.5100 Y84.2122 
G01 X-32.6398 Y83.9874 
G01 X-32.7979 Y83.7814 
G01 X-32.9814 Y83.5979 
G01 X-33.1033 Y83.5044 
G01 X-34.1257 Y82.4819 
G01 X-34.1257 Y81.8420 
G00 Z4.0000 
G00 X-26.5946 Y76.3059 
G01 Z0.0000 F9000.00 
G01 X-26.5946 Y73.5541 F3000.00 
G01 X-26.6277 Y73.3449 
G01 X-26.6932 Y73.1435 
G01 X-26.7893 Y72.9549 
G01 X-26.8994 Y72.8033 
G01 X-26.8994 Y68.5225 
G01 X-26.9218 Y68.4098 
G01 X-26.9658 Y68.3037 
G01 X-27.0296 Y68.2081 
G01 X-27.1109 Y68.1268 
G01 X-27.2065 Y68.0630 
G01 X-27.3126 Y68.0190 
G01 X-27.4253 Y67.9966 
G01 X-33.0315 Y67.9966 
G01 X-33.0698 Y67.9941 
G01 X-33.0889 Y67.9966 
G01 X-33.1081 Y67.9966 
G01 X-33.1457 Y68.0041 
G01 X-33.1837 Y68.0091 
G01 X-33.2019 Y68.0153 
G01 X-33.2208 Y68.0190 
G01 X-33.2562 Y68.0337 
G01 X-33.2925 Y68.0460 
G01 X-33.3092 Y68.0556 
G01 X-33.3270 Y68.0630 
G01 X-33.3588 Y68.0843 
G01 X-33.4269 Y68.1236 
G01 X-33.9956 Y68.2760 
G01 X-34.5844 Y68.2760 
G01 X-35.1531 Y68.1236 
G01 X-35.2211 Y68.0843 
G01 X-35.2530 Y68.0630 
G01 X-35.2708 Y68.0556 
G01 X-35.2874 Y68.0460 
G01 X-35.3237 Y68.0337 
G01 X-35.3592 Y68.0190 
G01 X-35.3781 Y68.0153 
G01 X-35.3963 Y68.0091 
G01 X-35.4343 Y68.0041 
G01 X-35.4719 Y67.9966 
G01 X-35.4912 Y67.9966 
G01 X-35.5102 Y67.9941 
G01 X-35.5485 Y67.9966 
G01 X-41.7897 Y67.9966 
G01 X-41.9024 Y68.0190 
G01 X-42.0085 Y68.0630 
G01 X-42.1041 Y68.1268 
G01 X-42.1854 Y68.2081 
G01 X-42.2492 Y68.3037 
G01 X-42.2932 Y68.4098 
G01 X-42.3156 Y68.5225 
G01 X-42.3156 Y71.1775 
G01 X-42.2932 Y71.2902 
G01 X-42.2492 Y71.3963 
G01 X-42.1854 Y71.4919 
G01 X-42.1041 Y71.5732 
G01 X-42.0085 Y71.6370 
G01 X-41.9024 Y71.6810 
G01 X-41.7897 Y71.7034 
G01 X-29.7934 Y71.7034 
G01 X-29.7934 Y76.2575 
G01 X-29.7710 Y76.3702 
G01 X-29.7270 Y76.4763 
G01 X-29.6632 Y76.5719 
G01 X-29.5819 Y76.6532 
G01 X-29.4863 Y76.7170 
G01 X-29.3802 Y76.7610 
G01 X-29.2675 Y76.7834 
G01 X-29.1527 Y76.7834 
G01 X-29.0907 Y76.9051 
G01 X-28.9662 Y77.0765 
G01 X-28.8165 Y77.2262 
G01 X-28.6451 Y77.3507 
G01 X-28.4565 Y77.4468 
G01 X-28.2550 Y77.5123 
G01 X-28.0459 Y77.5454 
G01 X-27.8341 Y77.5454 
G01 X-27.6250 Y77.5123 
G01 X-27.4235 Y77.4468 
G01 X-27.2349 Y77.3507 
G01 X-27.0635 Y77.2262 
G01 X-26.9138 Y77.0765 
G01 X-26.7893 Y76.9051 
G01 X-26.6932 Y76.7165 
G01 X-26.6277 Y76.5150 
G01 X-26.5946 Y76.3059 
G00 Z4.0000 
G00 X-64.6946 Y57.2559 
G01 Z0.0000 F9000.00 
G01 X-64.6946 Y54.5041 F3000.00 
G01 X-64.7277 Y54.2950 
G01 X-64.7932 Y54.0935 
G01 X-64.8893 Y53.9049 
G01 X-64.9646 Y53.8012 
G01 X-64.9646 Y50.7154 
G01 X-64.9911 Y50.5482 
G01 X-64.9994 Y50.5226 
G01 X-64.9994 Y49.4725 
G01 X-65.0218 Y49.3598 
G01 X-65.0658 Y49.2537 
G01 X-65.1296 Y49.1581 
G01 X-65.2109 Y49.0768 
G01 X-65.3065 Y49.0130 
G01 X-65.4126 Y48.9690 
G01 X-65.5253 Y48.9466 
G01 X-71.1443 Y48.9466 
G01 X-71.1826 Y48.9441 
G01 X-71.2017 Y48.9466 
G01 X-71.2209 Y48.9466 
G01 X-71.2585 Y48.9541 
G01 X-71.2965 Y48.9591 
G01 X-71.3147 Y48.9653 
G01 X-71.3336 Y48.9690 
G01 X-71.3690 Y48.9837 
G01 X-71.4053 Y48.9960 
G01 X-71.4220 Y49.0056 
G01 X-71.4398 Y49.0130 
G01 X-71.4716 Y49.0343 
G01 X-71.5294 Y49.0677 
G01 X-72.0965 Y49.2196 
G01 X-72.6835 Y49.2196 
G01 X-73.2506 Y49.0677 
G01 X-73.3084 Y49.0343 
G01 X-73.3402 Y49.0130 
G01 X-73.3580 Y49.0056 
G01 X-73.3746 Y48.9960 
G01 X-73.4110 Y48.9837 
G01 X-73.4464 Y48.9690 
G01 X-73.4653 Y48.9653 
G01 X-73.4835 Y48.9591 
G01 X-73.5215 Y48.9541 
G01 X-73.5591 Y48.9466 
G01 X-73.5783 Y48.9466 
G01 X-73.5974 Y48.9441 
G01 X-73.6357 Y48.9466 
G01 X-77.5275 Y48.9466 
G01 X-77.6402 Y48.9690 
G01 X-77.7463 Y49.0130 
G01 X-77.8419 Y49.0768 
G01 X-77.9232 Y49.1581 
G01 X-77.9870 Y49.2537 
G01 X-78.0310 Y49.3598 
G01 X-78.0534 Y49.4725 
G01 X-78.0534 Y49.7246 
G01 X-80.8346 Y49.7246 
G01 X-85.5397 Y45.0194 
G01 X-85.6594 Y44.8997 
G01 X-85.7964 Y44.8002 
G01 X-85.9472 Y44.7234 
G01 X-86.1082 Y44.6711 
G01 X-86.2754 Y44.6446 
G01 X-91.6271 Y44.6446 
G01 X-91.7281 Y44.6286 
G01 X-93.9319 Y44.6286 
G01 X-94.1016 Y44.6555 
G01 X-94.2649 Y44.7086 
G01 X-94.4180 Y44.7866 
G01 X-94.5570 Y44.8875 
G01 X-94.6785 Y45.0090 
G01 X-94.7794 Y45.1480 
G01 X-94.8574 Y45.3010 
G01 X-94.9105 Y45.4644 
G01 X-94.9374 Y45.6341 
G01 X-94.9374 Y45.8059 
G01 X-94.9105 Y45.9756 
G01 X-94.8574 Y46.1390 
G01 X-94.7794 Y46.2920 
G01 X-94.6785 Y46.4310 
G01 X-94.5570 Y46.5525 
G01 X-94.4180 Y46.6534 
G01 X-94.2649 Y46.7314 
G01 X-94.1016 Y46.7845 
G01 X-93.9319 Y46.8114 
G01 X-91.7281 Y46.8114 
G01 X-91.6271 Y46.7954 
G01 X-86.8054 Y46.7954 
G01 X-82.1003 Y51.5006 
G01 X-81.9806 Y51.6203 
G01 X-81.8436 Y51.7198 
G01 X-81.6928 Y51.7966 
G01 X-81.5318 Y51.8489 
G01 X-81.3646 Y51.8754 
G01 X-78.0534 Y51.8754 
G01 X-78.0534 Y52.1275 
G01 X-78.0310 Y52.2402 
G01 X-77.9870 Y52.3463 
G01 X-77.9232 Y52.4419 
G01 X-77.8419 Y52.5232 
G01 X-77.7463 Y52.5870 
G01 X-77.6402 Y52.6310 
G01 X-77.5275 Y52.6534 
G01 X-67.8934 Y52.6534 
G01 X-67.8934 Y57.2075 
G01 X-67.8710 Y57.3202 
G01 X-67.8270 Y57.4263 
G01 X-67.7632 Y57.5219 
G01 X-67.6819 Y57.6032 
G01 X-67.5863 Y57.6670 
G01 X-67.4802 Y57.7110 
G01 X-67.3675 Y57.7334 
G01 X-67.2527 Y57.7334 
G01 X-67.1907 Y57.8551 
G01 X-67.0662 Y58.0265 
G01 X-66.9165 Y58.1762 
G01 X-66.7451 Y58.3007 
G01 X-66.5565 Y58.3968 
G01 X-66.3550 Y58.4623 
G01 X-66.1459 Y58.4954 
G01 X-65.9341 Y58.4954 
G01 X-65.7250 Y58.4623 
G01 X-65.5235 Y58.3968 
G01 X-65.3349 Y58.3007 
G01 X-65.1635 Y58.1762 
G01 X-65.0138 Y58.0265 
G01 X-64.8893 Y57.8551 
G01 X-64.7932 Y57.6665 
G01 X-64.7277 Y57.4650 
G01 X-64.6946 Y57.2559 
G00 Z4.0000 
G00 X-72.3477 Y54.2950 
G01 Z0.0000 F9000.00 
G01 X-72.4132 Y54.0935 F3000.00 
G01 X-72.5093 Y53.9049 
G01 X-72.6338 Y53.7335 
G01 X-72.7835 Y53.5838 
G01 X-72.9549 Y53.4593 
G01 X-73.1435 Y53.3632 
G01 X-73.3449 Y53.2977 
G01 X-73.5541 Y53.2646 
G01 X-73.7659 Y53.2646 
G01 X-73.9750 Y53.2977 
G01 X-74.1765 Y53.3632 
G01 X-74.3651 Y53.4593 
G01 X-74.5365 Y53.5838 
G01 X-74.6862 Y53.7335 
G01 X-74.8107 Y53.9049 
G01 X-74.9068 Y54.0935 
G01 X-74.9723 Y54.2950 
G01 X-74.9985 Y54.4605 
G01 X-75.0231 Y54.4707 
G01 X-75.0693 Y54.5169 
G01 X-75.0943 Y54.5773 
G01 X-75.0943 Y66.0727 
G01 X-75.0693 Y66.1331 
G01 X-75.0231 Y66.1793 
G01 X-73.9756 Y67.2267 
G01 X-73.8821 Y67.3486 
G01 X-73.6986 Y67.5321 
G01 X-73.4926 Y67.6902 
G01 X-73.2678 Y67.8200 
G01 X-73.0279 Y67.9193 
G01 X-72.7772 Y67.9865 
G01 X-72.5198 Y68.0204 
G01 X-72.2602 Y68.0204 
G01 X-72.0028 Y67.9865 
G01 X-71.7521 Y67.9193 
G01 X-71.5122 Y67.8200 
G01 X-71.2874 Y67.6902 
G01 X-71.0814 Y67.5321 
G01 X-70.8979 Y67.3486 
G01 X-70.7398 Y67.1426 
G01 X-70.6100 Y66.9178 
G01 X-70.5107 Y66.6779 
G01 X-70.4435 Y66.4272 
G01 X-70.4096 Y66.1698 
G01 X-70.4096 Y65.9102 
G01 X-70.4435 Y65.6528 
G01 X-70.5107 Y65.4021 
G01 X-70.6100 Y65.1622 
G01 X-70.7398 Y64.9374 
G01 X-70.8979 Y64.7314 
G01 X-71.0814 Y64.5479 
G01 X-71.2033 Y64.4544 
G01 X-72.2257 Y63.4319 
G01 X-72.2257 Y62.7920 
G01 X-72.2228 Y62.7813 
G01 X-72.2257 Y62.7596 
G01 X-72.2257 Y62.7377 
G01 X-72.2299 Y62.7275 
G01 X-72.2314 Y62.7165 
G01 X-72.2423 Y62.6976 
G01 X-72.2507 Y62.6773 
G01 X-72.2585 Y62.6695 
G01 X-72.5902 Y62.0950 
G01 X-72.7906 Y61.3471 
G01 X-72.7906 Y60.5729 
G01 X-72.5902 Y59.8250 
G01 X-72.2585 Y59.2505 
G01 X-72.2507 Y59.2427 
G01 X-72.2423 Y59.2224 
G01 X-72.2314 Y59.2035 
G01 X-72.2299 Y59.1925 
G01 X-72.2257 Y59.1823 
G01 X-72.2257 Y59.1604 
G01 X-72.2228 Y59.1387 
G01 X-72.2257 Y59.1280 
G01 X-72.2257 Y54.5773 
G01 X-72.2507 Y54.5169 
G01 X-72.2969 Y54.4707 
G01 X-72.3215 Y54.4605 
G01 X-72.3477 Y54.2950 
G00 Z4.0000 
G00 X-28.8666 Y46.2018 
G01 Z0.0000 F9000.00 
G01 X-28.8178 Y46.2300 F3000.00 
G01 X-28.5779 Y46.3293 
G01 X-28.3272 Y46.3965 
G01 X-28.0698 Y46.4304 
G01 X-27.8102 Y46.4304 
G01 X-27.5528 Y46.3965 
G01 X-27.3021 Y46.3293 
G01 X-27.0622 Y46.2300 
G01 X-27.0134 Y46.2018 
G01 X-26.5168 Y46.2018 
G01 X-26.5168 Y53.4030 
G01 X-26.5210 Y53.4346 
G01 X-26.5168 Y53.4662 
G01 X-26.5168 Y53.4980 
G01 X-26.5085 Y53.5288 
G01 X-26.5044 Y53.5604 
G01 X-26.4922 Y53.5898 
G01 X-26.4840 Y53.6206 
G01 X-26.4680 Y53.6482 
G01 X-26.2120 Y54.2663 
G01 X-26.2120 Y57.4937 
G01 X-26.4680 Y58.1118 
G01 X-26.4840 Y58.1394 
G01 X-26.4922 Y58.1702 
G01 X-26.5044 Y58.1996 
G01 X-26.5085 Y58.2312 
G01 X-26.5168 Y58.2620 
G01 X-26.5168 Y58.2938 
G01 X-26.5210 Y58.3254 
G01 X-26.5168 Y58.3570 
G01 X-26.5168 Y61.7482 
G01 X-27.0134 Y61.7482 
G01 X-27.0622 Y61.7200 
G01 X-27.3021 Y61.6207 
G01 X-27.5528 Y61.5535 
G01 X-27.8102 Y61.5196 
G01 X-28.0698 Y61.5196 
G01 X-28.3272 Y61.5535 
G01 X-28.5779 Y61.6207 
G01 X-28.8178 Y61.7200 
G01 X-29.0426 Y61.8498 
G01 X-29.2486 Y62.0079 
G01 X-29.4321 Y62.1914 
G01 X-29.5902 Y62.3974 
G01 X-29.7200 Y62.6222 
G01 X-29.8193 Y62.8621 
G01 X-29.8865 Y63.1128 
G01 X-29.9081 Y63.2767 
G01 X-29.9444 Y63.3131 
G01 X-30.1075 Y63.4072 
G01 X-30.1408 Y63.4265 
G01 X-30.2291 Y63.5148 
G01 X-30.2470 Y63.5447 
G01 X-30.2940 Y63.6260 
G01 X-30.3268 Y63.7486 
G01 X-30.3268 Y64.8334 
G01 X-30.2940 Y64.9560 
G01 X-30.2305 Y65.0658 
G01 X-30.1408 Y65.1555 
G01 X-30.0310 Y65.2190 
G01 X-29.9084 Y65.2518 
G01 X-28.8666 Y65.2518 
G01 X-28.8178 Y65.2800 
G01 X-28.5779 Y65.3793 
G01 X-28.3272 Y65.4465 
G01 X-28.0698 Y65.4804 
G01 X-27.8102 Y65.4804 
G01 X-27.5528 Y65.4465 
G01 X-27.3021 Y65.3793 
G01 X-27.0622 Y65.2800 
G01 X-27.0134 Y65.2518 
G01 X-26.5168 Y65.2518 
G01 X-26.5168 Y72.4530 
G01 X-26.5210 Y72.4846 
G01 X-26.5168 Y72.5162 
G01 X-26.5168 Y72.5480 
G01 X-26.5086 Y72.5788 
G01 X-26.5044 Y72.6104 
G01 X-26.4922 Y72.6398 
G01 X-26.4840 Y72.6706 
G01 X-26.4680 Y72.6981 
G01 X-26.2120 Y73.3163 
G01 X-26.2120 Y76.5437 
G01 X-26.4680 Y77.1619 
G01 X-26.4840 Y77.1894 
G01 X-26.4922 Y77.2202 
G01 X-26.5044 Y77.2496 
G01 X-26.5086 Y77.2812 
G01 X-26.5168 Y77.3120 
G01 X-26.5168 Y77.3438 
G01 X-26.5210 Y77.3754 
G01 X-26.5168 Y77.4070 
G01 X-26.5168 Y80.7982 
G01 X-27.0134 Y80.7982 
G01 X-27.0622 Y80.7700 
G01 X-27.3021 Y80.6707 
G01 X-27.5528 Y80.6035 
G01 X-27.8102 Y80.5696 
G01 X-28.0698 Y80.5696 
G01 X-28.3272 Y80.6035 
G01 X-28.5779 Y80.6707 
G01 X-28.8178 Y80.7700 
G01 X-29.0426 Y80.8998 
G01 X-29.2486 Y81.0579 
G01 X-29.4321 Y81.2414 
G01 X-29.5902 Y81.4474 
G01 X-29.7200 Y81.6722 
G01 X-29.8193 Y81.9121 
G01 X-29.8865 Y82.1628 
G01 X-29.9081 Y82.3267 
G01 X-29.9444 Y82.3631 
G01 X-30.1075 Y82.4572 
G01 X-30.1408 Y82.4765 
G01 X-30.2291 Y82.5648 
G01 X-30.2470 Y82.5947 
G01 X-30.2940 Y82.6760 
G01 X-30.3268 Y82.7986 
G01 X-30.3268 Y83.8834 
G01 X-30.2940 Y84.0060 
G01 X-30.2600 Y84.0647 
G01 X-30.2589 Y84.0718 
G01 X-30.2066 Y84.2328 
G01 X-30.1298 Y84.3836 
G01 X-30.0303 Y84.5206 
G01 X-29.9106 Y84.6403 
G01 X-29.7934 Y84.7254 
G01 X-29.7934 Y100.6946 
G01 X-29.9106 Y100.7797 
G01 X-30.0303 Y100.8994 
G01 X-30.1298 Y101.0364 
G01 X-30.2066 Y101.1872 
G01 X-30.2589 Y101.3482 
G01 X-30.2854 Y101.5154 
G01 X-30.2854 Y101.6846 
G01 X-30.2589 Y101.8518 
G01 X-30.2066 Y102.0128 
G01 X-30.1298 Y102.1636 
G01 X-30.0303 Y102.3006 
G01 X-29.9106 Y102.4203 
G01 X-29.7736 Y102.5198 
G01 X-29.6228 Y102.5966 
G01 X-29.4618 Y102.6489 
G01 X-29.2946 Y102.6754 
G01 X-26.6029 Y102.6754 
G01 X-26.5019 Y102.6914 
G01 X-24.2981 Y102.6914 
G01 X-24.1284 Y102.6645 
G01 X-23.9650 Y102.6114 
G01 X-23.8120 Y102.5334 
G01 X-23.6730 Y102.4325 
G01 X-23.5515 Y102.3110 
G01 X-23.4505 Y102.1720 
G01 X-23.3726 Y102.0190 
G01 X-23.3195 Y101.8556 
G01 X-23.2926 Y101.6859 
G01 X-23.2926 Y101.5141 
G01 X-23.3195 Y101.3444 
G01 X-23.3726 Y101.1810 
G01 X-23.4505 Y101.0280 
G01 X-23.5515 Y100.8890 
G01 X-23.6730 Y100.7675 
G01 X-23.8120 Y100.6666 
G01 X-23.9650 Y100.5886 
G01 X-24.1284 Y100.5355 
G01 X-24.2981 Y100.5086 
G01 X-26.5019 Y100.5086 
G01 X-26.6029 Y100.5246 
G01 X-28.6266 Y100.5246 
G01 X-28.6266 Y84.7254 
G01 X-28.5094 Y84.6403 
G01 X-28.3575 Y84.4884 
G01 X-28.3272 Y84.4965 
G01 X-28.0698 Y84.5304 
G01 X-27.8102 Y84.5304 
G01 X-27.5528 Y84.4965 
G01 X-27.3021 Y84.4293 
G01 X-27.0622 Y84.3300 
G01 X-27.0134 Y84.3018 
G01 X-24.0666 Y84.3018 
G01 X-23.9440 Y84.2690 
G01 X-23.8342 Y84.2055 
G01 X-23.7445 Y84.1158 
G01 X-23.6810 Y84.0060 
G01 X-23.6482 Y83.8834 
G01 X-23.6482 Y24.0666 
G01 X-23.6810 Y23.9440 
G01 X-23.7445 Y23.8342 
G01 X-23.8342 Y23.7445 
G01 X-23.9440 Y23.6810 
G01 X-24.0666 Y23.6482 
G01 X-27.0134 Y23.6482 
G01 X-27.0622 Y23.6200 
G01 X-27.3021 Y23.5207 
G01 X-27.5528 Y23.4535 
G01 X-27.8102 Y23.4196 
G01 X-28.0698 Y23.4196 
G01 X-28.3272 Y23.4535 
G01 X-28.5779 Y23.5207 
G01 X-28.8178 Y23.6200 
G01 X-29.0426 Y23.7498 
G01 X-29.2486 Y23.9079 
G01 X-29.4321 Y24.0914 
G01 X-29.5902 Y24.2974 
G01 X-29.7200 Y24.5222 
G01 X-29.8193 Y24.7621 
G01 X-29.8865 Y25.0128 
G01 X-29.9081 Y25.1767 
G01 X-29.9444 Y25.2131 
G01 X-30.1075 Y25.3072 
G01 X-30.1408 Y25.3265 
G01 X-30.2291 Y25.4148 
G01 X-30.2470 Y25.4447 
G01 X-30.2940 Y25.5260 
G01 X-30.3268 Y25.6486 
G01 X-30.3268 Y26.7334 
G01 X-30.2940 Y26.8560 
G01 X-30.2305 Y26.9658 
G01 X-30.1408 Y27.0555 
G01 X-30.0310 Y27.1190 
G01 X-29.9084 Y27.1518 
G01 X-28.8666 Y27.1518 
G01 X-28.8178 Y27.1800 
G01 X-28.5779 Y27.2793 
G01 X-28.3272 Y27.3465 
G01 X-28.0698 Y27.3804 
G01 X-27.8102 Y27.3804 
G01 X-27.5528 Y27.3465 
G01 X-27.3021 Y27.2793 
G01 X-27.0622 Y27.1800 
G01 X-27.0134 Y27.1518 
G01 X-26.5168 Y27.1518 
G01 X-26.5168 Y34.3530 
G01 X-26.5210 Y34.3846 
G01 X-26.5168 Y34.4162 
G01 X-26.5168 Y34.4480 
G01 X-26.5085 Y34.4788 
G01 X-26.5044 Y34.5104 
G01 X-26.4922 Y34.5398 
G01 X-26.4840 Y34.5706 
G01 X-26.4680 Y34.5982 
G01 X-26.2120 Y35.2163 
G01 X-26.2120 Y38.4437 
G01 X-26.4680 Y39.0618 
G01 X-26.4840 Y39.0894 
G01 X-26.4922 Y39.1202 
G01 X-26.5044 Y39.1496 
G01 X-26.5085 Y39.1812 
G01 X-26.5168 Y39.2120 
G01 X-26.5168 Y39.2438 
G01 X-26.5210 Y39.2754 
G01 X-26.5168 Y39.3070 
G01 X-26.5168 Y42.6982 
G01 X-27.0134 Y42.6982 
G01 X-27.0622 Y42.6700 
G01 X-27.3021 Y42.5707 
G01 X-27.5528 Y42.5035 
G01 X-27.8102 Y42.4696 
G01 X-28.0698 Y42.4696 
G01 X-28.3272 Y42.5035 
G01 X-28.5779 Y42.5707 
G01 X-28.8178 Y42.6700 
G01 X-29.0426 Y42.7998 
G01 X-29.2486 Y42.9579 
G01 X-29.4321 Y43.1414 
G01 X-29.5902 Y43.3474 
G01 X-29.7200 Y43.5722 
G01 X-29.8193 Y43.8121 
G01 X-29.8865 Y44.0628 
G01 X-29.9081 Y44.2267 
G01 X-29.9444 Y44.2631 
G01 X-30.1075 Y44.3572 
G01 X-30.1408 Y44.3765 
G01 X-30.2291 Y44.4648 
G01 X-30.2470 Y44.4947 
G01 X-30.2940 Y44.5760 
G01 X-30.3268 Y44.6986 
G01 X-30.3268 Y45.7834 
G01 X-30.2940 Y45.9060 
G01 X-30.2305 Y46.0158 
G01 X-30.1408 Y46.1055 
G01 X-30.0310 Y46.1690 
G01 X-29.9084 Y46.2018 
G01 X-29.7816 Y46.2018 
G01 X-28.8666 Y46.2018 
G00 Z4.0000 
G00 X-34.1257 Y43.7420 
G01 Z0.0000 F9000.00 
G01 X-34.1228 Y43.7313 F3000.00 
G01 X-34.1257 Y43.7096 
G01 X-34.1257 Y43.6877 
G01 X-34.1299 Y43.6775 
G01 X-34.1314 Y43.6665 
G01 X-34.1423 Y43.6476 
G01 X-34.1507 Y43.6273 
G01 X-34.1585 Y43.6195 
G01 X-34.4902 Y43.0450 
G01 X-34.6906 Y42.2971 
G01 X-34.6906 Y41.5229 
G01 X-34.4902 Y40.7750 
G01 X-34.1585 Y40.2005 
G01 X-34.1507 Y40.1927 
G01 X-34.1423 Y40.1724 
G01 X-34.1314 Y40.1535 
G01 X-34.1299 Y40.1425 
G01 X-34.1257 Y40.1323 
G01 X-34.1257 Y40.1104 
G01 X-34.1228 Y40.0887 
G01 X-34.1257 Y40.0780 
G01 X-34.1257 Y35.5273 
G01 X-34.1507 Y35.4669 
G01 X-34.1969 Y35.4207 
G01 X-34.2215 Y35.4105 
G01 X-34.2477 Y35.2450 
G01 X-34.3132 Y35.0435 
G01 X-34.4093 Y34.8549 
G01 X-34.5338 Y34.6835 
G01 X-34.6835 Y34.5338 
G01 X-34.8549 Y34.4093 
G01 X-35.0435 Y34.3132 
G01 X-35.2450 Y34.2477 
G01 X-35.4541 Y34.2146 
G01 X-35.6659 Y34.2146 
G01 X-35.8750 Y34.2477 
G01 X-36.0765 Y34.3132 
G01 X-36.2651 Y34.4093 
G01 X-36.4365 Y34.5338 
G01 X-36.5862 Y34.6835 
G01 X-36.7107 Y34.8549 
G01 X-36.8068 Y35.0435 
G01 X-36.8723 Y35.2450 
G01 X-36.8985 Y35.4105 
G01 X-36.9231 Y35.4207 
G01 X-36.9693 Y35.4669 
G01 X-36.9943 Y35.5273 
G01 X-36.9943 Y47.0227 
G01 X-36.9693 Y47.0831 
G01 X-36.9231 Y47.1293 
G01 X-35.8756 Y48.1767 
G01 X-35.7821 Y48.2986 
G01 X-35.5986 Y48.4821 
G01 X-35.3926 Y48.6402 
G01 X-35.1678 Y48.7700 
G01 X-34.9279 Y48.8693 
G01 X-34.6772 Y48.9365 
G01 X-34.4198 Y48.9704 
G01 X-34.1602 Y48.9704 
G01 X-33.9028 Y48.9365 
G01 X-33.6521 Y48.8693 
G01 X-33.4122 Y48.7700 
G01 X-33.1874 Y48.6402 
G01 X-32.9814 Y48.4821 
G01 X-32.7979 Y48.2986 
G01 X-32.6398 Y48.0926 
G01 X-32.5100 Y47.8678 
G01 X-32.4107 Y47.6279 
G01 X-32.3435 Y47.3772 
G01 X-32.3096 Y47.1198 
G01 X-32.3096 Y46.8602 
G01 X-32.3435 Y46.6028 
G01 X-32.4107 Y46.3521 
G01 X-32.5100 Y46.1122 
G01 X-32.6398 Y45.8874 
G01 X-32.7979 Y45.6814 
G01 X-32.9814 Y45.4979 
G01 X-33.1033 Y45.4044 
G01 X-34.1257 Y44.3819 
G01 X-34.1257 Y43.7420 
G00 Z4.0000 
G00 X-26.5946 Y38.2059 
G01 Z0.0000 F9000.00 
G01 X-26.5946 Y35.4541 F3000.00 
G01 X-26.6277 Y35.2450 
G01 X-26.6932 Y35.0435 
G01 X-26.7893 Y34.8549 
G01 X-26.8994 Y34.7033 
G01 X-26.8994 Y30.4225 
G01 X-26.9218 Y30.3098 
G01 X-26.9658 Y30.2037 
G01 X-27.0296 Y30.1081 
G01 X-27.1109 Y30.0268 
G01 X-27.2065 Y29.9630 
G01 X-27.3126 Y29.9190 
G01 X-27.4253 Y29.8966 
G01 X-33.0443 Y29.8966 
G01 X-33.0826 Y29.8941 
G01 X-33.1017 Y29.8966 
G01 X-33.1209 Y29.8966 
G01 X-33.1585 Y29.9041 
G01 X-33.1965 Y29.9091 
G01 X-33.2147 Y29.9153 
G01 X-33.2336 Y29.9190 
G01 X-33.2690 Y29.9337 
G01 X-33.3054 Y29.9460 
G01 X-33.3220 Y29.9556 
G01 X-33.3398 Y29.9630 
G01 X-33.3716 Y29.9843 
G01 X-33.4294 Y30.0177 
G01 X-33.9965 Y30.1696 
G01 X-34.5835 Y30.1696 
G01 X-35.1506 Y30.0177 
G01 X-35.2084 Y29.9843 
G01 X-35.2402 Y29.9630 
G01 X-35.2580 Y29.9556 
G01 X-35.2746 Y29.9460 
G01 X-35.3110 Y29.9337 
G01 X-35.3464 Y29.9190 
G01 X-35.3653 Y29.9153 
G01 X-35.3835 Y29.9091 
G01 X-35.4215 Y29.9041 
G01 X-35.4591 Y29.8966 
G01 X-35.4783 Y29.8966 
G01 X-35.4974 Y29.8941 
G01 X-35.5357 Y29.8966 
G01 X-41.7897 Y29.8966 
G01 X-41.9024 Y29.9190 
G01 X-42.0085 Y29.9630 
G01 X-42.1041 Y30.0268 
G01 X-42.1854 Y30.1081 
G01 X-42.2492 Y30.2037 
G01 X-42.2932 Y30.3098 
G01 X-42.3156 Y30.4225 
G01 X-42.3156 Y33.0775 
G01 X-42.2932 Y33.1902 
G01 X-42.2492 Y33.2963 
G01 X-42.1854 Y33.3919 
G01 X-42.1041 Y33.4732 
G01 X-42.0085 Y33.5370 
G01 X-41.9024 Y33.5810 
G01 X-41.7897 Y33.6034 
G01 X-29.7934 Y33.6034 
G01 X-29.7934 Y38.1575 
G01 X-29.7710 Y38.2702 
G01 X-29.7270 Y38.3763 
G01 X-29.6632 Y38.4719 
G01 X-29.5819 Y38.5532 
G01 X-29.4863 Y38.6170 
G01 X-29.3802 Y38.6610 
G01 X-29.2675 Y38.6834 
G01 X-29.1527 Y38.6834 
G01 X-29.0907 Y38.8051 
G01 X-28.9662 Y38.9765 
G01 X-28.8165 Y39.1262 
G01 X-28.6451 Y39.2507 
G01 X-28.4565 Y39.3468 
G01 X-28.2550 Y39.4123 
G01 X-28.0459 Y39.4454 
G01 X-27.8341 Y39.4454 
G01 X-27.6250 Y39.4123 
G01 X-27.4235 Y39.3468 
G01 X-27.2349 Y39.2507 
G01 X-27.0635 Y39.1262 
G01 X-26.9138 Y38.9765 
G01 X-26.7893 Y38.8051 
G01 X-26.6932 Y38.6165 
G01 X-26.6277 Y38.4150 
G01 X-26.5946 Y38.2059 
G00 Z4.0000 
G00 X-45.6446 Y38.2059 
G01 Z0.0000 F9000.00 
G01 X-45.6446 Y35.4541 F3000.00 
G01 X-45.6777 Y35.2450 
G01 X-45.7432 Y35.0435 
G01 X-45.8393 Y34.8549 
G01 X-45.9494 Y34.7033 
G01 X-45.9494 Y30.4225 
G01 X-45.9718 Y30.3098 
G01 X-46.0158 Y30.2037 
G01 X-46.0796 Y30.1081 
G01 X-46.1609 Y30.0268 
G01 X-46.2565 Y29.9630 
G01 X-46.3626 Y29.9190 
G01 X-46.4753 Y29.8966 
G01 X-52.0943 Y29.8966 
G01 X-52.1326 Y29.8941 
G01 X-52.1517 Y29.8966 
G01 X-52.1709 Y29.8966 
G01 X-52.2085 Y29.9041 
G01 X-52.2465 Y29.9091 
G01 X-52.2647 Y29.9153 
G01 X-52.2836 Y29.9190 
G01 X-52.3190 Y29.9337 
G01 X-52.3554 Y29.9460 
G01 X-52.3720 Y29.9556 
G01 X-52.3898 Y29.9630 
G01 X-52.4216 Y29.9843 
G01 X-52.4794 Y30.0177 
G01 X-53.0465 Y30.1696 
G01 X-53.6335 Y30.1696 
G01 X-54.2006 Y30.0177 
G01 X-54.2584 Y29.9843 
G01 X-54.2902 Y29.9630 
G01 X-54.3080 Y29.9556 
G01 X-54.3246 Y29.9460 
G01 X-54.3610 Y29.9337 
G01 X-54.3964 Y29.9190 
G01 X-54.4153 Y29.9153 
G01 X-54.4335 Y29.9091 
G01 X-54.4715 Y29.9041 
G01 X-54.5091 Y29.8966 
G01 X-54.5283 Y29.8966 
G01 X-54.5474 Y29.8941 
G01 X-54.5857 Y29.8966 
G01 X-60.8397 Y29.8966 
G01 X-60.9524 Y29.9190 
G01 X-61.0585 Y29.9630 
G01 X-61.1541 Y30.0268 
G01 X-61.2354 Y30.1081 
G01 X-61.2992 Y30.2037 
G01 X-61.3432 Y30.3098 
G01 X-61.3656 Y30.4225 
G01 X-61.3656 Y33.0775 
G01 X-61.3432 Y33.1902 
G01 X-61.2992 Y33.2963 
G01 X-61.2354 Y33.3919 
G01 X-61.1541 Y33.4732 
G01 X-61.0585 Y33.5370 
G01 X-60.9524 Y33.5810 
G01 X-60.8397 Y33.6034 
G01 X-48.8434 Y33.6034 
G01 X-48.8434 Y38.7925 
G01 X-48.8210 Y38.9052 
G01 X-48.7770 Y39.0113 
G01 X-48.7132 Y39.1069 
G01 X-48.6319 Y39.1882 
G01 X-48.5363 Y39.2520 
G01 X-48.4302 Y39.2960 
G01 X-48.3175 Y39.3184 
G01 X-47.5622 Y39.3184 
G01 X-47.5065 Y39.3468 
G01 X-47.3050 Y39.4123 
G01 X-47.0959 Y39.4454 
G01 X-46.8841 Y39.4454 
G01 X-46.6750 Y39.4123 
G01 X-46.4735 Y39.3468 
G01 X-46.3809 Y39.2996 
G01 X-46.3626 Y39.2960 
G01 X-46.2565 Y39.2520 
G01 X-46.1609 Y39.1882 
G01 X-46.0796 Y39.1069 
G01 X-46.0503 Y39.0630 
G01 X-45.9638 Y38.9765 
G01 X-45.8393 Y38.8051 
G01 X-45.7432 Y38.6165 
G01 X-45.6777 Y38.4150 
G01 X-45.6446 Y38.2059 
G00 Z4.0000 
G00 X-53.2977 Y35.2450 
G01 Z0.0000 F9000.00 
G01 X-53.3632 Y35.0435 F3000.00 
G01 X-53.4593 Y34.8549 
G01 X-53.5838 Y34.6835 
G01 X-53.7335 Y34.5338 
G01 X-53.9049 Y34.4093 
G01 X-54.0935 Y34.3132 
G01 X-54.2950 Y34.2477 
G01 X-54.5041 Y34.2146 
G01 X-54.7159 Y34.2146 
G01 X-54.9250 Y34.2477 
G01 X-55.1265 Y34.3132 
G01 X-55.3151 Y34.4093 
G01 X-55.4865 Y34.5338 
G01 X-55.6362 Y34.6835 
G01 X-55.7607 Y34.8549 
G01 X-55.8568 Y35.0435 
G01 X-55.9223 Y35.2450 
G01 X-55.9485 Y35.4105 
G01 X-55.9731 Y35.4207 
G01 X-56.0193 Y35.4669 
G01 X-56.0443 Y35.5273 
G01 X-56.0443 Y47.0227 
G01 X-56.0193 Y47.0831 
G01 X-55.9731 Y47.1293 
G01 X-54.9256 Y48.1767 
G01 X-54.8321 Y48.2986 
G01 X-54.6486 Y48.4821 
G01 X-54.4426 Y48.6402 
G01 X-54.2178 Y48.7700 
G01 X-53.9779 Y48.8693 
G01 X-53.7272 Y48.9365 
G01 X-53.4698 Y48.9704 
G01 X-53.2102 Y48.9704 
G01 X-52.9528 Y48.9365 
G01 X-52.7021 Y48.8693 
G01 X-52.4622 Y48.7700 
G01 X-52.2374 Y48.6402 
G01 X-52.0314 Y48.4821 
G01 X-51.8479 Y48.2986 
G01 X-51.6898 Y48.0926 
G01 X-51.5600 Y47.8678 
G01 X-51.4607 Y47.6279 
G01 X-51.3935 Y47.3772 
G01 X-51.3596 Y47.1198 
G01 X-51.3596 Y46.8602 
G01 X-51.3935 Y46.6028 
G01 X-51.4607 Y46.3521 
G01 X-51.5600 Y46.1122 
G01 X-51.6898 Y45.8874 
G01 X-51.8479 Y45.6814 
G01 X-52.0314 Y45.4979 
G01 X-52.1533 Y45.4044 
G01 X-53.1757 Y44.3819 
G01 X-53.1757 Y43.7420 
G01 X-53.1728 Y43.7313 
G01 X-53.1757 Y43.7096 
G01 X-53.1757 Y43.6877 
G01 X-53.1799 Y43.6775 
G01 X-53.1814 Y43.6665 
G01 X-53.1923 Y43.6476 
G01 X-53.2007 Y43.6273 
G01 X-53.2085 Y43.6195 
G01 X-53.5402 Y43.0450 
G01 X-53.7406 Y42.2971 
G01 X-53.7406 Y41.5229 
G01 X-53.5402 Y40.7750 
G01 X-53.2085 Y40.2005 
G01 X-53.2007 Y40.1927 
G01 X-53.1923 Y40.1724 
G01 X-53.1814 Y40.1535 
G01 X-53.1799 Y40.1425 
G01 X-53.1757 Y40.1323 
G01 X-53.1757 Y40.1104 
G01 X-53.1728 Y40.0887 
G01 X-53.1757 Y40.0780 
G01 X-53.1757 Y35.5273 
G01 X-53.2007 Y35.4669 
G01 X-53.2469 Y35.4207 
G01 X-53.2715 Y35.4105 
G01 X-53.2977 Y35.2450 
G00 Z4.0000 
G00 X-72.2257 Y43.7420 
G01 Z0.0000 F9000.00 
G01 X-72.2228 Y43.7313 F3000.00 
G01 X-72.2257 Y43.7096 
G01 X-72.2257 Y43.6877 
G01 X-72.2299 Y43.6775 
G01 X-72.2314 Y43.6665 
G01 X-72.2423 Y43.6476 
G01 X-72.2507 Y43.6273 
G01 X-72.2585 Y43.6195 
G01 X-72.5902 Y43.0450 
G01 X-72.7906 Y42.2971 
G01 X-72.7906 Y41.5229 
G01 X-72.5902 Y40.7750 
G01 X-72.2585 Y40.2005 
G01 X-72.2507 Y40.1927 
G01 X-72.2423 Y40.1724 
G01 X-72.2314 Y40.1535 
G01 X-72.2299 Y40.1425 
G01 X-72.2257 Y40.1323 
G01 X-72.2257 Y40.1104 
G01 X-72.2228 Y40.0887 
G01 X-72.2257 Y40.0780 
G01 X-72.2257 Y35.5273 
G01 X-72.2507 Y35.4669 
G01 X-72.2969 Y35.4207 
G01 X-72.3215 Y35.4105 
G01 X-72.3477 Y35.2450 
G01 X-72.4132 Y35.0435 
G01 X-72.5093 Y34.8549 
G01 X-72.6338 Y34.6835 
G01 X-72.7835 Y34.5338 
G01 X-72.9549 Y34.4093 
G01 X-73.1435 Y34.3132 
G01 X-73.3449 Y34.2477 
G01 X-73.5541 Y34.2146 
G01 X-73.7659 Y34.2146 
G01 X-73.9750 Y34.2477 
G01 X-74.1765 Y34.3132 
G01 X-74.3651 Y34.4093 
G01 X-74.5365 Y34.5338 
G01 X-74.6862 Y34.6835 
G01 X-74.8107 Y34.8549 
G01 X-74.9068 Y35.0435 
G01 X-74.9723 Y35.2450 
G01 X-74.9985 Y35.4105 
G01 X-75.0231 Y35.4207 
G01 X-75.0693 Y35.4669 
G01 X-75.0943 Y35.5273 
G01 X-75.0943 Y47.0227 
G01 X-75.0693 Y47.0831 
G01 X-75.0231 Y47.1293 
G01 X-73.9756 Y48.1767 
G01 X-73.8821 Y48.2986 
G01 X-73.6986 Y48.4821 
G01 X-73.4926 Y48.6402 
G01 X-73.2678 Y48.7700 
G01 X-73.0279 Y48.8693 
G01 X-72.7772 Y48.9365 
G01 X-72.5198 Y48.9704 
G01 X-72.2602 Y48.9704 
G01 X-72.0028 Y48.9365 
G01 X-71.7521 Y48.8693 
G01 X-71.5122 Y48.7700 
G01 X-71.2874 Y48.6402 
G01 X-71.0814 Y48.4821 
G01 X-70.8979 Y48.2986 
G01 X-70.7398 Y48.0926 
G01 X-70.6100 Y47.8678 
G01 X-70.5107 Y47.6279 
G01 X-70.4435 Y47.3772 
G01 X-70.4096 Y47.1198 
G01 X-70.4096 Y46.8602 
G01 X-70.4435 Y46.6028 
G01 X-70.5107 Y46.3521 
G01 X-70.6100 Y46.1122 
G01 X-70.7398 Y45.8874 
G01 X-70.8979 Y45.6814 
G01 X-71.0814 Y45.4979 
G01 X-71.2033 Y45.4044 
G01 X-72.2257 Y44.3819 
G01 X-72.2257 Y43.7420 
G00 Z4.0000 
G00 X-64.6946 Y38.2059 
G01 Z0.0000 F9000.00 
G01 X-64.6946 Y35.4541 F3000.00 
G01 X-64.7277 Y35.2450 
G01 X-64.7932 Y35.0435 
G01 X-64.8893 Y34.8549 
G01 X-64.9646 Y34.7512 
G01 X-64.9646 Y31.6728 
G01 X-64.9911 Y31.5056 
G01 X-64.9994 Y31.4800 
G01 X-64.9994 Y30.4225 
G01 X-65.0218 Y30.3098 
G01 X-65.0658 Y30.2037 
G01 X-65.1296 Y30.1081 
G01 X-65.2109 Y30.0268 
G01 X-65.3065 Y29.9630 
G01 X-65.4126 Y29.9190 
G01 X-65.5253 Y29.8966 
G01 X-71.1443 Y29.8966 
G01 X-71.1826 Y29.8941 
G01 X-71.2017 Y29.8966 
G01 X-71.2209 Y29.8966 
G01 X-71.2585 Y29.9041 
G01 X-71.2965 Y29.9091 
G01 X-71.3147 Y29.9153 
G01 X-71.3336 Y29.9190 
G01 X-71.3690 Y29.9337 
G01 X-71.4053 Y29.9460 
G01 X-71.4220 Y29.9556 
G01 X-71.4398 Y29.9630 
G01 X-71.4716 Y29.9843 
G01 X-71.5294 Y30.0177 
G01 X-72.0965 Y30.1696 
G01 X-72.6835 Y30.1696 
G01 X-73.2506 Y30.0177 
G01 X-73.3084 Y29.9843 
G01 X-73.3402 Y29.9630 
G01 X-73.3580 Y29.9556 
G01 X-73.3746 Y29.9460 
G01 X-73.4110 Y29.9337 
G01 X-73.4464 Y29.9190 
G01 X-73.4653 Y29.9153 
G01 X-73.4835 Y29.9091 
G01 X-73.5215 Y29.9041 
G01 X-73.5591 Y29.8966 
G01 X-73.5783 Y29.8966 
G01 X-73.5974 Y29.8941 
G01 X-73.6357 Y29.8966 
G01 X-77.5275 Y29.8966 
G01 X-77.6402 Y29.9190 
G01 X-77.7463 Y29.9630 
G01 X-77.8419 Y30.0268 
G01 X-77.9232 Y30.1081 
G01 X-77.9870 Y30.2037 
G01 X-78.0290 Y30.3051 
G01 X-85.8688 Y22.4654 
G01 X-86.0243 Y15.8623 
G01 X-86.0243 Y15.7904 
G01 X-86.0263 Y15.7778 
G01 X-86.0266 Y15.7651 
G01 X-86.0395 Y15.6942 
G01 X-86.0508 Y15.6232 
G01 X-86.0547 Y15.6111 
G01 X-86.0570 Y15.5985 
G01 X-86.0809 Y15.5306 
G01 X-86.1031 Y15.4622 
G01 X-86.1089 Y15.4509 
G01 X-86.1131 Y15.4388 
G01 X-86.1473 Y15.3755 
G01 X-86.1799 Y15.3114 
G01 X-86.1874 Y15.3011 
G01 X-86.1935 Y15.2899 
G01 X-86.2371 Y15.2326 
G01 X-86.2794 Y15.1744 
G01 X-86.2884 Y15.1654 
G01 X-86.2962 Y15.1553 
G01 X-86.3482 Y15.1056 
G01 X-86.3991 Y15.0547 
G01 X-86.4094 Y15.0473 
G01 X-86.4186 Y15.0385 
G01 X-86.4778 Y14.9976 
G01 X-86.5361 Y14.9552 
G01 X-86.5474 Y14.9495 
G01 X-86.5579 Y14.9422 
G01 X-86.6228 Y14.9111 
G01 X-86.6869 Y14.8784 
G01 X-86.6990 Y14.8745 
G01 X-86.7105 Y14.8689 
G01 X-86.7795 Y14.8483 
G01 X-86.8479 Y14.8261 
G01 X-86.8605 Y14.8241 
G01 X-86.8727 Y14.8204 
G01 X-86.9440 Y14.8109 
G01 X-87.0151 Y14.7996 
G01 X-87.0278 Y14.7996 
G01 X-87.0404 Y14.7979 
G01 X-87.1124 Y14.7996 
G01 X-113.7496 Y14.7996 
G01 X-113.9168 Y14.8261 
G01 X-114.0778 Y14.8784 
G01 X-114.2286 Y14.9552 
G01 X-114.3656 Y15.0547 
G01 X-114.4853 Y15.1744 
G01 X-114.5848 Y15.3114 
G01 X-114.6616 Y15.4622 
G01 X-114.7139 Y15.6232 
G01 X-114.7404 Y15.7904 
G01 X-114.7404 Y15.9596 
G01 X-114.7139 Y16.1268 
G01 X-114.6616 Y16.2878 
G01 X-114.5848 Y16.4386 
G01 X-114.4853 Y16.5756 
G01 X-114.3656 Y16.6953 
G01 X-114.2286 Y16.7948 
G01 X-114.0778 Y16.8716 
G01 X-113.9168 Y16.9239 
G01 X-113.7496 Y16.9504 
G01 X-88.1501 Y16.9504 
G01 X-88.0091 Y22.9340 
G01 X-88.0091 Y23.0059 
G01 X-88.0071 Y23.0185 
G01 X-88.0068 Y23.0312 
G01 X-87.9939 Y23.1021 
G01 X-87.9826 Y23.1731 
G01 X-87.9787 Y23.1852 
G01 X-87.9764 Y23.1977 
G01 X-87.9525 Y23.2657 
G01 X-87.9303 Y23.3341 
G01 X-87.9246 Y23.3454 
G01 X-87.9203 Y23.3574 
G01 X-87.8861 Y23.4208 
G01 X-87.8535 Y23.4849 
G01 X-87.8460 Y23.4952 
G01 X-87.8400 Y23.5064 
G01 X-87.7963 Y23.5636 
G01 X-87.7540 Y23.6219 
G01 X-87.7450 Y23.6309 
G01 X-87.7373 Y23.6410 
G01 X-87.6852 Y23.6907 
G01 X-78.7982 Y32.5777 
G01 X-78.6612 Y32.6772 
G01 X-78.5104 Y32.7540 
G01 X-78.3494 Y32.8063 
G01 X-78.1822 Y32.8328 
G01 X-78.0534 Y32.8328 
G01 X-78.0534 Y33.0775 
G01 X-78.0310 Y33.1902 
G01 X-77.9870 Y33.2963 
G01 X-77.9232 Y33.3919 
G01 X-77.8419 Y33.4732 
G01 X-77.7463 Y33.5370 
G01 X-77.6402 Y33.5810 
G01 X-77.5275 Y33.6034 
G01 X-67.8934 Y33.6034 
G01 X-67.8934 Y38.1575 
G01 X-67.8710 Y38.2702 
G01 X-67.8270 Y38.3763 
G01 X-67.7632 Y38.4719 
G01 X-67.6819 Y38.5532 
G01 X-67.5863 Y38.6170 
G01 X-67.4802 Y38.6610 
G01 X-67.3675 Y38.6834 
G01 X-67.2527 Y38.6834 
G01 X-67.1907 Y38.8051 
G01 X-67.0662 Y38.9765 
G01 X-66.9165 Y39.1262 
G01 X-66.7451 Y39.2507 
G01 X-66.5565 Y39.3468 
G01 X-66.3550 Y39.4123 
G01 X-66.1459 Y39.4454 
G01 X-65.9341 Y39.4454 
G01 X-65.7250 Y39.4123 
G01 X-65.5235 Y39.3468 
G01 X-65.3349 Y39.2507 
G01 X-65.1635 Y39.1262 
G01 X-65.0138 Y38.9765 
G01 X-64.8893 Y38.8051 
G01 X-64.7932 Y38.6165 
G01 X-64.7277 Y38.4150 
G01 X-64.6946 Y38.2059 
G00 Z4.0000 
G00 X-34.2477 Y16.1950 
G01 Z0.0000 F9000.00 
G01 X-34.3132 Y15.9935 F3000.00 
G01 X-34.4093 Y15.8049 
G01 X-34.5338 Y15.6335 
G01 X-34.6835 Y15.4838 
G01 X-34.8549 Y15.3593 
G01 X-35.0435 Y15.2632 
G01 X-35.2450 Y15.1977 
G01 X-35.4541 Y15.1646 
G01 X-35.6659 Y15.1646 
G01 X-35.8750 Y15.1977 
G01 X-36.0765 Y15.2632 
G01 X-36.2651 Y15.3593 
G01 X-36.4365 Y15.4838 
G01 X-36.5862 Y15.6335 
G01 X-36.7107 Y15.8049 
G01 X-36.8068 Y15.9935 
G01 X-36.8723 Y16.1950 
G01 X-36.8985 Y16.3605 
G01 X-36.9231 Y16.3707 
G01 X-36.9693 Y16.4169 
G01 X-36.9943 Y16.4773 
G01 X-36.9943 Y27.9727 
G01 X-36.9693 Y28.0331 
G01 X-36.9231 Y28.0793 
G01 X-35.8756 Y29.1267 
G01 X-35.7821 Y29.2486 
G01 X-35.5986 Y29.4321 
G01 X-35.3926 Y29.5902 
G01 X-35.1678 Y29.7200 
G01 X-34.9279 Y29.8193 
G01 X-34.6772 Y29.8865 
G01 X-34.4198 Y29.9204 
G01 X-34.1602 Y29.9204 
G01 X-33.9028 Y29.8865 
G01 X-33.6521 Y29.8193 
G01 X-33.4122 Y29.7200 
G01 X-33.1874 Y29.5902 
G01 X-32.9814 Y29.4321 
G01 X-32.7979 Y29.2486 
G01 X-32.6398 Y29.0426 
G01 X-32.5100 Y28.8178 
G01 X-32.4107 Y28.5779 
G01 X-32.3435 Y28.3272 
G01 X-32.3096 Y28.0698 
G01 X-32.3096 Y27.8102 
G01 X-32.3435 Y27.5528 
G01 X-32.4107 Y27.3021 
G01 X-32.5100 Y27.0622 
G01 X-32.6398 Y26.8374 
G01 X-32.7979 Y26.6314 
G01 X-32.9814 Y26.4479 
G01 X-33.1033 Y26.3544 
G01 X-34.1257 Y25.3319 
G01 X-34.1257 Y24.6920 
G01 X-34.1228 Y24.6813 
G01 X-34.1257 Y24.6596 
G01 X-34.1257 Y24.6377 
G01 X-34.1299 Y24.6275 
G01 X-34.1314 Y24.6165 
G01 X-34.1423 Y24.5976 
G01 X-34.1507 Y24.5773 
G01 X-34.1585 Y24.5695 
G01 X-34.4902 Y23.9950 
G01 X-34.6906 Y23.2471 
G01 X-34.6906 Y22.4729 
G01 X-34.4902 Y21.7250 
G01 X-34.1585 Y21.1505 
G01 X-34.1507 Y21.1427 
G01 X-34.1423 Y21.1224 
G01 X-34.1314 Y21.1035 
G01 X-34.1299 Y21.0925 
G01 X-34.1257 Y21.0823 
G01 X-34.1257 Y21.0604 
G01 X-34.1228 Y21.0387 
G01 X-34.1257 Y21.0280 
G01 X-34.1257 Y16.4773 
G01 X-34.1507 Y16.4169 
G01 X-34.1969 Y16.3707 
G01 X-34.2215 Y16.3605 
G01 X-34.2477 Y16.1950 
G00 Z4.0000 
G00 X-53.1757 Y24.6920 
G01 Z0.0000 F9000.00 
G01 X-53.1728 Y24.6813 F3000.00 
G01 X-53.1757 Y24.6596 
G01 X-53.1757 Y24.6377 
G01 X-53.1799 Y24.6275 
G01 X-53.1814 Y24.6165 
G01 X-53.1923 Y24.5976 
G01 X-53.2007 Y24.5773 
G01 X-53.2085 Y24.5695 
G01 X-53.5402 Y23.9950 
G01 X-53.7406 Y23.2471 
G01 X-53.7406 Y22.4729 
G01 X-53.5402 Y21.7250 
G01 X-53.2085 Y21.1505 
G01 X-53.2007 Y21.1427 
G01 X-53.1923 Y21.1224 
G01 X-53.1814 Y21.1035 
G01 X-53.1799 Y21.0925 
G01 X-53.1757 Y21.0823 
G01 X-53.1757 Y21.0604 
G01 X-53.1728 Y21.0387 
G01 X-53.1757 Y21.0280 
G01 X-53.1757 Y16.4773 
G01 X-53.2007 Y16.4169 
G01 X-53.2469 Y16.3707 
G01 X-53.2715 Y16.3605 
G01 X-53.2977 Y16.1950 
G01 X-53.3632 Y15.9935 
G01 X-53.4593 Y15.8049 
G01 X-53.5838 Y15.6335 
G01 X-53.7335 Y15.4838 
G01 X-53.9049 Y15.3593 
G01 X-54.0935 Y15.2632 
G01 X-54.2950 Y15.1977 
G01 X-54.5041 Y15.1646 
G01 X-54.7159 Y15.1646 
G01 X-54.9250 Y15.1977 
G01 X-55.1265 Y15.2632 
G01 X-55.3151 Y15.3593 
G01 X-55.4865 Y15.4838 
G01 X-55.6362 Y15.6335 
G01 X-55.7607 Y15.8049 
G01 X-55.8568 Y15.9935 
G01 X-55.9223 Y16.1950 
G01 X-55.9485 Y16.3605 
G01 X-55.9731 Y16.3707 
G01 X-56.0193 Y16.4169 
G01 X-56.0443 Y16.4773 
G01 X-56.0443 Y27.9727 
G01 X-56.0193 Y28.0331 
G01 X-55.9731 Y28.0793 
G01 X-54.9256 Y29.1267 
G01 X-54.8321 Y29.2486 
G01 X-54.6486 Y29.4321 
G01 X-54.4426 Y29.5902 
G01 X-54.2178 Y29.7200 
G01 X-53.9779 Y29.8193 
G01 X-53.7272 Y29.8865 
G01 X-53.4698 Y29.9204 
G01 X-53.2102 Y29.9204 
G01 X-52.9528 Y29.8865 
G01 X-52.7021 Y29.8193 
G01 X-52.4622 Y29.7200 
G01 X-52.2374 Y29.5902 
G01 X-52.0314 Y29.4321 
G01 X-51.8479 Y29.2486 
G01 X-51.6898 Y29.0426 
G01 X-51.5600 Y28.8178 
G01 X-51.4607 Y28.5779 
G01 X-51.3935 Y28.3272 
G01 X-51.3596 Y28.0698 
G01 X-51.3596 Y27.8102 
G01 X-51.3935 Y27.5528 
G01 X-51.4607 Y27.3021 
G01 X-51.5600 Y27.0622 
G01 X-51.6898 Y26.8374 
G01 X-51.8479 Y26.6314 
G01 X-52.0314 Y26.4479 
G01 X-52.1533 Y26.3544 
G01 X-53.1757 Y25.3319 
G01 X-53.1757 Y24.6920 
G00 Z4.0000 
G00 X-72.3477 Y16.1950 
G01 Z0.0000 F9000.00 
G01 X-72.4132 Y15.9935 F3000.00 
G01 X-72.5093 Y15.8049 
G01 X-72.6338 Y15.6335 
G01 X-72.7835 Y15.4838 
G01 X-72.9549 Y15.3593 
G01 X-73.1435 Y15.2632 
G01 X-73.3449 Y15.1977 
G01 X-73.5541 Y15.1646 
G01 X-73.7659 Y15.1646 
G01 X-73.9750 Y15.1977 
G01 X-74.1765 Y15.2632 
G01 X-74.3651 Y15.3593 
G01 X-74.5365 Y15.4838 
G01 X-74.6862 Y15.6335 
G01 X-74.8107 Y15.8049 
G01 X-74.9068 Y15.9935 
G01 X-74.9723 Y16.1950 
G01 X-74.9985 Y16.3605 
G01 X-75.0231 Y16.3707 
G01 X-75.0693 Y16.4169 
G01 X-75.0943 Y16.4773 
G01 X-75.0943 Y27.9727 
G01 X-75.0693 Y28.0331 
G01 X-75.0231 Y28.0793 
G01 X-73.9756 Y29.1267 
G01 X-73.8821 Y29.2486 
G01 X-73.6986 Y29.4321 
G01 X-73.4926 Y29.5902 
G01 X-73.2678 Y29.7200 
G01 X-73.0279 Y29.8193 
G01 X-72.7772 Y29.8865 
G01 X-72.5198 Y29.9204 
G01 X-72.2602 Y29.9204 
G01 X-72.0028 Y29.8865 
G01 X-71.7521 Y29.8193 
G01 X-71.5122 Y29.7200 
G01 X-71.2874 Y29.5902 
G01 X-71.0814 Y29.4321 
G01 X-70.8979 Y29.2486 
G01 X-70.7398 Y29.0426 
G01 X-70.6100 Y28.8178 
G01 X-70.5107 Y28.5779 
G01 X-70.4435 Y28.3272 
G01 X-70.4096 Y28.0698 
G01 X-70.4096 Y27.8102 
G01 X-70.4435 Y27.5528 
G01 X-70.5107 Y27.3021 
G01 X-70.6100 Y27.0622 
G01 X-70.7398 Y26.8374 
G01 X-70.8979 Y26.6314 
G01 X-71.0814 Y26.4479 
G01 X-71.2033 Y26.3544 
G01 X-72.2257 Y25.3319 
G01 X-72.2257 Y24.6920 
G01 X-72.2228 Y24.6813 
G01 X-72.2257 Y24.6596 
G01 X-72.2257 Y24.6377 
G01 X-72.2299 Y24.6275 
G01 X-72.2314 Y24.6165 
G01 X-72.2423 Y24.5976 
G01 X-72.2507 Y24.5773 
G01 X-72.2585 Y24.5695 
G01 X-72.5902 Y23.9950 
G01 X-72.7906 Y23.2471 
G01 X-72.7906 Y22.4729 
G01 X-72.5902 Y21.7250 
G01 X-72.2585 Y21.1505 
G01 X-72.2507 Y21.1427 
G01 X-72.2423 Y21.1224 
G01 X-72.2314 Y21.1035 
G01 X-72.2299 Y21.0925 
G01 X-72.2257 Y21.0823 
G01 X-72.2257 Y21.0604 
G01 X-72.2228 Y21.0387 
G01 X-72.2257 Y21.0280 
G01 X-72.2257 Y16.4773 
G01 X-72.2507 Y16.4169 
G01 X-72.2969 Y16.3707 
G01 X-72.3215 Y16.3605 
G01 X-72.3477 Y16.1950 
G00 Z4.0000 
G00 X-45.6446 Y76.3059 
G01 Z0.0000 F9000.00 
G01 X-45.6446 Y73.5541 F3000.00 
G01 X-45.6777 Y73.3449 
G01 X-45.7432 Y73.1435 
G01 X-45.8393 Y72.9549 
G01 X-45.9494 Y72.8033 
G01 X-45.9494 Y68.5225 
G01 X-45.9718 Y68.4098 
G01 X-46.0158 Y68.3037 
G01 X-46.0796 Y68.2081 
G01 X-46.1609 Y68.1268 
G01 X-46.2565 Y68.0630 
G01 X-46.3626 Y68.0190 
G01 X-46.4753 Y67.9966 
G01 X-52.0815 Y67.9966 
G01 X-52.1198 Y67.9941 
G01 X-52.1389 Y67.9966 
G01 X-52.1581 Y67.9966 
G01 X-52.1957 Y68.0041 
G01 X-52.2337 Y68.0091 
G01 X-52.2519 Y68.0153 
G01 X-52.2708 Y68.0190 
G01 X-52.3062 Y68.0337 
G01 X-52.3426 Y68.0460 
G01 X-52.3592 Y68.0556 
G01 X-52.3770 Y68.0630 
G01 X-52.4089 Y68.0843 
G01 X-52.4769 Y68.1236 
G01 X-53.0456 Y68.2760 
G01 X-53.6344 Y68.2760 
G01 X-54.2031 Y68.1236 
G01 X-54.2711 Y68.0843 
G01 X-54.3030 Y68.0630 
G01 X-54.3208 Y68.0556 
G01 X-54.3374 Y68.0460 
G01 X-54.3738 Y68.0337 
G01 X-54.4092 Y68.0190 
G01 X-54.4281 Y68.0153 
G01 X-54.4463 Y68.0091 
G01 X-54.4843 Y68.0041 
G01 X-54.5219 Y67.9966 
G01 X-54.5411 Y67.9966 
G01 X-54.5602 Y67.9941 
G01 X-54.5985 Y67.9966 
G01 X-60.8397 Y67.9966 
G01 X-60.9524 Y68.0190 
G01 X-61.0585 Y68.0630 
G01 X-61.1541 Y68.1268 
G01 X-61.2354 Y68.2081 
G01 X-61.2992 Y68.3037 
G01 X-61.3432 Y68.4098 
G01 X-61.3656 Y68.5225 
G01 X-61.3656 Y71.1775 
G01 X-61.3432 Y71.2902 
G01 X-61.2992 Y71.3963 
G01 X-61.2354 Y71.4919 
G01 X-61.1541 Y71.5732 
G01 X-61.0585 Y71.6370 
G01 X-60.9524 Y71.6810 
G01 X-60.8397 Y71.7034 
G01 X-48.8434 Y71.7034 
G01 X-48.8434 Y76.8925 
G01 X-48.8210 Y77.0052 
G01 X-48.7770 Y77.1113 
G01 X-48.7132 Y77.2069 
G01 X-48.6319 Y77.2882 
G01 X-48.5363 Y77.3520 
G01 X-48.4302 Y77.3960 
G01 X-48.3175 Y77.4184 
G01 X-47.5622 Y77.4184 
G01 X-47.5065 Y77.4468 
G01 X-47.3050 Y77.5123 
G01 X-47.0959 Y77.5454 
G01 X-46.8841 Y77.5454 
G01 X-46.6750 Y77.5123 
G01 X-46.4735 Y77.4468 
G01 X-46.3809 Y77.3996 
G01 X-46.3626 Y77.3960 
G01 X-46.2565 Y77.3520 
G01 X-46.1609 Y77.2882 
G01 X-46.0796 Y77.2069 
G01 X-46.0503 Y77.1630 
G01 X-45.9638 Y77.0765 
G01 X-45.8393 Y76.9051 
G01 X-45.7432 Y76.7165 
G01 X-45.6777 Y76.5150 
G01 X-45.6446 Y76.3059 
G00 Z4.0000 
G00 X-53.2977 Y73.3449 
G01 Z0.0000 F9000.00 
G01 X-53.3632 Y73.1435 F3000.00 
G01 X-53.4593 Y72.9549 
G01 X-53.5838 Y72.7835 
G01 X-53.7335 Y72.6338 
G01 X-53.9049 Y72.5093 
G01 X-54.0935 Y72.4132 
G01 X-54.2950 Y72.3477 
G01 X-54.5041 Y72.3146 
G01 X-54.7159 Y72.3146 
G01 X-54.9250 Y72.3477 
G01 X-55.1265 Y72.4132 
G01 X-55.3151 Y72.5093 
G01 X-55.4865 Y72.6338 
G01 X-55.6362 Y72.7835 
G01 X-55.7607 Y72.9549 
G01 X-55.8568 Y73.1435 
G01 X-55.9223 Y73.3449 
G01 X-55.9485 Y73.5105 
G01 X-55.9731 Y73.5207 
G01 X-56.0193 Y73.5669 
G01 X-56.0443 Y73.6273 
G01 X-56.0443 Y85.1227 
G01 X-56.0193 Y85.1831 
G01 X-55.9731 Y85.2293 
G01 X-54.9256 Y86.2767 
G01 X-54.8321 Y86.3986 
G01 X-54.6486 Y86.5821 
G01 X-54.4426 Y86.7402 
G01 X-54.2178 Y86.8700 
G01 X-53.9779 Y86.9693 
G01 X-53.7272 Y87.0365 
G01 X-53.4698 Y87.0704 
G01 X-53.2102 Y87.0704 
G01 X-52.9528 Y87.0365 
G01 X-52.7021 Y86.9693 
G01 X-52.4622 Y86.8700 
G01 X-52.2374 Y86.7402 
G01 X-52.0314 Y86.5821 
G01 X-51.8479 Y86.3986 
G01 X-51.6898 Y86.1926 
G01 X-51.5600 Y85.9678 
G01 X-51.4607 Y85.7279 
G01 X-51.3935 Y85.4772 
G01 X-51.3596 Y85.2198 
G01 X-51.3596 Y84.9602 
G01 X-51.3935 Y84.7028 
G01 X-51.4607 Y84.4521 
G01 X-51.5600 Y84.2122 
G01 X-51.6898 Y83.9874 
G01 X-51.8479 Y83.7814 
G01 X-52.0314 Y83.5979 
G01 X-52.1533 Y83.5044 
G01 X-53.1757 Y82.4819 
G01 X-53.1757 Y81.8420 
G01 X-53.1728 Y81.8313 
G01 X-53.1757 Y81.8096 
G01 X-53.1757 Y81.7877 
G01 X-53.1799 Y81.7775 
G01 X-53.1814 Y81.7665 
G01 X-53.1923 Y81.7476 
G01 X-53.2007 Y81.7273 
G01 X-53.2085 Y81.7195 
G01 X-53.5402 Y81.1450 
G01 X-53.7406 Y80.3971 
G01 X-53.7406 Y79.6229 
G01 X-53.5402 Y78.8750 
G01 X-53.2085 Y78.3005 
G01 X-53.2007 Y78.2927 
G01 X-53.1923 Y78.2724 
G01 X-53.1814 Y78.2535 
G01 X-53.1799 Y78.2425 
G01 X-53.1757 Y78.2323 
G01 X-53.1757 Y78.2104 
G01 X-53.1728 Y78.1887 
G01 X-53.1757 Y78.1780 
G01 X-53.1757 Y73.6273 
G01 X-53.2007 Y73.5669 
G01 X-53.2469 Y73.5207 
G01 X-53.2715 Y73.5105 
G01 X-53.2977 Y73.3449 
G00 Z4.0000 
G00 X-72.2257 Y81.8420 
G01 Z0.0000 F9000.00 
G01 X-72.2228 Y81.8313 F3000.00 
G01 X-72.2257 Y81.8096 
G01 X-72.2257 Y81.7877 
G01 X-72.2299 Y81.7775 
G01 X-72.2314 Y81.7665 
G01 X-72.2423 Y81.7476 
G01 X-72.2507 Y81.7273 
G01 X-72.2585 Y81.7195 
G01 X-72.5902 Y81.1450 
G01 X-72.7906 Y80.3971 
G01 X-72.7906 Y79.6229 
G01 X-72.5902 Y78.8750 
G01 X-72.2585 Y78.3005 
G01 X-72.2507 Y78.2927 
G01 X-72.2423 Y78.2724 
G01 X-72.2314 Y78.2535 
G01 X-72.2299 Y78.2425 
G01 X-72.2257 Y78.2323 
G01 X-72.2257 Y78.2104 
G01 X-72.2228 Y78.1887 
G01 X-72.2257 Y78.1780 
G01 X-72.2257 Y73.6273 
G01 X-72.2507 Y73.5669 
G01 X-72.2969 Y73.5207 
G01 X-72.3215 Y73.5105 
G01 X-72.3477 Y73.3449 
G01 X-72.4132 Y73.1435 
G01 X-72.5093 Y72.9549 
G01 X-72.6338 Y72.7835 
G01 X-72.7835 Y72.6338 
G01 X-72.9549 Y72.5093 
G01 X-73.1435 Y72.4132 
G01 X-73.3449 Y72.3477 
G01 X-73.5541 Y72.3146 
G01 X-73.7659 Y72.3146 
G01 X-73.9750 Y72.3477 
G01 X-74.1765 Y72.4132 
G01 X-74.3651 Y72.5093 
G01 X-74.5365 Y72.6338 
G01 X-74.6862 Y72.7835 
G01 X-74.8107 Y72.9549 
G01 X-74.9068 Y73.1435 
G01 X-74.9723 Y73.3449 
G01 X-74.9985 Y73.5105 
G01 X-75.0231 Y73.5207 
G01 X-75.0693 Y73.5669 
G01 X-75.0943 Y73.6273 
G01 X-75.0943 Y85.1227 
G01 X-75.0693 Y85.1831 
G01 X-75.0231 Y85.2293 
G01 X-73.9756 Y86.2767 
G01 X-73.8821 Y86.3986 
G01 X-73.6986 Y86.5821 
G01 X-73.4926 Y86.7402 
G01 X-73.2678 Y86.8700 
G01 X-73.0279 Y86.9693 
G01 X-72.7772 Y87.0365 
G01 X-72.5198 Y87.0704 
G01 X-72.2602 Y87.0704 
G01 X-72.0028 Y87.0365 
G01 X-71.7521 Y86.9693 
G01 X-71.5122 Y86.8700 
G01 X-71.2874 Y86.7402 
G01 X-71.0814 Y86.5821 
G01 X-70.8979 Y86.3986 
G01 X-70.7398 Y86.1926 
G01 X-70.6100 Y85.9678 
G01 X-70.5107 Y85.7279 
G01 X-70.4435 Y85.4772 
G01 X-70.4096 Y85.2198 
G01 X-70.4096 Y84.9602 
G01 X-70.4435 Y84.7028 
G01 X-70.5107 Y84.4521 
G01 X-70.6100 Y84.2122 
G01 X-70.7398 Y83.9874 
G01 X-70.8979 Y83.7814 
G01 X-71.0814 Y83.5979 
G01 X-71.2033 Y83.5044 
G01 X-72.2257 Y82.4819 
G01 X-72.2257 Y81.8420 
G00 Z4.0000 
G00 X-64.6946 Y76.3059 
G01 Z0.0000 F9000.00 
G01 X-64.6946 Y73.5541 F3000.00 
G01 X-64.7277 Y73.3449 
G01 X-64.7932 Y73.1435 
G01 X-64.8893 Y72.9549 
G01 X-64.9646 Y72.8512 
G01 X-64.9646 Y70.4004 
G01 X-64.9911 Y70.2332 
G01 X-64.9994 Y70.2076 
G01 X-64.9994 Y68.5225 
G01 X-65.0218 Y68.4098 
G01 X-65.0658 Y68.3037 
G01 X-65.1296 Y68.2081 
G01 X-65.2109 Y68.1268 
G01 X-65.3065 Y68.0630 
G01 X-65.4126 Y68.0190 
G01 X-65.5253 Y67.9966 
G01 X-71.1315 Y67.9966 
G01 X-71.1698 Y67.9941 
G01 X-71.1889 Y67.9966 
G01 X-71.2081 Y67.9966 
G01 X-71.2457 Y68.0041 
G01 X-71.2837 Y68.0091 
G01 X-71.3019 Y68.0153 
G01 X-71.3208 Y68.0190 
G01 X-71.3563 Y68.0337 
G01 X-71.3926 Y68.0460 
G01 X-71.4092 Y68.0556 
G01 X-71.4270 Y68.0630 
G01 X-71.4589 Y68.0843 
G01 X-71.5269 Y68.1236 
G01 X-72.0956 Y68.2760 
G01 X-72.6844 Y68.2760 
G01 X-73.2531 Y68.1236 
G01 X-73.3211 Y68.0843 
G01 X-73.3530 Y68.0630 
G01 X-73.3708 Y68.0556 
G01 X-73.3874 Y68.0460 
G01 X-73.4237 Y68.0337 
G01 X-73.4592 Y68.0190 
G01 X-73.4781 Y68.0153 
G01 X-73.4963 Y68.0091 
G01 X-73.5343 Y68.0041 
G01 X-73.5719 Y67.9966 
G01 X-73.5911 Y67.9966 
G01 X-73.6102 Y67.9941 
G01 X-73.6485 Y67.9966 
G01 X-77.5275 Y67.9966 
G01 X-77.6402 Y68.0190 
G01 X-77.7463 Y68.0630 
G01 X-77.8419 Y68.1268 
G01 X-77.9232 Y68.2081 
G01 X-77.9870 Y68.3037 
G01 X-78.0310 Y68.4098 
G01 X-78.0534 Y68.5225 
G01 X-78.0534 Y69.4096 
G01 X-88.3496 Y69.4096 
G01 X-88.5168 Y69.4361 
G01 X-88.6778 Y69.4884 
G01 X-88.8286 Y69.5652 
G01 X-88.9656 Y69.6647 
G01 X-89.0853 Y69.7844 
G01 X-89.7203 Y70.4194 
G01 X-89.8198 Y70.5564 
G01 X-89.8966 Y70.7072 
G01 X-89.9489 Y70.8682 
G01 X-89.9754 Y71.0354 
G01 X-89.9754 Y71.2046 
G01 X-89.9489 Y71.3718 
G01 X-89.8966 Y71.5328 
G01 X-89.8198 Y71.6836 
G01 X-89.7203 Y71.8206 
G01 X-89.6006 Y71.9403 
G01 X-89.4636 Y72.0398 
G01 X-89.3128 Y72.1166 
G01 X-89.1518 Y72.1689 
G01 X-88.9846 Y72.1954 
G01 X-88.8154 Y72.1954 
G01 X-88.6482 Y72.1689 
G01 X-88.4872 Y72.1166 
G01 X-88.3364 Y72.0398 
G01 X-88.1994 Y71.9403 
G01 X-87.8196 Y71.5604 
G01 X-77.8547 Y71.5604 
G01 X-77.8419 Y71.5732 
G01 X-77.7463 Y71.6370 
G01 X-77.6402 Y71.6810 
G01 X-77.5275 Y71.7034 
G01 X-67.8934 Y71.7034 
G01 X-67.8934 Y76.2575 
G01 X-67.8710 Y76.3702 
G01 X-67.8270 Y76.4763 
G01 X-67.7632 Y76.5719 
G01 X-67.6819 Y76.6532 
G01 X-67.5863 Y76.7170 
G01 X-67.4802 Y76.7610 
G01 X-67.3675 Y76.7834 
G01 X-67.2527 Y76.7834 
G01 X-67.1907 Y76.9051 
G01 X-67.0662 Y77.0765 
G01 X-66.9165 Y77.2262 
G01 X-66.7451 Y77.3507 
G01 X-66.5565 Y77.4468 
G01 X-66.3550 Y77.5123 
G01 X-66.1459 Y77.5454 
G01 X-65.9341 Y77.5454 
G01 X-65.7250 Y77.5123 
G01 X-65.5235 Y77.4468 
G01 X-65.3349 Y77.3507 
G01 X-65.1635 Y77.2262 
G01 X-65.0138 Y77.0765 
G01 X-64.8893 Y76.9051 
G01 X-64.7932 Y76.7165 
G01 X-64.7277 Y76.5150 
G01 X-64.6946 Y76.3059 
G00 Z4.0000 
G00 X-120.4714 Y71.1681 
G01 Z0.0000 F9000.00 
G01 X-120.4714 Y73.3719 F3000.00 
G01 X-120.4445 Y73.5416 
G01 X-120.4318 Y73.5807 
G01 X-120.4318 Y81.3646 
G01 X-120.4053 Y81.5318 
G01 X-120.3530 Y81.6928 
G01 X-120.2762 Y81.8436 
G01 X-120.1767 Y81.9806 
G01 X-120.0570 Y82.1003 
G01 X-119.9200 Y82.1998 
G01 X-119.7692 Y82.2766 
G01 X-119.6082 Y82.3289 
G01 X-119.4410 Y82.3554 
G01 X-98.9754 Y82.3554 
G01 X-98.8082 Y82.3289 
G01 X-98.6472 Y82.2766 
G01 X-98.4964 Y82.1998 
G01 X-98.3594 Y82.1003 
G01 X-98.2397 Y81.9806 
G01 X-98.1402 Y81.8436 
G01 X-98.0634 Y81.6928 
G01 X-98.0111 Y81.5318 
G01 X-97.9846 Y81.3646 
G01 X-97.9846 Y81.1954 
G01 X-98.0111 Y81.0282 
G01 X-98.0634 Y80.8672 
G01 X-98.1402 Y80.7164 
G01 X-98.2397 Y80.5794 
G01 X-98.3594 Y80.4597 
G01 X-98.4964 Y80.3602 
G01 X-98.6472 Y80.2834 
G01 X-98.8082 Y80.2311 
G01 X-98.9754 Y80.2046 
G01 X-118.2810 Y80.2046 
G01 X-118.2810 Y72.2090 
G01 X-118.2886 Y72.1610 
G01 X-118.2886 Y71.1681 
G01 X-118.3155 Y70.9984 
G01 X-118.3686 Y70.8350 
G01 X-118.4466 Y70.6820 
G01 X-118.5475 Y70.5430 
G01 X-118.6690 Y70.4215 
G01 X-118.8080 Y70.3205 
G01 X-118.9610 Y70.2426 
G01 X-119.1244 Y70.1895 
G01 X-119.2941 Y70.1626 
G01 X-119.4659 Y70.1626 
G01 X-119.6356 Y70.1895 
G01 X-119.7990 Y70.2426 
G01 X-119.9520 Y70.3205 
G01 X-120.0910 Y70.4215 
G01 X-120.2125 Y70.5430 
G01 X-120.3134 Y70.6820 
G01 X-120.3914 Y70.8350 
G01 X-120.4445 Y70.9984 
G01 X-120.4714 Y71.1681 
G00 Z4.0000 
G00 X-117.9714 Y71.1681 
G01 Z0.0000 F9000.00 
G01 X-117.9714 Y73.3719 F3000.00 
G01 X-117.9445 Y73.5416 
G01 X-117.8914 Y73.7049 
G01 X-117.8134 Y73.8580 
G01 X-117.7125 Y73.9970 
G01 X-117.5910 Y74.1185 
G01 X-117.4520 Y74.2194 
G01 X-117.2990 Y74.2974 
G01 X-117.1356 Y74.3505 
G01 X-116.9659 Y74.3774 
G01 X-116.7941 Y74.3774 
G01 X-116.6244 Y74.3505 
G01 X-116.4610 Y74.2974 
G01 X-116.3080 Y74.2194 
G01 X-116.1690 Y74.1185 
G01 X-116.0475 Y73.9970 
G01 X-115.9466 Y73.8580 
G01 X-115.8686 Y73.7049 
G01 X-115.8155 Y73.5416 
G01 X-115.7886 Y73.3719 
G01 X-115.7886 Y73.2933 
G01 X-110.1965 Y73.2820 
G01 X-110.0951 Y73.3557 
G01 X-109.9065 Y73.4518 
G01 X-109.7050 Y73.5173 
G01 X-109.4959 Y73.5504 
G01 X-109.2841 Y73.5504 
G01 X-109.0750 Y73.5173 
G01 X-108.8735 Y73.4518 
G01 X-108.6849 Y73.3557 
G01 X-108.5135 Y73.2312 
G01 X-108.3638 Y73.0815 
G01 X-108.2393 Y72.9101 
G01 X-108.1432 Y72.7215 
G01 X-108.0777 Y72.5200 
G01 X-108.0446 Y72.3109 
G01 X-108.0446 Y72.0991 
G01 X-108.0777 Y71.8899 
G01 X-108.1432 Y71.6885 
G01 X-108.2393 Y71.4999 
G01 X-108.3638 Y71.3285 
G01 X-108.5135 Y71.1788 
G01 X-108.6849 Y71.0543 
G01 X-108.8735 Y70.9582 
G01 X-109.0750 Y70.8927 
G01 X-109.2841 Y70.8596 
G01 X-109.4959 Y70.8596 
G01 X-109.7050 Y70.8927 
G01 X-109.9065 Y70.9582 
G01 X-110.0951 Y71.0543 
G01 X-110.2010 Y71.1312 
G01 X-115.7927 Y71.1425 
G01 X-115.8155 Y70.9984 
G01 X-115.8686 Y70.8350 
G01 X-115.9466 Y70.6820 
G01 X-116.0475 Y70.5430 
G01 X-116.1690 Y70.4215 
G01 X-116.3080 Y70.3205 
G01 X-116.4610 Y70.2426 
G01 X-116.6244 Y70.1895 
G01 X-116.7941 Y70.1626 
G01 X-116.9659 Y70.1626 
G01 X-117.1356 Y70.1895 
G01 X-117.2990 Y70.2426 
G01 X-117.4520 Y70.3205 
G01 X-117.5910 Y70.4215 
G01 X-117.7125 Y70.5430 
G01 X-117.8134 Y70.6820 
G01 X-117.8914 Y70.8350 
G01 X-117.9445 Y70.9984 
G01 X-117.9714 Y71.1681 
G00 Z4.0000 
G00 X-122.7389 Y59.4606 
G01 Z0.0000 F9000.00 
G01 X-122.7125 Y59.4970 F3000.00 
G01 X-122.5910 Y59.6185 
G01 X-122.4520 Y59.7194 
G01 X-122.2990 Y59.7974 
G01 X-122.1356 Y59.8505 
G01 X-121.9659 Y59.8774 
G01 X-121.7941 Y59.8774 
G01 X-121.6244 Y59.8505 
G01 X-121.4610 Y59.7974 
G01 X-121.3080 Y59.7194 
G01 X-121.1690 Y59.6185 
G01 X-121.0475 Y59.4970 
G01 X-121.0211 Y59.4606 
G01 X-119.9848 Y59.4606 
G01 X-119.9291 Y59.4375 
G01 X-119.8865 Y59.3949 
G01 X-119.8634 Y59.3392 
G01 X-119.8634 Y53.3098 
G01 X-119.8865 Y53.2541 
G01 X-119.9291 Y53.2115 
G01 X-119.9848 Y53.1884 
G01 X-123.8552 Y53.1884 
G01 X-123.9109 Y53.2115 
G01 X-123.9535 Y53.2541 
G01 X-123.9766 Y53.3098 
G01 X-123.9766 Y59.3392 
G01 X-123.9535 Y59.3949 
G01 X-123.9109 Y59.4375 
G01 X-123.8552 Y59.4606 
G01 X-123.7948 Y59.4606 
G01 X-122.7389 Y59.4606 
G00 Z4.0000 
G00 X-98.7070 Y50.1366 
G01 Z0.0000 F9000.00 
G01 X-101.9530 Y50.1366 F3000.00 
G01 X-101.9807 Y50.1481 
G01 X-102.0019 Y50.1693 
G01 X-102.0134 Y50.1970 
G01 X-102.0134 Y53.4430 
G01 X-102.0019 Y53.4707 
G01 X-101.9807 Y53.4919 
G01 X-101.9530 Y53.5034 
G01 X-98.7070 Y53.5034 
G01 X-98.6793 Y53.4919 
G01 X-98.6581 Y53.4707 
G01 X-98.6466 Y53.4430 
G01 X-98.6466 Y50.1970 
G01 X-98.6581 Y50.1693 
G01 X-98.6793 Y50.1481 
G01 X-98.7070 Y50.1366 
G00 Z4.0000 
G00 X-98.7070 Y37.9366 
G01 Z0.0000 F9000.00 
G01 X-101.9530 Y37.9366 F3000.00 
G01 X-101.9807 Y37.9481 
G01 X-102.0019 Y37.9693 
G01 X-102.0134 Y37.9970 
G01 X-102.0134 Y41.2430 
G01 X-102.0019 Y41.2707 
G01 X-101.9807 Y41.2919 
G01 X-101.9530 Y41.3034 
G01 X-98.7070 Y41.3034 
G01 X-98.6793 Y41.2919 
G01 X-98.6581 Y41.2707 
G01 X-98.6466 Y41.2430 
G01 X-98.6466 Y37.9970 
G01 X-98.6581 Y37.9693 
G01 X-98.6793 Y37.9481 
G01 X-98.7070 Y37.9366 
G00 Z4.0000 
G00 X-144.8281 Y42.1286 
G01 Z0.0000 F9000.00 
G01 X-144.8585 Y42.1286 F3000.00 
G01 X-144.9677 Y29.3743 
G01 X-144.8993 Y29.2801 
G01 X-144.8032 Y29.0915 
G01 X-144.7377 Y28.8900 
G01 X-144.7046 Y28.6809 
G01 X-144.7046 Y28.4691 
G01 X-144.7377 Y28.2599 
G01 X-144.8032 Y28.0585 
G01 X-144.8993 Y27.8699 
G01 X-145.0238 Y27.6985 
G01 X-145.1735 Y27.5488 
G01 X-145.3449 Y27.4243 
G01 X-145.5335 Y27.3282 
G01 X-145.7349 Y27.2627 
G01 X-145.9441 Y27.2296 
G01 X-146.1559 Y27.2296 
G01 X-146.3650 Y27.2627 
G01 X-146.5665 Y27.3282 
G01 X-146.7551 Y27.4243 
G01 X-146.9265 Y27.5488 
G01 X-147.0762 Y27.6985 
G01 X-147.2007 Y27.8699 
G01 X-147.2968 Y28.0585 
G01 X-147.3623 Y28.2599 
G01 X-147.3954 Y28.4691 
G01 X-147.3954 Y28.6809 
G01 X-147.3623 Y28.8900 
G01 X-147.2968 Y29.0915 
G01 X-147.2007 Y29.2801 
G01 X-147.1184 Y29.3934 
G01 X-147.0093 Y42.1286 
G01 X-147.0319 Y42.1286 
G01 X-147.2016 Y42.1555 
G01 X-147.3649 Y42.2086 
G01 X-147.5180 Y42.2866 
G01 X-147.6570 Y42.3875 
G01 X-147.7785 Y42.5090 
G01 X-147.8794 Y42.6480 
G01 X-147.9574 Y42.8010 
G01 X-148.0105 Y42.9644 
G01 X-148.0374 Y43.1341 
G01 X-148.0374 Y43.3059 
G01 X-148.0105 Y43.4756 
G01 X-147.9574 Y43.6390 
G01 X-147.8794 Y43.7920 
G01 X-147.7785 Y43.9310 
G01 X-147.6570 Y44.0525 
G01 X-147.5180 Y44.1534 
G01 X-147.3649 Y44.2314 
G01 X-147.2016 Y44.2845 
G01 X-147.0319 Y44.3114 
G01 X-144.8281 Y44.3114 
G01 X-144.6584 Y44.2845 
G01 X-144.4950 Y44.2314 
G01 X-144.3420 Y44.1534 
G01 X-144.2030 Y44.0525 
G01 X-144.0815 Y43.9310 
G01 X-143.9805 Y43.7920 
G01 X-143.9026 Y43.6390 
G01 X-143.8495 Y43.4756 
G01 X-143.8226 Y43.3059 
G01 X-143.8226 Y43.1341 
G01 X-143.8495 Y42.9644 
G01 X-143.9026 Y42.8010 
G01 X-143.9805 Y42.6480 
G01 X-144.0815 Y42.5090 
G01 X-144.2030 Y42.3875 
G01 X-144.3420 Y42.2866 
G01 X-144.4950 Y42.2086 
G01 X-144.6584 Y42.1555 
G01 X-144.8281 Y42.1286 
G00 Z4.0000 
G00 X-133.1206 Y42.3611 
G01 Z0.0000 F9000.00 
G01 X-133.1570 Y42.3875 F3000.00 
G01 X-133.2785 Y42.5090 
G01 X-133.3794 Y42.6480 
G01 X-133.4574 Y42.8010 
G01 X-133.5105 Y42.9644 
G01 X-133.5374 Y43.1341 
G01 X-133.5374 Y43.3059 
G01 X-133.5105 Y43.4756 
G01 X-133.4574 Y43.6390 
G01 X-133.3794 Y43.7920 
G01 X-133.2785 Y43.9310 
G01 X-133.1570 Y44.0525 
G01 X-133.1206 Y44.0789 
G01 X-133.1206 Y45.1152 
G01 X-133.0975 Y45.1709 
G01 X-133.0549 Y45.2135 
G01 X-132.9992 Y45.2366 
G01 X-126.9698 Y45.2366 
G01 X-126.9141 Y45.2135 
G01 X-126.8715 Y45.1709 
G01 X-126.8484 Y45.1152 
G01 X-126.8484 Y41.2448 
G01 X-126.8715 Y41.1891 
G01 X-126.9141 Y41.1465 
G01 X-126.9698 Y41.1234 
G01 X-132.9992 Y41.1234 
G01 X-133.0549 Y41.1465 
G01 X-133.0975 Y41.1891 
G01 X-133.1206 Y41.2448 
G01 X-133.1206 Y41.3052 
G01 X-133.1206 Y42.3611 
G00 Z4.0000 
G00 X-114.9634 Y25.0470 
G01 Z0.0000 F9000.00 
G01 X-114.9634 Y28.2930 F3000.00 
G01 X-114.9519 Y28.3207 
G01 X-114.9307 Y28.3419 
G01 X-114.9030 Y28.3534 
G01 X-111.6570 Y28.3534 
G01 X-111.6293 Y28.3419 
G01 X-111.6081 Y28.3207 
G01 X-111.5966 Y28.2930 
G01 X-111.5966 Y25.0470 
G01 X-111.6081 Y25.0193 
G01 X-111.6293 Y24.9981 
G01 X-111.6570 Y24.9866 
G01 X-114.9030 Y24.9866 
G01 X-114.9307 Y24.9981 
G01 X-114.9519 Y25.0193 
G01 X-114.9634 Y25.0470 
G00 Z4.0000 
G00 X-127.1634 Y25.0470 
G01 Z0.0000 F9000.00 
G01 X-127.1634 Y28.2930 F3000.00 
G01 X-127.1519 Y28.3207 
G01 X-127.1307 Y28.3419 
G01 X-127.1030 Y28.3534 
G01 X-123.8570 Y28.3534 
G01 X-123.8293 Y28.3419 
G01 X-123.8081 Y28.3207 
G01 X-123.7966 Y28.2930 
G01 X-123.7966 Y25.0470 
G01 X-123.8081 Y25.0193 
G01 X-123.8293 Y24.9981 
G01 X-123.8570 Y24.9866 
G01 X-127.1030 Y24.9866 
G01 X-127.1307 Y24.9981 
G01 X-127.1519 Y25.0193 
G01 X-127.1634 Y25.0470 
G00 Z4.0000 
G00 X-26.5946 Y57.2559 
G01 Z0.0000 F9000.00 
G01 X-26.5946 Y54.5041 F3000.00 
G01 X-26.6277 Y54.2950 
G01 X-26.6932 Y54.0935 
G01 X-26.7893 Y53.9049 
G01 X-26.8994 Y53.7533 
G01 X-26.8994 Y49.4725 
G01 X-26.9218 Y49.3598 
G01 X-26.9658 Y49.2537 
G01 X-27.0296 Y49.1581 
G01 X-27.1109 Y49.0768 
G01 X-27.2065 Y49.0130 
G01 X-27.3126 Y48.9690 
G01 X-27.4253 Y48.9466 
G01 X-33.0443 Y48.9466 
G01 X-33.0826 Y48.9441 
G01 X-33.1017 Y48.9466 
G01 X-33.1209 Y48.9466 
G01 X-33.1585 Y48.9541 
G01 X-33.1965 Y48.9591 
G01 X-33.2147 Y48.9653 
G01 X-33.2336 Y48.9690 
G01 X-33.2690 Y48.9837 
G01 X-33.3054 Y48.9960 
G01 X-33.3220 Y49.0056 
G01 X-33.3398 Y49.0130 
G01 X-33.3716 Y49.0343 
G01 X-33.4294 Y49.0677 
G01 X-33.9965 Y49.2196 
G01 X-34.5835 Y49.2196 
G01 X-35.1506 Y49.0677 
G01 X-35.2084 Y49.0343 
G01 X-35.2402 Y49.0130 
G01 X-35.2580 Y49.0056 
G01 X-35.2746 Y48.9960 
G01 X-35.3110 Y48.9837 
G01 X-35.3464 Y48.9690 
G01 X-35.3653 Y48.9653 
G01 X-35.3835 Y48.9591 
G01 X-35.4215 Y48.9541 
G01 X-35.4591 Y48.9466 
G01 X-35.4783 Y48.9466 
G01 X-35.4974 Y48.9441 
G01 X-35.5357 Y48.9466 
G01 X-41.7897 Y48.9466 
G01 X-41.9024 Y48.9690 
G01 X-42.0085 Y49.0130 
G01 X-42.1041 Y49.0768 
G01 X-42.1854 Y49.1581 
G01 X-42.2492 Y49.2537 
G01 X-42.2932 Y49.3598 
G01 X-42.3156 Y49.4725 
G01 X-42.3156 Y52.1275 
G01 X-42.2932 Y52.2402 
G01 X-42.2492 Y52.3463 
G01 X-42.1854 Y52.4419 
G01 X-42.1041 Y52.5232 
G01 X-42.0085 Y52.5870 
G01 X-41.9024 Y52.6310 
G01 X-41.7897 Y52.6534 
G01 X-29.7934 Y52.6534 
G01 X-29.7934 Y57.2075 
G01 X-29.7710 Y57.3202 
G01 X-29.7270 Y57.4263 
G01 X-29.6632 Y57.5219 
G01 X-29.5819 Y57.6032 
G01 X-29.4863 Y57.6670 
G01 X-29.3802 Y57.7110 
G01 X-29.2675 Y57.7334 
G01 X-29.1527 Y57.7334 
G01 X-29.0907 Y57.8551 
G01 X-28.9662 Y58.0265 
G01 X-28.8165 Y58.1762 
G01 X-28.6451 Y58.3007 
G01 X-28.4565 Y58.3968 
G01 X-28.2550 Y58.4623 
G01 X-28.0459 Y58.4954 
G01 X-27.8341 Y58.4954 
G01 X-27.6250 Y58.4623 
G01 X-27.4235 Y58.3968 
G01 X-27.2349 Y58.3007 
G01 X-27.0635 Y58.1762 
G01 X-26.9138 Y58.0265 
G01 X-26.7893 Y57.8551 
G01 X-26.6932 Y57.6665 
G01 X-26.6277 Y57.4650 
G01 X-26.5946 Y57.2559 
G00 Z4.0000 
G00 X-34.2477 Y54.2950 
G01 Z0.0000 F9000.00 
G01 X-34.3132 Y54.0935 F3000.00 
G01 X-34.4093 Y53.9049 
G01 X-34.5338 Y53.7335 
G01 X-34.6835 Y53.5838 
G01 X-34.8549 Y53.4593 
G01 X-35.0435 Y53.3632 
G01 X-35.2450 Y53.2977 
G01 X-35.4541 Y53.2646 
G01 X-35.6659 Y53.2646 
G01 X-35.8750 Y53.2977 
G01 X-36.0765 Y53.3632 
G01 X-36.2651 Y53.4593 
G01 X-36.4365 Y53.5838 
G01 X-36.5862 Y53.7335 
G01 X-36.7107 Y53.9049 
G01 X-36.8068 Y54.0935 
G01 X-36.8723 Y54.2950 
G01 X-36.8985 Y54.4605 
G01 X-36.9231 Y54.4707 
G01 X-36.9693 Y54.5169 
G01 X-36.9943 Y54.5773 
G01 X-36.9943 Y66.0727 
G01 X-36.9693 Y66.1331 
G01 X-36.9231 Y66.1793 
G01 X-35.8756 Y67.2267 
G01 X-35.7821 Y67.3486 
G01 X-35.5986 Y67.5321 
G01 X-35.3926 Y67.6902 
G01 X-35.1678 Y67.8200 
G01 X-34.9279 Y67.9193 
G01 X-34.6772 Y67.9865 
G01 X-34.4198 Y68.0204 
G01 X-34.1602 Y68.0204 
G01 X-33.9028 Y67.9865 
G01 X-33.6521 Y67.9193 
G01 X-33.4122 Y67.8200 
G01 X-33.1874 Y67.6902 
G01 X-32.9814 Y67.5321 
G01 X-32.7979 Y67.3486 
G01 X-32.6398 Y67.1426 
G01 X-32.5100 Y66.9178 
G01 X-32.4107 Y66.6779 
G01 X-32.3435 Y66.4272 
G01 X-32.3096 Y66.1698 
G01 X-32.3096 Y65.9102 
G01 X-32.3435 Y65.6528 
G01 X-32.4107 Y65.4021 
G01 X-32.5100 Y65.1622 
G01 X-32.6398 Y64.9374 
G01 X-32.7979 Y64.7314 
G01 X-32.9814 Y64.5479 
G01 X-33.1033 Y64.4544 
G01 X-34.1257 Y63.4319 
G01 X-34.1257 Y62.7920 
G01 X-34.1228 Y62.7813 
G01 X-34.1257 Y62.7596 
G01 X-34.1257 Y62.7377 
G01 X-34.1299 Y62.7275 
G01 X-34.1314 Y62.7165 
G01 X-34.1423 Y62.6976 
G01 X-34.1507 Y62.6773 
G01 X-34.1585 Y62.6695 
G01 X-34.4902 Y62.0950 
G01 X-34.6906 Y61.3471 
G01 X-34.6906 Y60.5729 
G01 X-34.4902 Y59.8250 
G01 X-34.1585 Y59.2505 
G01 X-34.1507 Y59.2427 
G01 X-34.1423 Y59.2224 
G01 X-34.1314 Y59.2035 
G01 X-34.1299 Y59.1925 
G01 X-34.1257 Y59.1823 
G01 X-34.1257 Y59.1604 
G01 X-34.1228 Y59.1387 
G01 X-34.1257 Y59.1280 
G01 X-34.1257 Y54.5773 
G01 X-34.1507 Y54.5169 
G01 X-34.1969 Y54.4707 
G01 X-34.2215 Y54.4605 
G01 X-34.2477 Y54.2950 
G00 Z4.0000 
G00 X-53.1757 Y62.7920 
G01 Z0.0000 F9000.00 
G01 X-53.1728 Y62.7813 F3000.00 
G01 X-53.1757 Y62.7596 
G01 X-53.1757 Y62.7377 
G01 X-53.1799 Y62.7275 
G01 X-53.1814 Y62.7165 
G01 X-53.1923 Y62.6976 
G01 X-53.2007 Y62.6773 
G01 X-53.2085 Y62.6695 
G01 X-53.5402 Y62.0950 
G01 X-53.7406 Y61.3471 
G01 X-53.7406 Y60.5729 
G01 X-53.5402 Y59.8250 
G01 X-53.2085 Y59.2505 
G01 X-53.2007 Y59.2427 
G01 X-53.1923 Y59.2224 
G01 X-53.1814 Y59.2035 
G01 X-53.1799 Y59.1925 
G01 X-53.1757 Y59.1823 
G01 X-53.1757 Y59.1604 
G01 X-53.1728 Y59.1387 
G01 X-53.1757 Y59.1280 
G01 X-53.1757 Y54.5773 
G01 X-53.2007 Y54.5169 
G01 X-53.2469 Y54.4707 
G01 X-53.2715 Y54.4605 
G01 X-53.2977 Y54.2950 
G01 X-53.3632 Y54.0935 
G01 X-53.4593 Y53.9049 
G01 X-53.5838 Y53.7335 
G01 X-53.7335 Y53.5838 
G01 X-53.9049 Y53.4593 
G01 X-54.0935 Y53.3632 
G01 X-54.2950 Y53.2977 
G01 X-54.5041 Y53.2646 
G01 X-54.7159 Y53.2646 
G01 X-54.9250 Y53.2977 
G01 X-55.1265 Y53.3632 
G01 X-55.3151 Y53.4593 
G01 X-55.4865 Y53.5838 
G01 X-55.6362 Y53.7335 
G01 X-55.7607 Y53.9049 
G01 X-55.8568 Y54.0935 
G01 X-55.9223 Y54.2950 
G01 X-55.9485 Y54.4605 
G01 X-55.9731 Y54.4707 
G01 X-56.0193 Y54.5169 
G01 X-56.0443 Y54.5773 
G01 X-56.0443 Y66.0727 
G01 X-56.0193 Y66.1331 
