(.../pcb-gcode-3_6_0_4/pcb-gcode.ulp)
(Copyright 2005 - 2012 by John Johnson)
(See readme.txt for licensing terms.)
(This file generated from the board:)
(.../midi_pad/midi_pad_laser_optimized.brd)
(Current profile is .../pcb-gcode-3_6_0_4/profiles/generic.pp  )
(This file generated 24.08.22 01:00)
(Settings from pcb-machine.h)
(  Tool Size)
(0.1778 )
(Z Axis Settings)
(  High     Up        Down     Drill)
(12.0000 	10.0000 	2.0000 	1.0000 )
(spindle on time = 3.0000)
(milling depth = 1.0000)
(text depth = 1.0000)
(tool change at 12.7000 15.2400 25.4000 )
(feed rate xy = F3000.00 )
(feed rate z  = F9000.00 )
(Settings from pcb-defaults.h)
(isolate min = 0.0254)
(isolate max = 0.1270)
(isolate step = 0.0635)
(Generated top outlines, bottom outlines, bottom drill, )
(Unit of measure: mm)
(Metric Mode)
G21
(Absolute Coordinates)
G90
G00 X0.0000 Y0.0000 
M03
G04 P3.000000
G00 Z10.0000 
G00 X57.6257 Y78.6185 
G01 Z2.0000 F9000.00 
G01 X57.5808 Y78.6331 F3000.00 
G01 X57.6318 Y78.6331 
G01 X57.6678 Y78.5970 
G01 X57.6257 Y78.6185 
G00 Z10.0000 
G00 X86.6267 Y54.8395 
G01 Z2.0000 F9000.00 
G01 X86.6296 Y54.8306 F3000.00 
G01 X86.6338 Y54.8223 
G01 X86.6267 Y54.8294 
G01 X86.6267 Y54.8395 
G00 Z10.0000 
G00 X66.6623 Y106.6187 
G01 Z2.0000 F9000.00 
G01 X66.6623 Y116.9013 F3000.00 
G01 X66.6384 Y117.0215 
G01 X66.5915 Y117.1348 
G01 X66.5234 Y117.2367 
G01 X66.4367 Y117.3234 
G01 X66.3348 Y117.3915 
G01 X66.2215 Y117.4384 
G01 X66.1013 Y117.4623 
G01 X65.9787 Y117.4623 
G01 X65.8585 Y117.4384 
G01 X65.7452 Y117.3915 
G01 X65.6433 Y117.3234 
G01 X65.5566 Y117.2367 
G01 X65.4885 Y117.1348 
G01 X65.4416 Y117.0215 
G01 X65.4177 Y116.9013 
G01 X65.4177 Y106.6187 
G01 X65.4416 Y106.4985 
G01 X65.4885 Y106.3852 
G01 X65.5566 Y106.2833 
G01 X65.6433 Y106.1966 
G01 X65.7452 Y106.1285 
G01 X65.8585 Y106.0816 
G01 X65.9787 Y106.0577 
G01 X66.1013 Y106.0577 
G01 X66.2215 Y106.0816 
G01 X66.3348 Y106.1285 
G01 X66.4367 Y106.1966 
G01 X66.5234 Y106.2833 
G01 X66.5915 Y106.3852 
G01 X66.6384 Y106.4985 
G01 X66.6623 Y106.6187 
G00 Z10.0000 
G00 X64.1223 Y106.6187 
G01 Z2.0000 F9000.00 
G01 X64.1223 Y116.9013 F3000.00 
G01 X64.0984 Y117.0215 
G01 X64.0515 Y117.1348 
G01 X63.9834 Y117.2367 
G01 X63.8967 Y117.3234 
G01 X63.7948 Y117.3915 
G01 X63.6815 Y117.4384 
G01 X63.5613 Y117.4623 
G01 X63.4387 Y117.4623 
G01 X63.3185 Y117.4384 
G01 X63.2052 Y117.3915 
G01 X63.1033 Y117.3234 
G01 X63.0166 Y117.2367 
G01 X62.9485 Y117.1348 
G01 X62.9016 Y117.0215 
G01 X62.8777 Y116.9013 
G01 X62.8777 Y106.6187 
G01 X62.9016 Y106.4985 
G01 X62.9485 Y106.3852 
G01 X63.0166 Y106.2833 
G01 X63.1033 Y106.1966 
G01 X63.2052 Y106.1285 
G01 X63.3185 Y106.0816 
G01 X63.4387 Y106.0577 
G01 X63.5613 Y106.0577 
G01 X63.6815 Y106.0816 
G01 X63.7948 Y106.1285 
G01 X63.8967 Y106.1966 
G01 X63.9834 Y106.2833 
G01 X64.0515 Y106.3852 
G01 X64.0984 Y106.4985 
G01 X64.1223 Y106.6187 
G00 Z10.0000 
G00 X81.7576 Y61.5420 
G01 Z2.0000 F9000.00 
G01 X81.6349 Y61.6240 F3000.00 
G01 X81.4986 Y61.6805 
G01 X81.3538 Y61.7093 
G01 X81.2062 Y61.7093 
G01 X81.0614 Y61.6805 
G01 X80.9251 Y61.6240 
G01 X80.8023 Y61.5420 
G01 X80.6980 Y61.4377 
G01 X80.6160 Y61.3149 
G01 X80.5595 Y61.1786 
G01 X80.5307 Y61.0338 
G01 X80.5307 Y60.8862 
G01 X80.5595 Y60.7414 
G01 X80.6160 Y60.6051 
G01 X80.6980 Y60.4823 
G01 X85.1281 Y56.0522 
G01 X85.1281 Y54.4452 
G01 X85.1569 Y54.3005 
G01 X85.2134 Y54.1641 
G01 X85.2954 Y54.0414 
G01 X99.4544 Y39.8823 
G01 X99.5588 Y39.7780 
G01 X99.6815 Y39.6960 
G01 X99.8179 Y39.6395 
G01 X99.9626 Y39.6107 
G01 X103.0227 Y39.6107 
G01 X103.0968 Y39.5366 
G01 X103.2342 Y39.4367 
G01 X103.3856 Y39.3596 
G01 X103.5472 Y39.3071 
G01 X103.7150 Y39.2805 
G01 X103.8850 Y39.2805 
G01 X104.0528 Y39.3071 
G01 X104.2144 Y39.3596 
G01 X104.3658 Y39.4367 
G01 X104.5032 Y39.5366 
G01 X104.6234 Y39.6568 
G01 X104.7233 Y39.7942 
G01 X104.8004 Y39.9456 
G01 X104.8529 Y40.1072 
G01 X104.8795 Y40.2750 
G01 X104.8795 Y40.4450 
G01 X104.8529 Y40.6128 
G01 X104.8004 Y40.7744 
G01 X104.7233 Y40.9258 
G01 X104.6234 Y41.0632 
G01 X104.5032 Y41.1834 
G01 X104.3658 Y41.2833 
G01 X104.2144 Y41.3604 
G01 X104.0528 Y41.4129 
G01 X103.8850 Y41.4395 
G01 X103.7150 Y41.4395 
G01 X103.5472 Y41.4129 
G01 X103.3856 Y41.3604 
G01 X103.2342 Y41.2833 
G01 X103.0968 Y41.1834 
G01 X103.0227 Y41.1093 
G01 X100.3468 Y41.1093 
G01 X87.2073 Y54.2488 
G01 X87.2156 Y54.2446 
G01 X87.3772 Y54.1921 
G01 X87.5450 Y54.1655 
G01 X87.7150 Y54.1655 
G01 X87.8828 Y54.1921 
G01 X88.0444 Y54.2446 
G01 X88.1958 Y54.3217 
G01 X88.3332 Y54.4216 
G01 X88.4534 Y54.5418 
G01 X88.5533 Y54.6792 
G01 X88.6304 Y54.8306 
G01 X88.6829 Y54.9922 
G01 X88.7095 Y55.1600 
G01 X88.7095 Y55.3300 
G01 X88.6829 Y55.4978 
G01 X88.6304 Y55.6594 
G01 X88.5533 Y55.8108 
G01 X88.4534 Y55.9482 
G01 X88.3332 Y56.0684 
G01 X88.1958 Y56.1683 
G01 X88.0444 Y56.2454 
G01 X87.8828 Y56.2979 
G01 X87.7150 Y56.3245 
G01 X87.5450 Y56.3245 
G01 X87.3772 Y56.2979 
G01 X87.2156 Y56.2454 
G01 X87.0642 Y56.1683 
G01 X86.9268 Y56.0684 
G01 X86.8066 Y55.9482 
G01 X86.7067 Y55.8108 
G01 X86.6296 Y55.6594 
G01 X86.6267 Y55.6505 
G01 X86.6267 Y56.4364 
G01 X86.5979 Y56.5812 
G01 X86.5414 Y56.7175 
G01 X86.4594 Y56.8403 
G01 X86.3551 Y56.9446 
G01 X81.7576 Y61.5420 
G00 Z10.0000 
G00 X86.8377 Y66.6220 
G01 Z2.0000 F9000.00 
G01 X86.7149 Y66.7040 F3000.00 
G01 X86.5786 Y66.7605 
G01 X86.4338 Y66.7893 
G01 X86.2862 Y66.7893 
G01 X86.1414 Y66.7605 
G01 X86.0051 Y66.7040 
G01 X85.8823 Y66.6220 
G01 X85.7780 Y66.5177 
G01 X85.6960 Y66.3949 
G01 X85.6395 Y66.2586 
G01 X85.6107 Y66.1138 
G01 X85.6107 Y65.9662 
G01 X85.6395 Y65.8214 
G01 X85.6960 Y65.6851 
G01 X85.7780 Y65.5623 
G01 X93.4007 Y57.9396 
G01 X93.4007 Y55.2023 
G01 X93.3266 Y55.1282 
G01 X93.2267 Y54.9908 
G01 X93.1496 Y54.8394 
G01 X93.0971 Y54.6778 
G01 X93.0705 Y54.5100 
G01 X93.0705 Y54.3400 
G01 X93.0971 Y54.1722 
G01 X93.1496 Y54.0106 
G01 X93.2267 Y53.8592 
G01 X93.3266 Y53.7218 
G01 X93.4468 Y53.6016 
G01 X93.5842 Y53.5017 
G01 X93.7356 Y53.4246 
G01 X93.8972 Y53.3721 
G01 X94.0650 Y53.3455 
G01 X94.2350 Y53.3455 
G01 X94.4028 Y53.3721 
G01 X94.5644 Y53.4246 
G01 X94.7158 Y53.5017 
G01 X94.8532 Y53.6016 
G01 X94.9734 Y53.7218 
G01 X95.0733 Y53.8592 
G01 X95.1504 Y54.0106 
G01 X95.2029 Y54.1722 
G01 X95.2295 Y54.3400 
G01 X95.2295 Y54.5100 
G01 X95.2029 Y54.6778 
G01 X95.1504 Y54.8394 
G01 X95.0733 Y54.9908 
G01 X94.9734 Y55.1282 
G01 X94.8993 Y55.2023 
G01 X94.8993 Y58.3238 
G01 X94.8705 Y58.4686 
G01 X94.8140 Y58.6049 
G01 X94.7320 Y58.7277 
G01 X94.6277 Y58.8320 
G01 X86.8377 Y66.6220 
G00 Z10.0000 
G00 X109.2938 Y9.0043 
G01 Z2.0000 F9000.00 
G01 X98.3512 Y9.0043 F3000.00 
G01 X98.2064 Y8.9755 
G01 X98.0701 Y8.9190 
G01 X97.9473 Y8.8370 
G01 X97.8430 Y8.7326 
G01 X97.7610 Y8.6099 
G01 X97.7045 Y8.4736 
G01 X97.6757 Y8.3288 
G01 X97.6757 Y8.1812 
G01 X97.7045 Y8.0364 
G01 X97.7610 Y7.9001 
G01 X97.8430 Y7.7773 
G01 X97.9473 Y7.6730 
G01 X98.0701 Y7.5910 
G01 X98.2064 Y7.5345 
G01 X98.3512 Y7.5057 
G01 X109.2938 Y7.5057 
G01 X109.4386 Y7.5345 
G01 X109.5749 Y7.5910 
G01 X109.6977 Y7.6730 
G01 X109.8020 Y7.7773 
G01 X109.8840 Y7.9001 
G01 X109.9405 Y8.0364 
G01 X109.9693 Y8.1812 
G01 X109.9693 Y8.3288 
G01 X109.9405 Y8.4736 
G01 X109.8840 Y8.6099 
G01 X109.8020 Y8.7326 
G01 X109.6977 Y8.8370 
G01 X109.5749 Y8.9190 
G01 X109.4386 Y8.9755 
G01 X109.2938 Y9.0043 
G00 Z10.0000 
G00 X26.2583 Y124.3794 
G01 Z2.0000 F9000.00 
G01 X26.2583 Y124.5406 F3000.00 
G01 X26.2269 Y124.6987 
G01 X26.1652 Y124.8476 
G01 X26.0756 Y124.9816 
G01 X25.9616 Y125.0956 
G01 X25.8276 Y125.1852 
G01 X25.6787 Y125.2469 
G01 X25.5206 Y125.2783 
G01 X25.3594 Y125.2783 
G01 X25.2013 Y125.2469 
G01 X25.0524 Y125.1852 
G01 X24.9184 Y125.0956 
G01 X24.8044 Y124.9816 
G01 X24.7148 Y124.8476 
G01 X24.6531 Y124.6987 
G01 X24.6217 Y124.5406 
G01 X24.6217 Y124.3794 
G01 X24.6531 Y124.2213 
G01 X24.7148 Y124.0724 
G01 X24.8044 Y123.9384 
G01 X24.9184 Y123.8244 
G01 X25.0524 Y123.7348 
G01 X25.2013 Y123.6731 
G01 X25.3594 Y123.6417 
G01 X25.5206 Y123.6417 
G01 X25.6787 Y123.6731 
G01 X25.8276 Y123.7348 
G01 X25.9616 Y123.8244 
G01 X26.0756 Y123.9384 
G01 X26.1652 Y124.0724 
G01 X26.2269 Y124.2213 
G01 X26.2583 Y124.3794 
G00 Z10.0000 
G00 X28.7583 Y124.3794 
G01 Z2.0000 F9000.00 
G01 X28.7583 Y124.5406 F3000.00 
G01 X28.7269 Y124.6987 
G01 X28.6652 Y124.8476 
G01 X28.5756 Y124.9816 
G01 X28.4616 Y125.0956 
G01 X28.3276 Y125.1852 
G01 X28.1787 Y125.2469 
G01 X28.0206 Y125.2783 
G01 X27.8594 Y125.2783 
G01 X27.7013 Y125.2469 
G01 X27.5524 Y125.1852 
G01 X27.4184 Y125.0956 
G01 X27.3044 Y124.9816 
G01 X27.2148 Y124.8476 
G01 X27.1531 Y124.6987 
G01 X27.1217 Y124.5406 
G01 X27.1217 Y124.3794 
G01 X27.1531 Y124.2213 
G01 X27.2148 Y124.0724 
G01 X27.3044 Y123.9384 
G01 X27.4184 Y123.8244 
G01 X27.5524 Y123.7348 
G01 X27.7013 Y123.6731 
G01 X27.8594 Y123.6417 
G01 X28.0206 Y123.6417 
G01 X28.1787 Y123.6731 
G01 X28.3276 Y123.7348 
G01 X28.4616 Y123.8244 
G01 X28.5756 Y123.9384 
G01 X28.6652 Y124.0724 
G01 X28.7269 Y124.2213 
G01 X28.7583 Y124.3794 
G00 Z10.0000 
G00 X31.2583 Y124.3794 
G01 Z2.0000 F9000.00 
G01 X31.2583 Y124.5406 F3000.00 
G01 X31.2269 Y124.6987 
G01 X31.1652 Y124.8476 
G01 X31.0756 Y124.9816 
G01 X30.9616 Y125.0956 
G01 X30.8276 Y125.1852 
G01 X30.6787 Y125.2469 
G01 X30.5206 Y125.2783 
G01 X30.3594 Y125.2783 
G01 X30.2013 Y125.2469 
G01 X30.0524 Y125.1852 
G01 X29.9184 Y125.0956 
G01 X29.8044 Y124.9816 
G01 X29.7148 Y124.8476 
G01 X29.6531 Y124.6987 
G01 X29.6217 Y124.5406 
G01 X29.6217 Y124.3794 
G01 X29.6531 Y124.2213 
G01 X29.7148 Y124.0724 
G01 X29.8044 Y123.9384 
G01 X29.9184 Y123.8244 
G01 X30.0524 Y123.7348 
G01 X30.2013 Y123.6731 
G01 X30.3594 Y123.6417 
G01 X30.5206 Y123.6417 
G01 X30.6787 Y123.6731 
G01 X30.8276 Y123.7348 
G01 X30.9616 Y123.8244 
G01 X31.0756 Y123.9384 
G01 X31.1652 Y124.0724 
G01 X31.2269 Y124.2213 
G01 X31.2583 Y124.3794 
G00 Z10.0000 
G00 X13.5583 Y124.3794 
G01 Z2.0000 F9000.00 
G01 X13.5583 Y124.5406 F3000.00 
G01 X13.5269 Y124.6987 
G01 X13.4652 Y124.8476 
G01 X13.3756 Y124.9816 
G01 X13.2616 Y125.0956 
G01 X13.1276 Y125.1852 
G01 X12.9787 Y125.2469 
G01 X12.8206 Y125.2783 
G01 X12.6594 Y125.2783 
G01 X12.5013 Y125.2469 
G01 X12.3524 Y125.1852 
G01 X12.2184 Y125.0956 
G01 X12.1044 Y124.9816 
G01 X12.0148 Y124.8476 
G01 X11.9531 Y124.6987 
G01 X11.9217 Y124.5406 
G01 X11.9217 Y124.3794 
G01 X11.9531 Y124.2213 
G01 X12.0148 Y124.0724 
G01 X12.1044 Y123.9384 
G01 X12.2184 Y123.8244 
G01 X12.3524 Y123.7348 
G01 X12.5013 Y123.6731 
G01 X12.6594 Y123.6417 
G01 X12.8206 Y123.6417 
G01 X12.9787 Y123.6731 
G01 X13.1276 Y123.7348 
G01 X13.2616 Y123.8244 
G01 X13.3756 Y123.9384 
G01 X13.4652 Y124.0724 
G01 X13.5269 Y124.2213 
G01 X13.5583 Y124.3794 
G00 Z10.0000 
G00 X16.0583 Y124.3794 
G01 Z2.0000 F9000.00 
G01 X16.0583 Y124.5406 F3000.00 
G01 X16.0268 Y124.6987 
G01 X15.9652 Y124.8476 
G01 X15.8756 Y124.9816 
G01 X15.7616 Y125.0956 
G01 X15.6276 Y125.1852 
G01 X15.4787 Y125.2469 
G01 X15.3206 Y125.2783 
G01 X15.1594 Y125.2783 
G01 X15.0013 Y125.2469 
G01 X14.8524 Y125.1852 
G01 X14.7184 Y125.0956 
G01 X14.6044 Y124.9816 
G01 X14.5148 Y124.8476 
G01 X14.4531 Y124.6987 
G01 X14.4217 Y124.5406 
G01 X14.4217 Y124.3794 
G01 X14.4531 Y124.2213 
G01 X14.5148 Y124.0724 
G01 X14.6044 Y123.9384 
G01 X14.7184 Y123.8244 
G01 X14.8524 Y123.7348 
G01 X15.0013 Y123.6731 
G01 X15.1594 Y123.6417 
G01 X15.3206 Y123.6417 
G01 X15.4787 Y123.6731 
G01 X15.6276 Y123.7348 
G01 X15.7616 Y123.8244 
G01 X15.8756 Y123.9384 
G01 X15.9652 Y124.0724 
G01 X16.0268 Y124.2213 
G01 X16.0583 Y124.3794 
G00 Z10.0000 
G00 X18.5583 Y124.3794 
G01 Z2.0000 F9000.00 
G01 X18.5583 Y124.5406 F3000.00 
G01 X18.5268 Y124.6987 
G01 X18.4652 Y124.8476 
G01 X18.3756 Y124.9816 
G01 X18.2616 Y125.0956 
G01 X18.1276 Y125.1852 
G01 X17.9787 Y125.2469 
G01 X17.8206 Y125.2783 
G01 X17.6594 Y125.2783 
G01 X17.5013 Y125.2469 
G01 X17.3524 Y125.1852 
G01 X17.2184 Y125.0956 
G01 X17.1044 Y124.9816 
G01 X17.0148 Y124.8476 
G01 X16.9531 Y124.6987 
G01 X16.9217 Y124.5406 
G01 X16.9217 Y124.3794 
G01 X16.9531 Y124.2213 
G01 X17.0148 Y124.0724 
G01 X17.1044 Y123.9384 
G01 X17.2184 Y123.8244 
G01 X17.3524 Y123.7348 
G01 X17.5013 Y123.6731 
G01 X17.6594 Y123.6417 
G01 X17.8206 Y123.6417 
G01 X17.9787 Y123.6731 
G01 X18.1276 Y123.7348 
G01 X18.2616 Y123.8244 
G01 X18.3756 Y123.9384 
G01 X18.4652 Y124.0724 
G01 X18.5268 Y124.2213 
G01 X18.5583 Y124.3794 
G00 Z10.0000 
G00 X40.1955 Y110.4087 
G01 Z2.0000 F9000.00 
G01 X40.1955 Y110.5713 F3000.00 
G01 X40.1638 Y110.7308 
G01 X40.1015 Y110.8810 
G01 X40.0112 Y111.0162 
G01 X39.8962 Y111.1312 
G01 X39.7610 Y111.2215 
G01 X39.6108 Y111.2838 
G01 X39.4513 Y111.3155 
G01 X39.2887 Y111.3155 
G01 X39.1292 Y111.2838 
G01 X38.9790 Y111.2215 
G01 X38.8438 Y111.1312 
G01 X38.7288 Y111.0162 
G01 X38.6384 Y110.8810 
G01 X38.5762 Y110.7308 
G01 X38.5445 Y110.5713 
G01 X38.5445 Y110.4087 
G01 X38.5762 Y110.2492 
G01 X38.6384 Y110.0990 
G01 X38.7288 Y109.9638 
G01 X38.8438 Y109.8488 
G01 X38.9790 Y109.7585 
G01 X39.1292 Y109.6962 
G01 X39.2887 Y109.6645 
G01 X39.4513 Y109.6645 
G01 X39.6108 Y109.6962 
G01 X39.7610 Y109.7585 
G01 X39.8962 Y109.8488 
G01 X40.0112 Y109.9638 
G01 X40.1015 Y110.0990 
G01 X40.1638 Y110.2492 
G01 X40.1955 Y110.4087 
G00 Z10.0000 
G00 X37.6555 Y110.4087 
G01 Z2.0000 F9000.00 
G01 X37.6555 Y110.5713 F3000.00 
G01 X37.6238 Y110.7308 
G01 X37.5615 Y110.8810 
G01 X37.4712 Y111.0162 
G01 X37.3562 Y111.1312 
G01 X37.2210 Y111.2215 
G01 X37.0708 Y111.2838 
G01 X36.9113 Y111.3155 
G01 X36.7487 Y111.3155 
G01 X36.5892 Y111.2838 
G01 X36.4390 Y111.2215 
G01 X36.3038 Y111.1312 
G01 X36.1888 Y111.0162 
G01 X36.0984 Y110.8810 
G01 X36.0362 Y110.7308 
G01 X36.0045 Y110.5713 
G01 X36.0045 Y110.4087 
G01 X36.0362 Y110.2492 
G01 X36.0984 Y110.0990 
G01 X36.1888 Y109.9638 
G01 X36.3038 Y109.8488 
G01 X36.4390 Y109.7585 
G01 X36.5892 Y109.6962 
G01 X36.7487 Y109.6645 
G01 X36.9113 Y109.6645 
G01 X37.0708 Y109.6962 
G01 X37.2210 Y109.7585 
G01 X37.3562 Y109.8488 
G01 X37.4712 Y109.9638 
G01 X37.5615 Y110.0990 
G01 X37.6238 Y110.2492 
G01 X37.6555 Y110.4087 
G00 Z10.0000 
G00 X35.1155 Y110.4087 
G01 Z2.0000 F9000.00 
G01 X35.1155 Y110.5713 F3000.00 
G01 X35.0838 Y110.7308 
G01 X35.0215 Y110.8810 
G01 X34.9312 Y111.0162 
G01 X34.8162 Y111.1312 
G01 X34.6810 Y111.2215 
G01 X34.5308 Y111.2838 
G01 X34.3713 Y111.3155 
G01 X34.2087 Y111.3155 
G01 X34.0492 Y111.2838 
G01 X33.8990 Y111.2215 
G01 X33.7638 Y111.1312 
G01 X33.6488 Y111.0162 
G01 X33.5585 Y110.8810 
G01 X33.4962 Y110.7308 
G01 X33.4645 Y110.5713 
G01 X33.4645 Y110.4087 
G01 X33.4962 Y110.2492 
G01 X33.5585 Y110.0990 
G01 X33.6488 Y109.9638 
G01 X33.7638 Y109.8488 
G01 X33.8990 Y109.7585 
G01 X34.0492 Y109.6962 
G01 X34.2087 Y109.6645 
G01 X34.3713 Y109.6645 
G01 X34.5308 Y109.6962 
G01 X34.6810 Y109.7585 
G01 X34.8162 Y109.8488 
G01 X34.9312 Y109.9638 
G01 X35.0215 Y110.0990 
G01 X35.0838 Y110.2492 
G01 X35.1155 Y110.4087 
G00 Z10.0000 
G00 X32.5755 Y110.4087 
G01 Z2.0000 F9000.00 
G01 X32.5755 Y110.5713 F3000.00 
G01 X32.5438 Y110.7308 
G01 X32.4815 Y110.8810 
G01 X32.3912 Y111.0162 
G01 X32.2762 Y111.1312 
G01 X32.1410 Y111.2215 
G01 X31.9908 Y111.2838 
G01 X31.8313 Y111.3155 
G01 X31.6687 Y111.3155 
G01 X31.5092 Y111.2838 
G01 X31.3590 Y111.2215 
G01 X31.2238 Y111.1312 
G01 X31.1088 Y111.0162 
G01 X31.0185 Y110.8810 
G01 X30.9562 Y110.7308 
G01 X30.9245 Y110.5713 
G01 X30.9245 Y110.4087 
G01 X30.9562 Y110.2492 
G01 X31.0185 Y110.0990 
G01 X31.1088 Y109.9638 
G01 X31.2238 Y109.8488 
G01 X31.3590 Y109.7585 
G01 X31.5092 Y109.6962 
G01 X31.6687 Y109.6645 
G01 X31.8313 Y109.6645 
G01 X31.9908 Y109.6962 
G01 X32.1410 Y109.7585 
G01 X32.2762 Y109.8488 
G01 X32.3912 Y109.9638 
G01 X32.4815 Y110.0990 
G01 X32.5438 Y110.2492 
G01 X32.5755 Y110.4087 
G00 Z10.0000 
G00 X109.9695 Y102.3031 
G01 Z2.0000 F9000.00 
G01 X109.9695 Y100.7497 F3000.00 
G01 X109.9869 Y100.7077 
G01 X110.0191 Y100.6755 
G01 X110.0611 Y100.6581 
G01 X111.6145 Y100.6581 
G01 X111.6565 Y100.6755 
G01 X111.6887 Y100.7077 
G01 X111.7061 Y100.7497 
G01 X111.7061 Y102.3031 
G01 X111.6887 Y102.3451 
G01 X111.6565 Y102.3773 
G01 X111.6145 Y102.3947 
G01 X110.0611 Y102.3947 
G01 X110.0191 Y102.3773 
G01 X109.9869 Y102.3451 
G01 X109.9695 Y102.3031 
G00 Z10.0000 
G00 X111.7061 Y98.9009 
G01 Z2.0000 F9000.00 
G01 X111.7061 Y99.0719 F3000.00 
G01 X111.6727 Y99.2397 
G01 X111.6073 Y99.3977 
G01 X111.5123 Y99.5399 
G01 X111.3913 Y99.6609 
G01 X111.2491 Y99.7559 
G01 X111.0911 Y99.8213 
G01 X110.9233 Y99.8547 
G01 X110.7523 Y99.8547 
G01 X110.5845 Y99.8213 
G01 X110.4265 Y99.7559 
G01 X110.2843 Y99.6609 
G01 X110.1633 Y99.5399 
G01 X110.0683 Y99.3977 
G01 X110.0029 Y99.2397 
G01 X109.9695 Y99.0719 
G01 X109.9695 Y98.9009 
G01 X110.0029 Y98.7331 
G01 X110.0683 Y98.5751 
G01 X110.1633 Y98.4329 
G01 X110.2843 Y98.3119 
G01 X110.4265 Y98.2169 
G01 X110.5845 Y98.1515 
G01 X110.7523 Y98.1181 
G01 X110.9233 Y98.1181 
G01 X111.0911 Y98.1515 
G01 X111.2491 Y98.2169 
G01 X111.3913 Y98.3119 
G01 X111.5123 Y98.4329 
G01 X111.6073 Y98.5751 
G01 X111.6727 Y98.7331 
G01 X111.7061 Y98.9009 
G00 Z10.0000 
G00 X111.7061 Y96.3609 
G01 Z2.0000 F9000.00 
G01 X111.7061 Y96.5319 F3000.00 
G01 X111.6727 Y96.6997 
G01 X111.6073 Y96.8577 
G01 X111.5123 Y96.9999 
G01 X111.3913 Y97.1209 
G01 X111.2491 Y97.2159 
G01 X111.0911 Y97.2813 
G01 X110.9233 Y97.3147 
G01 X110.7523 Y97.3147 
G01 X110.5845 Y97.2813 
G01 X110.4265 Y97.2159 
G01 X110.2843 Y97.1209 
G01 X110.1633 Y96.9999 
G01 X110.0683 Y96.8577 
G01 X110.0029 Y96.6997 
G01 X109.9695 Y96.5319 
G01 X109.9695 Y96.3609 
G01 X110.0029 Y96.1931 
G01 X110.0683 Y96.0351 
G01 X110.1633 Y95.8929 
G01 X110.2843 Y95.7719 
G01 X110.4265 Y95.6769 
G01 X110.5845 Y95.6115 
G01 X110.7523 Y95.5781 
G01 X110.9233 Y95.5781 
G01 X111.0911 Y95.6115 
G01 X111.2491 Y95.6769 
G01 X111.3913 Y95.7719 
G01 X111.5123 Y95.8929 
G01 X111.6073 Y96.0351 
G01 X111.6727 Y96.1931 
G01 X111.7061 Y96.3609 
G00 Z10.0000 
G00 X96.8949 Y103.9761 
G01 Z2.0000 F9000.00 
G01 X96.8949 Y102.4227 F3000.00 
G01 X96.9123 Y102.3807 
G01 X96.9445 Y102.3485 
G01 X96.9865 Y102.3311 
G01 X98.5399 Y102.3311 
G01 X98.5819 Y102.3485 
G01 X98.6141 Y102.3807 
G01 X98.6315 Y102.4227 
G01 X98.6315 Y103.9761 
G01 X98.6141 Y104.0181 
G01 X98.5819 Y104.0503 
G01 X98.5399 Y104.0677 
G01 X96.9865 Y104.0677 
G01 X96.9445 Y104.0503 
G01 X96.9123 Y104.0181 
G01 X96.8949 Y103.9761 
G00 Z10.0000 
G00 X98.6315 Y100.5739 
G01 Z2.0000 F9000.00 
G01 X98.6315 Y100.7449 F3000.00 
G01 X98.5981 Y100.9127 
G01 X98.5327 Y101.0707 
G01 X98.4377 Y101.2129 
G01 X98.3167 Y101.3338 
G01 X98.1745 Y101.4289 
G01 X98.0165 Y101.4943 
G01 X97.8487 Y101.5277 
G01 X97.6777 Y101.5277 
G01 X97.5099 Y101.4943 
G01 X97.3519 Y101.4289 
G01 X97.2097 Y101.3338 
G01 X97.0887 Y101.2129 
G01 X96.9937 Y101.0707 
G01 X96.9283 Y100.9127 
G01 X96.8949 Y100.7449 
G01 X96.8949 Y100.5739 
G01 X96.9283 Y100.4061 
G01 X96.9937 Y100.2481 
G01 X97.0887 Y100.1059 
G01 X97.2097 Y99.9849 
G01 X97.3519 Y99.8899 
G01 X97.5099 Y99.8245 
G01 X97.6777 Y99.7911 
G01 X97.8487 Y99.7911 
G01 X98.0165 Y99.8245 
G01 X98.1745 Y99.8899 
G01 X98.3167 Y99.9849 
G01 X98.4377 Y100.1059 
G01 X98.5327 Y100.2481 
G01 X98.5981 Y100.4061 
G01 X98.6315 Y100.5739 
G00 Z10.0000 
G00 X98.6315 Y98.0339 
G01 Z2.0000 F9000.00 
G01 X98.6315 Y98.2049 F3000.00 
G01 X98.5981 Y98.3727 
G01 X98.5327 Y98.5307 
G01 X98.4377 Y98.6729 
G01 X98.3167 Y98.7939 
G01 X98.1745 Y98.8889 
G01 X98.0165 Y98.9543 
G01 X97.8487 Y98.9877 
G01 X97.6777 Y98.9877 
G01 X97.5099 Y98.9543 
G01 X97.3519 Y98.8889 
G01 X97.2097 Y98.7939 
G01 X97.0887 Y98.6729 
G01 X96.9937 Y98.5307 
G01 X96.9283 Y98.3727 
G01 X96.8949 Y98.2049 
G01 X96.8949 Y98.0339 
G01 X96.9283 Y97.8661 
G01 X96.9937 Y97.7081 
G01 X97.0887 Y97.5659 
G01 X97.2097 Y97.4449 
G01 X97.3519 Y97.3499 
G01 X97.5099 Y97.2845 
G01 X97.6777 Y97.2511 
G01 X97.8487 Y97.2511 
G01 X98.0165 Y97.2845 
G01 X98.1745 Y97.3499 
G01 X98.3167 Y97.4449 
G01 X98.4377 Y97.5659 
G01 X98.5327 Y97.7081 
G01 X98.5981 Y97.8661 
G01 X98.6315 Y98.0339 
G00 Z10.0000 
G00 X98.6315 Y95.4939 
G01 Z2.0000 F9000.00 
G01 X98.6315 Y95.6649 F3000.00 
G01 X98.5981 Y95.8327 
G01 X98.5327 Y95.9907 
G01 X98.4377 Y96.1329 
G01 X98.3167 Y96.2538 
G01 X98.1745 Y96.3489 
G01 X98.0165 Y96.4143 
G01 X97.8487 Y96.4477 
G01 X97.6777 Y96.4477 
G01 X97.5099 Y96.4143 
G01 X97.3519 Y96.3489 
G01 X97.2097 Y96.2538 
G01 X97.0887 Y96.1329 
G01 X96.9937 Y95.9907 
G01 X96.9283 Y95.8327 
G01 X96.8949 Y95.6649 
G01 X96.8949 Y95.4939 
G01 X96.9283 Y95.3261 
G01 X96.9937 Y95.1681 
G01 X97.0887 Y95.0259 
G01 X97.2097 Y94.9049 
G01 X97.3519 Y94.8099 
G01 X97.5099 Y94.7445 
G01 X97.6777 Y94.7111 
G01 X97.8487 Y94.7111 
G01 X98.0165 Y94.7445 
G01 X98.1745 Y94.8099 
G01 X98.3167 Y94.9049 
G01 X98.4377 Y95.0259 
G01 X98.5327 Y95.1681 
G01 X98.5981 Y95.3261 
G01 X98.6315 Y95.4939 
G00 Z10.0000 
G00 X17.0033 Y93.1117 
G01 Z2.0000 F9000.00 
G01 X18.5567 Y93.1117 F3000.00 
G01 X18.5987 Y93.1291 
G01 X18.6309 Y93.1613 
G01 X18.6483 Y93.2033 
G01 X18.6483 Y94.7567 
G01 X18.6309 Y94.7987 
G01 X18.5987 Y94.8309 
G01 X18.5567 Y94.8483 
G01 X17.0033 Y94.8483 
G01 X16.9613 Y94.8309 
G01 X16.9291 Y94.7987 
G01 X16.9117 Y94.7567 
G01 X16.9117 Y93.2033 
G01 X16.9291 Y93.1613 
G01 X16.9613 Y93.1291 
G01 X17.0033 Y93.1117 
G00 Z10.0000 
G00 X19.5433 Y93.1117 
G01 Z2.0000 F9000.00 
G01 X21.0967 Y93.1117 F3000.00 
G01 X21.1387 Y93.1291 
G01 X21.1709 Y93.1613 
G01 X21.1883 Y93.2033 
G01 X21.1883 Y94.7567 
G01 X21.1709 Y94.7987 
G01 X21.1387 Y94.8309 
G01 X21.0967 Y94.8483 
G01 X19.5433 Y94.8483 
G01 X19.5013 Y94.8309 
G01 X19.4691 Y94.7987 
G01 X19.4517 Y94.7567 
G01 X19.4517 Y93.2033 
G01 X19.4691 Y93.1613 
G01 X19.5013 Y93.1291 
G01 X19.5433 Y93.1117 
G00 Z10.0000 
G00 X22.0833 Y93.1117 
G01 Z2.0000 F9000.00 
G01 X23.6367 Y93.1117 F3000.00 
G01 X23.6787 Y93.1291 
G01 X23.7109 Y93.1613 
G01 X23.7283 Y93.2033 
G01 X23.7283 Y94.7567 
G01 X23.7109 Y94.7987 
G01 X23.6787 Y94.8309 
G01 X23.6367 Y94.8483 
G01 X22.0833 Y94.8483 
G01 X22.0413 Y94.8309 
G01 X22.0091 Y94.7987 
G01 X21.9917 Y94.7567 
G01 X21.9917 Y93.2033 
G01 X22.0091 Y93.1613 
G01 X22.0413 Y93.1291 
G01 X22.0833 Y93.1117 
G00 Z10.0000 
G00 X24.6233 Y93.1117 
G01 Z2.0000 F9000.00 
G01 X26.1767 Y93.1117 F3000.00 
G01 X26.2187 Y93.1291 
G01 X26.2509 Y93.1613 
G01 X26.2683 Y93.2033 
G01 X26.2683 Y94.7567 
G01 X26.2509 Y94.7987 
G01 X26.2187 Y94.8309 
G01 X26.1767 Y94.8483 
G01 X24.6233 Y94.8483 
G01 X24.5813 Y94.8309 
G01 X24.5491 Y94.7987 
G01 X24.5317 Y94.7567 
G01 X24.5317 Y93.2033 
G01 X24.5491 Y93.1613 
G01 X24.5813 Y93.1291 
G01 X24.6233 Y93.1117 
G00 Z10.0000 
G00 X27.1633 Y93.1117 
G01 Z2.0000 F9000.00 
G01 X28.7167 Y93.1117 F3000.00 
G01 X28.7587 Y93.1291 
G01 X28.7909 Y93.1613 
G01 X28.8083 Y93.2033 
G01 X28.8083 Y94.7567 
G01 X28.7909 Y94.7987 
G01 X28.7587 Y94.8309 
G01 X28.7167 Y94.8483 
G01 X27.1633 Y94.8483 
G01 X27.1213 Y94.8309 
G01 X27.0891 Y94.7987 
G01 X27.0717 Y94.7567 
G01 X27.0717 Y93.2033 
G01 X27.0891 Y93.1613 
G01 X27.1213 Y93.1291 
G01 X27.1633 Y93.1117 
G00 Z10.0000 
G00 X29.7033 Y93.1117 
G01 Z2.0000 F9000.00 
G01 X31.2567 Y93.1117 F3000.00 
G01 X31.2987 Y93.1291 
G01 X31.3309 Y93.1613 
G01 X31.3483 Y93.2033 
G01 X31.3483 Y94.7567 
G01 X31.3309 Y94.7987 
G01 X31.2987 Y94.8309 
G01 X31.2567 Y94.8483 
G01 X29.7033 Y94.8483 
G01 X29.6613 Y94.8309 
G01 X29.6291 Y94.7987 
G01 X29.6117 Y94.7567 
G01 X29.6117 Y93.2033 
G01 X29.6291 Y93.1613 
G01 X29.6613 Y93.1291 
G01 X29.7033 Y93.1117 
G00 Z10.0000 
G00 X32.2433 Y93.1117 
G01 Z2.0000 F9000.00 
G01 X33.7967 Y93.1117 F3000.00 
G01 X33.8387 Y93.1291 
G01 X33.8709 Y93.1613 
G01 X33.8883 Y93.2033 
G01 X33.8883 Y94.7567 
G01 X33.8709 Y94.7987 
G01 X33.8387 Y94.8309 
G01 X33.7967 Y94.8483 
G01 X32.2433 Y94.8483 
G01 X32.2013 Y94.8309 
G01 X32.1691 Y94.7987 
G01 X32.1517 Y94.7567 
G01 X32.1517 Y93.2033 
G01 X32.1691 Y93.1613 
G01 X32.2013 Y93.1291 
G01 X32.2433 Y93.1117 
G00 Z10.0000 
G00 X34.7833 Y93.1117 
G01 Z2.0000 F9000.00 
G01 X36.3367 Y93.1117 F3000.00 
G01 X36.3787 Y93.1291 
G01 X36.4109 Y93.1613 
G01 X36.4283 Y93.2033 
G01 X36.4283 Y94.7567 
G01 X36.4109 Y94.7987 
G01 X36.3787 Y94.8309 
G01 X36.3367 Y94.8483 
G01 X34.7833 Y94.8483 
G01 X34.7413 Y94.8309 
G01 X34.7091 Y94.7987 
G01 X34.6917 Y94.7567 
G01 X34.6917 Y93.2033 
G01 X34.7091 Y93.1613 
G01 X34.7413 Y93.1291 
G01 X34.7833 Y93.1117 
G00 Z10.0000 
G00 X37.3233 Y93.1117 
G01 Z2.0000 F9000.00 
G01 X38.8767 Y93.1117 F3000.00 
G01 X38.9187 Y93.1291 
G01 X38.9509 Y93.1613 
G01 X38.9683 Y93.2033 
G01 X38.9683 Y94.7567 
G01 X38.9509 Y94.7987 
G01 X38.9187 Y94.8309 
G01 X38.8767 Y94.8483 
G01 X37.3233 Y94.8483 
G01 X37.2813 Y94.8309 
G01 X37.2491 Y94.7987 
G01 X37.2317 Y94.7567 
G01 X37.2317 Y93.2033 
G01 X37.2491 Y93.1613 
G01 X37.2813 Y93.1291 
G01 X37.3233 Y93.1117 
G00 Z10.0000 
G00 X46.4967 Y93.1117 
G01 Z2.0000 F9000.00 
G01 X46.5387 Y93.1291 F3000.00 
G01 X46.5709 Y93.1613 
G01 X46.5883 Y93.2033 
G01 X46.5883 Y93.3577 
G01 X50.5422 Y93.3577 
G01 X67.9577 Y75.9422 
G01 X67.9577 Y24.4841 
G01 X55.8119 Y12.3383 
G01 X52.2947 Y12.3383 
G01 X52.1745 Y12.3144 
G01 X52.0612 Y12.2675 
G01 X51.9593 Y12.1994 
G01 X51.8726 Y12.1127 
G01 X51.8122 Y12.0523 
G01 X49.4687 Y12.0523 
G01 X49.3485 Y12.0284 
G01 X49.2352 Y11.9815 
G01 X49.1333 Y11.9134 
G01 X49.0466 Y11.8267 
G01 X48.9785 Y11.7248 
G01 X48.9316 Y11.6115 
G01 X48.9077 Y11.4913 
G01 X48.9077 Y6.9723 
G01 X33.6423 Y6.9723 
G01 X33.6423 Y12.1263 
G01 X33.6184 Y12.2465 
G01 X33.5715 Y12.3598 
G01 X33.5034 Y12.4617 
G01 X33.4167 Y12.5484 
G01 X33.3148 Y12.6165 
G01 X33.2015 Y12.6634 
G01 X33.0813 Y12.6873 
G01 X30.4187 Y12.6873 
G01 X30.2985 Y12.6634 
G01 X30.1852 Y12.6165 
G01 X30.0833 Y12.5484 
G01 X29.9966 Y12.4617 
G01 X29.9285 Y12.3598 
G01 X29.8816 Y12.2465 
G01 X29.8577 Y12.1263 
G01 X29.8577 Y6.9723 
G01 X14.5923 Y6.9723 
G01 X14.5923 Y11.4913 
G01 X14.5684 Y11.6115 
G01 X14.5215 Y11.7248 
G01 X14.4534 Y11.8267 
G01 X14.3667 Y11.9134 
G01 X14.2648 Y11.9815 
G01 X14.1515 Y12.0284 
G01 X14.0313 Y12.0523 
G01 X11.3687 Y12.0523 
G01 X11.2485 Y12.0284 
G01 X11.1352 Y11.9815 
G01 X11.0333 Y11.9134 
G01 X10.9466 Y11.8267 
G01 X10.8785 Y11.7248 
G01 X10.8316 Y11.6115 
G01 X10.8077 Y11.4913 
G01 X10.8077 Y3.7487 
G01 X10.8316 Y3.6285 
G01 X10.8785 Y3.5152 
G01 X10.9466 Y3.4133 
G01 X11.0333 Y3.3266 
G01 X11.1352 Y3.2585 
G01 X11.2485 Y3.2116 
G01 X11.3687 Y3.1877 
G01 X52.1313 Y3.1877 
G01 X52.2515 Y3.2116 
G01 X52.3648 Y3.2585 
G01 X52.4667 Y3.3266 
G01 X52.5534 Y3.4133 
G01 X52.6215 Y3.5152 
G01 X52.6684 Y3.6285 
G01 X52.6923 Y3.7487 
G01 X52.6923 Y11.0937 
G01 X56.1310 Y11.0937 
G01 X56.2512 Y11.1176 
G01 X56.3645 Y11.1645 
G01 X56.4664 Y11.2326 
G01 X69.0634 Y23.8296 
G01 X69.1315 Y23.9315 
G01 X69.1784 Y24.0448 
G01 X69.2023 Y24.1650 
G01 X69.2023 Y76.2613 
G01 X69.1784 Y76.3815 
G01 X69.1315 Y76.4948 
G01 X69.0634 Y76.5967 
G01 X68.9767 Y76.6834 
G01 X51.1967 Y94.4634 
G01 X51.0948 Y94.5315 
G01 X50.9815 Y94.5784 
G01 X50.8613 Y94.6023 
G01 X46.5883 Y94.6023 
G01 X46.5883 Y94.7567 
G01 X46.5709 Y94.7987 
G01 X46.5387 Y94.8309 
G01 X46.4967 Y94.8483 
G01 X44.9433 Y94.8483 
G01 X44.9013 Y94.8309 
G01 X44.8691 Y94.7987 
G01 X44.8517 Y94.7567 
G01 X44.8517 Y93.2864 
G01 X44.0483 Y94.0898 
G01 X44.0483 Y94.7567 
G01 X44.0309 Y94.7987 
G01 X43.9987 Y94.8309 
G01 X43.9567 Y94.8483 
G01 X42.4033 Y94.8483 
G01 X42.3613 Y94.8309 
G01 X42.3291 Y94.7987 
G01 X42.3117 Y94.7567 
G01 X42.3117 Y93.2033 
G01 X42.3222 Y93.1778 
G01 X41.5083 Y93.9918 
G01 X41.5083 Y94.7567 
G01 X41.4909 Y94.7987 
G01 X41.4587 Y94.8309 
G01 X41.4167 Y94.8483 
G01 X39.8633 Y94.8483 
G01 X39.8213 Y94.8309 
G01 X39.7891 Y94.7987 
G01 X39.7717 Y94.7567 
G01 X39.7717 Y93.2033 
G01 X39.7891 Y93.1613 
G01 X39.8213 Y93.1291 
G01 X39.8633 Y93.1117 
G01 X40.6282 Y93.1117 
G01 X54.8812 Y78.8587 
G01 X54.9679 Y78.7720 
G01 X55.0698 Y78.7039 
G01 X55.1831 Y78.6570 
G01 X55.3033 Y78.6331 
G01 X56.7192 Y78.6331 
G01 X56.6743 Y78.6185 
G01 X56.5005 Y78.5299 
G01 X56.3427 Y78.4153 
G01 X56.2047 Y78.2773 
G01 X56.0901 Y78.1195 
G01 X56.0015 Y77.9457 
G01 X55.9412 Y77.7602 
G01 X55.9107 Y77.5675 
G01 X55.9107 Y77.3725 
G01 X55.9412 Y77.1798 
G01 X56.0015 Y76.9943 
G01 X56.0901 Y76.8205 
G01 X56.2047 Y76.6626 
G01 X56.3427 Y76.5247 
G01 X56.5005 Y76.4101 
G01 X56.6743 Y76.3215 
G01 X56.8598 Y76.2612 
G01 X57.0525 Y76.2307 
G01 X57.2475 Y76.2307 
G01 X57.4402 Y76.2612 
G01 X57.6257 Y76.3215 
G01 X57.7995 Y76.4101 
G01 X57.9573 Y76.5247 
G01 X58.0953 Y76.6626 
G01 X58.2099 Y76.8205 
G01 X58.2985 Y76.9943 
G01 X58.3588 Y77.1798 
G01 X58.3893 Y77.3725 
G01 X58.3893 Y77.5675 
G01 X58.3588 Y77.7602 
G01 X58.2985 Y77.9457 
G01 X58.2770 Y77.9878 
G01 X62.8777 Y73.3872 
G01 X62.8777 Y45.9778 
G01 X60.7022 Y43.8023 
G01 X52.6923 Y43.8023 
G01 X52.6923 Y49.5913 
G01 X52.6684 Y49.7115 
G01 X52.6215 Y49.8248 
G01 X52.5534 Y49.9267 
G01 X52.4667 Y50.0134 
G01 X52.3648 Y50.0815 
G01 X52.2515 Y50.1284 
G01 X52.1313 Y50.1523 
G01 X49.4687 Y50.1523 
G01 X49.3485 Y50.1284 
G01 X49.2352 Y50.0815 
G01 X49.1333 Y50.0134 
G01 X49.0466 Y49.9267 
G01 X48.9785 Y49.8248 
G01 X48.9316 Y49.7115 
G01 X48.9077 Y49.5913 
G01 X48.9077 Y45.0723 
G01 X33.6423 Y45.0723 
G01 X33.6423 Y50.2263 
G01 X33.6184 Y50.3465 
G01 X33.5715 Y50.4598 
G01 X33.5034 Y50.5617 
G01 X33.4167 Y50.6484 
G01 X33.3148 Y50.7165 
G01 X33.2015 Y50.7634 
G01 X33.0813 Y50.7873 
G01 X30.4187 Y50.7873 
G01 X30.2985 Y50.7634 
G01 X30.1852 Y50.7165 
G01 X30.0833 Y50.6484 
G01 X29.9966 Y50.5617 
G01 X29.9285 Y50.4598 
G01 X29.8816 Y50.3465 
G01 X29.8577 Y50.2263 
G01 X29.8577 Y45.0723 
G01 X14.5923 Y45.0723 
G01 X14.5923 Y49.5913 
G01 X14.5684 Y49.7115 
G01 X14.5215 Y49.8248 
G01 X14.4534 Y49.9267 
G01 X14.3667 Y50.0134 
G01 X14.2648 Y50.0815 
G01 X14.1515 Y50.1284 
G01 X14.0313 Y50.1523 
G01 X11.3687 Y50.1523 
G01 X11.2485 Y50.1284 
G01 X11.1352 Y50.0815 
G01 X11.0333 Y50.0134 
G01 X10.9466 Y49.9267 
G01 X10.8785 Y49.8248 
G01 X10.8316 Y49.7115 
G01 X10.8077 Y49.5913 
G01 X10.8077 Y41.8487 
G01 X10.8316 Y41.7285 
G01 X10.8785 Y41.6152 
G01 X10.9466 Y41.5133 
G01 X11.0333 Y41.4266 
G01 X11.1352 Y41.3585 
G01 X11.2485 Y41.3116 
G01 X11.3687 Y41.2877 
G01 X52.1313 Y41.2877 
G01 X52.2515 Y41.3116 
G01 X52.3648 Y41.3585 
G01 X52.4667 Y41.4266 
G01 X52.5534 Y41.5133 
G01 X52.6215 Y41.6152 
G01 X52.6684 Y41.7285 
G01 X52.6923 Y41.8487 
G01 X52.6923 Y42.5577 
G01 X61.0213 Y42.5577 
G01 X61.1415 Y42.5816 
G01 X61.2548 Y42.6285 
G01 X61.3567 Y42.6966 
G01 X61.4434 Y42.7833 
G01 X63.8967 Y45.2366 
G01 X63.9834 Y45.3233 
G01 X64.0515 Y45.4252 
G01 X64.0984 Y45.5385 
G01 X64.1223 Y45.6587 
G01 X64.1223 Y73.7062 
G01 X64.0984 Y73.8265 
G01 X64.0515 Y73.9397 
G01 X63.9834 Y74.0416 
G01 X58.2862 Y79.7388 
G01 X58.1843 Y79.8069 
G01 X58.0711 Y79.8538 
G01 X57.9508 Y79.8777 
G01 X55.6224 Y79.8777 
G01 X42.3778 Y93.1222 
G01 X42.4033 Y93.1117 
G01 X43.2663 Y93.1117 
G01 X44.7864 Y91.5916 
G01 X44.8883 Y91.5235 
G01 X45.0015 Y91.4766 
G01 X45.1218 Y91.4527 
G01 X49.9072 Y91.4527 
G01 X65.4177 Y75.9422 
G01 X65.4177 Y26.0223 
G01 X54.8678 Y26.0223 
G01 X52.6923 Y28.1978 
G01 X52.6923 Y30.5413 
G01 X52.6684 Y30.6615 
G01 X52.6215 Y30.7748 
G01 X52.5534 Y30.8767 
G01 X52.4667 Y30.9634 
G01 X52.3648 Y31.0315 
G01 X52.2515 Y31.0784 
G01 X52.1313 Y31.1023 
G01 X49.4687 Y31.1023 
G01 X49.3485 Y31.0784 
G01 X49.2352 Y31.0315 
G01 X49.1333 Y30.9634 
G01 X49.0466 Y30.8767 
G01 X48.9785 Y30.7748 
G01 X48.9316 Y30.6615 
G01 X48.9077 Y30.5413 
G01 X48.9077 Y26.0223 
G01 X33.6423 Y26.0223 
G01 X33.6423 Y31.1763 
G01 X33.6184 Y31.2965 
G01 X33.5715 Y31.4098 
G01 X33.5034 Y31.5117 
G01 X33.4167 Y31.5984 
G01 X33.3148 Y31.6665 
G01 X33.2015 Y31.7134 
G01 X33.0813 Y31.7373 
G01 X30.4187 Y31.7373 
G01 X30.2985 Y31.7134 
G01 X30.1852 Y31.6665 
G01 X30.0833 Y31.5984 
G01 X29.9966 Y31.5117 
G01 X29.9285 Y31.4098 
G01 X29.8816 Y31.2965 
G01 X29.8577 Y31.1763 
G01 X29.8577 Y26.0223 
G01 X14.5923 Y26.0223 
G01 X14.5923 Y30.5413 
G01 X14.5684 Y30.6615 
G01 X14.5215 Y30.7748 
G01 X14.4534 Y30.8767 
G01 X14.3667 Y30.9634 
G01 X14.2648 Y31.0315 
G01 X14.1515 Y31.0784 
G01 X14.0313 Y31.1023 
G01 X11.3687 Y31.1023 
G01 X11.2485 Y31.0784 
G01 X11.1352 Y31.0315 
G01 X11.0333 Y30.9634 
G01 X10.9466 Y30.8767 
G01 X10.8785 Y30.7748 
G01 X10.8316 Y30.6615 
G01 X10.8077 Y30.5413 
G01 X10.8077 Y22.7987 
G01 X10.8316 Y22.6785 
G01 X10.8785 Y22.5652 
G01 X10.9466 Y22.4633 
G01 X11.0333 Y22.3766 
G01 X11.1352 Y22.3085 
G01 X11.2485 Y22.2616 
G01 X11.3687 Y22.2377 
G01 X52.1313 Y22.2377 
G01 X52.2515 Y22.2616 
G01 X52.3648 Y22.3085 
G01 X52.4667 Y22.3766 
G01 X52.5534 Y22.4633 
G01 X52.6215 Y22.5652 
G01 X52.6684 Y22.6785 
G01 X52.6923 Y22.7987 
G01 X52.6923 Y26.4376 
G01 X54.1266 Y25.0033 
G01 X54.2133 Y24.9166 
G01 X54.3152 Y24.8485 
G01 X54.4285 Y24.8016 
G01 X54.5487 Y24.7777 
G01 X66.1013 Y24.7777 
G01 X66.2215 Y24.8016 
G01 X66.3348 Y24.8485 
G01 X66.4367 Y24.9166 
G01 X66.5234 Y25.0033 
G01 X66.5915 Y25.1052 
G01 X66.6384 Y25.2185 
G01 X66.6623 Y25.3387 
G01 X66.6623 Y76.2613 
G01 X66.6384 Y76.3815 
G01 X66.5915 Y76.4948 
G01 X66.5234 Y76.5967 
G01 X50.6484 Y92.4717 
G01 X50.5617 Y92.5584 
G01 X50.4598 Y92.6265 
G01 X50.3465 Y92.6734 
G01 X50.2263 Y92.6973 
G01 X45.4408 Y92.6973 
G01 X45.0264 Y93.1117 
G01 X46.4967 Y93.1117 
G00 Z10.0000 
G00 X14.4633 Y93.1117 
G01 Z2.0000 F9000.00 
G01 X16.0167 Y93.1117 F3000.00 
G01 X16.0587 Y93.1291 
G01 X16.0909 Y93.1613 
G01 X16.1083 Y93.2033 
G01 X16.1083 Y94.7567 
G01 X16.0909 Y94.7987 
G01 X16.0587 Y94.8309 
G01 X16.0167 Y94.8483 
G01 X14.4633 Y94.8483 
G01 X14.4213 Y94.8309 
G01 X14.3891 Y94.7987 
G01 X14.3717 Y94.7567 
G01 X14.3717 Y93.2033 
G01 X14.3891 Y93.1613 
G01 X14.4213 Y93.1291 
G01 X14.4633 Y93.1117 
G00 Z10.0000 
G00 X44.9433 Y115.9717 
G01 Z2.0000 F9000.00 
G01 X46.4967 Y115.9717 F3000.00 
G01 X46.5387 Y115.9891 
G01 X46.5709 Y116.0213 
G01 X46.5883 Y116.0633 
G01 X46.5883 Y117.6167 
G01 X46.5709 Y117.6587 
G01 X46.5387 Y117.6909 
G01 X46.4967 Y117.7083 
G01 X44.9433 Y117.7083 
G01 X44.9013 Y117.6909 
G01 X44.8691 Y117.6587 
G01 X44.8517 Y117.6167 
G01 X44.8517 Y116.0633 
G01 X44.8691 Y116.0213 
G01 X44.9013 Y115.9891 
G01 X44.9433 Y115.9717 
G00 Z10.0000 
G00 X42.4033 Y115.9717 
G01 Z2.0000 F9000.00 
G01 X43.9567 Y115.9717 F3000.00 
G01 X43.9987 Y115.9891 
G01 X44.0309 Y116.0213 
G01 X44.0483 Y116.0633 
G01 X44.0483 Y117.6167 
G01 X44.0309 Y117.6587 
G01 X43.9987 Y117.6909 
G01 X43.9567 Y117.7083 
G01 X42.4033 Y117.7083 
G01 X42.3613 Y117.6909 
G01 X42.3291 Y117.6587 
G01 X42.3117 Y117.6167 
G01 X42.3117 Y116.0633 
G01 X42.3291 Y116.0213 
G01 X42.3613 Y115.9891 
G01 X42.4033 Y115.9717 
G00 Z10.0000 
G00 X39.8633 Y115.9717 
G01 Z2.0000 F9000.00 
G01 X41.4167 Y115.9717 F3000.00 
G01 X41.4587 Y115.9891 
G01 X41.4909 Y116.0213 
G01 X41.5083 Y116.0633 
G01 X41.5083 Y117.6167 
G01 X41.4909 Y117.6587 
G01 X41.4587 Y117.6909 
G01 X41.4167 Y117.7083 
G01 X39.8633 Y117.7083 
G01 X39.8213 Y117.6909 
G01 X39.7891 Y117.6587 
G01 X39.7717 Y117.6167 
G01 X39.7717 Y116.0633 
G01 X39.7891 Y116.0213 
G01 X39.8213 Y115.9891 
G01 X39.8633 Y115.9717 
G00 Z10.0000 
G00 X14.4633 Y115.9717 
G01 Z2.0000 F9000.00 
G01 X16.0167 Y115.9717 F3000.00 
G01 X16.0587 Y115.9891 
G01 X16.0909 Y116.0213 
G01 X16.1083 Y116.0633 
G01 X16.1083 Y117.6167 
G01 X16.0909 Y117.6587 
G01 X16.0587 Y117.6909 
G01 X16.0167 Y117.7083 
G01 X14.4633 Y117.7083 
G01 X14.4213 Y117.6909 
G01 X14.3891 Y117.6587 
G01 X14.3717 Y117.6167 
G01 X14.3717 Y116.0633 
G01 X14.3891 Y116.0213 
G01 X14.4213 Y115.9891 
G01 X14.4633 Y115.9717 
G00 Z10.0000 
G00 X17.0033 Y115.9717 
G01 Z2.0000 F9000.00 
G01 X18.5567 Y115.9717 F3000.00 
G01 X18.5987 Y115.9891 
G01 X18.6309 Y116.0213 
G01 X18.6483 Y116.0633 
G01 X18.6483 Y117.6167 
G01 X18.6309 Y117.6587 
G01 X18.5987 Y117.6909 
G01 X18.5567 Y117.7083 
G01 X17.0033 Y117.7083 
G01 X16.9613 Y117.6909 
G01 X16.9291 Y117.6587 
G01 X16.9117 Y117.6167 
G01 X16.9117 Y116.0633 
G01 X16.9291 Y116.0213 
G01 X16.9613 Y115.9891 
G01 X17.0033 Y115.9717 
G00 Z10.0000 
G00 X19.5433 Y115.9717 
G01 Z2.0000 F9000.00 
G01 X21.0967 Y115.9717 F3000.00 
G01 X21.1387 Y115.9891 
G01 X21.1709 Y116.0213 
G01 X21.1883 Y116.0633 
G01 X21.1883 Y117.6167 
G01 X21.1709 Y117.6587 
G01 X21.1387 Y117.6909 
G01 X21.0967 Y117.7083 
G01 X19.5433 Y117.7083 
G01 X19.5013 Y117.6909 
G01 X19.4691 Y117.6587 
G01 X19.4517 Y117.6167 
G01 X19.4517 Y116.0633 
G01 X19.4691 Y116.0213 
G01 X19.5013 Y115.9891 
G01 X19.5433 Y115.9717 
G00 Z10.0000 
G00 X22.0833 Y115.9717 
G01 Z2.0000 F9000.00 
G01 X23.6367 Y115.9717 F3000.00 
G01 X23.6787 Y115.9891 
G01 X23.7109 Y116.0213 
G01 X23.7283 Y116.0633 
G01 X23.7283 Y117.6167 
G01 X23.7109 Y117.6587 
G01 X23.6787 Y117.6909 
G01 X23.6367 Y117.7083 
G01 X22.0833 Y117.7083 
G01 X22.0413 Y117.6909 
G01 X22.0091 Y117.6587 
G01 X21.9917 Y117.6167 
G01 X21.9917 Y116.0633 
G01 X22.0091 Y116.0213 
G01 X22.0413 Y115.9891 
G01 X22.0833 Y115.9717 
G00 Z10.0000 
G00 X24.6233 Y115.9717 
G01 Z2.0000 F9000.00 
G01 X26.1767 Y115.9717 F3000.00 
G01 X26.2187 Y115.9891 
G01 X26.2509 Y116.0213 
G01 X26.2683 Y116.0633 
G01 X26.2683 Y117.6167 
G01 X26.2509 Y117.6587 
G01 X26.2187 Y117.6909 
G01 X26.1767 Y117.7083 
G01 X24.6233 Y117.7083 
G01 X24.5813 Y117.6909 
G01 X24.5491 Y117.6587 
G01 X24.5317 Y117.6167 
G01 X24.5317 Y116.0633 
G01 X24.5491 Y116.0213 
G01 X24.5813 Y115.9891 
G01 X24.6233 Y115.9717 
G00 Z10.0000 
G00 X27.1633 Y115.9717 
G01 Z2.0000 F9000.00 
G01 X28.7167 Y115.9717 F3000.00 
G01 X28.7587 Y115.9891 
G01 X28.7909 Y116.0213 
G01 X28.8083 Y116.0633 
G01 X28.8083 Y117.6167 
G01 X28.7909 Y117.6587 
G01 X28.7587 Y117.6909 
G01 X28.7167 Y117.7083 
G01 X27.1633 Y117.7083 
G01 X27.1213 Y117.6909 
G01 X27.0891 Y117.6587 
G01 X27.0717 Y117.6167 
G01 X27.0717 Y116.0633 
G01 X27.0891 Y116.0213 
G01 X27.1213 Y115.9891 
G01 X27.1633 Y115.9717 
G00 Z10.0000 
G00 X29.7033 Y115.9717 
G01 Z2.0000 F9000.00 
G01 X31.2567 Y115.9717 F3000.00 
G01 X31.2987 Y115.9891 
G01 X31.3309 Y116.0213 
G01 X31.3483 Y116.0633 
G01 X31.3483 Y117.6167 
G01 X31.3309 Y117.6587 
G01 X31.2987 Y117.6909 
G01 X31.2567 Y117.7083 
G01 X29.7033 Y117.7083 
G01 X29.6613 Y117.6909 
G01 X29.6291 Y117.6587 
G01 X29.6117 Y117.6167 
G01 X29.6117 Y116.0633 
G01 X29.6291 Y116.0213 
G01 X29.6613 Y115.9891 
G01 X29.7033 Y115.9717 
G00 Z10.0000 
G00 X32.2433 Y115.9717 
G01 Z2.0000 F9000.00 
G01 X33.7967 Y115.9717 F3000.00 
G01 X33.8387 Y115.9891 
G01 X33.8709 Y116.0213 
G01 X33.8883 Y116.0633 
G01 X33.8883 Y117.6167 
G01 X33.8709 Y117.6587 
G01 X33.8387 Y117.6909 
G01 X33.7967 Y117.7083 
G01 X32.2433 Y117.7083 
G01 X32.2013 Y117.6909 
G01 X32.1691 Y117.6587 
G01 X32.1517 Y117.6167 
G01 X32.1517 Y116.0633 
G01 X32.1691 Y116.0213 
G01 X32.2013 Y115.9891 
G01 X32.2433 Y115.9717 
G00 Z10.0000 
G00 X34.7833 Y115.9717 
G01 Z2.0000 F9000.00 
G01 X36.3367 Y115.9717 F3000.00 
G01 X36.3787 Y115.9891 
G01 X36.4109 Y116.0213 
G01 X36.4283 Y116.0633 
G01 X36.4283 Y117.6167 
G01 X36.4109 Y117.6587 
G01 X36.3787 Y117.6909 
G01 X36.3367 Y117.7083 
G01 X34.7833 Y117.7083 
G01 X34.7413 Y117.6909 
G01 X34.7091 Y117.6587 
G01 X34.6917 Y117.6167 
G01 X34.6917 Y116.0633 
G01 X34.7091 Y116.0213 
G01 X34.7413 Y115.9891 
G01 X34.7833 Y115.9717 
G00 Z10.0000 
G00 X37.3233 Y115.9717 
G01 Z2.0000 F9000.00 
G01 X38.8767 Y115.9717 F3000.00 
G01 X38.9187 Y115.9891 
G01 X38.9509 Y116.0213 
G01 X38.9683 Y116.0633 
G01 X38.9683 Y117.6167 
G01 X38.9509 Y117.6587 
G01 X38.9187 Y117.6909 
G01 X38.8767 Y117.7083 
G01 X37.3233 Y117.7083 
G01 X37.2813 Y117.6909 
G01 X37.2491 Y117.6587 
G01 X37.2317 Y117.6167 
G01 X37.2317 Y116.0633 
G01 X37.2491 Y116.0213 
G01 X37.2813 Y115.9891 
G01 X37.3233 Y115.9717 
G00 Z10.0000 
G00 X40.2383 Y48.1745 
G01 Z2.0000 F9000.00 
G01 X40.2383 Y48.3455 F3000.00 
G01 X40.2049 Y48.5133 
G01 X40.1395 Y48.6713 
G01 X40.0445 Y48.8135 
G01 X39.9235 Y48.9345 
G01 X39.7813 Y49.0295 
G01 X39.6233 Y49.0949 
G01 X39.4555 Y49.1283 
G01 X39.2845 Y49.1283 
G01 X39.1167 Y49.0949 
G01 X38.9587 Y49.0295 
G01 X38.8165 Y48.9345 
G01 X38.6955 Y48.8135 
G01 X38.6005 Y48.6713 
G01 X38.5351 Y48.5133 
G01 X38.5017 Y48.3455 
G01 X38.5017 Y48.1745 
G01 X38.5351 Y48.0067 
G01 X38.6005 Y47.8487 
G01 X38.6955 Y47.7065 
G01 X38.8165 Y47.5855 
G01 X38.9587 Y47.4905 
G01 X39.1167 Y47.4251 
G01 X39.2845 Y47.3917 
G01 X39.4555 Y47.3917 
G01 X39.6233 Y47.4251 
G01 X39.7813 Y47.4905 
G01 X39.9235 Y47.5855 
G01 X40.0445 Y47.7065 
G01 X40.1395 Y47.8487 
G01 X40.2049 Y48.0067 
G01 X40.2383 Y48.1745 
G00 Z10.0000 
G00 X39.3393 Y58.3225 
G01 Z2.0000 F9000.00 
G01 X39.3393 Y58.5175 F3000.00 
G01 X39.3088 Y58.7102 
G01 X39.2485 Y58.8957 
G01 X39.1599 Y59.0695 
G01 X39.0453 Y59.2273 
G01 X38.9073 Y59.3653 
G01 X38.7495 Y59.4799 
G01 X38.5757 Y59.5685 
G01 X38.3902 Y59.6288 
G01 X38.1975 Y59.6593 
G01 X38.0025 Y59.6593 
G01 X37.8098 Y59.6288 
G01 X37.6243 Y59.5685 
G01 X37.4505 Y59.4799 
G01 X37.2927 Y59.3653 
G01 X37.1547 Y59.2273 
G01 X37.0401 Y59.0695 
G01 X36.9515 Y58.8957 
G01 X36.8912 Y58.7102 
G01 X36.8607 Y58.5175 
G01 X36.8607 Y58.3225 
G01 X36.8912 Y58.1298 
G01 X36.9515 Y57.9443 
G01 X37.0401 Y57.7705 
G01 X37.1547 Y57.6127 
G01 X37.2927 Y57.4747 
G01 X37.4505 Y57.3601 
G01 X37.6243 Y57.2715 
G01 X37.8098 Y57.2112 
G01 X38.0025 Y57.1807 
G01 X38.1975 Y57.1807 
G01 X38.3902 Y57.2112 
G01 X38.5757 Y57.2715 
G01 X38.7495 Y57.3601 
G01 X38.9073 Y57.4747 
G01 X39.0453 Y57.6127 
G01 X39.1599 Y57.7705 
G01 X39.2485 Y57.9443 
G01 X39.3088 Y58.1298 
G01 X39.3393 Y58.3225 
G00 Z10.0000 
G00 X32.9893 Y55.7825 
G01 Z2.0000 F9000.00 
G01 X32.9893 Y55.9775 F3000.00 
G01 X32.9588 Y56.1702 
G01 X32.8985 Y56.3557 
G01 X32.8099 Y56.5295 
G01 X32.6953 Y56.6873 
G01 X32.5573 Y56.8253 
G01 X32.3995 Y56.9399 
G01 X32.2257 Y57.0285 
G01 X32.0402 Y57.0888 
G01 X31.8475 Y57.1193 
G01 X31.6525 Y57.1193 
G01 X31.4598 Y57.0888 
G01 X31.2743 Y57.0285 
G01 X31.1005 Y56.9399 
G01 X30.9427 Y56.8253 
G01 X30.8047 Y56.6873 
G01 X30.6901 Y56.5295 
G01 X30.6015 Y56.3557 
G01 X30.5412 Y56.1702 
G01 X30.5107 Y55.9775 
G01 X30.5107 Y55.7825 
G01 X30.5412 Y55.5898 
G01 X30.6015 Y55.4043 
G01 X30.6901 Y55.2305 
G01 X30.8047 Y55.0727 
G01 X30.9427 Y54.9347 
G01 X31.1005 Y54.8201 
G01 X31.2743 Y54.7315 
G01 X31.4598 Y54.6712 
G01 X31.6525 Y54.6407 
G01 X31.8475 Y54.6407 
G01 X32.0402 Y54.6712 
G01 X32.2257 Y54.7315 
G01 X32.3995 Y54.8201 
G01 X32.5573 Y54.9347 
G01 X32.6953 Y55.0727 
G01 X32.8099 Y55.2305 
G01 X32.8985 Y55.4043 
G01 X32.9588 Y55.5898 
G01 X32.9893 Y55.7825 
G00 Z10.0000 
G00 X21.1883 Y48.1745 
G01 Z2.0000 F9000.00 
G01 X21.1883 Y48.3455 F3000.00 
G01 X21.1549 Y48.5133 
G01 X21.0895 Y48.6713 
G01 X20.9945 Y48.8135 
G01 X20.8735 Y48.9345 
G01 X20.7313 Y49.0295 
G01 X20.5733 Y49.0949 
G01 X20.4055 Y49.1283 
G01 X20.2345 Y49.1283 
G01 X20.0667 Y49.0949 
G01 X19.9087 Y49.0295 
G01 X19.7665 Y48.9345 
G01 X19.6455 Y48.8135 
G01 X19.5505 Y48.6713 
G01 X19.4851 Y48.5133 
G01 X19.4517 Y48.3455 
G01 X19.4517 Y48.1745 
G01 X19.4851 Y48.0067 
G01 X19.5505 Y47.8487 
G01 X19.6455 Y47.7065 
G01 X19.7665 Y47.5855 
G01 X19.9087 Y47.4905 
G01 X20.0667 Y47.4251 
G01 X20.2345 Y47.3917 
G01 X20.4055 Y47.3917 
G01 X20.5733 Y47.4251 
G01 X20.7313 Y47.4905 
G01 X20.8735 Y47.5855 
G01 X20.9945 Y47.7065 
G01 X21.0895 Y47.8487 
G01 X21.1549 Y48.0067 
G01 X21.1883 Y48.1745 
G00 Z10.0000 
G00 X20.2893 Y58.3225 
G01 Z2.0000 F9000.00 
G01 X20.2893 Y58.5175 F3000.00 
G01 X20.2588 Y58.7102 
G01 X20.1985 Y58.8957 
G01 X20.1099 Y59.0695 
G01 X19.9953 Y59.2273 
G01 X19.8573 Y59.3653 
G01 X19.6995 Y59.4799 
G01 X19.5257 Y59.5685 
G01 X19.3402 Y59.6288 
G01 X19.1475 Y59.6593 
G01 X18.9525 Y59.6593 
G01 X18.7598 Y59.6288 
G01 X18.5743 Y59.5685 
G01 X18.4005 Y59.4799 
G01 X18.2427 Y59.3653 
G01 X18.1047 Y59.2273 
G01 X17.9901 Y59.0695 
G01 X17.9015 Y58.8957 
G01 X17.8412 Y58.7102 
G01 X17.8107 Y58.5175 
G01 X17.8107 Y58.3225 
G01 X17.8412 Y58.1298 
G01 X17.9015 Y57.9443 
G01 X17.9901 Y57.7705 
G01 X18.1047 Y57.6127 
G01 X18.2427 Y57.4747 
G01 X18.4005 Y57.3601 
G01 X18.5743 Y57.2715 
G01 X18.7598 Y57.2112 
G01 X18.9525 Y57.1807 
G01 X19.1475 Y57.1807 
G01 X19.3402 Y57.2112 
G01 X19.5257 Y57.2715 
G01 X19.6995 Y57.3601 
G01 X19.8573 Y57.4747 
G01 X19.9953 Y57.6127 
G01 X20.1099 Y57.7705 
G01 X20.1985 Y57.9443 
G01 X20.2588 Y58.1298 
G01 X20.2893 Y58.3225 
G00 Z10.0000 
G00 X13.9393 Y55.7825 
G01 Z2.0000 F9000.00 
G01 X13.9393 Y55.9775 F3000.00 
G01 X13.9088 Y56.1702 
G01 X13.8485 Y56.3557 
G01 X13.7599 Y56.5295 
G01 X13.6453 Y56.6873 
G01 X13.5073 Y56.8253 
G01 X13.3495 Y56.9399 
G01 X13.1757 Y57.0285 
G01 X12.9902 Y57.0888 
G01 X12.7975 Y57.1193 
G01 X12.6025 Y57.1193 
G01 X12.4098 Y57.0888 
G01 X12.2243 Y57.0285 
G01 X12.0505 Y56.9399 
G01 X11.8926 Y56.8253 
G01 X11.7547 Y56.6873 
G01 X11.6401 Y56.5295 
G01 X11.5515 Y56.3557 
G01 X11.4912 Y56.1702 
G01 X11.4607 Y55.9775 
G01 X11.4607 Y55.7825 
G01 X11.4912 Y55.5898 
G01 X11.5515 Y55.4043 
G01 X11.6401 Y55.2305 
G01 X11.7547 Y55.0727 
G01 X11.8926 Y54.9347 
G01 X12.0505 Y54.8201 
G01 X12.2243 Y54.7315 
G01 X12.4098 Y54.6712 
G01 X12.6025 Y54.6407 
G01 X12.7975 Y54.6407 
G01 X12.9902 Y54.6712 
G01 X13.1757 Y54.7315 
G01 X13.3495 Y54.8201 
G01 X13.5073 Y54.9347 
G01 X13.6453 Y55.0727 
G01 X13.7599 Y55.2305 
G01 X13.8485 Y55.4043 
G01 X13.9088 Y55.5898 
G01 X13.9393 Y55.7825 
G00 Z10.0000 
G00 X111.9623 Y17.4193 
G01 Z2.0000 F9000.00 
G01 X111.9623 Y20.6807 F3000.00 
G01 X111.9449 Y20.7227 
G01 X111.9127 Y20.7549 
G01 X111.8707 Y20.7723 
G01 X108.6093 Y20.7723 
G01 X108.5673 Y20.7549 
G01 X108.5351 Y20.7227 
G01 X108.5177 Y20.6807 
G01 X108.5177 Y17.4193 
G01 X108.5351 Y17.3773 
G01 X108.5673 Y17.3451 
G01 X108.6093 Y17.3277 
G01 X111.8707 Y17.3277 
G01 X111.9127 Y17.3451 
G01 X111.9449 Y17.3773 
G01 X111.9623 Y17.4193 
G00 Z10.0000 
G00 X99.7623 Y17.4193 
G01 Z2.0000 F9000.00 
G01 X99.7623 Y20.6807 F3000.00 
G01 X99.7449 Y20.7227 
G01 X99.7127 Y20.7549 
G01 X99.6707 Y20.7723 
G01 X96.4093 Y20.7723 
G01 X96.3673 Y20.7549 
G01 X96.3351 Y20.7227 
G01 X96.3177 Y20.6807 
G01 X96.3177 Y17.4193 
G01 X96.3351 Y17.3773 
G01 X96.3673 Y17.3451 
G01 X96.4093 Y17.3277 
G01 X99.6707 Y17.3277 
G01 X99.7127 Y17.3451 
G01 X99.7449 Y17.3773 
G01 X99.7623 Y17.4193 
G00 Z10.0000 
G00 X107.5083 Y25.2733 
G01 Z2.0000 F9000.00 
G01 X107.5083 Y26.8267 F3000.00 
G01 X107.4909 Y26.8687 
G01 X107.4587 Y26.9009 
G01 X107.4167 Y26.9183 
G01 X105.8633 Y26.9183 
G01 X105.8213 Y26.9009 
G01 X105.7891 Y26.8687 
G01 X105.7717 Y26.8267 
G01 X105.7717 Y25.2733 
G01 X105.7891 Y25.2313 
G01 X105.8213 Y25.1991 
G01 X105.8633 Y25.1817 
G01 X107.4167 Y25.1817 
G01 X107.4587 Y25.1991 
G01 X107.4909 Y25.2313 
G01 X107.5083 Y25.2733 
G00 Z10.0000 
G00 X102.5083 Y25.2733 
G01 Z2.0000 F9000.00 
G01 X102.5083 Y26.8267 F3000.00 
G01 X102.4909 Y26.8687 
G01 X102.4587 Y26.9009 
G01 X102.4167 Y26.9183 
G01 X100.8633 Y26.9183 
G01 X100.8213 Y26.9009 
G01 X100.7891 Y26.8687 
G01 X100.7717 Y26.8267 
G01 X100.7717 Y25.2733 
G01 X100.7891 Y25.2313 
G01 X100.8213 Y25.1991 
G01 X100.8633 Y25.1817 
G01 X100.8907 Y25.1817 
G01 X100.8907 Y14.0977 
G01 X100.9195 Y13.9530 
G01 X100.9760 Y13.8166 
G01 X101.0580 Y13.6939 
G01 X102.3336 Y12.4183 
G01 X100.8633 Y12.4183 
G01 X100.8213 Y12.4009 
G01 X100.7891 Y12.3687 
G01 X100.7717 Y12.3267 
G01 X100.7717 Y10.7733 
G01 X100.7891 Y10.7313 
G01 X100.8213 Y10.6991 
G01 X100.8633 Y10.6817 
G01 X102.4167 Y10.6817 
G01 X102.4587 Y10.6991 
G01 X102.4909 Y10.7313 
G01 X102.5083 Y10.7733 
G01 X102.5083 Y12.1756 
G01 X102.5174 Y12.1537 
G01 X102.5994 Y12.0309 
G01 X102.7037 Y11.9266 
G01 X103.2717 Y11.3586 
G01 X103.2717 Y10.7733 
G01 X103.2891 Y10.7313 
G01 X103.3213 Y10.6991 
G01 X103.3633 Y10.6817 
G01 X104.9167 Y10.6817 
G01 X104.9587 Y10.6991 
G01 X104.9909 Y10.7313 
G01 X105.0083 Y10.7733 
G01 X105.0083 Y12.3267 
G01 X104.9909 Y12.3687 
G01 X104.9587 Y12.4009 
G01 X104.9167 Y12.4183 
G01 X104.3314 Y12.4183 
G01 X103.9021 Y12.8475 
G01 X103.8454 Y12.9851 
G01 X103.7634 Y13.1078 
G01 X102.3893 Y14.4819 
G01 X102.3893 Y25.1817 
G01 X102.4167 Y25.1817 
G01 X102.4587 Y25.1991 
G01 X102.4909 Y25.2313 
G01 X102.5083 Y25.2733 
G00 Z10.0000 
G00 X107.5083 Y10.7733 
G01 Z2.0000 F9000.00 
G01 X107.5083 Y12.3267 F3000.00 
G01 X107.4909 Y12.3687 
G01 X107.4587 Y12.4009 
G01 X107.4167 Y12.4183 
G01 X105.8633 Y12.4183 
G01 X105.8213 Y12.4009 
G01 X105.7891 Y12.3687 
G01 X105.7717 Y12.3267 
G01 X105.7717 Y10.7733 
G01 X105.7891 Y10.7313 
G01 X105.8213 Y10.6991 
G01 X105.8633 Y10.6817 
G01 X107.4167 Y10.6817 
G01 X107.4587 Y10.6991 
G01 X107.4909 Y10.7313 
G01 X107.5083 Y10.7733 
G00 Z10.0000 
G00 X124.8207 Y45.9223 
G01 Z2.0000 F9000.00 
G01 X121.5593 Y45.9223 F3000.00 
G01 X121.5173 Y45.9049 
G01 X121.4851 Y45.8727 
G01 X121.4677 Y45.8307 
G01 X121.4677 Y42.5693 
G01 X121.4851 Y42.5273 
G01 X121.5173 Y42.4951 
G01 X121.5593 Y42.4777 
G01 X124.8207 Y42.4777 
G01 X124.8627 Y42.4951 
G01 X124.8949 Y42.5273 
G01 X124.9123 Y42.5693 
G01 X124.9123 Y45.8307 
G01 X124.8949 Y45.8727 
G01 X124.8627 Y45.9049 
G01 X124.8207 Y45.9223 
G00 Z10.0000 
G00 X124.8207 Y33.7223 
G01 Z2.0000 F9000.00 
G01 X121.5593 Y33.7223 F3000.00 
G01 X121.5173 Y33.7049 
G01 X121.4851 Y33.6727 
G01 X121.4677 Y33.6307 
G01 X121.4677 Y30.3693 
G01 X121.4851 Y30.3273 
G01 X121.5173 Y30.2951 
G01 X121.5593 Y30.2777 
G01 X124.8207 Y30.2777 
G01 X124.8627 Y30.2951 
G01 X124.8949 Y30.3273 
G01 X124.9123 Y30.3693 
G01 X124.9123 Y33.6307 
G01 X124.8949 Y33.6727 
G01 X124.8627 Y33.7049 
G01 X124.8207 Y33.7223 
G00 Z10.0000 
G00 X116.9667 Y41.4683 
G01 Z2.0000 F9000.00 
G01 X115.4133 Y41.4683 F3000.00 
G01 X115.3713 Y41.4509 
G01 X115.3391 Y41.4187 
G01 X115.3217 Y41.3767 
G01 X115.3217 Y39.8233 
G01 X115.3391 Y39.7813 
G01 X115.3713 Y39.7491 
G01 X115.4133 Y39.7317 
G01 X116.9667 Y39.7317 
G01 X117.0087 Y39.7491 
G01 X117.0409 Y39.7813 
G01 X117.0583 Y39.8233 
G01 X117.0583 Y41.3767 
G01 X117.0409 Y41.4187 
G01 X117.0087 Y41.4509 
G01 X116.9667 Y41.4683 
G00 Z10.0000 
G00 X116.9667 Y36.4683 
G01 Z2.0000 F9000.00 
G01 X115.4133 Y36.4683 F3000.00 
G01 X115.3713 Y36.4509 
G01 X115.3391 Y36.4187 
G01 X115.3217 Y36.3767 
G01 X115.3217 Y34.8233 
G01 X115.3391 Y34.7813 
G01 X115.3713 Y34.7491 
G01 X115.4133 Y34.7317 
G01 X116.9667 Y34.7317 
G01 X117.0087 Y34.7491 
G01 X117.0409 Y34.7813 
G01 X117.0583 Y34.8233 
G01 X117.0583 Y34.8507 
G01 X128.1423 Y34.8507 
G01 X128.2870 Y34.8795 
G01 X128.4234 Y34.9360 
G01 X128.5461 Y35.0180 
G01 X129.8217 Y36.2936 
G01 X129.8217 Y34.8233 
G01 X129.8391 Y34.7813 
G01 X129.8713 Y34.7491 
G01 X129.9133 Y34.7317 
G01 X131.4667 Y34.7317 
G01 X131.5087 Y34.7491 
G01 X131.5409 Y34.7813 
G01 X131.5583 Y34.8233 
G01 X131.5583 Y36.3767 
G01 X131.5409 Y36.4187 
G01 X131.5087 Y36.4509 
G01 X131.4667 Y36.4683 
G01 X130.0644 Y36.4683 
G01 X130.0863 Y36.4774 
G01 X130.2091 Y36.5594 
G01 X130.3134 Y36.6637 
G01 X130.8814 Y37.2317 
G01 X131.4667 Y37.2317 
G01 X131.5087 Y37.2491 
G01 X131.5409 Y37.2813 
G01 X131.5583 Y37.3233 
G01 X131.5583 Y38.8767 
G01 X131.5409 Y38.9187 
G01 X131.5087 Y38.9509 
G01 X131.4667 Y38.9683 
G01 X129.9133 Y38.9683 
G01 X129.8713 Y38.9509 
G01 X129.8391 Y38.9187 
G01 X129.8217 Y38.8767 
G01 X129.8217 Y38.2914 
G01 X129.3925 Y37.8621 
G01 X129.2549 Y37.8054 
G01 X129.1322 Y37.7234 
G01 X127.7581 Y36.3493 
G01 X117.0583 Y36.3493 
G01 X117.0583 Y36.3767 
G01 X117.0409 Y36.4187 
G01 X117.0087 Y36.4509 
G01 X116.9667 Y36.4683 
G00 Z10.0000 
G00 X131.4667 Y41.4683 
G01 Z2.0000 F9000.00 
G01 X129.9133 Y41.4683 F3000.00 
G01 X129.8713 Y41.4509 
G01 X129.8391 Y41.4187 
G01 X129.8217 Y41.3767 
G01 X129.8217 Y39.8233 
G01 X129.8391 Y39.7813 
G01 X129.8713 Y39.7491 
G01 X129.9133 Y39.7317 
G01 X131.4667 Y39.7317 
G01 X131.5087 Y39.7491 
G01 X131.5409 Y39.7813 
G01 X131.5583 Y39.8233 
G01 X131.5583 Y41.3767 
G01 X131.5409 Y41.4187 
G01 X131.5087 Y41.4509 
G01 X131.4667 Y41.4683 
G00 Z10.0000 
G00 X83.4593 Y30.2777 
G01 Z2.0000 F9000.00 
G01 X86.7207 Y30.2777 F3000.00 
G01 X86.7627 Y30.2951 
G01 X86.7949 Y30.3273 
G01 X86.8123 Y30.3693 
G01 X86.8123 Y33.6307 
G01 X86.7949 Y33.6727 
G01 X86.7627 Y33.7049 
G01 X86.7207 Y33.7223 
G01 X83.4593 Y33.7223 
G01 X83.4173 Y33.7049 
G01 X83.3851 Y33.6727 
G01 X83.3677 Y33.6307 
G01 X83.3677 Y30.3693 
G01 X83.3851 Y30.3273 
G01 X83.4173 Y30.2951 
G01 X83.4593 Y30.2777 
G00 Z10.0000 
G00 X83.4593 Y42.4777 
G01 Z2.0000 F9000.00 
G01 X86.7207 Y42.4777 F3000.00 
G01 X86.7627 Y42.4951 
G01 X86.7949 Y42.5273 
G01 X86.8123 Y42.5693 
G01 X86.8123 Y45.8307 
G01 X86.7949 Y45.8727 
G01 X86.7627 Y45.9049 
G01 X86.7207 Y45.9223 
G01 X83.4593 Y45.9223 
G01 X83.4173 Y45.9049 
G01 X83.3851 Y45.8727 
G01 X83.3677 Y45.8307 
G01 X83.3677 Y42.5693 
G01 X83.3851 Y42.5273 
G01 X83.4173 Y42.4951 
G01 X83.4593 Y42.4777 
G00 Z10.0000 
G00 X91.3133 Y34.7317 
G01 Z2.0000 F9000.00 
G01 X92.8667 Y34.7317 F3000.00 
G01 X92.9087 Y34.7491 
G01 X92.9409 Y34.7813 
G01 X92.9583 Y34.8233 
G01 X92.9583 Y36.3767 
G01 X92.9409 Y36.4187 
G01 X92.9087 Y36.4509 
G01 X92.8667 Y36.4683 
G01 X91.3133 Y36.4683 
G01 X91.2713 Y36.4509 
G01 X91.2391 Y36.4187 
G01 X91.2217 Y36.3767 
G01 X91.2217 Y34.8233 
G01 X91.2391 Y34.7813 
G01 X91.2713 Y34.7491 
G01 X91.3133 Y34.7317 
G00 Z10.0000 
G00 X76.8133 Y34.7317 
G01 Z2.0000 F9000.00 
G01 X78.3667 Y34.7317 F3000.00 
G01 X78.4087 Y34.7491 
G01 X78.4409 Y34.7813 
G01 X78.4583 Y34.8233 
G01 X78.4583 Y36.3767 
G01 X78.4409 Y36.4187 
G01 X78.4087 Y36.4509 
G01 X78.3667 Y36.4683 
G01 X76.8133 Y36.4683 
G01 X76.7713 Y36.4509 
G01 X76.7391 Y36.4187 
G01 X76.7217 Y36.3767 
G01 X76.7217 Y34.8233 
G01 X76.7391 Y34.7813 
G01 X76.7713 Y34.7491 
G01 X76.8133 Y34.7317 
G00 Z10.0000 
G00 X76.8133 Y37.2317 
G01 Z2.0000 F9000.00 
G01 X78.3667 Y37.2317 F3000.00 
G01 X78.4087 Y37.2491 
G01 X78.4409 Y37.2813 
G01 X78.4583 Y37.3233 
G01 X78.4583 Y37.9086 
G01 X78.8875 Y38.3379 
G01 X79.0251 Y38.3946 
G01 X79.1478 Y38.4766 
G01 X80.5219 Y39.8507 
G01 X91.2217 Y39.8507 
G01 X91.2217 Y39.8233 
G01 X91.2391 Y39.7813 
G01 X91.2713 Y39.7491 
G01 X91.3133 Y39.7317 
G01 X92.8667 Y39.7317 
G01 X92.9087 Y39.7491 
G01 X92.9409 Y39.7813 
G01 X92.9583 Y39.8233 
G01 X92.9583 Y41.3767 
G01 X92.9409 Y41.4187 
G01 X92.9087 Y41.4509 
G01 X92.8667 Y41.4683 
G01 X91.3133 Y41.4683 
G01 X91.2713 Y41.4509 
G01 X91.2391 Y41.4187 
G01 X91.2217 Y41.3767 
G01 X91.2217 Y41.3493 
G01 X80.1377 Y41.3493 
G01 X79.9930 Y41.3205 
G01 X79.8566 Y41.2640 
G01 X79.7339 Y41.1820 
G01 X78.4583 Y39.9064 
G01 X78.4583 Y41.3767 
G01 X78.4409 Y41.4187 
G01 X78.4087 Y41.4509 
G01 X78.3667 Y41.4683 
G01 X76.8133 Y41.4683 
G01 X76.7713 Y41.4509 
G01 X76.7391 Y41.4187 
G01 X76.7217 Y41.3767 
G01 X76.7217 Y39.8233 
G01 X76.7391 Y39.7813 
G01 X76.7713 Y39.7491 
G01 X76.8133 Y39.7317 
G01 X78.2156 Y39.7317 
G01 X78.1937 Y39.7226 
G01 X78.0709 Y39.6406 
G01 X77.9666 Y39.5363 
G01 X77.3986 Y38.9683 
G01 X76.8133 Y38.9683 
G01 X76.7713 Y38.9509 
G01 X76.7391 Y38.9187 
G01 X76.7217 Y38.8767 
G01 X76.7217 Y37.3233 
G01 X76.7391 Y37.2813 
G01 X76.7713 Y37.2491 
G01 X76.8133 Y37.2317 
G00 Z10.0000 
G00 X96.3177 Y58.7807 
G01 Z2.0000 F9000.00 
G01 X96.3177 Y55.5193 F3000.00 
G01 X96.3351 Y55.4773 
G01 X96.3673 Y55.4451 
G01 X96.4093 Y55.4277 
G01 X99.6707 Y55.4277 
G01 X99.7127 Y55.4451 
G01 X99.7449 Y55.4773 
G01 X99.7623 Y55.5193 
G01 X99.7623 Y58.7807 
G01 X99.7449 Y58.8227 
G01 X99.7127 Y58.8549 
G01 X99.6707 Y58.8723 
G01 X96.4093 Y58.8723 
G01 X96.3673 Y58.8549 
G01 X96.3351 Y58.8227 
G01 X96.3177 Y58.7807 
G00 Z10.0000 
G00 X108.5177 Y58.7807 
G01 Z2.0000 F9000.00 
G01 X108.5177 Y55.5193 F3000.00 
G01 X108.5351 Y55.4773 
G01 X108.5673 Y55.4451 
G01 X108.6093 Y55.4277 
G01 X111.8707 Y55.4277 
G01 X111.9127 Y55.4451 
G01 X111.9449 Y55.4773 
G01 X111.9623 Y55.5193 
G01 X111.9623 Y58.7807 
G01 X111.9449 Y58.8227 
G01 X111.9127 Y58.8549 
G01 X111.8707 Y58.8723 
G01 X108.6093 Y58.8723 
G01 X108.5673 Y58.8549 
G01 X108.5351 Y58.8227 
G01 X108.5177 Y58.7807 
G00 Z10.0000 
G00 X100.7717 Y50.9267 
G01 Z2.0000 F9000.00 
G01 X100.7717 Y49.3733 F3000.00 
G01 X100.7891 Y49.3313 
G01 X100.8213 Y49.2991 
G01 X100.8633 Y49.2817 
G01 X102.4167 Y49.2817 
G01 X102.4587 Y49.2991 
G01 X102.4909 Y49.3313 
G01 X102.5083 Y49.3733 
G01 X102.5083 Y50.9267 
G01 X102.4909 Y50.9687 
G01 X102.4587 Y51.0009 
G01 X102.4167 Y51.0183 
G01 X100.8633 Y51.0183 
G01 X100.8213 Y51.0009 
G01 X100.7891 Y50.9687 
G01 X100.7717 Y50.9267 
G00 Z10.0000 
G00 X100.7717 Y65.4267 
G01 Z2.0000 F9000.00 
G01 X100.7717 Y63.8733 F3000.00 
G01 X100.7891 Y63.8313 
G01 X100.8213 Y63.7991 
G01 X100.8633 Y63.7817 
G01 X102.4167 Y63.7817 
G01 X102.4587 Y63.7991 
G01 X102.4909 Y63.8313 
G01 X102.5083 Y63.8733 
G01 X102.5083 Y65.4267 
G01 X102.4909 Y65.4687 
G01 X102.4587 Y65.5009 
G01 X102.4167 Y65.5183 
G01 X100.8633 Y65.5183 
G01 X100.8213 Y65.5009 
G01 X100.7891 Y65.4687 
G01 X100.7717 Y65.4267 
G00 Z10.0000 
G00 X103.2717 Y65.4267 
G01 Z2.0000 F9000.00 
G01 X103.2717 Y63.8733 F3000.00 
G01 X103.2891 Y63.8313 
G01 X103.3213 Y63.7991 
G01 X103.3633 Y63.7817 
G01 X103.9486 Y63.7817 
G01 X104.3779 Y63.3525 
G01 X104.4346 Y63.2149 
G01 X104.5166 Y63.0922 
G01 X105.8907 Y61.7181 
G01 X105.8907 Y51.0183 
G01 X105.8633 Y51.0183 
G01 X105.8213 Y51.0009 
G01 X105.7891 Y50.9687 
G01 X105.7717 Y50.9267 
G01 X105.7717 Y49.3733 
G01 X105.7891 Y49.3313 
G01 X105.8213 Y49.2991 
G01 X105.8633 Y49.2817 
G01 X107.4167 Y49.2817 
G01 X107.4587 Y49.2991 
G01 X107.4909 Y49.3313 
G01 X107.5083 Y49.3733 
G01 X107.5083 Y50.9267 
G01 X107.4909 Y50.9687 
G01 X107.4587 Y51.0009 
G01 X107.4167 Y51.0183 
G01 X107.3893 Y51.0183 
G01 X107.3893 Y62.1023 
G01 X107.3605 Y62.2470 
G01 X107.3040 Y62.3834 
G01 X107.2220 Y62.5061 
G01 X105.9464 Y63.7817 
G01 X107.4167 Y63.7817 
G01 X107.4587 Y63.7991 
G01 X107.4909 Y63.8313 
G01 X107.5083 Y63.8733 
G01 X107.5083 Y65.4267 
G01 X107.4909 Y65.4687 
G01 X107.4587 Y65.5009 
G01 X107.4167 Y65.5183 
G01 X105.8633 Y65.5183 
G01 X105.8213 Y65.5009 
G01 X105.7891 Y65.4687 
G01 X105.7717 Y65.4267 
G01 X105.7717 Y64.0244 
G01 X105.7626 Y64.0463 
G01 X105.6806 Y64.1690 
G01 X105.5763 Y64.2734 
G01 X105.0083 Y64.8414 
G01 X105.0083 Y65.4267 
G01 X104.9909 Y65.4687 
G01 X104.9587 Y65.5009 
G01 X104.9167 Y65.5183 
G01 X103.3633 Y65.5183 
G01 X103.3213 Y65.5009 
G01 X103.2891 Y65.4687 
G01 X103.2717 Y65.4267 
G00 Z10.0000 
G00 X59.2883 Y67.2245 
G01 Z2.0000 F9000.00 
G01 X59.2883 Y67.3955 F3000.00 
G01 X59.2549 Y67.5633 
G01 X59.1895 Y67.7213 
G01 X59.0945 Y67.8635 
G01 X58.9735 Y67.9845 
G01 X58.8313 Y68.0795 
G01 X58.6733 Y68.1449 
G01 X58.5055 Y68.1783 
G01 X58.3345 Y68.1783 
G01 X58.1667 Y68.1449 
G01 X58.0087 Y68.0795 
G01 X57.8665 Y67.9845 
G01 X57.7455 Y67.8635 
G01 X57.6505 Y67.7213 
G01 X57.5851 Y67.5633 
G01 X57.5517 Y67.3955 
G01 X57.5517 Y67.2245 
G01 X57.5851 Y67.0567 
G01 X57.6505 Y66.8987 
G01 X57.7455 Y66.7565 
G01 X57.8665 Y66.6355 
G01 X58.0087 Y66.5405 
G01 X58.1667 Y66.4751 
G01 X58.3345 Y66.4417 
G01 X58.5055 Y66.4417 
G01 X58.6733 Y66.4751 
G01 X58.8313 Y66.5405 
G01 X58.9735 Y66.6355 
G01 X59.0945 Y66.7565 
G01 X59.1895 Y66.8987 
G01 X59.2549 Y67.0567 
G01 X59.2883 Y67.2245 
G00 Z10.0000 
G00 X49.4687 Y69.2023 
G01 Z2.0000 F9000.00 
G01 X49.3485 Y69.1784 F3000.00 
G01 X49.2352 Y69.1315 
G01 X49.1333 Y69.0634 
G01 X49.0466 Y68.9767 
G01 X48.9785 Y68.8748 
G01 X48.9316 Y68.7615 
G01 X48.9077 Y68.6413 
G01 X48.9077 Y64.1223 
G01 X33.6423 Y64.1223 
G01 X33.6423 Y69.2763 
G01 X33.6184 Y69.3965 
G01 X33.5715 Y69.5098 
G01 X33.5034 Y69.6117 
G01 X33.4167 Y69.6984 
G01 X33.3148 Y69.7665 
G01 X33.2015 Y69.8134 
G01 X33.0813 Y69.8373 
G01 X30.4187 Y69.8373 
G01 X30.2985 Y69.8134 
G01 X30.1852 Y69.7665 
G01 X30.0833 Y69.6984 
G01 X29.9966 Y69.6117 
G01 X29.9285 Y69.5098 
G01 X29.8816 Y69.3965 
G01 X29.8577 Y69.2763 
G01 X29.8577 Y64.1223 
G01 X14.5923 Y64.1223 
G01 X14.5923 Y68.6413 
G01 X14.5684 Y68.7615 
G01 X14.5215 Y68.8748 
G01 X14.4534 Y68.9767 
G01 X14.3667 Y69.0634 
G01 X14.2648 Y69.1315 
G01 X14.1515 Y69.1784 
G01 X14.0313 Y69.2023 
G01 X11.3687 Y69.2023 
G01 X11.2485 Y69.1784 
G01 X11.1352 Y69.1315 
G01 X11.0333 Y69.0634 
G01 X10.9466 Y68.9767 
G01 X10.8785 Y68.8748 
G01 X10.8316 Y68.7615 
G01 X10.8077 Y68.6413 
G01 X10.8077 Y60.8987 
G01 X10.8316 Y60.7785 
G01 X10.8785 Y60.6652 
G01 X10.9466 Y60.5633 
G01 X11.0333 Y60.4766 
G01 X11.1352 Y60.4085 
G01 X11.2485 Y60.3616 
G01 X11.3687 Y60.3377 
G01 X52.1313 Y60.3377 
G01 X52.2515 Y60.3616 
G01 X52.3648 Y60.4085 
G01 X52.4667 Y60.4766 
G01 X52.5534 Y60.5633 
G01 X52.6215 Y60.6652 
G01 X52.6684 Y60.7785 
G01 X52.6923 Y60.8987 
G01 X52.6923 Y68.6413 
G01 X52.6684 Y68.7615 
G01 X52.6215 Y68.8748 
G01 X52.5534 Y68.9767 
G01 X52.4667 Y69.0634 
G01 X52.3648 Y69.1315 
G01 X52.2515 Y69.1784 
G01 X52.1313 Y69.2023 
G01 X52.0087 Y69.2023 
G01 X49.4687 Y69.2023 
G00 Z10.0000 
G00 X52.0393 Y74.8325 
G01 Z2.0000 F9000.00 
G01 X52.0393 Y75.0275 F3000.00 
G01 X52.0088 Y75.2202 
G01 X51.9485 Y75.4057 
G01 X51.8599 Y75.5795 
G01 X51.7453 Y75.7373 
G01 X51.6073 Y75.8753 
G01 X51.4495 Y75.9899 
G01 X51.2757 Y76.0785 
G01 X51.0902 Y76.1388 
G01 X50.8975 Y76.1693 
G01 X50.7025 Y76.1693 
G01 X50.5098 Y76.1388 
G01 X50.3243 Y76.0785 
G01 X50.1505 Y75.9899 
G01 X49.9927 Y75.8753 
G01 X49.8547 Y75.7373 
G01 X49.7401 Y75.5795 
G01 X49.6515 Y75.4057 
G01 X49.5912 Y75.2202 
G01 X49.5607 Y75.0275 
G01 X49.5607 Y74.8325 
G01 X49.5912 Y74.6398 
G01 X49.6515 Y74.4543 
G01 X49.7401 Y74.2805 
G01 X49.8547 Y74.1227 
G01 X49.9927 Y73.9847 
G01 X50.1505 Y73.8701 
G01 X50.3243 Y73.7815 
G01 X50.5098 Y73.7212 
G01 X50.7025 Y73.6907 
G01 X50.8975 Y73.6907 
G01 X51.0902 Y73.7212 
G01 X51.2757 Y73.7815 
G01 X51.4495 Y73.8701 
G01 X51.6073 Y73.9847 
G01 X51.7453 Y74.1227 
G01 X51.8599 Y74.2805 
G01 X51.9485 Y74.4543 
G01 X52.0088 Y74.6398 
G01 X52.0393 Y74.8325 
G00 Z10.0000 
G00 X40.2383 Y67.2245 
G01 Z2.0000 F9000.00 
G01 X40.2383 Y67.3955 F3000.00 
G01 X40.2049 Y67.5633 
G01 X40.1395 Y67.7213 
G01 X40.0445 Y67.8635 
G01 X39.9235 Y67.9845 
G01 X39.7813 Y68.0795 
G01 X39.6233 Y68.1449 
G01 X39.4555 Y68.1783 
G01 X39.2845 Y68.1783 
G01 X39.1167 Y68.1449 
G01 X38.9587 Y68.0795 
G01 X38.8165 Y67.9845 
G01 X38.6955 Y67.8635 
G01 X38.6005 Y67.7213 
G01 X38.5351 Y67.5633 
G01 X38.5017 Y67.3955 
G01 X38.5017 Y67.2245 
G01 X38.5351 Y67.0567 
G01 X38.6005 Y66.8987 
G01 X38.6955 Y66.7565 
G01 X38.8165 Y66.6355 
G01 X38.9587 Y66.5405 
G01 X39.1167 Y66.4751 
G01 X39.2845 Y66.4417 
G01 X39.4555 Y66.4417 
G01 X39.6233 Y66.4751 
G01 X39.7813 Y66.5405 
G01 X39.9235 Y66.6355 
G01 X40.0445 Y66.7565 
G01 X40.1395 Y66.8987 
G01 X40.2049 Y67.0567 
G01 X40.2383 Y67.2245 
G00 Z10.0000 
G00 X39.3393 Y77.3725 
G01 Z2.0000 F9000.00 
G01 X39.3393 Y77.5675 F3000.00 
G01 X39.3088 Y77.7602 
G01 X39.2485 Y77.9457 
G01 X39.1599 Y78.1195 
G01 X39.0453 Y78.2773 
G01 X38.9073 Y78.4153 
G01 X38.7495 Y78.5299 
G01 X38.5757 Y78.6185 
G01 X38.3902 Y78.6788 
G01 X38.1975 Y78.7093 
G01 X38.0025 Y78.7093 
G01 X37.8098 Y78.6788 
G01 X37.6243 Y78.6185 
G01 X37.4505 Y78.5299 
G01 X37.2927 Y78.4153 
G01 X37.1547 Y78.2773 
G01 X37.0401 Y78.1195 
G01 X36.9515 Y77.9457 
G01 X36.8912 Y77.7602 
G01 X36.8607 Y77.5675 
G01 X36.8607 Y77.3725 
G01 X36.8912 Y77.1798 
G01 X36.9515 Y76.9943 
G01 X37.0401 Y76.8205 
G01 X37.1547 Y76.6626 
G01 X37.2927 Y76.5247 
G01 X37.4505 Y76.4101 
G01 X37.6243 Y76.3215 
G01 X37.8098 Y76.2612 
G01 X38.0025 Y76.2307 
G01 X38.1975 Y76.2307 
G01 X38.3902 Y76.2612 
G01 X38.5757 Y76.3215 
G01 X38.7495 Y76.4101 
G01 X38.9073 Y76.5247 
G01 X39.0453 Y76.6626 
G01 X39.1599 Y76.8205 
G01 X39.2485 Y76.9943 
G01 X39.3088 Y77.1798 
G01 X39.3393 Y77.3725 
G00 Z10.0000 
G00 X32.9893 Y74.8325 
G01 Z2.0000 F9000.00 
G01 X32.9893 Y75.0275 F3000.00 
G01 X32.9588 Y75.2202 
G01 X32.8985 Y75.4057 
G01 X32.8099 Y75.5795 
G01 X32.6953 Y75.7373 
G01 X32.5573 Y75.8753 
G01 X32.3995 Y75.9899 
G01 X32.2257 Y76.0785 
G01 X32.0402 Y76.1388 
G01 X31.8475 Y76.1693 
G01 X31.6525 Y76.1693 
G01 X31.4598 Y76.1388 
G01 X31.2743 Y76.0785 
G01 X31.1005 Y75.9899 
G01 X30.9427 Y75.8753 
G01 X30.8047 Y75.7373 
G01 X30.6901 Y75.5795 
G01 X30.6015 Y75.4057 
G01 X30.5412 Y75.2202 
G01 X30.5107 Y75.0275 
G01 X30.5107 Y74.8325 
G01 X30.5412 Y74.6398 
G01 X30.6015 Y74.4543 
G01 X30.6901 Y74.2805 
G01 X30.8047 Y74.1227 
G01 X30.9427 Y73.9847 
G01 X31.1005 Y73.8701 
G01 X31.2743 Y73.7815 
G01 X31.4598 Y73.7212 
G01 X31.6525 Y73.6907 
G01 X31.8475 Y73.6907 
G01 X32.0402 Y73.7212 
G01 X32.2257 Y73.7815 
G01 X32.3995 Y73.8701 
G01 X32.5573 Y73.9847 
G01 X32.6953 Y74.1227 
G01 X32.8099 Y74.2805 
G01 X32.8985 Y74.4543 
G01 X32.9588 Y74.6398 
G01 X32.9893 Y74.8325 
G00 Z10.0000 
G00 X59.2883 Y10.0745 
G01 Z2.0000 F9000.00 
G01 X59.2883 Y10.2455 F3000.00 
G01 X59.2549 Y10.4133 
G01 X59.1895 Y10.5713 
G01 X59.0945 Y10.7135 
G01 X58.9735 Y10.8345 
G01 X58.8313 Y10.9295 
G01 X58.6733 Y10.9949 
G01 X58.5055 Y11.0283 
G01 X58.3345 Y11.0283 
G01 X58.1667 Y10.9949 
G01 X58.0087 Y10.9295 
G01 X57.8665 Y10.8345 
G01 X57.7455 Y10.7135 
G01 X57.6505 Y10.5713 
G01 X57.5851 Y10.4133 
G01 X57.5517 Y10.2455 
G01 X57.5517 Y10.0745 
G01 X57.5851 Y9.9067 
G01 X57.6505 Y9.7487 
G01 X57.7455 Y9.6065 
G01 X57.8665 Y9.4855 
G01 X58.0087 Y9.3905 
G01 X58.1667 Y9.3251 
G01 X58.3345 Y9.2917 
G01 X58.5055 Y9.2917 
G01 X58.6733 Y9.3251 
G01 X58.8313 Y9.3905 
G01 X58.9735 Y9.4855 
G01 X59.0945 Y9.6065 
G01 X59.1895 Y9.7487 
G01 X59.2549 Y9.9067 
G01 X59.2883 Y10.0745 
G00 Z10.0000 
G00 X58.3893 Y20.2225 
G01 Z2.0000 F9000.00 
G01 X58.3893 Y20.4175 F3000.00 
G01 X58.3588 Y20.6102 
G01 X58.2985 Y20.7957 
G01 X58.2099 Y20.9695 
G01 X58.0953 Y21.1273 
G01 X57.9573 Y21.2653 
G01 X57.7995 Y21.3799 
G01 X57.6257 Y21.4685 
G01 X57.4402 Y21.5288 
G01 X57.2475 Y21.5593 
G01 X57.0525 Y21.5593 
G01 X56.8598 Y21.5288 
G01 X56.6743 Y21.4685 
G01 X56.5005 Y21.3799 
G01 X56.3427 Y21.2653 
G01 X56.2047 Y21.1273 
G01 X56.0901 Y20.9695 
G01 X56.0015 Y20.7957 
G01 X55.9412 Y20.6102 
G01 X55.9107 Y20.4175 
G01 X55.9107 Y20.2225 
G01 X55.9412 Y20.0298 
G01 X56.0015 Y19.8443 
G01 X56.0901 Y19.6705 
G01 X56.2047 Y19.5127 
G01 X56.3427 Y19.3747 
G01 X56.5005 Y19.2601 
G01 X56.6743 Y19.1715 
G01 X56.8598 Y19.1112 
G01 X57.0525 Y19.0807 
G01 X57.2475 Y19.0807 
G01 X57.4402 Y19.1112 
G01 X57.6257 Y19.1715 
G01 X57.7995 Y19.2601 
G01 X57.9573 Y19.3747 
G01 X58.0953 Y19.5127 
G01 X58.2099 Y19.6705 
G01 X58.2985 Y19.8443 
G01 X58.3588 Y20.0298 
G01 X58.3893 Y20.2225 
G00 Z10.0000 
G00 X52.0393 Y17.6825 
G01 Z2.0000 F9000.00 
G01 X52.0393 Y17.8775 F3000.00 
G01 X52.0088 Y18.0702 
G01 X51.9485 Y18.2557 
G01 X51.8599 Y18.4295 
G01 X51.7453 Y18.5873 
G01 X51.6073 Y18.7253 
G01 X51.4495 Y18.8399 
G01 X51.2757 Y18.9285 
G01 X51.0902 Y18.9888 
G01 X50.8975 Y19.0193 
G01 X50.7025 Y19.0193 
G01 X50.5098 Y18.9888 
G01 X50.3243 Y18.9285 
G01 X50.1505 Y18.8399 
G01 X49.9927 Y18.7253 
G01 X49.8547 Y18.5873 
G01 X49.7401 Y18.4295 
G01 X49.6515 Y18.2557 
G01 X49.5912 Y18.0702 
G01 X49.5607 Y17.8775 
G01 X49.5607 Y17.6825 
G01 X49.5912 Y17.4898 
G01 X49.6515 Y17.3043 
G01 X49.7401 Y17.1305 
G01 X49.8547 Y16.9727 
G01 X49.9927 Y16.8347 
G01 X50.1505 Y16.7201 
G01 X50.3243 Y16.6315 
G01 X50.5098 Y16.5712 
G01 X50.7025 Y16.5407 
G01 X50.8975 Y16.5407 
G01 X51.0902 Y16.5712 
G01 X51.2757 Y16.6315 
G01 X51.4495 Y16.7201 
G01 X51.6073 Y16.8347 
G01 X51.7453 Y16.9727 
G01 X51.8599 Y17.1305 
G01 X51.9485 Y17.3043 
G01 X52.0088 Y17.4898 
G01 X52.0393 Y17.6825 
G00 Z10.0000 
G00 X40.2383 Y10.0745 
G01 Z2.0000 F9000.00 
G01 X40.2383 Y10.2455 F3000.00 
G01 X40.2049 Y10.4133 
G01 X40.1395 Y10.5713 
G01 X40.0445 Y10.7135 
G01 X39.9235 Y10.8345 
G01 X39.7813 Y10.9295 
G01 X39.6233 Y10.9949 
G01 X39.4555 Y11.0283 
G01 X39.2845 Y11.0283 
G01 X39.1167 Y10.9949 
G01 X38.9587 Y10.9295 
G01 X38.8165 Y10.8345 
G01 X38.6955 Y10.7135 
G01 X38.6005 Y10.5713 
G01 X38.5351 Y10.4133 
G01 X38.5017 Y10.2455 
G01 X38.5017 Y10.0745 
G01 X38.5351 Y9.9067 
G01 X38.6005 Y9.7487 
G01 X38.6955 Y9.6065 
G01 X38.8165 Y9.4855 
G01 X38.9587 Y9.3905 
G01 X39.1167 Y9.3251 
G01 X39.2845 Y9.2917 
G01 X39.4555 Y9.2917 
G01 X39.6233 Y9.3251 
G01 X39.7813 Y9.3905 
G01 X39.9235 Y9.4855 
G01 X40.0445 Y9.6065 
G01 X40.1395 Y9.7487 
G01 X40.2049 Y9.9067 
G01 X40.2383 Y10.0745 
G00 Z10.0000 
G00 X39.3393 Y20.2225 
G01 Z2.0000 F9000.00 
G01 X39.3393 Y20.4175 F3000.00 
G01 X39.3088 Y20.6102 
G01 X39.2485 Y20.7957 
G01 X39.1599 Y20.9695 
G01 X39.0453 Y21.1273 
G01 X38.9073 Y21.2653 
G01 X38.7495 Y21.3799 
G01 X38.5757 Y21.4685 
G01 X38.3902 Y21.5288 
G01 X38.1975 Y21.5593 
G01 X38.0025 Y21.5593 
G01 X37.8098 Y21.5288 
G01 X37.6243 Y21.4685 
G01 X37.4505 Y21.3799 
G01 X37.2927 Y21.2653 
G01 X37.1547 Y21.1273 
G01 X37.0401 Y20.9695 
G01 X36.9515 Y20.7957 
G01 X36.8912 Y20.6102 
G01 X36.8607 Y20.4175 
G01 X36.8607 Y20.2225 
G01 X36.8912 Y20.0298 
G01 X36.9515 Y19.8443 
G01 X37.0401 Y19.6705 
G01 X37.1547 Y19.5127 
G01 X37.2927 Y19.3747 
G01 X37.4505 Y19.2601 
G01 X37.6243 Y19.1715 
G01 X37.8098 Y19.1112 
G01 X38.0025 Y19.0807 
G01 X38.1975 Y19.0807 
G01 X38.3902 Y19.1112 
G01 X38.5757 Y19.1715 
G01 X38.7495 Y19.2601 
G01 X38.9073 Y19.3747 
G01 X39.0453 Y19.5127 
G01 X39.1599 Y19.6705 
G01 X39.2485 Y19.8443 
G01 X39.3088 Y20.0298 
G01 X39.3393 Y20.2225 
G00 Z10.0000 
G00 X32.9893 Y17.6825 
G01 Z2.0000 F9000.00 
G01 X32.9893 Y17.8775 F3000.00 
G01 X32.9588 Y18.0702 
G01 X32.8985 Y18.2557 
G01 X32.8099 Y18.4295 
G01 X32.6953 Y18.5873 
G01 X32.5573 Y18.7253 
G01 X32.3995 Y18.8399 
G01 X32.2257 Y18.9285 
G01 X32.0402 Y18.9888 
G01 X31.8475 Y19.0193 
G01 X31.6525 Y19.0193 
G01 X31.4598 Y18.9888 
G01 X31.2743 Y18.9285 
G01 X31.1005 Y18.8399 
G01 X30.9427 Y18.7253 
G01 X30.8047 Y18.5873 
G01 X30.6901 Y18.4295 
G01 X30.6015 Y18.2557 
G01 X30.5412 Y18.0702 
G01 X30.5107 Y17.8775 
G01 X30.5107 Y17.6825 
G01 X30.5412 Y17.4898 
G01 X30.6015 Y17.3043 
G01 X30.6901 Y17.1305 
G01 X30.8047 Y16.9727 
G01 X30.9427 Y16.8347 
G01 X31.1005 Y16.7201 
G01 X31.2743 Y16.6315 
G01 X31.4598 Y16.5712 
G01 X31.6525 Y16.5407 
G01 X31.8475 Y16.5407 
G01 X32.0402 Y16.5712 
G01 X32.2257 Y16.6315 
G01 X32.3995 Y16.7201 
G01 X32.5573 Y16.8347 
G01 X32.6953 Y16.9727 
G01 X32.8099 Y17.1305 
G01 X32.8985 Y17.3043 
G01 X32.9588 Y17.4898 
G01 X32.9893 Y17.6825 
G00 Z10.0000 
G00 X21.1883 Y10.0745 
G01 Z2.0000 F9000.00 
G01 X21.1883 Y10.2455 F3000.00 
G01 X21.1549 Y10.4133 
G01 X21.0895 Y10.5713 
G01 X20.9945 Y10.7135 
G01 X20.8735 Y10.8345 
G01 X20.7313 Y10.9295 
G01 X20.5733 Y10.9949 
G01 X20.4055 Y11.0283 
G01 X20.2345 Y11.0283 
G01 X20.0667 Y10.9949 
G01 X19.9087 Y10.9295 
G01 X19.7665 Y10.8345 
G01 X19.6455 Y10.7135 
G01 X19.5505 Y10.5713 
G01 X19.4851 Y10.4133 
G01 X19.4517 Y10.2455 
G01 X19.4517 Y10.0745 
G01 X19.4851 Y9.9067 
G01 X19.5505 Y9.7487 
G01 X19.6455 Y9.6065 
G01 X19.7665 Y9.4855 
G01 X19.9087 Y9.3905 
G01 X20.0667 Y9.3251 
G01 X20.2345 Y9.2917 
G01 X20.4055 Y9.2917 
G01 X20.5733 Y9.3251 
G01 X20.7313 Y9.3905 
G01 X20.8735 Y9.4855 
G01 X20.9945 Y9.6065 
G01 X21.0895 Y9.7487 
G01 X21.1549 Y9.9067 
G01 X21.1883 Y10.0745 
G00 Z10.0000 
G00 X20.2893 Y20.2225 
G01 Z2.0000 F9000.00 
G01 X20.2893 Y20.4175 F3000.00 
G01 X20.2588 Y20.6102 
G01 X20.1985 Y20.7957 
G01 X20.1099 Y20.9695 
G01 X19.9953 Y21.1273 
G01 X19.8573 Y21.2653 
G01 X19.6995 Y21.3799 
G01 X19.5257 Y21.4685 
G01 X19.3402 Y21.5288 
G01 X19.1475 Y21.5593 
G01 X18.9525 Y21.5593 
G01 X18.7598 Y21.5288 
G01 X18.5743 Y21.4685 
G01 X18.4005 Y21.3799 
G01 X18.2427 Y21.2653 
G01 X18.1047 Y21.1273 
G01 X17.9901 Y20.9695 
G01 X17.9015 Y20.7957 
G01 X17.8412 Y20.6102 
G01 X17.8107 Y20.4175 
G01 X17.8107 Y20.2225 
G01 X17.8412 Y20.0298 
G01 X17.9015 Y19.8443 
G01 X17.9901 Y19.6705 
G01 X18.1047 Y19.5127 
G01 X18.2427 Y19.3747 
G01 X18.4005 Y19.2601 
G01 X18.5743 Y19.1715 
G01 X18.7598 Y19.1112 
G01 X18.9525 Y19.0807 
G01 X19.1475 Y19.0807 
G01 X19.3402 Y19.1112 
G01 X19.5257 Y19.1715 
G01 X19.6995 Y19.2601 
G01 X19.8573 Y19.3747 
G01 X19.9953 Y19.5127 
G01 X20.1099 Y19.6705 
G01 X20.1985 Y19.8443 
G01 X20.2588 Y20.0298 
G01 X20.2893 Y20.2225 
G00 Z10.0000 
G00 X13.9393 Y17.6825 
G01 Z2.0000 F9000.00 
G01 X13.9393 Y17.8775 F3000.00 
G01 X13.9088 Y18.0702 
G01 X13.8485 Y18.2557 
G01 X13.7599 Y18.4295 
G01 X13.6453 Y18.5873 
G01 X13.5073 Y18.7253 
G01 X13.3495 Y18.8399 
G01 X13.1757 Y18.9285 
G01 X12.9902 Y18.9888 
G01 X12.7975 Y19.0193 
G01 X12.6025 Y19.0193 
G01 X12.4098 Y18.9888 
G01 X12.2243 Y18.9285 
G01 X12.0505 Y18.8399 
G01 X11.8926 Y18.7253 
G01 X11.7547 Y18.5873 
G01 X11.6401 Y18.4295 
G01 X11.5515 Y18.2557 
G01 X11.4912 Y18.0702 
G01 X11.4607 Y17.8775 
G01 X11.4607 Y17.6825 
G01 X11.4912 Y17.4898 
G01 X11.5515 Y17.3043 
G01 X11.6401 Y17.1305 
G01 X11.7547 Y16.9727 
G01 X11.8926 Y16.8347 
G01 X12.0505 Y16.7201 
G01 X12.2243 Y16.6315 
G01 X12.4098 Y16.5712 
G01 X12.6025 Y16.5407 
G01 X12.7975 Y16.5407 
G01 X12.9902 Y16.5712 
G01 X13.1757 Y16.6315 
G01 X13.3495 Y16.7201 
G01 X13.5073 Y16.8347 
G01 X13.6453 Y16.9727 
G01 X13.7599 Y17.1305 
G01 X13.8485 Y17.3043 
G01 X13.9088 Y17.4898 
G01 X13.9393 Y17.6825 
G00 Z10.0000 
G00 X59.2883 Y29.1245 
G01 Z2.0000 F9000.00 
G01 X59.2883 Y29.2955 F3000.00 
G01 X59.2549 Y29.4633 
G01 X59.1895 Y29.6213 
G01 X59.0945 Y29.7635 
G01 X58.9735 Y29.8845 
G01 X58.8313 Y29.9795 
G01 X58.6733 Y30.0449 
G01 X58.5055 Y30.0783 
G01 X58.3345 Y30.0783 
G01 X58.1667 Y30.0449 
G01 X58.0087 Y29.9795 
G01 X57.8665 Y29.8845 
G01 X57.7455 Y29.7635 
G01 X57.6505 Y29.6213 
G01 X57.5851 Y29.4633 
G01 X57.5517 Y29.2955 
G01 X57.5517 Y29.1245 
G01 X57.5851 Y28.9567 
G01 X57.6505 Y28.7987 
G01 X57.7455 Y28.6565 
G01 X57.8665 Y28.5355 
G01 X58.0087 Y28.4405 
G01 X58.1667 Y28.3751 
G01 X58.3345 Y28.3417 
G01 X58.5055 Y28.3417 
G01 X58.6733 Y28.3751 
G01 X58.8313 Y28.4405 
G01 X58.9735 Y28.5355 
G01 X59.0945 Y28.6565 
G01 X59.1895 Y28.7987 
G01 X59.2549 Y28.9567 
G01 X59.2883 Y29.1245 
G00 Z10.0000 
G00 X58.3893 Y39.2725 
G01 Z2.0000 F9000.00 
G01 X58.3893 Y39.4675 F3000.00 
G01 X58.3588 Y39.6602 
G01 X58.2985 Y39.8457 
G01 X58.2099 Y40.0195 
G01 X58.0953 Y40.1773 
G01 X57.9573 Y40.3153 
G01 X57.7995 Y40.4299 
G01 X57.6257 Y40.5185 
G01 X57.4402 Y40.5788 
G01 X57.2475 Y40.6093 
G01 X57.0525 Y40.6093 
G01 X56.8598 Y40.5788 
G01 X56.6743 Y40.5185 
G01 X56.5005 Y40.4299 
G01 X56.3427 Y40.3153 
G01 X56.2047 Y40.1773 
G01 X56.0901 Y40.0195 
G01 X56.0015 Y39.8457 
G01 X55.9412 Y39.6602 
G01 X55.9107 Y39.4675 
G01 X55.9107 Y39.2725 
G01 X55.9412 Y39.0798 
G01 X56.0015 Y38.8943 
G01 X56.0901 Y38.7205 
G01 X56.2047 Y38.5627 
G01 X56.3427 Y38.4247 
G01 X56.5005 Y38.3101 
G01 X56.6743 Y38.2215 
G01 X56.8598 Y38.1612 
G01 X57.0525 Y38.1307 
G01 X57.2475 Y38.1307 
G01 X57.4402 Y38.1612 
G01 X57.6257 Y38.2215 
G01 X57.7995 Y38.3101 
G01 X57.9573 Y38.4247 
G01 X58.0953 Y38.5627 
G01 X58.2099 Y38.7205 
G01 X58.2985 Y38.8943 
G01 X58.3588 Y39.0798 
G01 X58.3893 Y39.2725 
G00 Z10.0000 
G00 X52.0393 Y36.7325 
G01 Z2.0000 F9000.00 
G01 X52.0393 Y36.9275 F3000.00 
G01 X52.0088 Y37.1202 
G01 X51.9485 Y37.3057 
G01 X51.8599 Y37.4795 
G01 X51.7453 Y37.6373 
G01 X51.6073 Y37.7753 
G01 X51.4495 Y37.8899 
G01 X51.2757 Y37.9785 
G01 X51.0902 Y38.0388 
G01 X50.8975 Y38.0693 
G01 X50.7025 Y38.0693 
G01 X50.5098 Y38.0388 
G01 X50.3243 Y37.9785 
G01 X50.1505 Y37.8899 
G01 X49.9927 Y37.7753 
G01 X49.8547 Y37.6373 
G01 X49.7401 Y37.4795 
G01 X49.6515 Y37.3057 
G01 X49.5912 Y37.1202 
G01 X49.5607 Y36.9275 
G01 X49.5607 Y36.7325 
G01 X49.5912 Y36.5398 
G01 X49.6515 Y36.3543 
G01 X49.7401 Y36.1805 
G01 X49.8547 Y36.0226 
G01 X49.9927 Y35.8847 
G01 X50.1505 Y35.7701 
G01 X50.3243 Y35.6815 
G01 X50.5098 Y35.6212 
G01 X50.7025 Y35.5907 
G01 X50.8975 Y35.5907 
G01 X51.0902 Y35.6212 
G01 X51.2757 Y35.6815 
G01 X51.4495 Y35.7701 
G01 X51.6073 Y35.8847 
G01 X51.7453 Y36.0226 
G01 X51.8599 Y36.1805 
G01 X51.9485 Y36.3543 
G01 X52.0088 Y36.5398 
G01 X52.0393 Y36.7325 
G00 Z10.0000 
G00 X40.2383 Y29.1245 
G01 Z2.0000 F9000.00 
G01 X40.2383 Y29.2955 F3000.00 
G01 X40.2049 Y29.4633 
G01 X40.1395 Y29.6213 
G01 X40.0445 Y29.7635 
G01 X39.9235 Y29.8845 
G01 X39.7813 Y29.9795 
G01 X39.6233 Y30.0449 
G01 X39.4555 Y30.0783 
G01 X39.2845 Y30.0783 
G01 X39.1167 Y30.0449 
G01 X38.9587 Y29.9795 
G01 X38.8165 Y29.8845 
G01 X38.6955 Y29.7635 
G01 X38.6005 Y29.6213 
G01 X38.5351 Y29.4633 
G01 X38.5017 Y29.2955 
G01 X38.5017 Y29.1245 
G01 X38.5351 Y28.9567 
G01 X38.6005 Y28.7987 
G01 X38.6955 Y28.6565 
G01 X38.8165 Y28.5355 
G01 X38.9587 Y28.4405 
G01 X39.1167 Y28.3751 
G01 X39.2845 Y28.3417 
G01 X39.4555 Y28.3417 
G01 X39.6233 Y28.3751 
G01 X39.7813 Y28.4405 
G01 X39.9235 Y28.5355 
G01 X40.0445 Y28.6565 
G01 X40.1395 Y28.7987 
G01 X40.2049 Y28.9567 
G01 X40.2383 Y29.1245 
G00 Z10.0000 
G00 X39.3393 Y39.2725 
G01 Z2.0000 F9000.00 
G01 X39.3393 Y39.4675 F3000.00 
G01 X39.3088 Y39.6602 
G01 X39.2485 Y39.8457 
G01 X39.1599 Y40.0195 
G01 X39.0453 Y40.1773 
G01 X38.9073 Y40.3153 
G01 X38.7495 Y40.4299 
G01 X38.5757 Y40.5185 
G01 X38.3902 Y40.5788 
G01 X38.1975 Y40.6093 
G01 X38.0025 Y40.6093 
G01 X37.8098 Y40.5788 
G01 X37.6243 Y40.5185 
G01 X37.4505 Y40.4299 
G01 X37.2927 Y40.3153 
G01 X37.1547 Y40.1773 
G01 X37.0401 Y40.0195 
G01 X36.9515 Y39.8457 
G01 X36.8912 Y39.6602 
G01 X36.8607 Y39.4675 
G01 X36.8607 Y39.2725 
G01 X36.8912 Y39.0798 
G01 X36.9515 Y38.8943 
G01 X37.0401 Y38.7205 
G01 X37.1547 Y38.5627 
G01 X37.2927 Y38.4247 
G01 X37.4505 Y38.3101 
G01 X37.6243 Y38.2215 
G01 X37.8098 Y38.1612 
G01 X38.0025 Y38.1307 
G01 X38.1975 Y38.1307 
G01 X38.3902 Y38.1612 
G01 X38.5757 Y38.2215 
G01 X38.7495 Y38.3101 
G01 X38.9073 Y38.4247 
G01 X39.0453 Y38.5627 
G01 X39.1599 Y38.7205 
G01 X39.2485 Y38.8943 
G01 X39.3088 Y39.0798 
G01 X39.3393 Y39.2725 
G00 Z10.0000 
G00 X32.9893 Y36.7325 
G01 Z2.0000 F9000.00 
G01 X32.9893 Y36.9275 F3000.00 
G01 X32.9588 Y37.1202 
G01 X32.8985 Y37.3057 
G01 X32.8099 Y37.4795 
G01 X32.6953 Y37.6373 
G01 X32.5573 Y37.7753 
G01 X32.3995 Y37.8899 
G01 X32.2257 Y37.9785 
G01 X32.0402 Y38.0388 
G01 X31.8475 Y38.0693 
G01 X31.6525 Y38.0693 
G01 X31.4598 Y38.0388 
G01 X31.2743 Y37.9785 
G01 X31.1005 Y37.8899 
G01 X30.9427 Y37.7753 
G01 X30.8047 Y37.6373 
G01 X30.6901 Y37.4795 
G01 X30.6015 Y37.3057 
G01 X30.5412 Y37.1202 
G01 X30.5107 Y36.9275 
G01 X30.5107 Y36.7325 
G01 X30.5412 Y36.5398 
G01 X30.6015 Y36.3543 
G01 X30.6901 Y36.1805 
G01 X30.8047 Y36.0226 
G01 X30.9427 Y35.8847 
G01 X31.1005 Y35.7701 
G01 X31.2743 Y35.6815 
G01 X31.4598 Y35.6212 
G01 X31.6525 Y35.5907 
G01 X31.8475 Y35.5907 
G01 X32.0402 Y35.6212 
G01 X32.2257 Y35.6815 
G01 X32.3995 Y35.7701 
G01 X32.5573 Y35.8847 
G01 X32.6953 Y36.0226 
G01 X32.8099 Y36.1805 
G01 X32.8985 Y36.3543 
G01 X32.9588 Y36.5398 
G01 X32.9893 Y36.7325 
G00 Z10.0000 
G00 X21.1883 Y29.1245 
G01 Z2.0000 F9000.00 
G01 X21.1883 Y29.2955 F3000.00 
G01 X21.1549 Y29.4633 
G01 X21.0895 Y29.6213 
G01 X20.9945 Y29.7635 
G01 X20.8735 Y29.8845 
G01 X20.7313 Y29.9795 
G01 X20.5733 Y30.0449 
G01 X20.4055 Y30.0783 
G01 X20.2345 Y30.0783 
G01 X20.0667 Y30.0449 
G01 X19.9087 Y29.9795 
G01 X19.7665 Y29.8845 
G01 X19.6455 Y29.7635 
G01 X19.5505 Y29.6213 
G01 X19.4851 Y29.4633 
G01 X19.4517 Y29.2955 
G01 X19.4517 Y29.1245 
G01 X19.4851 Y28.9567 
G01 X19.5505 Y28.7987 
G01 X19.6455 Y28.6565 
G01 X19.7665 Y28.5355 
G01 X19.9087 Y28.4405 
G01 X20.0667 Y28.3751 
G01 X20.2345 Y28.3417 
G01 X20.4055 Y28.3417 
G01 X20.5733 Y28.3751 
G01 X20.7313 Y28.4405 
G01 X20.8735 Y28.5355 
G01 X20.9945 Y28.6565 
G01 X21.0895 Y28.7987 
G01 X21.1549 Y28.9567 
G01 X21.1883 Y29.1245 
G00 Z10.0000 
G00 X20.2893 Y39.2725 
G01 Z2.0000 F9000.00 
G01 X20.2893 Y39.4675 F3000.00 
G01 X20.2588 Y39.6602 
G01 X20.1985 Y39.8457 
G01 X20.1099 Y40.0195 
G01 X19.9953 Y40.1773 
G01 X19.8573 Y40.3153 
G01 X19.6995 Y40.4299 
G01 X19.5257 Y40.5185 
G01 X19.3402 Y40.5788 
G01 X19.1475 Y40.6093 
G01 X18.9525 Y40.6093 
G01 X18.7598 Y40.5788 
G01 X18.5743 Y40.5185 
G01 X18.4005 Y40.4299 
G01 X18.2427 Y40.3153 
G01 X18.1047 Y40.1773 
G01 X17.9901 Y40.0195 
G01 X17.9015 Y39.8457 
G01 X17.8412 Y39.6602 
G01 X17.8107 Y39.4675 
G01 X17.8107 Y39.2725 
G01 X17.8412 Y39.0798 
G01 X17.9015 Y38.8943 
G01 X17.9901 Y38.7205 
G01 X18.1047 Y38.5627 
G01 X18.2427 Y38.4247 
G01 X18.4005 Y38.3101 
G01 X18.5743 Y38.2215 
G01 X18.7598 Y38.1612 
G01 X18.9525 Y38.1307 
G01 X19.1475 Y38.1307 
G01 X19.3402 Y38.1612 
G01 X19.5257 Y38.2215 
G01 X19.6995 Y38.3101 
G01 X19.8573 Y38.4247 
G01 X19.9953 Y38.5627 
G01 X20.1099 Y38.7205 
G01 X20.1985 Y38.8943 
G01 X20.2588 Y39.0798 
G01 X20.2893 Y39.2725 
G00 Z10.0000 
G00 X13.9393 Y36.7325 
G01 Z2.0000 F9000.00 
G01 X13.9393 Y36.9275 F3000.00 
G01 X13.9088 Y37.1202 
G01 X13.8485 Y37.3057 
G01 X13.7599 Y37.4795 
G01 X13.6453 Y37.6373 
G01 X13.5073 Y37.7753 
G01 X13.3495 Y37.8899 
G01 X13.1757 Y37.9785 
G01 X12.9902 Y38.0388 
G01 X12.7975 Y38.0693 
G01 X12.6025 Y38.0693 
G01 X12.4098 Y38.0388 
G01 X12.2243 Y37.9785 
G01 X12.0505 Y37.8899 
G01 X11.8926 Y37.7753 
G01 X11.7547 Y37.6373 
G01 X11.6401 Y37.4795 
G01 X11.5515 Y37.3057 
G01 X11.4912 Y37.1202 
G01 X11.4607 Y36.9275 
G01 X11.4607 Y36.7325 
G01 X11.4912 Y36.5398 
G01 X11.5515 Y36.3543 
G01 X11.6401 Y36.1805 
G01 X11.7547 Y36.0226 
G01 X11.8926 Y35.8847 
G01 X12.0505 Y35.7701 
G01 X12.2243 Y35.6815 
G01 X12.4098 Y35.6212 
G01 X12.6025 Y35.5907 
G01 X12.7975 Y35.5907 
G01 X12.9902 Y35.6212 
G01 X13.1757 Y35.6815 
G01 X13.3495 Y35.7701 
G01 X13.5073 Y35.8847 
G01 X13.6453 Y36.0226 
G01 X13.7599 Y36.1805 
G01 X13.8485 Y36.3543 
G01 X13.9088 Y36.5398 
G01 X13.9393 Y36.7325 
G00 Z10.0000 
G00 X59.2883 Y48.1745 
G01 Z2.0000 F9000.00 
G01 X59.2883 Y48.3455 F3000.00 
G01 X59.2549 Y48.5133 
G01 X59.1895 Y48.6713 
G01 X59.0945 Y48.8135 
G01 X58.9735 Y48.9345 
G01 X58.8313 Y49.0295 
G01 X58.6733 Y49.0949 
G01 X58.5055 Y49.1283 
G01 X58.3345 Y49.1283 
G01 X58.1667 Y49.0949 
G01 X58.0087 Y49.0295 
G01 X57.8665 Y48.9345 
G01 X57.7455 Y48.8135 
G01 X57.6505 Y48.6713 
G01 X57.5851 Y48.5133 
G01 X57.5517 Y48.3455 
G01 X57.5517 Y48.1745 
G01 X57.5851 Y48.0067 
G01 X57.6505 Y47.8487 
G01 X57.7455 Y47.7065 
G01 X57.8665 Y47.5855 
G01 X58.0087 Y47.4905 
G01 X58.1667 Y47.4251 
G01 X58.3345 Y47.3917 
G01 X58.5055 Y47.3917 
G01 X58.6733 Y47.4251 
G01 X58.8313 Y47.4905 
G01 X58.9735 Y47.5855 
G01 X59.0945 Y47.7065 
G01 X59.1895 Y47.8487 
G01 X59.2549 Y48.0067 
G01 X59.2883 Y48.1745 
G00 Z10.0000 
G00 X58.3893 Y58.3225 
G01 Z2.0000 F9000.00 
G01 X58.3893 Y58.5175 F3000.00 
G01 X58.3588 Y58.7102 
G01 X58.2985 Y58.8957 
G01 X58.2099 Y59.0695 
G01 X58.0953 Y59.2273 
G01 X57.9573 Y59.3653 
G01 X57.7995 Y59.4799 
G01 X57.6257 Y59.5685 
G01 X57.4402 Y59.6288 
G01 X57.2475 Y59.6593 
G01 X57.0525 Y59.6593 
G01 X56.8598 Y59.6288 
G01 X56.6743 Y59.5685 
G01 X56.5005 Y59.4799 
G01 X56.3427 Y59.3653 
G01 X56.2047 Y59.2273 
G01 X56.0901 Y59.0695 
G01 X56.0015 Y58.8957 
G01 X55.9412 Y58.7102 
G01 X55.9107 Y58.5175 
G01 X55.9107 Y58.3225 
G01 X55.9412 Y58.1298 
G01 X56.0015 Y57.9443 
G01 X56.0901 Y57.7705 
G01 X56.2047 Y57.6127 
G01 X56.3427 Y57.4747 
G01 X56.5005 Y57.3601 
G01 X56.6743 Y57.2715 
G01 X56.8598 Y57.2112 
G01 X57.0525 Y57.1807 
G01 X57.2475 Y57.1807 
G01 X57.4402 Y57.2112 
G01 X57.6257 Y57.2715 
G01 X57.7995 Y57.3601 
G01 X57.9573 Y57.4747 
G01 X58.0953 Y57.6127 
G01 X58.2099 Y57.7705 
G01 X58.2985 Y57.9443 
G01 X58.3588 Y58.1298 
G01 X58.3893 Y58.3225 
G00 Z10.0000 
G00 X52.0393 Y55.7825 
G01 Z2.0000 F9000.00 
G01 X52.0393 Y55.9775 F3000.00 
G01 X52.0088 Y56.1702 
G01 X51.9485 Y56.3557 
G01 X51.8599 Y56.5295 
G01 X51.7453 Y56.6873 
G01 X51.6073 Y56.8253 
G01 X51.4495 Y56.9399 
G01 X51.2757 Y57.0285 
G01 X51.0902 Y57.0888 
G01 X50.8975 Y57.1193 
G01 X50.7025 Y57.1193 
G01 X50.5098 Y57.0888 
G01 X50.3243 Y57.0285 
G01 X50.1505 Y56.9399 
G01 X49.9927 Y56.8253 
G01 X49.8547 Y56.6873 
G01 X49.7401 Y56.5295 
G01 X49.6515 Y56.3557 
G01 X49.5912 Y56.1702 
G01 X49.5607 Y55.9775 
G01 X49.5607 Y55.7825 
G01 X49.5912 Y55.5898 
G01 X49.6515 Y55.4043 
G01 X49.7401 Y55.2305 
G01 X49.8547 Y55.0727 
G01 X49.9927 Y54.9347 
G01 X50.1505 Y54.8201 
G01 X50.3243 Y54.7315 
G01 X50.5098 Y54.6712 
G01 X50.7025 Y54.6407 
G01 X50.8975 Y54.6407 
G01 X51.0902 Y54.6712 
G01 X51.2757 Y54.7315 
G01 X51.4495 Y54.8201 
G01 X51.6073 Y54.9347 
G01 X51.7453 Y55.0727 
G01 X51.8599 Y55.2305 
G01 X51.9485 Y55.4043 
G01 X52.0088 Y55.5898 
G01 X52.0393 Y55.7825 
G00 Z10.0000 
G00 X21.1883 Y67.2245 
G01 Z2.0000 F9000.00 
G01 X21.1883 Y67.3955 F3000.00 
G01 X21.1549 Y67.5633 
G01 X21.0895 Y67.7213 
G01 X20.9945 Y67.8635 
G01 X20.8735 Y67.9845 
G01 X20.7313 Y68.0795 
G01 X20.5733 Y68.1449 
G01 X20.4055 Y68.1783 
G01 X20.2345 Y68.1783 
G01 X20.0667 Y68.1449 
G01 X19.9087 Y68.0795 
G01 X19.7665 Y67.9845 
G01 X19.6455 Y67.8635 
G01 X19.5505 Y67.7213 
G01 X19.4851 Y67.5633 
G01 X19.4517 Y67.3955 
G01 X19.4517 Y67.2245 
G01 X19.4851 Y67.0567 
G01 X19.5505 Y66.8987 
G01 X19.6455 Y66.7565 
G01 X19.7665 Y66.6355 
G01 X19.9087 Y66.5405 
G01 X20.0667 Y66.4751 
G01 X20.2345 Y66.4417 
G01 X20.4055 Y66.4417 
G01 X20.5733 Y66.4751 
G01 X20.7313 Y66.5405 
G01 X20.8735 Y66.6355 
G01 X20.9945 Y66.7565 
G01 X21.0895 Y66.8987 
G01 X21.1549 Y67.0567 
G01 X21.1883 Y67.2245 
G00 Z10.0000 
G00 X20.2893 Y77.3725 
G01 Z2.0000 F9000.00 
G01 X20.2893 Y77.5675 F3000.00 
G01 X20.2588 Y77.7602 
G01 X20.1985 Y77.9457 
G01 X20.1099 Y78.1195 
G01 X19.9953 Y78.2773 
G01 X19.8573 Y78.4153 
G01 X19.6995 Y78.5299 
G01 X19.5257 Y78.6185 
G01 X19.3402 Y78.6788 
G01 X19.1475 Y78.7093 
G01 X18.9525 Y78.7093 
G01 X18.7598 Y78.6788 
G01 X18.5743 Y78.6185 
G01 X18.4005 Y78.5299 
G01 X18.2427 Y78.4153 
G01 X18.1047 Y78.2773 
G01 X17.9901 Y78.1195 
G01 X17.9015 Y77.9457 
G01 X17.8412 Y77.7602 
G01 X17.8107 Y77.5675 
G01 X17.8107 Y77.3725 
G01 X17.8412 Y77.1798 
G01 X17.9015 Y76.9943 
G01 X17.9901 Y76.8205 
G01 X18.1047 Y76.6626 
G01 X18.2427 Y76.5247 
G01 X18.4005 Y76.4101 
G01 X18.5743 Y76.3215 
G01 X18.7598 Y76.2612 
G01 X18.9525 Y76.2307 
G01 X19.1475 Y76.2307 
G01 X19.3402 Y76.2612 
G01 X19.5257 Y76.3215 
G01 X19.6995 Y76.4101 
G01 X19.8573 Y76.5247 
G01 X19.9953 Y76.6626 
G01 X20.1099 Y76.8205 
G01 X20.1985 Y76.9943 
G01 X20.2588 Y77.1798 
G01 X20.2893 Y77.3725 
G00 Z10.0000 
G00 X13.9393 Y74.8325 
G01 Z2.0000 F9000.00 
G01 X13.9393 Y75.0275 F3000.00 
G01 X13.9088 Y75.2202 
G01 X13.8485 Y75.4057 
G01 X13.7599 Y75.5795 
G01 X13.6453 Y75.7373 
G01 X13.5073 Y75.8753 
G01 X13.3495 Y75.9899 
G01 X13.1757 Y76.0785 
G01 X12.9902 Y76.1388 
G01 X12.7975 Y76.1693 
G01 X12.6025 Y76.1693 
G01 X12.4098 Y76.1388 
G01 X12.2243 Y76.0785 
G01 X12.0505 Y75.9899 
G01 X11.8926 Y75.8753 
G01 X11.7547 Y75.7373 
G01 X11.6401 Y75.5795 
G01 X11.5515 Y75.4057 
G01 X11.4912 Y75.2202 
G01 X11.4607 Y75.0275 
G01 X11.4607 Y74.8325 
G01 X11.4912 Y74.6398 
G01 X11.5515 Y74.4543 
G01 X11.6401 Y74.2805 
G01 X11.7547 Y74.1227 
G01 X11.8926 Y73.9847 
G01 X12.0505 Y73.8701 
G01 X12.2243 Y73.7815 
G01 X12.4098 Y73.7212 
G01 X12.6025 Y73.6907 
G01 X12.7975 Y73.6907 
G01 X12.9902 Y73.7212 
G01 X13.1757 Y73.7815 
G01 X13.3495 Y73.8701 
G01 X13.5073 Y73.9847 
G01 X13.6453 Y74.1227 
G01 X13.7599 Y74.2805 
G01 X13.8485 Y74.4543 
G01 X13.9088 Y74.6398 
G01 X13.9393 Y74.8325 
G00 Z10.0000 
G00 X121.7295 Y48.1750 
G01 Z2.0000 F9000.00 
G01 X121.7295 Y48.3450 F3000.00 
G01 X121.7029 Y48.5128 
G01 X121.6504 Y48.6744 
G01 X121.5733 Y48.8258 
G01 X121.4734 Y48.9632 
G01 X121.3532 Y49.0834 
G01 X121.2158 Y49.1833 
G01 X121.0644 Y49.2604 
G01 X120.9028 Y49.3129 
G01 X120.7350 Y49.3395 
G01 X120.5650 Y49.3395 
G01 X120.3972 Y49.3129 
G01 X120.2356 Y49.2604 
G01 X120.0842 Y49.1833 
G01 X119.9468 Y49.0834 
G01 X119.8266 Y48.9632 
G01 X119.7267 Y48.8258 
G01 X119.6496 Y48.6744 
G01 X119.5971 Y48.5128 
G01 X119.5705 Y48.3450 
G01 X119.5705 Y48.1750 
G01 X119.5971 Y48.0072 
G01 X119.6496 Y47.8456 
G01 X119.7267 Y47.6942 
G01 X119.8266 Y47.5568 
G01 X119.9468 Y47.4366 
G01 X120.0842 Y47.3367 
G01 X120.2356 Y47.2596 
G01 X120.3972 Y47.2071 
G01 X120.5650 Y47.1805 
G01 X120.7350 Y47.1805 
G01 X120.9028 Y47.2071 
G01 X121.0644 Y47.2596 
G01 X121.2158 Y47.3367 
G01 X121.3532 Y47.4366 
G01 X121.4734 Y47.5568 
G01 X121.5733 Y47.6942 
G01 X121.6504 Y47.8456 
G01 X121.7029 Y48.0072 
G01 X121.7295 Y48.1750 
G00 Z10.0000 
G00 X131.8895 Y48.1750 
G01 Z2.0000 F9000.00 
G01 X131.8895 Y48.3450 F3000.00 
G01 X131.8629 Y48.5128 
G01 X131.8104 Y48.6744 
G01 X131.7333 Y48.8258 
G01 X131.6334 Y48.9632 
G01 X131.5132 Y49.0834 
G01 X131.3758 Y49.1833 
G01 X131.2244 Y49.2604 
G01 X131.0628 Y49.3129 
G01 X130.8950 Y49.3395 
G01 X130.7250 Y49.3395 
G01 X130.5572 Y49.3129 
G01 X130.3956 Y49.2604 
G01 X130.2442 Y49.1833 
G01 X130.1068 Y49.0834 
G01 X129.9866 Y48.9632 
G01 X129.8867 Y48.8258 
G01 X129.8096 Y48.6744 
G01 X129.7571 Y48.5128 
G01 X129.7305 Y48.3450 
G01 X129.7305 Y48.1750 
G01 X129.7571 Y48.0072 
G01 X129.8096 Y47.8456 
G01 X129.8867 Y47.6942 
G01 X129.9866 Y47.5568 
G01 X130.1068 Y47.4366 
G01 X130.2442 Y47.3367 
G01 X130.3956 Y47.2596 
G01 X130.5572 Y47.2071 
G01 X130.7250 Y47.1805 
G01 X130.8950 Y47.1805 
G01 X131.0628 Y47.2071 
G01 X131.2244 Y47.2596 
G01 X131.3758 Y47.3367 
G01 X131.5132 Y47.4366 
G01 X131.6334 Y47.5568 
G01 X131.7333 Y47.6942 
G01 X131.8104 Y47.8456 
G01 X131.8629 Y48.0072 
G01 X131.8895 Y48.1750 
G00 Z10.0000 
G00 X121.7295 Y20.8700 
G01 Z2.0000 F9000.00 
G01 X121.7295 Y21.0400 F3000.00 
G01 X121.7029 Y21.2078 
G01 X121.6504 Y21.3694 
G01 X121.5733 Y21.5208 
G01 X121.4734 Y21.6582 
G01 X121.3532 Y21.7784 
G01 X121.2158 Y21.8783 
G01 X121.0644 Y21.9554 
G01 X120.9028 Y22.0079 
G01 X120.7350 Y22.0345 
G01 X120.5650 Y22.0345 
G01 X120.3972 Y22.0079 
G01 X120.2356 Y21.9554 
G01 X120.0842 Y21.8783 
G01 X119.9468 Y21.7784 
G01 X119.8266 Y21.6582 
G01 X119.7267 Y21.5208 
G01 X119.6496 Y21.3694 
G01 X119.5971 Y21.2078 
G01 X119.5705 Y21.0400 
G01 X119.5705 Y20.8700 
G01 X119.5971 Y20.7022 
G01 X119.6496 Y20.5406 
G01 X119.7267 Y20.3892 
G01 X119.8266 Y20.2518 
G01 X119.9468 Y20.1316 
G01 X120.0842 Y20.0317 
G01 X120.2356 Y19.9546 
G01 X120.3972 Y19.9021 
G01 X120.5650 Y19.8755 
G01 X120.7350 Y19.8755 
G01 X120.9028 Y19.9021 
G01 X121.0644 Y19.9546 
G01 X121.2158 Y20.0317 
G01 X121.3532 Y20.1316 
G01 X121.4734 Y20.2518 
G01 X121.5733 Y20.3892 
G01 X121.6504 Y20.5406 
G01 X121.7029 Y20.7022 
G01 X121.7295 Y20.8700 
G00 Z10.0000 
G00 X131.8895 Y20.8700 
G01 Z2.0000 F9000.00 
G01 X131.8895 Y21.0400 F3000.00 
G01 X131.8629 Y21.2078 
G01 X131.8104 Y21.3694 
G01 X131.7333 Y21.5208 
G01 X131.6334 Y21.6582 
G01 X131.5132 Y21.7784 
G01 X131.3758 Y21.8783 
G01 X131.2244 Y21.9554 
G01 X131.0628 Y22.0079 
G01 X130.8950 Y22.0345 
G01 X130.7250 Y22.0345 
G01 X130.5572 Y22.0079 
G01 X130.3956 Y21.9554 
G01 X130.2442 Y21.8783 
G01 X130.1068 Y21.7784 
G01 X129.9866 Y21.6582 
G01 X129.8867 Y21.5208 
G01 X129.8096 Y21.3694 
G01 X129.7571 Y21.2078 
G01 X129.7305 Y21.0400 
G01 X129.7305 Y20.8700 
G01 X129.7571 Y20.7022 
G01 X129.8096 Y20.5406 
G01 X129.8867 Y20.3892 
G01 X129.9866 Y20.2518 
G01 X130.1068 Y20.1316 
G01 X130.2442 Y20.0317 
G01 X130.3956 Y19.9546 
G01 X130.5572 Y19.9021 
G01 X130.7250 Y19.8755 
G01 X130.8950 Y19.8755 
G01 X131.0628 Y19.9021 
G01 X131.2244 Y19.9546 
G01 X131.3758 Y20.0317 
G01 X131.5132 Y20.1316 
G01 X131.6334 Y20.2518 
G01 X131.7333 Y20.3892 
G01 X131.8104 Y20.5406 
G01 X131.8629 Y20.7022 
G01 X131.8895 Y20.8700 
G00 Z10.0000 
G00 X115.0395 Y40.2750 
G01 Z2.0000 F9000.00 
G01 X115.0395 Y40.4450 F3000.00 
G01 X115.0129 Y40.6128 
G01 X114.9604 Y40.7744 
G01 X114.8833 Y40.9258 
G01 X114.7834 Y41.0632 
G01 X114.6632 Y41.1834 
G01 X114.5258 Y41.2833 
G01 X114.3744 Y41.3604 
G01 X114.2128 Y41.4129 
G01 X114.0450 Y41.4395 
G01 X113.8750 Y41.4395 
G01 X113.7072 Y41.4129 
G01 X113.5456 Y41.3604 
G01 X113.3942 Y41.2833 
G01 X113.2568 Y41.1834 
G01 X113.1366 Y41.0632 
G01 X113.0367 Y40.9258 
G01 X112.9596 Y40.7744 
G01 X112.9071 Y40.6128 
G01 X112.8805 Y40.4450 
G01 X112.8805 Y40.2750 
G01 X112.9071 Y40.1072 
G01 X112.9596 Y39.9456 
G01 X113.0367 Y39.7942 
G01 X113.1366 Y39.6568 
G01 X113.2568 Y39.5366 
G01 X113.3942 Y39.4367 
G01 X113.5456 Y39.3596 
G01 X113.7072 Y39.3071 
G01 X113.8750 Y39.2805 
G01 X114.0450 Y39.2805 
G01 X114.2128 Y39.3071 
G01 X114.3744 Y39.3596 
G01 X114.5258 Y39.4367 
G01 X114.6632 Y39.5366 
G01 X114.7834 Y39.6568 
G01 X114.8833 Y39.7942 
G01 X114.9604 Y39.9456 
G01 X115.0129 Y40.1072 
G01 X115.0395 Y40.2750 
G00 Z10.0000 
G00 X88.7095 Y27.8550 
G01 Z2.0000 F9000.00 
G01 X88.7095 Y28.0250 F3000.00 
G01 X88.6829 Y28.1928 
G01 X88.6304 Y28.3544 
G01 X88.5533 Y28.5058 
G01 X88.4534 Y28.6432 
G01 X88.3332 Y28.7634 
G01 X88.1958 Y28.8633 
G01 X88.0444 Y28.9404 
G01 X87.8828 Y28.9929 
G01 X87.7150 Y29.0195 
G01 X87.5450 Y29.0195 
G01 X87.3772 Y28.9929 
G01 X87.2156 Y28.9404 
G01 X87.0642 Y28.8633 
G01 X86.9268 Y28.7634 
G01 X86.8066 Y28.6432 
G01 X86.7067 Y28.5058 
G01 X86.6296 Y28.3544 
G01 X86.5771 Y28.1928 
G01 X86.5505 Y28.0250 
G01 X86.5505 Y27.8550 
G01 X86.5771 Y27.6872 
G01 X86.6296 Y27.5256 
G01 X86.7067 Y27.3742 
G01 X86.8066 Y27.2368 
G01 X86.9268 Y27.1166 
G01 X87.0642 Y27.0167 
G01 X87.2156 Y26.9396 
G01 X87.3772 Y26.8871 
G01 X87.5450 Y26.8605 
G01 X87.7150 Y26.8605 
G01 X87.8828 Y26.8871 
G01 X88.0444 Y26.9396 
G01 X88.1958 Y27.0167 
G01 X88.3332 Y27.1166 
G01 X88.4534 Y27.2368 
G01 X88.5533 Y27.3742 
G01 X88.6304 Y27.5256 
G01 X88.6829 Y27.6872 
G01 X88.7095 Y27.8550 
G00 Z10.0000 
G00 X78.5495 Y27.8550 
G01 Z2.0000 F9000.00 
G01 X78.5495 Y28.0250 F3000.00 
G01 X78.5229 Y28.1928 
G01 X78.4704 Y28.3544 
G01 X78.3933 Y28.5058 
G01 X78.2934 Y28.6432 
G01 X78.1732 Y28.7634 
G01 X78.0358 Y28.8633 
G01 X77.8844 Y28.9404 
G01 X77.7228 Y28.9929 
G01 X77.5550 Y29.0195 
G01 X77.3850 Y29.0195 
G01 X77.2172 Y28.9929 
G01 X77.0556 Y28.9404 
G01 X76.9042 Y28.8633 
G01 X76.7668 Y28.7634 
G01 X76.6466 Y28.6432 
G01 X76.5467 Y28.5058 
G01 X76.4696 Y28.3544 
G01 X76.4171 Y28.1928 
G01 X76.3905 Y28.0250 
G01 X76.3905 Y27.8550 
G01 X76.4171 Y27.6872 
G01 X76.4696 Y27.5256 
G01 X76.5467 Y27.3742 
G01 X76.6466 Y27.2368 
G01 X76.7668 Y27.1166 
G01 X76.9042 Y27.0167 
G01 X77.0556 Y26.9396 
G01 X77.2172 Y26.8871 
G01 X77.3850 Y26.8605 
G01 X77.5550 Y26.8605 
G01 X77.7228 Y26.8871 
G01 X77.8844 Y26.9396 
G01 X78.0358 Y27.0167 
G01 X78.1732 Y27.1166 
G01 X78.2934 Y27.2368 
G01 X78.3933 Y27.3742 
G01 X78.4704 Y27.5256 
G01 X78.5229 Y27.6872 
G01 X78.5495 Y27.8550 
G00 Z10.0000 
G00 X78.5495 Y55.1600 
G01 Z2.0000 F9000.00 
G01 X78.5495 Y55.3300 F3000.00 
G01 X78.5229 Y55.4978 
G01 X78.4704 Y55.6594 
G01 X78.3933 Y55.8108 
G01 X78.2934 Y55.9482 
G01 X78.1732 Y56.0684 
G01 X78.0358 Y56.1683 
G01 X77.8844 Y56.2454 
G01 X77.7228 Y56.2979 
G01 X77.5550 Y56.3245 
G01 X77.3850 Y56.3245 
G01 X77.2172 Y56.2979 
G01 X77.0556 Y56.2454 
G01 X76.9042 Y56.1683 
G01 X76.7668 Y56.0684 
G01 X76.6466 Y55.9482 
G01 X76.5467 Y55.8108 
G01 X76.4696 Y55.6594 
G01 X76.4171 Y55.4978 
G01 X76.3905 Y55.3300 
G01 X76.3905 Y55.1600 
G01 X76.4171 Y54.9922 
G01 X76.4696 Y54.8306 
G01 X76.5467 Y54.6792 
G01 X76.6466 Y54.5418 
G01 X76.7668 Y54.4216 
G01 X76.9042 Y54.3217 
G01 X77.0556 Y54.2446 
G01 X77.2172 Y54.1921 
G01 X77.3850 Y54.1655 
G01 X77.5550 Y54.1655 
G01 X77.7228 Y54.1921 
G01 X77.8844 Y54.2446 
G01 X78.0358 Y54.3217 
G01 X78.1732 Y54.4216 
G01 X78.2934 Y54.5418 
G01 X78.3933 Y54.6792 
G01 X78.4704 Y54.8306 
G01 X78.5229 Y54.9922 
G01 X78.5495 Y55.1600 
G00 Z10.0000 
G00 X105.9495 Y35.4750 
G01 Z2.0000 F9000.00 
G01 X105.9495 Y35.6450 F3000.00 
G01 X105.9229 Y35.8128 
G01 X105.8704 Y35.9744 
G01 X105.7933 Y36.1258 
G01 X105.6934 Y36.2632 
G01 X105.5732 Y36.3834 
G01 X105.4358 Y36.4833 
G01 X105.2844 Y36.5604 
G01 X105.1228 Y36.6129 
G01 X104.9550 Y36.6395 
G01 X104.7850 Y36.6395 
G01 X104.6172 Y36.6129 
G01 X104.4556 Y36.5604 
G01 X104.3042 Y36.4833 
G01 X104.1668 Y36.3834 
G01 X104.0466 Y36.2632 
G01 X103.9467 Y36.1258 
G01 X103.8696 Y35.9744 
G01 X103.8171 Y35.8128 
G01 X103.7905 Y35.6450 
G01 X103.7905 Y35.4750 
G01 X103.8171 Y35.3072 
G01 X103.8696 Y35.1456 
G01 X103.9467 Y34.9942 
G01 X104.0466 Y34.8568 
G01 X104.1668 Y34.7366 
G01 X104.3042 Y34.6367 
G01 X104.4556 Y34.5596 
G01 X104.6172 Y34.5071 
G01 X104.7850 Y34.4805 
G01 X104.9550 Y34.4805 
G01 X105.1228 Y34.5071 
G01 X105.2844 Y34.5596 
G01 X105.4358 Y34.6367 
G01 X105.5732 Y34.7366 
G01 X105.6934 Y34.8568 
G01 X105.7933 Y34.9942 
G01 X105.8704 Y35.1456 
G01 X105.9229 Y35.3072 
G01 X105.9495 Y35.4750 
G00 Z10.0000 
G00 X95.7895 Y35.4750 
G01 Z2.0000 F9000.00 
G01 X95.7895 Y35.6450 F3000.00 
G01 X95.7629 Y35.8128 
G01 X95.7104 Y35.9744 
G01 X95.6333 Y36.1258 
G01 X95.5334 Y36.2632 
G01 X95.4132 Y36.3834 
G01 X95.2758 Y36.4833 
G01 X95.1244 Y36.5604 
G01 X94.9628 Y36.6129 
G01 X94.7950 Y36.6395 
G01 X94.6250 Y36.6395 
G01 X94.4572 Y36.6129 
G01 X94.2956 Y36.5604 
G01 X94.1442 Y36.4833 
G01 X94.0068 Y36.3834 
G01 X93.8866 Y36.2632 
G01 X93.7867 Y36.1258 
G01 X93.7096 Y35.9744 
G01 X93.6571 Y35.8128 
G01 X93.6305 Y35.6450 
G01 X93.6305 Y35.4750 
G01 X93.6571 Y35.3072 
G01 X93.7096 Y35.1456 
G01 X93.7867 Y34.9942 
G01 X93.8866 Y34.8568 
G01 X94.0068 Y34.7366 
G01 X94.1442 Y34.6367 
G01 X94.2956 Y34.5596 
G01 X94.4572 Y34.5071 
G01 X94.6250 Y34.4805 
G01 X94.7950 Y34.4805 
G01 X94.9628 Y34.5071 
G01 X95.1244 Y34.5596 
G01 X95.2758 Y34.6367 
G01 X95.4132 Y34.7366 
G01 X95.5334 Y34.8568 
G01 X95.6333 Y34.9942 
G01 X95.7104 Y35.1456 
G01 X95.7629 Y35.3072 
G01 X95.7895 Y35.4750 
G00 Z10.0000 
G00 X95.2295 Y64.5000 
G01 Z2.0000 F9000.00 
G01 X95.2295 Y64.6700 F3000.00 
G01 X95.2029 Y64.8378 
G01 X95.1504 Y64.9994 
G01 X95.0733 Y65.1508 
G01 X94.9734 Y65.2882 
G01 X94.8532 Y65.4084 
G01 X94.7158 Y65.5083 
G01 X94.5644 Y65.5854 
G01 X94.4028 Y65.6379 
G01 X94.2350 Y65.6645 
G01 X94.0650 Y65.6645 
G01 X93.8972 Y65.6379 
G01 X93.7356 Y65.5854 
G01 X93.5842 Y65.5083 
G01 X93.4468 Y65.4084 
G01 X93.3266 Y65.2882 
G01 X93.2267 Y65.1508 
G01 X93.1496 Y64.9994 
G01 X93.0971 Y64.8378 
G01 X93.0705 Y64.6700 
G01 X93.0705 Y64.5000 
G01 X93.0971 Y64.3322 
G01 X93.1496 Y64.1706 
G01 X93.2267 Y64.0192 
G01 X93.3266 Y63.8818 
G01 X93.4468 Y63.7616 
G01 X93.5842 Y63.6617 
G01 X93.7356 Y63.5846 
G01 X93.8972 Y63.5321 
G01 X94.0650 Y63.5055 
G01 X94.2350 Y63.5055 
G01 X94.4028 Y63.5321 
G01 X94.5644 Y63.5846 
G01 X94.7158 Y63.6617 
G01 X94.8532 Y63.7616 
G01 X94.9734 Y63.8818 
G01 X95.0733 Y64.0192 
G01 X95.1504 Y64.1706 
G01 X95.2029 Y64.3322 
G01 X95.2295 Y64.5000 
G00 Z10.0000 
G00 X122.3645 Y54.5250 
G01 Z2.0000 F9000.00 
G01 X122.3645 Y54.6950 F3000.00 
G01 X122.3379 Y54.8628 
G01 X122.2854 Y55.0244 
G01 X122.2083 Y55.1758 
G01 X122.1084 Y55.3132 
G01 X121.9882 Y55.4334 
G01 X121.8508 Y55.5333 
G01 X121.6994 Y55.6104 
G01 X121.5378 Y55.6629 
G01 X121.3700 Y55.6895 
G01 X121.2000 Y55.6895 
G01 X121.0322 Y55.6629 
G01 X120.8706 Y55.6104 
G01 X120.7192 Y55.5333 
G01 X120.5818 Y55.4334 
G01 X120.4616 Y55.3132 
G01 X120.3617 Y55.1758 
G01 X120.2846 Y55.0244 
G01 X120.2321 Y54.8628 
G01 X120.2055 Y54.6950 
G01 X120.2055 Y54.5250 
G01 X120.2321 Y54.3572 
G01 X120.2846 Y54.1956 
G01 X120.3617 Y54.0442 
G01 X120.4616 Y53.9068 
G01 X120.5818 Y53.7866 
G01 X120.7192 Y53.6867 
G01 X120.8706 Y53.6096 
G01 X121.0322 Y53.5571 
G01 X121.2000 Y53.5305 
G01 X121.3700 Y53.5305 
G01 X121.5378 Y53.5571 
G01 X121.6994 Y53.6096 
G01 X121.8508 Y53.6867 
G01 X121.9882 Y53.7866 
G01 X122.1084 Y53.9068 
G01 X122.2083 Y54.0442 
G01 X122.2854 Y54.1956 
G01 X122.3379 Y54.3572 
G01 X122.3645 Y54.5250 
G00 Z10.0000 
G00 X122.3645 Y64.6850 
G01 Z2.0000 F9000.00 
G01 X122.3645 Y64.8550 F3000.00 
G01 X122.3379 Y65.0228 
G01 X122.2854 Y65.1844 
G01 X122.2083 Y65.3358 
G01 X122.1084 Y65.4732 
G01 X121.9882 Y65.5934 
G01 X121.8508 Y65.6933 
G01 X121.6994 Y65.7704 
G01 X121.5378 Y65.8229 
G01 X121.3700 Y65.8495 
G01 X121.2000 Y65.8495 
G01 X121.0322 Y65.8229 
G01 X120.8706 Y65.7704 
G01 X120.7192 Y65.6933 
G01 X120.5818 Y65.5934 
G01 X120.4616 Y65.4732 
G01 X120.3617 Y65.3358 
G01 X120.2846 Y65.1844 
G01 X120.2321 Y65.0228 
G01 X120.2055 Y64.8550 
G01 X120.2055 Y64.6850 
G01 X120.2321 Y64.5172 
G01 X120.2846 Y64.3556 
G01 X120.3617 Y64.2042 
G01 X120.4616 Y64.0668 
G01 X120.5818 Y63.9466 
G01 X120.7192 Y63.8467 
G01 X120.8706 Y63.7696 
G01 X121.0322 Y63.7171 
G01 X121.2000 Y63.6905 
G01 X121.3700 Y63.6905 
G01 X121.5378 Y63.7171 
G01 X121.6994 Y63.7696 
G01 X121.8508 Y63.8467 
G01 X121.9882 Y63.9466 
G01 X122.1084 Y64.0668 
G01 X122.2083 Y64.2042 
G01 X122.2854 Y64.3556 
G01 X122.3379 Y64.5172 
G01 X122.3645 Y64.6850 
G00 Z10.0000 
G00 X115.3795 Y21.5050 
G01 Z2.0000 F9000.00 
G01 X115.3795 Y21.6750 F3000.00 
G01 X115.3529 Y21.8428 
G01 X115.3004 Y22.0044 
G01 X115.2233 Y22.1558 
G01 X115.1234 Y22.2932 
G01 X115.0032 Y22.4134 
G01 X114.8658 Y22.5133 
G01 X114.7144 Y22.5904 
G01 X114.5528 Y22.6429 
G01 X114.3850 Y22.6695 
G01 X114.2150 Y22.6695 
G01 X114.0472 Y22.6429 
G01 X113.8856 Y22.5904 
G01 X113.7342 Y22.5133 
G01 X113.5968 Y22.4134 
G01 X113.4766 Y22.2932 
G01 X113.3767 Y22.1558 
G01 X113.2996 Y22.0044 
G01 X113.2471 Y21.8428 
G01 X113.2205 Y21.6750 
G01 X113.2205 Y21.5050 
G01 X113.2471 Y21.3372 
G01 X113.2996 Y21.1756 
G01 X113.3767 Y21.0242 
