(.../pcb-gcode-3_6_0_4/pcb-gcode.ulp)
(Copyright 2005 - 2012 by John Johnson)
(See readme.txt for licensing terms.)
(This file generated from the board:)
(.../projects/midi_pad/midi_pad.brd)
(Current profile is .../pcb-gcode-3_6_0_4/profiles/generic.pp  )
(This file generated 19.08.22 19:35)
(Settings from pcb-machine.h)
(  Tool Size)
(0.1778 )
(Z Axis Settings)
(  High     Up        Down     Drill)
(12.7000 	2.5400 	-0.1778 	-0.8128 )
(spindle on time = 3.0000)
(milling depth = -0.2540)
(text depth = -0.1270)
(tool change at 12.7000 15.2400 25.4000 )
(feed rate xy = F3000.00 )
(feed rate z  = F2540.00 )
(Settings from pcb-defaults.h)
(isolate min = 0.0254)
(isolate max = 0.5080)
(isolate step = 0.1270)
(Generated top outlines, top drill, bottom outlines, bottom drill, )
(Unit of measure: mm)
( Tool|       Size       |  Min Sub |  Max Sub |   Count )
( T01  4.000mm 0.1575in 0.0000in 0.0000in )
( T02  1.000mm 0.0394in 0.0000in 0.0000in )
( T03  1.118mm 0.0440in 0.0000in 0.0000in )
( T04  1.500mm 0.0591in 0.0000in 0.0000in )
( T05  2.200mm 0.0866in 0.0000in 0.0000in )
( T06  2.286mm 0.0900in 0.0000in 0.0000in )
(Metric Mode)
G21
(Absolute Coordinates)
G90
M05
G00 Z25.4000 
G00 X12.7000 Y15.2400 
M06 T01  ; 4.0000 
G01 Z0.0000 F2540.00 
M06 T01  ; 4.0000 
G00 Z2.5400 
M03
G04 P3.000000
G00 Z2.540000
G00 X38.1000 Y35.5600 
G01 Z-0.8128 F2540.00 
G01 Z2.540000
(R2.5400  P1.000000)
(G00 Z2.540000)
G00 X38.1000 Y54.6100 
G01 Z-0.812800
G01 Z2.540000
(G00 Z2.540000)
G00 X38.1000 Y73.6600 
G01 Z-0.812800
G01 Z2.540000
(G00 Z2.540000)
G00 X38.1000 Y92.7100 
G01 Z-0.812800
G01 Z2.540000
(G00 Z2.540000)
G00 X57.1500 Y35.5600 
G01 Z-0.812800
G01 Z2.540000
(G00 Z2.540000)
G00 X57.1500 Y54.6100 
G01 Z-0.812800
G01 Z2.540000
(G00 Z2.540000)
G00 X57.1500 Y73.6600 
G01 Z-0.812800
G01 Z2.540000
(G00 Z2.540000)
G00 X57.1500 Y92.7100 
G01 Z-0.812800
G01 Z2.540000
(G00 Z2.540000)
G00 X19.0500 Y35.5600 
G01 Z-0.812800
G01 Z2.540000
(G00 Z2.540000)
G00 X19.0500 Y54.6100 
G01 Z-0.812800
G01 Z2.540000
(G00 Z2.540000)
G00 X19.0500 Y73.6600 
G01 Z-0.812800
G01 Z2.540000
(G00 Z2.540000)
G00 X19.0500 Y92.7100 
G01 Z-0.812800
G01 Z2.540000
M05
G00 Z25.4000 
M06 T02  ; 1.0000 
G01 Z0.0000 F2540.00 
M06 T02  ; 1.0000 
G00 Z2.5400 
M03
G04 P3.000000
G00 Z2.540000
G00 X34.2900 Y49.5300 
G01 Z-0.8128 F2540.00 
G01 Z2.540000
(R2.5400  P1.000000)
(G00 Z2.540000)
G00 X34.2900 Y68.5800 
G01 Z-0.812800
G01 Z2.540000
(G00 Z2.540000)
G00 X34.2900 Y87.6300 
G01 Z-0.812800
G01 Z2.540000
(G00 Z2.540000)
G00 X34.2900 Y30.4800 
G01 Z-0.812800
G01 Z2.540000
(G00 Z2.540000)
G00 X41.9100 Y49.5300 
G01 Z-0.812800
G01 Z2.540000
(G00 Z2.540000)
G00 X41.9100 Y68.5800 
G01 Z-0.812800
G01 Z2.540000
(G00 Z2.540000)
G00 X41.9100 Y87.6300 
G01 Z-0.812800
G01 Z2.540000
(G00 Z2.540000)
G00 X41.9100 Y30.4800 
G01 Z-0.812800
G01 Z2.540000
(G00 Z2.540000)
G00 X53.3400 Y49.5300 
G01 Z-0.812800
G01 Z2.540000
(G00 Z2.540000)
G00 X53.3400 Y68.5800 
G01 Z-0.812800
G01 Z2.540000
(G00 Z2.540000)
G00 X53.3400 Y87.6300 
G01 Z-0.812800
G01 Z2.540000
(G00 Z2.540000)
G00 X53.3400 Y30.4800 
G01 Z-0.812800
G01 Z2.540000
(G00 Z2.540000)
G00 X60.9600 Y49.5300 
G01 Z-0.812800
G01 Z2.540000
(G00 Z2.540000)
G00 X60.9600 Y68.5800 
G01 Z-0.812800
G01 Z2.540000
(G00 Z2.540000)
G00 X60.9600 Y87.6300 
G01 Z-0.812800
G01 Z2.540000
(G00 Z2.540000)
G00 X60.9600 Y30.4800 
G01 Z-0.812800
G01 Z2.540000
(G00 Z2.540000)
G00 X87.7500 Y73.7000 
G01 Z-0.812800
G01 Z2.540000
(G00 Z2.540000)
G00 X87.7500 Y76.2000 
G01 Z-0.812800
G01 Z2.540000
(G00 Z2.540000)
G00 X87.7500 Y78.7000 
G01 Z-0.812800
G01 Z2.540000
(G00 Z2.540000)
G00 X88.9000 Y35.5600 
G01 Z-0.812800
G01 Z2.540000
(G00 Z2.540000)
G00 X88.9000 Y109.2200 
G01 Z-0.812800
G01 Z2.540000
(G00 Z2.540000)
G00 X88.9000 Y12.7000 
G01 Z-0.812800
G01 Z2.540000
(G00 Z2.540000)
G00 X91.4400 Y35.5600 
G01 Z-0.812800
G01 Z2.540000
(G00 Z2.540000)
G00 X91.4400 Y12.7000 
G01 Z-0.812800
G01 Z2.540000
(G00 Z2.540000)
G00 X93.9800 Y35.5600 
G01 Z-0.812800
G01 Z2.540000
(G00 Z2.540000)
G00 X93.9800 Y12.7000 
G01 Z-0.812800
G01 Z2.540000
(G00 Z2.540000)
G00 X96.5200 Y35.5600 
G01 Z-0.812800
G01 Z2.540000
(G00 Z2.540000)
G00 X96.5200 Y12.7000 
G01 Z-0.812800
G01 Z2.540000
(G00 Z2.540000)
G00 X99.0600 Y35.5600 
G01 Z-0.812800
G01 Z2.540000
(G00 Z2.540000)
G00 X99.0600 Y12.7000 
G01 Z-0.812800
G01 Z2.540000
(G00 Z2.540000)
G00 X101.6000 Y35.5600 
G01 Z-0.812800
G01 Z2.540000
(G00 Z2.540000)
G00 X101.6000 Y12.7000 
G01 Z-0.812800
G01 Z2.540000
(G00 Z2.540000)
G00 X102.2500 Y73.7000 
G01 Z-0.812800
G01 Z2.540000
(G00 Z2.540000)
G00 X102.2500 Y78.7000 
G01 Z-0.812800
G01 Z2.540000
(G00 Z2.540000)
G00 X104.1400 Y35.5600 
G01 Z-0.812800
G01 Z2.540000
(G00 Z2.540000)
G00 X104.1400 Y12.7000 
G01 Z-0.812800
G01 Z2.540000
(G00 Z2.540000)
G00 X106.6800 Y35.5600 
G01 Z-0.812800
G01 Z2.540000
(G00 Z2.540000)
G00 X106.6800 Y109.2200 
G01 Z-0.812800
G01 Z2.540000
(G00 Z2.540000)
G00 X106.6800 Y12.7000 
G01 Z-0.812800
G01 Z2.540000
(G00 Z2.540000)
G00 X109.2200 Y35.5600 
G01 Z-0.812800
G01 Z2.540000
(G00 Z2.540000)
G00 X109.2200 Y12.7000 
G01 Z-0.812800
G01 Z2.540000
(G00 Z2.540000)
G00 X111.7600 Y35.5600 
G01 Z-0.812800
G01 Z2.540000
(G00 Z2.540000)
G00 X111.7600 Y12.7000 
G01 Z-0.812800
G01 Z2.540000
(G00 Z2.540000)
G00 X111.8000 Y49.6500 
G01 Z-0.812800
G01 Z2.540000
(G00 Z2.540000)
G00 X111.8000 Y64.1500 
G01 Z-0.812800
G01 Z2.540000
(G00 Z2.540000)
G00 X111.8000 Y88.2500 
G01 Z-0.812800
G01 Z2.540000
(G00 Z2.540000)
G00 X111.8000 Y102.7500 
G01 Z-0.812800
G01 Z2.540000
(G00 Z2.540000)
G00 X114.3000 Y35.5600 
G01 Z-0.812800
G01 Z2.540000
(G00 Z2.540000)
G00 X114.3000 Y49.6500 
G01 Z-0.812800
G01 Z2.540000
(G00 Z2.540000)
G00 X114.3000 Y102.7500 
G01 Z-0.812800
G01 Z2.540000
(G00 Z2.540000)
G00 X114.3000 Y12.7000 
G01 Z-0.812800
G01 Z2.540000
(G00 Z2.540000)
G00 X116.8000 Y49.6500 
G01 Z-0.812800
G01 Z2.540000
(G00 Z2.540000)
G00 X116.8000 Y64.1500 
G01 Z-0.812800
G01 Z2.540000
(G00 Z2.540000)
G00 X116.8000 Y88.2500 
G01 Z-0.812800
G01 Z2.540000
(G00 Z2.540000)
G00 X116.8000 Y102.7500 
G01 Z-0.812800
G01 Z2.540000
(G00 Z2.540000)
G00 X116.8400 Y35.5600 
G01 Z-0.812800
G01 Z2.540000
(G00 Z2.540000)
G00 X116.8400 Y12.7000 
G01 Z-0.812800
G01 Z2.540000
(G00 Z2.540000)
G00 X119.3800 Y35.5600 
G01 Z-0.812800
G01 Z2.540000
(G00 Z2.540000)
G00 X119.3800 Y12.7000 
G01 Z-0.812800
G01 Z2.540000
(G00 Z2.540000)
G00 X126.3500 Y73.7000 
G01 Z-0.812800
G01 Z2.540000
(G00 Z2.540000)
G00 X126.3500 Y78.7000 
G01 Z-0.812800
G01 Z2.540000
(G00 Z2.540000)
G00 X140.8500 Y73.7000 
G01 Z-0.812800
G01 Z2.540000
(G00 Z2.540000)
G00 X140.8500 Y76.2000 
G01 Z-0.812800
G01 Z2.540000
(G00 Z2.540000)
G00 X140.8500 Y78.7000 
G01 Z-0.812800
G01 Z2.540000
(G00 Z2.540000)
G00 X15.2400 Y49.5300 
G01 Z-0.812800
G01 Z2.540000
(G00 Z2.540000)
G00 X15.2400 Y68.5800 
G01 Z-0.812800
G01 Z2.540000
(G00 Z2.540000)
G00 X15.2400 Y87.6300 
G01 Z-0.812800
G01 Z2.540000
(G00 Z2.540000)
G00 X15.2400 Y30.4800 
G01 Z-0.812800
G01 Z2.540000
(G00 Z2.540000)
G00 X22.8600 Y49.5300 
G01 Z-0.812800
G01 Z2.540000
(G00 Z2.540000)
G00 X22.8600 Y68.5800 
G01 Z-0.812800
G01 Z2.540000
(G00 Z2.540000)
G00 X22.8600 Y87.6300 
G01 Z-0.812800
G01 Z2.540000
(G00 Z2.540000)
G00 X22.8600 Y30.4800 
G01 Z-0.812800
G01 Z2.540000
M05
G00 Z25.4000 
M06 T03  ; 1.1176 
G01 Z0.0000 F2540.00 
M06 T03  ; 1.1176 
G00 Z2.5400 
M03
G04 P3.000000
G00 Z2.540000
G00 X87.6300 Y60.3250 
G01 Z-0.8128 F2540.00 
G01 Z2.540000
(R2.5400  P1.000000)
(G00 Z2.540000)
G00 X87.6300 Y86.3600 
G01 Z-0.812800
G01 Z2.540000
(G00 Z2.540000)
G00 X87.6300 Y96.5200 
G01 Z-0.812800
G01 Z2.540000
(G00 Z2.540000)
G00 X95.2500 Y49.5300 
G01 Z-0.812800
G01 Z2.540000
(G00 Z2.540000)
G00 X97.7900 Y60.3250 
G01 Z-0.812800
G01 Z2.540000
(G00 Z2.540000)
G00 X98.5950 Y92.5250 
G01 Z-0.812800
G01 Z2.540000
(G00 Z2.540000)
G00 X98.5950 Y102.6850 
G01 Z-0.812800
G01 Z2.540000
(G00 Z2.540000)
G00 X104.8700 Y73.6600 
G01 Z-0.812800
G01 Z2.540000
(G00 Z2.540000)
G00 X105.4100 Y49.5300 
G01 Z-0.812800
G01 Z2.540000
(G00 Z2.540000)
G00 X111.7600 Y75.6600 
G01 Z-0.812800
G01 Z2.540000
(G00 Z2.540000)
G00 X111.7600 Y85.8200 
G01 Z-0.812800
G01 Z2.540000
(G00 Z2.540000)
G00 X113.9600 Y78.4600 
G01 Z-0.812800
G01 Z2.540000
(G00 Z2.540000)
G00 X115.0300 Y73.6600 
G01 Z-0.812800
G01 Z2.540000
(G00 Z2.540000)
G00 X116.8400 Y66.5000 
G01 Z-0.812800
G01 Z2.540000
(G00 Z2.540000)
G00 X116.8400 Y76.6600 
G01 Z-0.812800
G01 Z2.540000
(G00 Z2.540000)
G00 X124.1200 Y78.4600 
G01 Z-0.812800
G01 Z2.540000
(G00 Z2.540000)
G00 X124.4600 Y102.8700 
G01 Z-0.812800
G01 Z2.540000
(G00 Z2.540000)
G00 X128.9050 Y49.5300 
G01 Z-0.812800
G01 Z2.540000
(G00 Z2.540000)
G00 X128.9050 Y59.6900 
G01 Z-0.812800
G01 Z2.540000
(G00 Z2.540000)
G00 X130.8100 Y92.0750 
G01 Z-0.812800
G01 Z2.540000
(G00 Z2.540000)
G00 X134.6200 Y102.8700 
G01 Z-0.812800
G01 Z2.540000
(G00 Z2.540000)
G00 X140.9700 Y57.1500 
G01 Z-0.812800
G01 Z2.540000
(G00 Z2.540000)
G00 X140.9700 Y67.3100 
G01 Z-0.812800
G01 Z2.540000
(G00 Z2.540000)
G00 X140.9700 Y92.0750 
G01 Z-0.812800
G01 Z2.540000
M05
G00 Z25.4000 
M06 T04  ; 1.5000 
G01 Z0.0000 F2540.00 
M06 T04  ; 1.5000 
G00 Z2.5400 
M03
G04 P3.000000
G00 Z2.540000
G00 X34.2900 Y38.1000 
G01 Z-0.8128 F2540.00 
G01 Z2.540000
(R2.5400  P1.000000)
(G00 Z2.540000)
G00 X34.2900 Y57.1500 
G01 Z-0.812800
G01 Z2.540000
(G00 Z2.540000)
G00 X34.2900 Y76.2000 
G01 Z-0.812800
G01 Z2.540000
(G00 Z2.540000)
G00 X34.2900 Y95.2500 
G01 Z-0.812800
G01 Z2.540000
(G00 Z2.540000)
G00 X40.6400 Y40.6400 
G01 Z-0.812800
G01 Z2.540000
(G00 Z2.540000)
G00 X40.6400 Y59.6900 
G01 Z-0.812800
G01 Z2.540000
(G00 Z2.540000)
G00 X40.6400 Y78.7400 
G01 Z-0.812800
G01 Z2.540000
(G00 Z2.540000)
G00 X40.6400 Y97.7900 
G01 Z-0.812800
G01 Z2.540000
(G00 Z2.540000)
G00 X53.3400 Y38.1000 
G01 Z-0.812800
G01 Z2.540000
(G00 Z2.540000)
G00 X53.3400 Y57.1500 
G01 Z-0.812800
G01 Z2.540000
(G00 Z2.540000)
G00 X53.3400 Y76.2000 
G01 Z-0.812800
G01 Z2.540000
(G00 Z2.540000)
G00 X53.3400 Y95.2500 
G01 Z-0.812800
G01 Z2.540000
(G00 Z2.540000)
G00 X59.6900 Y40.6400 
G01 Z-0.812800
G01 Z2.540000
(G00 Z2.540000)
G00 X59.6900 Y59.6900 
G01 Z-0.812800
G01 Z2.540000
(G00 Z2.540000)
G00 X59.6900 Y78.7400 
G01 Z-0.812800
G01 Z2.540000
(G00 Z2.540000)
G00 X59.6900 Y97.7900 
G01 Z-0.812800
G01 Z2.540000
(G00 Z2.540000)
G00 X15.2400 Y38.1000 
G01 Z-0.812800
G01 Z2.540000
(G00 Z2.540000)
G00 X15.2400 Y57.1500 
G01 Z-0.812800
G01 Z2.540000
(G00 Z2.540000)
G00 X15.2400 Y76.2000 
G01 Z-0.812800
G01 Z2.540000
(G00 Z2.540000)
G00 X15.2400 Y95.2500 
G01 Z-0.812800
G01 Z2.540000
(G00 Z2.540000)
G00 X21.5900 Y40.6400 
G01 Z-0.812800
G01 Z2.540000
(G00 Z2.540000)
G00 X21.5900 Y59.6900 
G01 Z-0.812800
G01 Z2.540000
(G00 Z2.540000)
G00 X21.5900 Y78.7400 
G01 Z-0.812800
G01 Z2.540000
(G00 Z2.540000)
G00 X21.5900 Y97.7900 
G01 Z-0.812800
G01 Z2.540000
M05
G00 Z25.4000 
M06 T05  ; 2.2000 
G01 Z0.0000 F2540.00 
M06 T05  ; 2.2000 
G00 Z2.5400 
M03
G04 P3.000000
G00 Z2.540000
G00 X95.2500 Y70.1000 
G01 Z-0.8128 F2540.00 
G01 Z2.540000
(R2.5400  P1.000000)
(G00 Z2.540000)
G00 X95.2500 Y82.3000 
G01 Z-0.812800
G01 Z2.540000
(G00 Z2.540000)
G00 X108.2000 Y57.1500 
G01 Z-0.812800
G01 Z2.540000
(G00 Z2.540000)
G00 X108.2000 Y95.2500 
G01 Z-0.812800
G01 Z2.540000
(G00 Z2.540000)
G00 X120.4000 Y57.1500 
G01 Z-0.812800
G01 Z2.540000
(G00 Z2.540000)
G00 X120.4000 Y95.2500 
G01 Z-0.812800
G01 Z2.540000
(G00 Z2.540000)
G00 X133.3500 Y70.1000 
G01 Z-0.812800
G01 Z2.540000
(G00 Z2.540000)
G00 X133.3500 Y82.3000 
G01 Z-0.812800
G01 Z2.540000
M05
G00 Z25.4000 
M06 T06  ; 2.2860 
G01 Z0.0000 F2540.00 
M06 T06  ; 2.2860 
G00 Z2.5400 
M03
G04 P3.000000
G00 Z2.540000
G00 X83.8200 Y13.8430 
G01 Z-0.8128 F2540.00 
G01 Z2.540000
(R2.5400  P1.000000)
(G00 Z2.540000)
G00 X121.9200 Y34.7980 
G01 Z-0.812800
G01 Z2.540000
T01 
G00 Z12.7000 
M05
M02
