(/home/lu/EAGLE/ulps/pcb-gcode.ulp)
(Copyright 2005 - 2012 by John Johnson)
(See readme.txt for licensing terms.)
(This file generated from the board:)
(.../midi_pad/midi_pad_laser_test.brd)
(Current profile is .../pcb-gcode-3_6_0_4/profiles/generic.pp  )
(This file generated 20.08.22 04:19)
(Settings from pcb-machine.h)
(  Tool Size)
(0.1778 )
(Z Axis Settings)
(  High     Up        Down     Drill)
(0.0000 	0.0000 	0.0000 	0.0000 )
(spindle on time = 3.0000)
(milling depth = 0.0000)
(text depth = 0.0000)
(tool change at 12.7000 15.2400 25.4000 )
(feed rate xy = F3000.00 )
(feed rate z  = F254000.00 )
(Settings from pcb-defaults.h)
(isolate min = 0.0254)
(isolate max = 0.1270)
(isolate step = 0.0635)
(Generated bottom outlines, )
(Unit of measure: mm)
(Metric Mode)
G21
(Absolute Coordinates)
G90
G00 X0.0000 Y0.0000 
M03
G04 P3.000000
G00 Z0.0000 
G00 X-46.3748 Y42.2593 
G01 Z0.0000 F254000.00 
G01 X-46.2599 Y42.3475 F3000.00 S1000
G01 X-46.1575 Y42.4499 
G01 X-46.0693 Y42.5648 
G01 X-46.0148 Y42.6593 
G01 X-46.0438 Y42.6593 
G01 X-46.0667 Y42.6142 
G01 X-46.1666 Y42.4768 
G01 X-46.2868 Y42.3566 
G01 X-46.4242 Y42.2567 
G01 X-46.4693 Y42.2338 
G01 X-46.4693 Y42.2048 
G01 X-46.3748 Y42.2593 
G00 X-41.2552 Y17.4307 
G01 Z0.0000 F254000.00 
G01 X-41.3701 Y17.3425 F3000.00 
G01 X-41.4725 Y17.2401 
G01 X-41.5607 Y17.1252 
G01 X-41.6152 Y17.0307 
G01 X-41.5862 Y17.0307 
G01 X-41.5633 Y17.0758 
G01 X-41.4634 Y17.2132 
G01 X-41.3432 Y17.3334 
G01 X-41.2058 Y17.4333 
G01 X-41.1607 Y17.4562 
G01 X-41.1607 Y17.4852 
G01 X-41.2552 Y17.4307 
G00 X-39.7193 Y17.1252 
G01 Z0.0000 F254000.00 
G01 X-39.8075 Y17.2401 F3000.00 
G01 X-39.9099 Y17.3425 
G01 X-40.0248 Y17.4307 
G01 X-40.1193 Y17.4852 
G01 X-40.1193 Y17.4562 
G01 X-40.0742 Y17.4333 
G01 X-39.9368 Y17.3334 
G01 X-39.8166 Y17.2132 
G01 X-39.7167 Y17.0758 
G01 X-39.6938 Y17.0307 
G01 X-39.6648 Y17.0307 
G01 X-39.7193 Y17.1252 
G00 X-12.7198 Y15.5893 
G01 Z0.0000 F254000.00 
G01 X-12.6049 Y15.6775 F3000.00 
G01 X-12.5025 Y15.7799 
G01 X-12.4143 Y15.8948 
G01 X-12.3598 Y15.9893 
G01 X-12.3888 Y15.9893 
G01 X-12.4117 Y15.9442 
G01 X-12.5116 Y15.8068 
G01 X-12.6318 Y15.6866 
G01 X-12.7692 Y15.5867 
G01 X-12.8143 Y15.5638 
G01 X-12.8143 Y15.5348 
G01 X-12.7198 Y15.5893 
G00 X-47.9107 Y15.2598 
G01 Z0.0000 F254000.00 
G01 X-47.8225 Y15.1449 F3000.00 
G01 X-47.7201 Y15.0425 
G01 X-47.6052 Y14.9543 
G01 X-47.5107 Y14.8998 
G01 X-47.5107 Y14.9288 
G01 X-47.5558 Y14.9517 
G01 X-47.6932 Y15.0516 
G01 X-47.8134 Y15.1718 
G01 X-47.9133 Y15.3092 
G01 X-47.9362 Y15.3543 
G01 X-47.9652 Y15.3543 
G01 X-47.9107 Y15.2598 
G00 X-48.2402 Y50.4507 
G01 Z0.0000 F254000.00 
G01 X-48.3551 Y50.3625 F3000.00 
G01 X-48.4575 Y50.2601 
G01 X-48.5457 Y50.1452 
G01 X-48.6002 Y50.0507 
G01 X-48.5712 Y50.0507 
G01 X-48.5483 Y50.0958 
G01 X-48.4484 Y50.2332 
G01 X-48.3282 Y50.3534 
G01 X-48.1908 Y50.4533 
G01 X-48.1457 Y50.4762 
G01 X-48.1457 Y50.5052 
G01 X-48.2402 Y50.4507 
G00 X-13.4042 Y51.0883 
G01 Z0.0000 F254000.00 
G01 X-13.2668 Y50.9884 F3000.00 
G01 X-13.1466 Y50.8682 
G01 X-13.0467 Y50.7308 
G01 X-13.0238 Y50.6857 
G01 X-12.9948 Y50.6857 
G01 X-13.0493 Y50.7802 
G01 X-13.1375 Y50.8951 
G01 X-13.2399 Y50.9975 
G01 X-13.3548 Y51.0857 
G01 X-13.4493 Y51.1402 
G01 X-13.4493 Y51.1112 
G01 X-13.4042 Y51.0883 
G00 X-29.2193 Y35.8952 
G01 Z0.0000 F254000.00 
G01 X-29.3075 Y36.0101 F3000.00 
G01 X-29.4099 Y36.1125 
G01 X-29.5248 Y36.2007 
G01 X-29.6193 Y36.2552 
G01 X-29.6193 Y36.2262 
G01 X-29.5742 Y36.2033 
G01 X-29.4368 Y36.1034 
G01 X-29.3166 Y35.9832 
G01 X-29.2167 Y35.8458 
G01 X-29.1938 Y35.8007 
G01 X-29.1648 Y35.8007 
G01 X-29.2193 Y35.8952 
G00 X-30.9725 Y36.0101 
G01 Z0.0000 F254000.00 
G01 X-31.0607 Y35.8952 F3000.00 
G01 X-31.1152 Y35.8007 
G01 X-31.0862 Y35.8007 
G01 X-31.0633 Y35.8458 
G01 X-30.9634 Y35.9832 
G01 X-30.8432 Y36.1034 
G01 X-30.7058 Y36.2033 
G01 X-30.6607 Y36.2262 
G01 X-30.6607 Y36.2552 
G01 X-30.7552 Y36.2007 
G01 X-30.8701 Y36.1125 
G01 X-30.9725 Y36.0101 
G00 X-21.4107 Y48.7298 
G01 Z0.0000 F254000.00 
G01 X-21.3225 Y48.6149 F3000.00 
G01 X-21.2201 Y48.5125 
G01 X-21.1052 Y48.4243 
G01 X-21.0107 Y48.3698 
G01 X-21.0107 Y48.3988 
G01 X-21.0558 Y48.4217 
G01 X-21.1932 Y48.5216 
G01 X-21.3134 Y48.6418 
G01 X-21.4133 Y48.7792 
G01 X-21.4362 Y48.8243 
G01 X-21.4652 Y48.8243 
G01 X-21.4107 Y48.7298 
G00 X-46.4242 Y44.1033 
G01 Z0.0000 F254000.00 
G01 X-46.2868 Y44.0034 F3000.00 
G01 X-46.1666 Y43.8832 
G01 X-46.0667 Y43.7458 
G01 X-46.0438 Y43.7007 
G01 X-46.0148 Y43.7007 
G01 X-46.0693 Y43.7952 
G01 X-46.1575 Y43.9101 
G01 X-46.2599 Y44.0125 
G01 X-46.3748 Y44.1007 
G01 X-46.4693 Y44.1552 
G01 X-46.4693 Y44.1262 
G01 X-46.4242 Y44.1033 
G00 X-19.8748 Y48.4243 
G01 Z0.0000 F254000.00 
G01 X-19.7599 Y48.5125 F3000.00 
G01 X-19.6575 Y48.6149 
G01 X-19.5693 Y48.7298 
G01 X-19.5148 Y48.8243 
G01 X-19.5438 Y48.8243 
G01 X-19.5667 Y48.7792 
G01 X-19.6666 Y48.6418 
G01 X-19.7868 Y48.5216 
G01 X-19.9242 Y48.4217 
G01 X-19.9693 Y48.3988 
G01 X-19.9693 Y48.3698 
G01 X-19.8748 Y48.4243 
G00 X-14.8933 Y23.4258 
G01 Z0.0000 F254000.00 
G01 X-14.7934 Y23.5632 F3000.00 
G01 X-14.6732 Y23.6834 
G01 X-14.5358 Y23.7833 
G01 X-14.4907 Y23.8062 
G01 X-14.4907 Y23.8352 
G01 X-14.5852 Y23.7807 
G01 X-14.7001 Y23.6925 
G01 X-14.8025 Y23.5901 
G01 X-14.8907 Y23.4752 
G01 X-14.9452 Y23.3807 
G01 X-14.9162 Y23.3807 
G01 X-14.8933 Y23.4258 
G00 X-14.8907 Y22.2448 
G01 Z0.0000 F254000.00 
G01 X-14.8025 Y22.1299 F3000.00 
G01 X-14.7001 Y22.0275 
G01 X-14.5852 Y21.9393 
G01 X-14.4907 Y21.8848 
G01 X-14.4907 Y21.9138 
G01 X-14.5358 Y21.9367 
G01 X-14.6732 Y22.0366 
G01 X-14.7934 Y22.1568 
G01 X-14.8933 Y22.2942 
G01 X-14.9162 Y22.3393 
G01 X-14.9452 Y22.3393 
G01 X-14.8907 Y22.2448 
G00 X-27.0193 Y33.0952 
G01 Z0.0000 F254000.00 
G01 X-27.1075 Y33.2101 F3000.00 
G01 X-27.2099 Y33.3125 
G01 X-27.3248 Y33.4007 
G01 X-27.4193 Y33.4552 
G01 X-27.4193 Y33.4262 
G01 X-27.3742 Y33.4033 
G01 X-27.2368 Y33.3034 
G01 X-27.1166 Y33.1832 
G01 X-27.0167 Y33.0458 
G01 X-26.9938 Y33.0007 
G01 X-26.9648 Y33.0007 
G01 X-27.0193 Y33.0952 
G00 X-33.9433 Y34.0458 
G01 Z0.0000 F254000.00 
G01 X-33.8434 Y34.1832 F3000.00 
G01 X-33.7232 Y34.3034 
G01 X-33.5858 Y34.4033 
G01 X-33.5407 Y34.4262 
G01 X-33.5407 Y34.4552 
G01 X-33.6352 Y34.4007 
G01 X-33.7501 Y34.3125 
G01 X-33.8525 Y34.2101 
G01 X-33.9407 Y34.0952 
G01 X-33.9952 Y34.0007 
G01 X-33.9662 Y34.0007 
G01 X-33.9433 Y34.0458 
G00 X-33.9407 Y32.8648 
G01 Z0.0000 F254000.00 
G01 X-33.8525 Y32.7499 F3000.00 
G01 X-33.7501 Y32.6475 
G01 X-33.6352 Y32.5593 
G01 X-33.5407 Y32.5048 
G01 X-33.5407 Y32.5338 
G01 X-33.5858 Y32.5567 
G01 X-33.7232 Y32.6566 
G01 X-33.8434 Y32.7768 
G01 X-33.9433 Y32.9142 
G01 X-33.9662 Y32.9593 
G01 X-33.9952 Y32.9593 
G01 X-33.9407 Y32.8648 
G00 X-30.5948 Y29.5593 
G01 Z0.0000 F254000.00 
G01 X-30.4799 Y29.6475 F3000.00 
G01 X-30.3775 Y29.7499 
G01 X-30.2893 Y29.8648 
G01 X-30.2348 Y29.9593 
G01 X-30.2638 Y29.9593 
G01 X-30.2867 Y29.9142 
G01 X-30.3866 Y29.7768 
G01 X-30.5068 Y29.6566 
G01 X-30.6442 Y29.5567 
G01 X-30.6893 Y29.5338 
G01 X-30.6893 Y29.5048 
G01 X-30.5948 Y29.5593 
G00 X-31.7758 Y29.5567 
G01 Z0.0000 F254000.00 
G01 X-31.9132 Y29.6566 F3000.00 
G01 X-32.0334 Y29.7768 
G01 X-32.1333 Y29.9142 
G01 X-32.1562 Y29.9593 
G01 X-32.1852 Y29.9593 
G01 X-32.1307 Y29.8648 
G01 X-32.0425 Y29.7499 
G01 X-31.9401 Y29.6475 
G01 X-31.8252 Y29.5593 
G01 X-31.7307 Y29.5048 
G01 X-31.7307 Y29.5338 
G01 X-31.7758 Y29.5567 
G00 X-27.1075 Y31.7499 
G01 Z0.0000 F254000.00 
G01 X-27.0193 Y31.8648 F3000.00 
G01 X-26.9648 Y31.9593 
G01 X-26.9938 Y31.9593 
G01 X-27.0167 Y31.9142 
G01 X-27.1166 Y31.7768 
G01 X-27.2368 Y31.6566 
G01 X-27.3742 Y31.5567 
G01 X-27.4193 Y31.5338 
G01 X-27.4193 Y31.5048 
G01 X-27.3248 Y31.5593 
G01 X-27.2099 Y31.6475 
G01 X-27.1075 Y31.7499 
G00 X-36.0807 Y38.1686 
G01 Z0.0000 F254000.00 
G01 X-36.0452 Y38.3010 F3000.00 
G01 X-35.9767 Y38.4197 
G01 X-35.8797 Y38.5167 
G01 X-35.7610 Y38.5852 
G01 X-35.6286 Y38.6207 
G01 X-25.3314 Y38.6207 
G01 X-25.1990 Y38.5852 
G01 X-25.0803 Y38.5167 
G01 X-24.9833 Y38.4197 
G01 X-24.9148 Y38.3010 
G01 X-24.8793 Y38.1686 
G01 X-24.8793 Y27.8714 
G01 X-24.9148 Y27.7390 
G01 X-24.9833 Y27.6203 
G01 X-25.0803 Y27.5233 
G01 X-25.1990 Y27.4548 
G01 X-25.3314 Y27.4193 
G01 X-35.6286 Y27.4193 
G01 X-35.7610 Y27.4548 
G01 X-35.8797 Y27.5233 
G01 X-35.9767 Y27.6203 
G01 X-36.0452 Y27.7390 
G01 X-36.0807 Y27.8714 
G01 X-36.0807 Y28.0085 
G01 X-36.0807 Y38.1686 
G00 X-28.8483 Y20.1933 
G01 Z0.0000 F254000.00 
G01 X-28.8483 Y21.7467 F3000.00 
G01 X-28.8309 Y21.7887 
G01 X-28.7987 Y21.8209 
G01 X-28.7567 Y21.8383 
G01 X-27.2033 Y21.8383 
G01 X-27.1613 Y21.8209 
G01 X-27.1291 Y21.7887 
G01 X-27.1117 Y21.7467 
G01 X-27.1117 Y20.1933 
G01 X-27.1291 Y20.1513 
G01 X-27.1613 Y20.1191 
G01 X-27.2033 Y20.1017 
G01 X-28.7567 Y20.1017 
G01 X-28.7987 Y20.1191 
G01 X-28.8309 Y20.1513 
G01 X-28.8483 Y20.1933 
G00 X-31.3483 Y5.6933 
G01 Z0.0000 F254000.00 
G01 X-31.3483 Y7.2467 F3000.00 
G01 X-31.3309 Y7.2887 
G01 X-31.2987 Y7.3209 
G01 X-31.2567 Y7.3383 
G01 X-29.7033 Y7.3383 
G01 X-29.6613 Y7.3209 
G01 X-29.6291 Y7.2887 
G01 X-29.6117 Y7.2467 
G01 X-29.6117 Y5.6933 
G01 X-29.6291 Y5.6513 
G01 X-29.6613 Y5.6191 
G01 X-29.7033 Y5.6017 
G01 X-31.2567 Y5.6017 
G01 X-31.2987 Y5.6191 
G01 X-31.3309 Y5.6513 
G01 X-31.3483 Y5.6933 
G00 X-28.8483 Y5.6933 
G01 Z0.0000 F254000.00 
G01 X-28.8483 Y7.2467 F3000.00 
G01 X-28.8309 Y7.2887 
G01 X-28.7987 Y7.3209 
G01 X-28.7567 Y7.3383 
G01 X-27.2033 Y7.3383 
G01 X-27.1613 Y7.3209 
G01 X-27.1291 Y7.2887 
G01 X-27.1117 Y7.2467 
G01 X-27.1117 Y7.0903 
G01 X-14.2117 Y6.9798 
G01 X-14.1584 Y7.0532 
G01 X-14.0382 Y7.1734 
G01 X-13.9008 Y7.2733 
G01 X-13.7494 Y7.3504 
G01 X-13.5878 Y7.4029 
G01 X-13.4200 Y7.4295 
G01 X-13.2500 Y7.4295 
G01 X-13.0822 Y7.4029 
G01 X-12.9206 Y7.3504 
G01 X-12.7692 Y7.2733 
G01 X-12.6318 Y7.1734 
G01 X-12.5116 Y7.0532 
G01 X-12.4117 Y6.9158 
G01 X-12.3346 Y6.7644 
G01 X-12.2821 Y6.6028 
G01 X-12.2555 Y6.4350 
G01 X-12.2555 Y6.2650 
G01 X-12.2821 Y6.0972 
G01 X-12.3346 Y5.9356 
G01 X-12.4117 Y5.7842 
G01 X-12.5116 Y5.6468 
G01 X-12.6318 Y5.5266 
G01 X-12.7692 Y5.4267 
G01 X-12.9206 Y5.3496 
G01 X-13.0822 Y5.2971 
G01 X-13.2500 Y5.2705 
G01 X-13.4200 Y5.2705 
G01 X-13.5878 Y5.2971 
G01 X-13.7494 Y5.3496 
G01 X-13.9008 Y5.4267 
G01 X-14.0382 Y5.5266 
G01 X-14.1584 Y5.6468 
G01 X-14.2227 Y5.7353 
G01 X-27.1117 Y5.8457 
G01 X-27.1117 Y5.6933 
G01 X-27.1291 Y5.6513 
G01 X-27.1613 Y5.6191 
G01 X-27.2033 Y5.6017 
G01 X-28.7567 Y5.6017 
G01 X-28.7987 Y5.6191 
G01 X-28.8309 Y5.6513 
G01 X-28.8483 Y5.6933 
G00 X-51.1607 Y40.8423 
G01 Z0.0000 F254000.00 
G01 X-47.8993 Y40.8423 F3000.00 
G01 X-47.8573 Y40.8249 
G01 X-47.8251 Y40.7927 
G01 X-47.8077 Y40.7507 
G01 X-47.8077 Y37.4893 
G01 X-47.8251 Y37.4473 
G01 X-47.8573 Y37.4151 
G01 X-47.8993 Y37.3977 
G01 X-51.1607 Y37.3977 
G01 X-51.2027 Y37.4151 
G01 X-51.2349 Y37.4473 
G01 X-51.2523 Y37.4893 
G01 X-51.2523 Y40.7507 
G01 X-51.2349 Y40.7927 
G01 X-51.2027 Y40.8249 
G01 X-51.1607 Y40.8423 
G00 X-51.1607 Y28.6423 
G01 Z0.0000 F254000.00 
G01 X-47.8993 Y28.6423 F3000.00 
G01 X-47.8573 Y28.6249 
G01 X-47.8251 Y28.5927 
G01 X-47.8077 Y28.5507 
G01 X-47.8077 Y25.2893 
G01 X-47.8251 Y25.2473 
G01 X-47.8573 Y25.2151 
G01 X-47.8993 Y25.1977 
G01 X-51.1607 Y25.1977 
G01 X-51.2027 Y25.2151 
G01 X-51.2349 Y25.2473 
G01 X-51.2523 Y25.2893 
G01 X-51.2523 Y28.5507 
G01 X-51.2349 Y28.5927 
G01 X-51.2027 Y28.6249 
G01 X-51.1607 Y28.6423 
G00 X-17.6533 Y34.6517 
G01 Z0.0000 F254000.00 
G01 X-19.2067 Y34.6517 F3000.00 
G01 X-19.2487 Y34.6691 
G01 X-19.2809 Y34.7013 
G01 X-19.2983 Y34.7433 
G01 X-19.2983 Y36.2967 
G01 X-19.2809 Y36.3387 
G01 X-19.2487 Y36.3709 
G01 X-19.2067 Y36.3883 
G01 X-17.6533 Y36.3883 
G01 X-17.6113 Y36.3709 
G01 X-17.5791 Y36.3387 
G01 X-17.5617 Y36.2967 
G01 X-17.5617 Y34.7433 
G01 X-17.5791 Y34.7013 
G01 X-17.6113 Y34.6691 
G01 X-17.6533 Y34.6517 
G00 X-3.1533 Y32.1517 
G01 Z0.0000 F254000.00 
G01 X-4.7067 Y32.1517 F3000.00 
G01 X-4.7487 Y32.1691 
G01 X-4.7809 Y32.2013 
G01 X-4.7983 Y32.2433 
G01 X-4.7983 Y33.7967 
G01 X-4.7809 Y33.8387 
G01 X-4.7487 Y33.8709 
G01 X-4.7067 Y33.8883 
G01 X-3.1533 Y33.8883 
G01 X-3.1113 Y33.8709 
G01 X-3.0791 Y33.8387 
G01 X-3.0617 Y33.7967 
G01 X-3.0617 Y32.2433 
G01 X-3.0791 Y32.2013 
G01 X-3.1113 Y32.1691 
G01 X-3.1533 Y32.1517 
G00 X-22.6577 Y53.7007 
G01 Z0.0000 F254000.00 
G01 X-22.6577 Y50.4393 F3000.00 
G01 X-22.6751 Y50.3973 
G01 X-22.7073 Y50.3651 
G01 X-22.7493 Y50.3477 
G01 X-26.0107 Y50.3477 
G01 X-26.0527 Y50.3651 
G01 X-26.0849 Y50.3973 
G01 X-26.1023 Y50.4393 
G01 X-26.1023 Y53.7007 
G01 X-26.0849 Y53.7427 
G01 X-26.0527 Y53.7749 
G01 X-26.0107 Y53.7923 
G01 X-22.7493 Y53.7923 
G01 X-22.7073 Y53.7749 
G01 X-22.6751 Y53.7427 
G01 X-22.6577 Y53.7007 
G00 X-34.8577 Y53.7007 
G01 Z0.0000 F254000.00 
G01 X-34.8577 Y50.4393 F3000.00 
G01 X-34.8751 Y50.3973 
G01 X-34.9073 Y50.3651 
G01 X-34.9493 Y50.3477 
G01 X-38.2107 Y50.3477 
G01 X-38.2527 Y50.3651 
G01 X-38.2849 Y50.3973 
G01 X-38.3023 Y50.4393 
G01 X-38.3023 Y53.7007 
G01 X-38.2849 Y53.7427 
G01 X-38.2527 Y53.7749 
G01 X-38.2107 Y53.7923 
G01 X-34.9493 Y53.7923 
G01 X-34.9073 Y53.7749 
G01 X-34.8751 Y53.7427 
G01 X-34.8577 Y53.7007 
G00 X-13.4042 Y23.7833 
G01 Z0.0000 F254000.00 
G01 X-13.2668 Y23.6834 F3000.00 
G01 X-13.1466 Y23.5632 
G01 X-13.0467 Y23.4258 
G01 X-12.9696 Y23.2744 
G01 X-12.9171 Y23.1128 
G01 X-12.8905 Y22.9450 
G01 X-12.8905 Y22.7750 
G01 X-12.9171 Y22.6072 
G01 X-12.9696 Y22.4456 
G01 X-13.0467 Y22.2942 
G01 X-13.1466 Y22.1568 
G01 X-13.2668 Y22.0366 
G01 X-13.4042 Y21.9367 
G01 X-13.4493 Y21.9138 
G01 X-13.4493 Y20.2514 
G01 X-13.4848 Y20.1190 
G01 X-13.5533 Y20.0003 
G01 X-13.6503 Y19.9033 
G01 X-17.4603 Y16.0933 
G01 X-17.5790 Y16.0248 
G01 X-17.7114 Y15.9893 
G01 X-22.5321 Y15.9893 
G01 X-22.5663 Y15.9848 
G01 X-22.6004 Y15.9893 
G01 X-22.6348 Y15.9893 
G01 X-22.6639 Y15.9971 
G01 X-26.0961 Y15.9971 
G01 X-26.1252 Y15.9893 
G01 X-26.1596 Y15.9893 
G01 X-26.1937 Y15.9848 
G01 X-26.2279 Y15.9893 
G01 X-34.7321 Y15.9893 
G01 X-34.7663 Y15.9848 
G01 X-34.8004 Y15.9893 
G01 X-34.8348 Y15.9893 
G01 X-34.8639 Y15.9971 
G01 X-38.2961 Y15.9971 
G01 X-38.3252 Y15.9893 
G01 X-38.3596 Y15.9893 
G01 X-38.3937 Y15.9848 
G01 X-38.4279 Y15.9893 
G01 X-39.6938 Y15.9893 
G01 X-39.7167 Y15.9442 
G01 X-39.8166 Y15.8068 
G01 X-39.9368 Y15.6866 
G01 X-40.0742 Y15.5867 
G01 X-40.2256 Y15.5096 
G01 X-40.3872 Y15.4571 
G01 X-40.5550 Y15.4305 
G01 X-40.7250 Y15.4305 
G01 X-40.8928 Y15.4571 
G01 X-41.0544 Y15.5096 
G01 X-41.2058 Y15.5867 
G01 X-41.3432 Y15.6866 
G01 X-41.4634 Y15.8068 
G01 X-41.5633 Y15.9442 
G01 X-41.5862 Y15.9893 
G01 X-43.2486 Y15.9893 
G01 X-43.3810 Y16.0248 
G01 X-43.4997 Y16.0933 
G01 X-43.5967 Y16.1903 
G01 X-47.4067 Y20.0003 
G01 X-47.4752 Y20.1190 
G01 X-47.5107 Y20.2514 
G01 X-47.5107 Y25.0721 
G01 X-47.5152 Y25.1063 
G01 X-47.5107 Y25.1404 
G01 X-47.5107 Y25.1748 
G01 X-47.5029 Y25.2039 
G01 X-47.5029 Y28.6361 
G01 X-47.5107 Y28.6652 
G01 X-47.5107 Y28.6996 
G01 X-47.5152 Y28.7337 
G01 X-47.5107 Y28.7679 
G01 X-47.5107 Y37.2721 
G01 X-47.5152 Y37.3063 
G01 X-47.5107 Y37.3404 
G01 X-47.5107 Y37.3748 
G01 X-47.5029 Y37.4039 
G01 X-47.5029 Y40.8361 
G01 X-47.5107 Y40.8652 
G01 X-47.5107 Y40.8996 
G01 X-47.5152 Y40.9337 
G01 X-47.5107 Y40.9679 
G01 X-47.5107 Y42.2338 
G01 X-47.5558 Y42.2567 
G01 X-47.6932 Y42.3566 
G01 X-47.8134 Y42.4768 
G01 X-47.9133 Y42.6142 
G01 X-47.9904 Y42.7656 
G01 X-48.0429 Y42.9272 
G01 X-48.0695 Y43.0950 
G01 X-48.0695 Y43.2650 
G01 X-48.0429 Y43.4328 
G01 X-47.9904 Y43.5944 
G01 X-47.9133 Y43.7458 
G01 X-47.8134 Y43.8832 
G01 X-47.6932 Y44.0034 
G01 X-47.5558 Y44.1033 
G01 X-47.5107 Y44.1262 
G01 X-47.5107 Y45.7886 
G01 X-47.4752 Y45.9210 
G01 X-47.4067 Y46.0397 
G01 X-47.3097 Y46.1367 
G01 X-43.4997 Y49.9467 
G01 X-43.3810 Y50.0152 
G01 X-43.2486 Y50.0507 
G01 X-38.4278 Y50.0507 
G01 X-38.3937 Y50.0552 
G01 X-38.3596 Y50.0507 
G01 X-38.3252 Y50.0507 
G01 X-38.2961 Y50.0429 
G01 X-34.8639 Y50.0429 
G01 X-34.8348 Y50.0507 
G01 X-34.8004 Y50.0507 
G01 X-34.7663 Y50.0552 
G01 X-34.7321 Y50.0507 
G01 X-26.2279 Y50.0507 
G01 X-26.1937 Y50.0552 
G01 X-26.1596 Y50.0507 
G01 X-26.1252 Y50.0507 
G01 X-26.0961 Y50.0429 
G01 X-22.6639 Y50.0429 
G01 X-22.6348 Y50.0507 
G01 X-22.6004 Y50.0507 
G01 X-22.5663 Y50.0552 
G01 X-22.5321 Y50.0507 
G01 X-22.1394 Y50.0507 
G01 X-22.1052 Y50.0552 
G01 X-22.0711 Y50.0507 
G01 X-22.0367 Y50.0507 
G01 X-22.0035 Y50.0418 
G01 X-21.9693 Y50.0373 
G01 X-21.9375 Y50.0241 
G01 X-21.9043 Y50.0152 
G01 X-21.8745 Y49.9980 
G01 X-21.8427 Y49.9848 
G01 X-21.8154 Y49.9639 
G01 X-21.7855 Y49.9467 
G01 X-21.7612 Y49.9223 
G01 X-21.7339 Y49.9014 
G01 X-21.7129 Y49.8741 
G01 X-21.7046 Y49.8657 
G01 X-21.4362 Y49.8657 
G01 X-21.4133 Y49.9108 
G01 X-21.3134 Y50.0482 
G01 X-21.1932 Y50.1684 
G01 X-21.0558 Y50.2683 
G01 X-20.9044 Y50.3454 
G01 X-20.7428 Y50.3979 
G01 X-20.5750 Y50.4245 
G01 X-20.4050 Y50.4245 
G01 X-20.2372 Y50.3979 
G01 X-20.0756 Y50.3454 
G01 X-19.9242 Y50.2683 
G01 X-19.7868 Y50.1684 
G01 X-19.6666 Y50.0482 
G01 X-19.5667 Y49.9108 
G01 X-19.5438 Y49.8657 
G01 X-19.2754 Y49.8657 
G01 X-19.2671 Y49.8741 
G01 X-19.2461 Y49.9014 
G01 X-19.2188 Y49.9223 
G01 X-19.1944 Y49.9467 
G01 X-19.1646 Y49.9639 
G01 X-19.1373 Y49.9848 
G01 X-19.1055 Y49.9980 
G01 X-19.0757 Y50.0152 
G01 X-19.0425 Y50.0241 
G01 X-19.0107 Y50.0373 
G01 X-18.9765 Y50.0418 
G01 X-18.9433 Y50.0507 
G01 X-18.9089 Y50.0507 
G01 X-18.8748 Y50.0552 
G01 X-18.8406 Y50.0507 
G01 X-17.7114 Y50.0507 
G01 X-17.5790 Y50.0152 
G01 X-17.4603 Y49.9467 
G01 X-17.3633 Y49.8497 
G01 X-13.5533 Y46.0397 
G01 X-13.4848 Y45.9210 
G01 X-13.4493 Y45.7886 
G01 X-13.4493 Y45.6514 
G01 X-13.4848 Y45.5190 
G01 X-13.5533 Y45.4003 
G01 X-13.6503 Y45.3033 
G01 X-13.7690 Y45.2348 
G01 X-13.9014 Y45.1993 
G01 X-17.2136 Y45.1993 
G01 X-17.3460 Y45.2348 
G01 X-17.4647 Y45.3033 
G01 X-17.5617 Y45.4003 
G01 X-18.6307 Y46.4693 
G01 X-41.6943 Y46.4693 
G01 X-43.9293 Y44.2343 
G01 X-43.9293 Y21.8057 
G01 X-41.6943 Y19.5707 
G01 X-19.2657 Y19.5707 
G01 X-17.0307 Y21.8057 
G01 X-17.0307 Y44.5186 
G01 X-16.9952 Y44.6510 
G01 X-16.9267 Y44.7697 
G01 X-16.8297 Y44.8667 
G01 X-16.7110 Y44.9352 
G01 X-16.5785 Y44.9707 
G01 X-13.9014 Y44.9707 
G01 X-13.7690 Y44.9352 
G01 X-13.6503 Y44.8667 
G01 X-13.5533 Y44.7697 
G01 X-13.4848 Y44.6510 
G01 X-13.4493 Y44.5186 
G01 X-13.4493 Y40.9679 
G01 X-13.4448 Y40.9338 
G01 X-13.4493 Y40.8996 
G01 X-13.4493 Y40.8652 
G01 X-13.4571 Y40.8361 
G01 X-13.4571 Y37.4039 
G01 X-13.4493 Y37.3748 
G01 X-13.4493 Y37.3404 
G01 X-13.4448 Y37.3062 
G01 X-13.4493 Y37.2721 
G01 X-13.4493 Y28.7679 
G01 X-13.4448 Y28.7338 
G01 X-13.4493 Y28.6996 
G01 X-13.4493 Y28.6652 
G01 X-13.4571 Y28.6361 
G01 X-13.4571 Y25.2039 
G01 X-13.4493 Y25.1748 
G01 X-13.4493 Y25.1404 
G01 X-13.4448 Y25.1062 
G01 X-13.4493 Y25.0721 
G01 X-13.4493 Y23.8062 
G01 X-13.4042 Y23.7833 
G00 X-4.8895 Y22.7750 
G01 Z0.0000 F254000.00 
G01 X-4.8895 Y22.9450 F3000.00 
G01 X-4.8629 Y23.1128 
G01 X-4.8104 Y23.2744 
G01 X-4.7333 Y23.4258 
G01 X-4.6334 Y23.5632 
G01 X-4.5132 Y23.6834 
G01 X-4.3758 Y23.7833 
G01 X-4.3729 Y23.7847 
G01 X-4.4476 Y25.4399 
G01 X-4.4507 Y25.4514 
G01 X-4.4507 Y25.5083 
G01 X-4.4533 Y25.5650 
G01 X-4.4507 Y25.5766 
G01 X-4.4507 Y29.6517 
G01 X-4.7067 Y29.6517 
G01 X-4.7487 Y29.6691 
G01 X-4.7809 Y29.7013 
G01 X-4.7983 Y29.7433 
G01 X-4.7983 Y31.2967 
G01 X-4.7809 Y31.3387 
G01 X-4.7487 Y31.3709 
G01 X-4.7067 Y31.3883 
G01 X-3.1533 Y31.3883 
G01 X-3.1113 Y31.3709 
G01 X-3.0791 Y31.3387 
G01 X-3.0617 Y31.2967 
G01 X-3.0617 Y29.7433 
G01 X-3.0791 Y29.7013 
G01 X-3.1113 Y29.6691 
G01 X-3.1533 Y29.6517 
G01 X-3.4093 Y29.6517 
G01 X-3.4093 Y25.5317 
G01 X-3.3325 Y23.8282 
G01 X-3.2442 Y23.7833 
G01 X-3.1068 Y23.6834 
G01 X-2.9866 Y23.5632 
G01 X-2.8867 Y23.4258 
G01 X-2.8096 Y23.2744 
G01 X-2.7571 Y23.1128 
G01 X-2.7305 Y22.9450 
G01 X-2.7305 Y22.7750 
G01 X-2.7571 Y22.6072 
G01 X-2.8096 Y22.4456 
G01 X-2.8867 Y22.2942 
G01 X-2.9866 Y22.1568 
G01 X-3.1068 Y22.0366 
G01 X-3.2442 Y21.9367 
G01 X-3.3956 Y21.8596 
G01 X-3.5572 Y21.8071 
G01 X-3.7250 Y21.7805 
G01 X-3.8950 Y21.7805 
G01 X-4.0628 Y21.8071 
G01 X-4.2244 Y21.8596 
G01 X-4.3758 Y21.9367 
G01 X-4.5132 Y22.0366 
G01 X-4.6334 Y22.1568 
G01 X-4.7333 Y22.2942 
G01 X-4.8104 Y22.4456 
G01 X-4.8629 Y22.6072 
G01 X-4.8895 Y22.7750 
G00 X-4.8895 Y50.0800 
G01 Z0.0000 F254000.00 
G01 X-4.8895 Y50.2500 F3000.00 
G01 X-4.8629 Y50.4178 
G01 X-4.8104 Y50.5794 
G01 X-4.7333 Y50.7308 
G01 X-4.6334 Y50.8682 
G01 X-4.5132 Y50.9884 
G01 X-4.3758 Y51.0883 
G01 X-4.2244 Y51.1654 
G01 X-4.0628 Y51.2179 
G01 X-3.8950 Y51.2445 
G01 X-3.7250 Y51.2445 
G01 X-3.5572 Y51.2179 
G01 X-3.3956 Y51.1654 
G01 X-3.2442 Y51.0883 
G01 X-3.1068 Y50.9884 
G01 X-2.9866 Y50.8682 
G01 X-2.8867 Y50.7308 
G01 X-2.8096 Y50.5794 
G01 X-2.7571 Y50.4178 
G01 X-2.7305 Y50.2500 
G01 X-2.7305 Y50.0800 
G01 X-2.7571 Y49.9122 
G01 X-2.8096 Y49.7506 
G01 X-2.8867 Y49.5992 
G01 X-2.9866 Y49.4618 
G01 X-3.1068 Y49.3416 
G01 X-3.1950 Y49.2775 
G01 X-3.3006 Y36.3883 
G01 X-3.1533 Y36.3883 
G01 X-3.1113 Y36.3709 
G01 X-3.0791 Y36.3387 
G01 X-3.0617 Y36.2967 
G01 X-3.0617 Y34.7433 
G01 X-3.0791 Y34.7013 
G01 X-3.1113 Y34.6691 
G01 X-3.1533 Y34.6517 
G01 X-4.7067 Y34.6517 
G01 X-4.7487 Y34.6691 
G01 X-4.7809 Y34.7013 
G01 X-4.7983 Y34.7433 
G01 X-4.7983 Y36.2967 
G01 X-4.7809 Y36.3387 
G01 X-4.7487 Y36.3709 
G01 X-4.7067 Y36.3883 
G01 X-4.5452 Y36.3883 
G01 X-4.4395 Y49.2880 
G01 X-4.5132 Y49.3416 
G01 X-4.6334 Y49.4618 
G01 X-4.7333 Y49.5992 
G01 X-4.8104 Y49.7506 
G01 X-4.8629 Y49.9122 
G01 X-4.8895 Y50.0800 
G00 X-29.3243 Y41.8873 
G01 Z0.0000 F254000.00 
G01 X-29.3243 Y45.7427 F3000.00 
G01 X-29.3069 Y45.7847 
G01 X-29.2747 Y45.8169 
G01 X-29.2327 Y45.8343 
G01 X-28.8483 Y45.8343 
G01 X-28.8483 Y45.8467 
G01 X-28.8309 Y45.8887 
G01 X-28.7987 Y45.9209 
G01 X-28.7567 Y45.9383 
G01 X-27.2033 Y45.9383 
G01 X-27.1613 Y45.9209 
G01 X-27.1291 Y45.8887 
G01 X-27.1117 Y45.8467 
G01 X-27.1117 Y45.8343 
G01 X-26.6473 Y45.8343 
G01 X-26.6053 Y45.8169 
G01 X-26.5731 Y45.7847 
G01 X-26.5557 Y45.7427 
G01 X-26.5557 Y41.8873 
G01 X-26.5731 Y41.8453 
G01 X-26.6053 Y41.8131 
G01 X-26.6473 Y41.7957 
G01 X-27.2655 Y41.7957 
G01 X-27.3742 Y41.7167 
G01 X-27.5256 Y41.6396 
G01 X-27.6872 Y41.5871 
G01 X-27.8550 Y41.5605 
G01 X-28.0250 Y41.5605 
G01 X-28.1928 Y41.5871 
G01 X-28.3544 Y41.6396 
G01 X-28.5058 Y41.7167 
G01 X-28.6145 Y41.7957 
G01 X-29.2327 Y41.7957 
G01 X-29.2747 Y41.8131 
G01 X-29.3069 Y41.8453 
G01 X-29.3243 Y41.8873 
G00 X-43.2943 Y34.2673 
G01 Z0.0000 F254000.00 
G01 X-43.2943 Y34.6517 F3000.00 
G01 X-43.3067 Y34.6517 
G01 X-43.3487 Y34.6691 
G01 X-43.3809 Y34.7013 
G01 X-43.3983 Y34.7433 
G01 X-43.3983 Y36.2967 
G01 X-43.3809 Y36.3387 
G01 X-43.3487 Y36.3709 
G01 X-43.3067 Y36.3883 
G01 X-43.2943 Y36.3883 
G01 X-43.2943 Y36.8527 
G01 X-43.2769 Y36.8947 
G01 X-43.2447 Y36.9269 
G01 X-43.2027 Y36.9443 
G01 X-39.3473 Y36.9443 
G01 X-39.3053 Y36.9269 
G01 X-39.2731 Y36.8947 
G01 X-39.2557 Y36.8527 
G01 X-39.2557 Y35.5593 
G01 X-39.2471 Y35.5328 
G01 X-39.2205 Y35.3650 
G01 X-39.2205 Y35.1950 
G01 X-39.2471 Y35.0272 
G01 X-39.2557 Y35.0007 
G01 X-39.2557 Y34.2673 
G01 X-39.2731 Y34.2253 
G01 X-39.3053 Y34.1931 
G01 X-39.3473 Y34.1757 
G01 X-43.2027 Y34.1757 
G01 X-43.2447 Y34.1931 
G01 X-43.2769 Y34.2253 
G01 X-43.2943 Y34.2673 
G00 X-21.7043 Y29.1873 
G01 Z0.0000 F254000.00 
G01 X-21.7043 Y29.6210 F3000.00 
G01 X-21.7532 Y29.6566 
G01 X-21.8734 Y29.7768 
G01 X-21.9733 Y29.9142 
G01 X-22.0504 Y30.0656 
G01 X-22.1029 Y30.2272 
G01 X-22.1295 Y30.3950 
G01 X-22.1295 Y30.5650 
G01 X-22.1029 Y30.7328 
G01 X-22.0504 Y30.8944 
G01 X-21.9733 Y31.0458 
G01 X-21.8734 Y31.1832 
G01 X-21.7532 Y31.3034 
G01 X-21.7043 Y31.3390 
G01 X-21.7043 Y31.7727 
G01 X-21.6869 Y31.8147 
G01 X-21.6547 Y31.8469 
G01 X-21.6127 Y31.8643 
G01 X-17.7573 Y31.8643 
G01 X-17.7153 Y31.8469 
G01 X-17.6831 Y31.8147 
G01 X-17.6657 Y31.7727 
G01 X-17.6657 Y31.3883 
G01 X-17.6533 Y31.3883 
G01 X-17.6113 Y31.3709 
G01 X-17.5791 Y31.3387 
G01 X-17.5617 Y31.2967 
G01 X-17.5617 Y29.7433 
G01 X-17.5791 Y29.7013 
G01 X-17.6113 Y29.6691 
G01 X-17.6533 Y29.6517 
G01 X-17.6657 Y29.6517 
G01 X-17.6657 Y29.1873 
G01 X-17.6831 Y29.1453 
G01 X-17.7153 Y29.1131 
G01 X-17.7573 Y29.0957 
G01 X-21.6127 Y29.0957 
G01 X-21.6547 Y29.1131 
G01 X-21.6869 Y29.1453 
G01 X-21.7043 Y29.1873 
G00 X-34.4043 Y20.2973 
G01 Z0.0000 F254000.00 
G01 X-34.4043 Y24.1527 F3000.00 
G01 X-34.3869 Y24.1947 
G01 X-34.3547 Y24.2269 
G01 X-34.3127 Y24.2443 
G01 X-33.5838 Y24.2443 
G01 X-33.4344 Y24.3204 
G01 X-33.2728 Y24.3729 
G01 X-33.1050 Y24.3995 
G01 X-32.9350 Y24.3995 
G01 X-32.7672 Y24.3729 
G01 X-32.6056 Y24.3204 
G01 X-32.4562 Y24.2443 
G01 X-31.7273 Y24.2443 
G01 X-31.6853 Y24.2269 
G01 X-31.6531 Y24.1947 
G01 X-31.6357 Y24.1527 
G01 X-31.6357 Y20.2973 
G01 X-31.6531 Y20.2553 
G01 X-31.6853 Y20.2231 
G01 X-31.7273 Y20.2057 
G01 X-32.1117 Y20.2057 
G01 X-32.1117 Y20.1933 
G01 X-32.1291 Y20.1513 
G01 X-32.1613 Y20.1191 
G01 X-32.2033 Y20.1017 
G01 X-33.7567 Y20.1017 
G01 X-33.7987 Y20.1191 
G01 X-33.8309 Y20.1513 
G01 X-33.8483 Y20.1933 
G01 X-33.8483 Y20.2057 
G01 X-34.3127 Y20.2057 
G01 X-34.3547 Y20.2231 
G01 X-34.3869 Y20.2553 
G01 X-34.4043 Y20.2973 
G00 X-14.4145 Y16.4250 
G01 Z0.0000 F254000.00 
G01 X-14.4145 Y16.5950 F3000.00 
G01 X-14.3879 Y16.7628 
G01 X-14.3354 Y16.9244 
G01 X-14.2583 Y17.0758 
G01 X-14.1584 Y17.2132 
G01 X-14.0382 Y17.3334 
G01 X-13.9008 Y17.4333 
G01 X-13.7494 Y17.5104 
G01 X-13.5878 Y17.5629 
G01 X-13.4200 Y17.5895 
G01 X-13.2500 Y17.5895 
G01 X-13.0822 Y17.5629 
G01 X-12.9206 Y17.5104 
G01 X-12.7692 Y17.4333 
G01 X-12.6318 Y17.3334 
G01 X-12.5116 Y17.2132 
G01 X-12.4117 Y17.0758 
G01 X-12.3888 Y17.0307 
G01 X-12.3598 Y17.0307 
G01 X-12.4143 Y17.1252 
G01 X-12.5025 Y17.2401 
G01 X-12.6049 Y17.3425 
G01 X-12.7198 Y17.4307 
G01 X-12.8453 Y17.5031 
G01 X-12.9791 Y17.5585 
G01 X-13.0779 Y17.5850 
G01 X-13.2103 Y17.6205 
G01 X-13.3290 Y17.6890 
G01 X-13.4245 Y17.7844 
G01 X-13.4541 Y17.8346 
G01 X-13.4945 Y17.9047 
G01 X-13.5300 Y18.0371 
G01 X-13.5300 Y18.1742 
G01 X-13.4945 Y18.3067 
G01 X-13.4260 Y18.4254 
G01 X-8.7757 Y23.0757 
G01 X-8.7757 Y45.7886 
G01 X-8.7402 Y45.9210 
G01 X-8.6717 Y46.0397 
G01 X-8.5747 Y46.1367 
G01 X-8.4560 Y46.2052 
G01 X-8.3236 Y46.2407 
G01 X-5.6464 Y46.2407 
G01 X-5.5140 Y46.2052 
G01 X-5.3953 Y46.1367 
G01 X-5.2983 Y46.0397 
G01 X-5.2298 Y45.9210 
G01 X-5.1943 Y45.7886 
G01 X-5.1943 Y20.2514 
G01 X-5.2298 Y20.1190 
G01 X-5.2983 Y20.0003 
G01 X-5.3953 Y19.9033 
G01 X-17.4603 Y7.8383 
G01 X-17.5790 Y7.7698 
G01 X-17.7114 Y7.7343 
G01 X-43.2486 Y7.7343 
G01 X-43.3810 Y7.7698 
G01 X-43.4997 Y7.8383 
G01 X-43.5967 Y7.9353 
G01 X-55.6617 Y20.0003 
G01 X-55.7302 Y20.1190 
G01 X-55.7657 Y20.2514 
G01 X-55.7657 Y45.7886 
G01 X-55.7302 Y45.9210 
G01 X-55.6617 Y46.0397 
G01 X-55.5647 Y46.1367 
G01 X-43.4997 Y58.2017 
G01 X-43.3810 Y58.2702 
G01 X-43.2486 Y58.3057 
G01 X-21.3497 Y58.3057 
G01 X-21.3155 Y58.3102 
G01 X-21.2814 Y58.3057 
G01 X-21.2470 Y58.3057 
G01 X-21.2137 Y58.2968 
G01 X-21.1796 Y58.2923 
G01 X-21.1478 Y58.2791 
G01 X-21.1146 Y58.2702 
G01 X-21.0847 Y58.2530 
G01 X-20.7654 Y58.1207 
G01 X-20.2146 Y58.1207 
G01 X-19.8952 Y58.2530 
G01 X-19.8654 Y58.2702 
G01 X-19.8322 Y58.2791 
G01 X-19.8004 Y58.2923 
G01 X-19.7662 Y58.2968 
G01 X-19.7330 Y58.3057 
G01 X-19.6986 Y58.3057 
G01 X-19.6645 Y58.3102 
G01 X-19.6303 Y58.3057 
G01 X-17.7114 Y58.3057 
G01 X-17.5790 Y58.2702 
G01 X-17.4603 Y58.2017 
G01 X-17.3633 Y58.1047 
G01 X-6.5683 Y47.3097 
G01 X-6.4998 Y47.1910 
G01 X-6.4643 Y47.0586 
G01 X-6.4643 Y46.9214 
G01 X-6.4998 Y46.7890 
G01 X-6.5683 Y46.6703 
G01 X-6.6653 Y46.5733 
G01 X-6.7840 Y46.5048 
G01 X-6.9164 Y46.4693 
G01 X-12.1336 Y46.4693 
G01 X-12.2660 Y46.5048 
G01 X-12.3847 Y46.5733 
G01 X-12.4817 Y46.6703 
G01 X-14.0610 Y48.2496 
G01 X-14.1295 Y48.3683 
G01 X-14.1650 Y48.5008 
G01 X-14.1650 Y48.6379 
G01 X-14.1295 Y48.7703 
G01 X-14.0908 Y48.8373 
G01 X-14.0610 Y48.8890 
G01 X-13.9640 Y48.9860 
G01 X-13.8453 Y49.0545 
G01 X-13.7129 Y49.0900 
G01 X-13.6141 Y49.1165 
G01 X-13.4803 Y49.1719 
G01 X-13.3548 Y49.2443 
G01 X-13.2399 Y49.3325 
G01 X-13.1375 Y49.4349 
G01 X-13.0493 Y49.5498 
G01 X-12.9948 Y49.6443 
G01 X-13.0238 Y49.6443 
G01 X-13.0467 Y49.5992 
G01 X-13.1466 Y49.4618 
G01 X-13.2668 Y49.3416 
G01 X-13.4042 Y49.2417 
G01 X-13.5556 Y49.1646 
G01 X-13.7172 Y49.1121 
G01 X-13.8850 Y49.0855 
G01 X-14.0550 Y49.0855 
G01 X-14.2228 Y49.1121 
G01 X-14.3844 Y49.1646 
G01 X-14.5358 Y49.2417 
G01 X-14.6732 Y49.3416 
G01 X-14.7934 Y49.4618 
G01 X-14.8933 Y49.5992 
G01 X-14.9704 Y49.7506 
G01 X-15.0229 Y49.9122 
G01 X-15.0495 Y50.0800 
G01 X-15.0495 Y50.2500 
G01 X-15.0229 Y50.4178 
G01 X-14.9704 Y50.5794 
G01 X-14.8933 Y50.7308 
G01 X-14.7934 Y50.8682 
G01 X-14.6732 Y50.9884 
G01 X-14.5358 Y51.0883 
G01 X-14.4907 Y51.1112 
G01 X-14.4907 Y51.1402 
G01 X-14.5852 Y51.0857 
G01 X-14.7001 Y50.9975 
G01 X-14.8025 Y50.8951 
G01 X-14.8907 Y50.7802 
G01 X-14.9631 Y50.6547 
G01 X-15.0185 Y50.5209 
G01 X-15.0450 Y50.4221 
G01 X-15.0805 Y50.2897 
G01 X-15.1490 Y50.1710 
G01 X-15.2444 Y50.0755 
G01 X-15.2946 Y50.0459 
G01 X-15.3647 Y50.0055 
G01 X-15.4971 Y49.9700 
G01 X-15.6342 Y49.9700 
G01 X-15.7667 Y50.0055 
G01 X-15.8854 Y50.0740 
G01 X-15.9808 Y50.1694 
G01 X-20.5357 Y54.7243 
G01 X-40.4243 Y54.7243 
G01 X-45.6127 Y49.5360 
G01 X-45.7096 Y49.4390 
G01 X-45.8283 Y49.3705 
G01 X-45.9608 Y49.3350 
G01 X-46.0979 Y49.3350 
G01 X-46.2303 Y49.3705 
G01 X-46.2973 Y49.4092 
G01 X-46.3490 Y49.4390 
G01 X-46.4460 Y49.5360 
G01 X-46.5145 Y49.6547 
G01 X-46.5500 Y49.7871 
G01 X-46.5765 Y49.8859 
G01 X-46.6319 Y50.0197 
G01 X-46.7043 Y50.1452 
G01 X-46.7925 Y50.2601 
G01 X-46.8949 Y50.3625 
G01 X-47.0098 Y50.4507 
G01 X-47.1043 Y50.5052 
G01 X-47.1043 Y50.4762 
G01 X-47.0592 Y50.4533 
G01 X-46.9218 Y50.3534 
G01 X-46.8016 Y50.2332 
G01 X-46.7017 Y50.0958 
G01 X-46.6246 Y49.9444 
G01 X-46.5721 Y49.7828 
G01 X-46.5455 Y49.6150 
G01 X-46.5455 Y49.4450 
G01 X-46.5721 Y49.2772 
G01 X-46.6246 Y49.1156 
G01 X-46.7017 Y48.9642 
G01 X-46.8016 Y48.8268 
G01 X-46.9218 Y48.7066 
G01 X-47.0592 Y48.6067 
G01 X-47.2106 Y48.5296 
G01 X-47.3722 Y48.4771 
G01 X-47.5400 Y48.4505 
G01 X-47.7100 Y48.4505 
G01 X-47.8778 Y48.4771 
G01 X-48.0394 Y48.5296 
G01 X-48.1908 Y48.6067 
G01 X-48.3282 Y48.7066 
G01 X-48.4484 Y48.8268 
G01 X-48.5483 Y48.9642 
G01 X-48.5712 Y49.0093 
G01 X-48.6002 Y49.0093 
G01 X-48.5457 Y48.9148 
G01 X-48.4575 Y48.7999 
G01 X-48.3551 Y48.6975 
G01 X-48.2402 Y48.6093 
G01 X-48.1147 Y48.5369 
G01 X-47.9809 Y48.4815 
G01 X-47.8821 Y48.4550 
G01 X-47.7497 Y48.4195 
G01 X-47.6310 Y48.3510 
G01 X-47.5355 Y48.2555 
G01 X-47.5059 Y48.2054 
G01 X-47.4655 Y48.1353 
G01 X-47.4300 Y48.0029 
G01 X-47.4300 Y47.8658 
G01 X-47.4655 Y47.7333 
G01 X-47.5340 Y47.6146 
G01 X-47.6276 Y47.5210 
G01 X-47.6310 Y47.5177 
G01 X-52.1843 Y42.9643 
G01 X-52.1843 Y23.0757 
G01 X-46.8990 Y17.7904 
G01 X-46.8305 Y17.6717 
G01 X-46.7950 Y17.5392 
G01 X-46.7950 Y17.4021 
G01 X-46.8305 Y17.2697 
G01 X-46.8692 Y17.2027 
G01 X-46.8990 Y17.1510 
G01 X-46.9960 Y17.0540 
G01 X-47.1147 Y16.9855 
G01 X-47.2471 Y16.9500 
G01 X-47.3459 Y16.9235 
G01 X-47.4797 Y16.8681 
G01 X-47.6052 Y16.7957 
G01 X-47.7201 Y16.7075 
G01 X-47.8225 Y16.6051 
G01 X-47.9107 Y16.4902 
G01 X-47.9652 Y16.3957 
G01 X-47.9362 Y16.3957 
G01 X-47.9133 Y16.4408 
G01 X-47.8134 Y16.5782 
G01 X-47.6932 Y16.6984 
G01 X-47.5558 Y16.7983 
G01 X-47.4044 Y16.8754 
G01 X-47.2428 Y16.9279 
G01 X-47.0750 Y16.9545 
G01 X-46.9050 Y16.9545 
G01 X-46.7372 Y16.9279 
G01 X-46.5756 Y16.8754 
G01 X-46.4242 Y16.7983 
G01 X-46.2868 Y16.6984 
G01 X-46.1666 Y16.5782 
G01 X-46.0667 Y16.4408 
G01 X-45.9896 Y16.2894 
G01 X-45.9371 Y16.1278 
G01 X-45.9105 Y15.9600 
G01 X-45.9105 Y15.7900 
G01 X-45.9371 Y15.6222 
G01 X-45.9896 Y15.4606 
G01 X-46.0667 Y15.3092 
G01 X-46.1666 Y15.1718 
G01 X-46.2868 Y15.0516 
G01 X-46.4242 Y14.9517 
G01 X-46.4693 Y14.9288 
G01 X-46.4693 Y14.8998 
G01 X-46.3748 Y14.9543 
G01 X-46.2599 Y15.0425 
G01 X-46.1575 Y15.1449 
G01 X-46.0693 Y15.2598 
G01 X-45.9969 Y15.3853 
G01 X-45.9415 Y15.5191 
G01 X-45.9150 Y15.6179 
G01 X-45.8795 Y15.7503 
G01 X-45.8110 Y15.8690 
G01 X-45.7156 Y15.9645 
G01 X-45.6654 Y15.9941 
G01 X-45.5953 Y16.0345 
G01 X-45.4629 Y16.0700 
G01 X-45.3258 Y16.0700 
G01 X-45.1933 Y16.0345 
G01 X-45.0746 Y15.9660 
G01 X-44.9792 Y15.8706 
G01 X-40.4243 Y11.3157 
G01 X-20.5357 Y11.3157 
G01 X-15.2504 Y16.6010 
G01 X-15.1317 Y16.6695 
G01 X-14.9992 Y16.7050 
G01 X-14.8621 Y16.7050 
G01 X-14.7297 Y16.6695 
G01 X-14.6627 Y16.6308 
G01 X-14.6110 Y16.6010 
G01 X-14.5140 Y16.5040 
G01 X-14.4455 Y16.3853 
G01 X-14.4100 Y16.2529 
G01 X-14.3835 Y16.1541 
G01 X-14.3281 Y16.0203 
G01 X-14.2557 Y15.8948 
G01 X-14.1675 Y15.7799 
G01 X-14.0651 Y15.6775 
G01 X-13.9502 Y15.5893 
G01 X-13.8557 Y15.5348 
G01 X-13.8557 Y15.5638 
G01 X-13.9008 Y15.5867 
G01 X-14.0382 Y15.6866 
G01 X-14.1584 Y15.8068 
G01 X-14.2583 Y15.9442 
G01 X-14.3354 Y16.0956 
G01 X-14.3879 Y16.2572 
G01 X-14.4145 Y16.4250 
G00 X-41.7195 Y6.2650 
G01 Z0.0000 F254000.00 
G01 X-41.7195 Y6.4350 F3000.00 
G01 X-41.6929 Y6.6028 
G01 X-41.6404 Y6.7644 
G01 X-41.5633 Y6.9158 
G01 X-41.4634 Y7.0532 
G01 X-41.3432 Y7.1734 
G01 X-41.2058 Y7.2733 
G01 X-41.0544 Y7.3504 
G01 X-40.8928 Y7.4029 
G01 X-40.7250 Y7.4295 
G01 X-40.5550 Y7.4295 
G01 X-40.3872 Y7.4029 
G01 X-40.2256 Y7.3504 
G01 X-40.0742 Y7.2733 
G01 X-39.9368 Y7.1734 
G01 X-39.8166 Y7.0532 
G01 X-39.7712 Y6.9907 
G01 X-33.8483 Y6.9907 
G01 X-33.8483 Y7.2467 
G01 X-33.8309 Y7.2887 
G01 X-33.7987 Y7.3209 
G01 X-33.7567 Y7.3383 
G01 X-32.2033 Y7.3383 
G01 X-32.1613 Y7.3209 
G01 X-32.1291 Y7.2887 
G01 X-32.1117 Y7.2467 
G01 X-32.1117 Y5.6933 
G01 X-32.1291 Y5.6513 
G01 X-32.1613 Y5.6191 
G01 X-32.2033 Y5.6017 
G01 X-33.7567 Y5.6017 
G01 X-33.7987 Y5.6191 
G01 X-33.8309 Y5.6513 
G01 X-33.8483 Y5.6933 
G01 X-33.8483 Y5.9493 
G01 X-39.6351 Y5.9493 
G01 X-39.6396 Y5.9356 
G01 X-39.7167 Y5.7842 
G01 X-39.8166 Y5.6468 
G01 X-39.9368 Y5.5266 
G01 X-40.0742 Y5.4267 
G01 X-40.2256 Y5.3496 
G01 X-40.3872 Y5.2971 
G01 X-40.5550 Y5.2705 
G01 X-40.7250 Y5.2705 
G01 X-40.8928 Y5.2971 
G01 X-41.0544 Y5.3496 
G01 X-41.2058 Y5.4267 
G01 X-41.3432 Y5.5266 
G01 X-41.4634 Y5.6468 
G01 X-41.5633 Y5.7842 
G01 X-41.6404 Y5.9356 
G01 X-41.6929 Y6.0972 
G01 X-41.7195 Y6.2650 
G00 X-21.4133 Y60.0708 
G01 Z0.0000 F254000.00 
G01 X-21.3134 Y60.2082 F3000.00 
G01 X-21.1932 Y60.3284 
G01 X-21.0558 Y60.4283 
G01 X-20.9044 Y60.5054 
G01 X-20.7428 Y60.5579 
G01 X-20.5750 Y60.5845 
G01 X-20.4050 Y60.5845 
G01 X-20.2372 Y60.5579 
G01 X-20.0756 Y60.5054 
G01 X-19.9242 Y60.4283 
G01 X-19.7868 Y60.3284 
G01 X-19.6666 Y60.2082 
G01 X-19.5667 Y60.0708 
G01 X-19.4896 Y59.9194 
G01 X-19.4371 Y59.7578 
G01 X-19.4105 Y59.5900 
G01 X-19.4105 Y59.4200 
G01 X-19.4371 Y59.2522 
G01 X-19.4896 Y59.0906 
G01 X-19.5667 Y58.9392 
G01 X-19.6666 Y58.8018 
G01 X-19.7868 Y58.6816 
G01 X-19.9242 Y58.5817 
G01 X-20.0756 Y58.5046 
G01 X-20.2372 Y58.4521 
G01 X-20.4050 Y58.4255 
G01 X-20.5750 Y58.4255 
G01 X-20.7428 Y58.4521 
G01 X-20.9044 Y58.5046 
G01 X-21.0558 Y58.5817 
G01 X-21.1932 Y58.6816 
G01 X-21.3134 Y58.8018 
G01 X-21.4133 Y58.9392 
G01 X-21.4372 Y58.9862 
G01 X-27.1117 Y58.9977 
G01 X-27.1117 Y58.7933 
G01 X-27.1291 Y58.7513 
G01 X-27.1613 Y58.7191 
G01 X-27.2033 Y58.7017 
G01 X-28.7567 Y58.7017 
G01 X-28.7987 Y58.7191 
G01 X-28.8309 Y58.7513 
G01 X-28.8483 Y58.7933 
G01 X-28.8483 Y60.3467 
G01 X-28.8309 Y60.3887 
G01 X-28.7987 Y60.4209 
G01 X-28.7567 Y60.4383 
G01 X-27.2033 Y60.4383 
G01 X-27.1613 Y60.4209 
G01 X-27.1291 Y60.3887 
G01 X-27.1117 Y60.3467 
G01 X-27.1117 Y60.0390 
G01 X-21.4353 Y60.0276 
G01 X-21.4133 Y60.0708 
G00 X-58.2295 Y15.7900 
G01 Z0.0000 F254000.00 
G01 X-58.2295 Y15.9600 F3000.00 
G01 X-58.2029 Y16.1278 
G01 X-58.1504 Y16.2894 
G01 X-58.0733 Y16.4408 
G01 X-57.9734 Y16.5782 
G01 X-57.8532 Y16.6984 
G01 X-57.7647 Y16.7627 
G01 X-57.6543 Y29.6517 
G01 X-57.8067 Y29.6517 
G01 X-57.8487 Y29.6691 
G01 X-57.8809 Y29.7013 
G01 X-57.8983 Y29.7433 
G01 X-57.8983 Y31.2967 
G01 X-57.8809 Y31.3387 
G01 X-57.8487 Y31.3709 
G01 X-57.8067 Y31.3883 
G01 X-56.2533 Y31.3883 
G01 X-56.2113 Y31.3709 
G01 X-56.1791 Y31.3387 
G01 X-56.1617 Y31.2967 
G01 X-56.1617 Y29.7433 
G01 X-56.1791 Y29.7013 
G01 X-56.2113 Y29.6691 
G01 X-56.2533 Y29.6517 
G01 X-56.4097 Y29.6517 
G01 X-56.5202 Y16.7517 
G01 X-56.4468 Y16.6984 
G01 X-56.3266 Y16.5782 
G01 X-56.2267 Y16.4408 
G01 X-56.1496 Y16.2894 
G01 X-56.0971 Y16.1278 
G01 X-56.0705 Y15.9600 
G01 X-56.0705 Y15.7900 
G01 X-56.0971 Y15.6222 
G01 X-56.1496 Y15.4606 
G01 X-56.2267 Y15.3092 
G01 X-56.3266 Y15.1718 
G01 X-56.4468 Y15.0516 
G01 X-56.5842 Y14.9517 
G01 X-56.7356 Y14.8746 
G01 X-56.8972 Y14.8221 
G01 X-57.0650 Y14.7955 
G01 X-57.2350 Y14.7955 
G01 X-57.4028 Y14.8221 
G01 X-57.5644 Y14.8746 
G01 X-57.7158 Y14.9517 
G01 X-57.8532 Y15.0516 
G01 X-57.9734 Y15.1718 
G01 X-58.0733 Y15.3092 
G01 X-58.1504 Y15.4606 
G01 X-58.2029 Y15.6222 
G01 X-58.2295 Y15.7900 
G00 X-32.1117 Y60.3467 
G01 Z0.0000 F254000.00 
G01 X-32.1117 Y58.7933 F3000.00 
G01 X-32.1291 Y58.7513 
G01 X-32.1613 Y58.7191 
G01 X-32.2033 Y58.7017 
G01 X-33.7567 Y58.7017 
G01 X-33.7987 Y58.7191 
G01 X-33.8309 Y58.7513 
G01 X-33.8483 Y58.7933 
G01 X-33.8483 Y58.9548 
G01 X-46.7480 Y59.0605 
G01 X-46.8016 Y58.9868 
G01 X-46.9218 Y58.8666 
G01 X-47.0592 Y58.7667 
G01 X-47.2106 Y58.6896 
G01 X-47.3722 Y58.6371 
G01 X-47.5400 Y58.6105 
G01 X-47.7100 Y58.6105 
G01 X-47.8778 Y58.6371 
G01 X-48.0394 Y58.6896 
G01 X-48.1908 Y58.7667 
G01 X-48.3282 Y58.8666 
G01 X-48.4484 Y58.9868 
G01 X-48.5483 Y59.1242 
G01 X-48.6254 Y59.2756 
G01 X-48.6779 Y59.4372 
G01 X-48.7045 Y59.6050 
G01 X-48.7045 Y59.7750 
G01 X-48.6779 Y59.9428 
G01 X-48.6254 Y60.1044 
G01 X-48.5483 Y60.2558 
G01 X-48.4484 Y60.3932 
G01 X-48.3282 Y60.5134 
G01 X-48.1908 Y60.6133 
G01 X-48.0394 Y60.6904 
G01 X-47.8778 Y60.7429 
G01 X-47.7100 Y60.7695 
G01 X-47.5400 Y60.7695 
G01 X-47.3722 Y60.7429 
G01 X-47.2106 Y60.6904 
G01 X-47.0592 Y60.6133 
G01 X-46.9218 Y60.5134 
G01 X-46.8016 Y60.3932 
G01 X-46.7375 Y60.3050 
G01 X-33.8483 Y60.1994 
G01 X-33.8483 Y60.3467 
G01 X-33.8309 Y60.3887 
G01 X-33.7987 Y60.4209 
G01 X-33.7567 Y60.4383 
G01 X-32.2033 Y60.4383 
G01 X-32.1613 Y60.4209 
G01 X-32.1291 Y60.3887 
G01 X-32.1117 Y60.3467 
G00 X-29.6117 Y60.3467 
G01 Z0.0000 F254000.00 
G01 X-29.6117 Y58.7933 F3000.00 
G01 X-29.6291 Y58.7513 
G01 X-29.6613 Y58.7191 
G01 X-29.7033 Y58.7017 
G01 X-31.2567 Y58.7017 
G01 X-31.2987 Y58.7191 
G01 X-31.3309 Y58.7513 
G01 X-31.3483 Y58.7933 
G01 X-31.3483 Y60.3467 
G01 X-31.3309 Y60.3887 
G01 X-31.2987 Y60.4209 
G01 X-31.2567 Y60.4383 
G01 X-29.7033 Y60.4383 
G01 X-29.6613 Y60.4209 
G01 X-29.6291 Y60.3887 
G01 X-29.6117 Y60.3467 
G00 X-32.1117 Y45.8467 
G01 Z0.0000 F254000.00 
G01 X-32.1117 Y44.2933 F3000.00 
G01 X-32.1291 Y44.2513 
G01 X-32.1613 Y44.2191 
G01 X-32.2033 Y44.2017 
G01 X-33.7567 Y44.2017 
G01 X-33.7987 Y44.2191 
G01 X-33.8309 Y44.2513 
G01 X-33.8483 Y44.2933 
G01 X-33.8483 Y45.8467 
G01 X-33.8309 Y45.8887 
G01 X-33.7987 Y45.9209 
G01 X-33.7567 Y45.9383 
G01 X-32.2033 Y45.9383 
G01 X-32.1613 Y45.9209 
G01 X-32.1291 Y45.8887 
G01 X-32.1117 Y45.8467 
G00 X-9.7993 Y37.3977 
G01 Z0.0000 F254000.00 
G01 X-13.0607 Y37.3977 F3000.00 
G01 X-13.1027 Y37.4151 
G01 X-13.1349 Y37.4473 
G01 X-13.1523 Y37.4893 
G01 X-13.1523 Y40.7507 
G01 X-13.1349 Y40.7927 
G01 X-13.1027 Y40.8249 
G01 X-13.0607 Y40.8423 
G01 X-9.7993 Y40.8423 
G01 X-9.7573 Y40.8249 
G01 X-9.7251 Y40.7927 
G01 X-9.7077 Y40.7507 
G01 X-9.7077 Y37.4893 
G01 X-9.7251 Y37.4473 
G01 X-9.7573 Y37.4151 
G01 X-9.7993 Y37.3977 
G00 X-9.7993 Y25.1977 
G01 Z0.0000 F254000.00 
G01 X-13.0607 Y25.1977 F3000.00 
G01 X-13.1027 Y25.2151 
G01 X-13.1349 Y25.2473 
G01 X-13.1523 Y25.2893 
G01 X-13.1523 Y28.5507 
G01 X-13.1349 Y28.5927 
G01 X-13.1027 Y28.6249 
G01 X-13.0607 Y28.6423 
G01 X-9.7993 Y28.6423 
G01 X-9.7573 Y28.6249 
G01 X-9.7251 Y28.5927 
G01 X-9.7077 Y28.5507 
G01 X-9.7077 Y25.2893 
G01 X-9.7251 Y25.2473 
G01 X-9.7573 Y25.2151 
G01 X-9.7993 Y25.1977 
G00 X-57.8067 Y33.8883 
G01 Z0.0000 F254000.00 
G01 X-56.2533 Y33.8883 F3000.00 
G01 X-56.2113 Y33.8709 
G01 X-56.1791 Y33.8387 
G01 X-56.1617 Y33.7967 
G01 X-56.1617 Y32.2433 
G01 X-56.1791 Y32.2013 
G01 X-56.2113 Y32.1691 
G01 X-56.2533 Y32.1517 
G01 X-57.8067 Y32.1517 
G01 X-57.8487 Y32.1691 
G01 X-57.8809 Y32.2013 
G01 X-57.8983 Y32.2433 
G01 X-57.8983 Y33.7967 
G01 X-57.8809 Y33.8387 
G01 X-57.8487 Y33.8709 
G01 X-57.8067 Y33.8883 
G00 X-57.8067 Y36.3883 
G01 Z0.0000 F254000.00 
G01 X-57.7723 Y36.3883 F3000.00 
G01 X-57.7723 Y42.2978 
G01 X-57.8532 Y42.3566 
G01 X-57.9734 Y42.4768 
G01 X-58.0733 Y42.6142 
G01 X-58.1504 Y42.7656 
G01 X-58.2029 Y42.9272 
G01 X-58.2295 Y43.0950 
G01 X-58.2295 Y43.2650 
G01 X-58.2029 Y43.4328 
G01 X-58.1504 Y43.5944 
G01 X-58.0733 Y43.7458 
G01 X-57.9734 Y43.8832 
G01 X-57.8532 Y44.0034 
G01 X-57.7158 Y44.1033 
G01 X-57.5644 Y44.1804 
G01 X-57.4028 Y44.2329 
G01 X-57.2350 Y44.2595 
G01 X-57.0650 Y44.2595 
G01 X-56.8972 Y44.2329 
G01 X-56.7356 Y44.1804 
G01 X-56.5842 Y44.1033 
G01 X-56.4468 Y44.0034 
G01 X-56.3266 Y43.8832 
G01 X-56.2267 Y43.7458 
G01 X-56.1496 Y43.5944 
G01 X-56.0971 Y43.4328 
G01 X-56.0705 Y43.2650 
G01 X-56.0705 Y43.0950 
G01 X-56.0971 Y42.9272 
G01 X-56.1496 Y42.7656 
G01 X-56.2267 Y42.6142 
G01 X-56.3266 Y42.4768 
G01 X-56.4468 Y42.3566 
G01 X-56.5277 Y42.2978 
G01 X-56.5277 Y36.3883 
G01 X-56.2533 Y36.3883 
G01 X-56.2113 Y36.3709 
G01 X-56.1791 Y36.3387 
G01 X-56.1617 Y36.2967 
G01 X-56.1617 Y34.7433 
G01 X-56.1791 Y34.7013 
G01 X-56.2113 Y34.6691 
G01 X-56.2533 Y34.6517 
G01 X-57.8067 Y34.6517 
G01 X-57.8487 Y34.6691 
G01 X-57.8809 Y34.7013 
G01 X-57.8983 Y34.7433 
G01 X-57.8983 Y36.2967 
G01 X-57.8809 Y36.3387 
G01 X-57.8487 Y36.3709 
G01 X-57.8067 Y36.3883 
G00 X-43.3067 Y31.3883 
G01 Z0.0000 F254000.00 
G01 X-41.7533 Y31.3883 F3000.00 
G01 X-41.7113 Y31.3709 
G01 X-41.6791 Y31.3387 
G01 X-41.6617 Y31.2967 
G01 X-41.6617 Y29.7433 
G01 X-41.6791 Y29.7013 
G01 X-41.7113 Y29.6691 
G01 X-41.7533 Y29.6517 
G01 X-43.3067 Y29.6517 
G01 X-43.3487 Y29.6691 
G01 X-43.3809 Y29.7013 
G01 X-43.3983 Y29.7433 
G01 X-43.3983 Y31.2967 
G01 X-43.3809 Y31.3387 
G01 X-43.3487 Y31.3709 
G01 X-43.3067 Y31.3883 
G00 X-26.1023 Y12.3393 
G01 Z0.0000 F254000.00 
G01 X-26.1023 Y15.6007 F3000.00 
G01 X-26.0849 Y15.6427 
G01 X-26.0527 Y15.6749 
G01 X-26.0107 Y15.6923 
G01 X-22.7493 Y15.6923 
G01 X-22.7073 Y15.6749 
G01 X-22.6751 Y15.6427 
G01 X-22.6577 Y15.6007 
G01 X-22.6577 Y12.3393 
G01 X-22.6751 Y12.2973 
G01 X-22.7073 Y12.2651 
G01 X-22.7493 Y12.2477 
G01 X-26.0107 Y12.2477 
G01 X-26.0527 Y12.2651 
G01 X-26.0849 Y12.2973 
G01 X-26.1023 Y12.3393 
G00 X-38.3023 Y12.3393 
G01 Z0.0000 F254000.00 
G01 X-38.3023 Y15.6007 F3000.00 
G01 X-38.2849 Y15.6427 
G01 X-38.2527 Y15.6749 
G01 X-38.2107 Y15.6923 
G01 X-34.9493 Y15.6923 
G01 X-34.9073 Y15.6749 
G01 X-34.8751 Y15.6427 
G01 X-34.8577 Y15.6007 
G01 X-34.8577 Y12.3393 
G01 X-34.8751 Y12.2973 
G01 X-34.9073 Y12.2651 
G01 X-34.9493 Y12.2477 
G01 X-38.2107 Y12.2477 
G01 X-38.2527 Y12.2651 
G01 X-38.2849 Y12.2973 
G01 X-38.3023 Y12.3393 
G00 Z0.0000 
G00 X-38.3658 Y12.3266 
G01 Z0.0000 F254000.00 
G01 X-38.3658 Y15.6134 F3000.00 
G01 X-38.3387 Y15.6787 
G01 X-38.2887 Y15.7287 
G01 X-38.2234 Y15.7558 
G01 X-34.9366 Y15.7558 
G01 X-34.8713 Y15.7287 
G01 X-34.8213 Y15.6787 
G01 X-34.7942 Y15.6134 
G01 X-34.7942 Y12.3266 
G01 X-34.8213 Y12.2613 
G01 X-34.8713 Y12.2113 
G01 X-34.9366 Y12.1842 
G01 X-38.2234 Y12.1842 
G01 X-38.2887 Y12.2113 
G01 X-38.3387 Y12.2613 
G01 X-38.3658 Y12.3266 
G00 X-26.1658 Y12.3266 
G01 Z0.0000 F254000.00 
G01 X-26.1658 Y15.6134 F3000.00 
G01 X-26.1387 Y15.6787 
G01 X-26.0887 Y15.7287 
G01 X-26.0234 Y15.7558 
G01 X-22.7366 Y15.7558 
G01 X-22.6713 Y15.7287 
G01 X-22.6213 Y15.6787 
G01 X-22.5942 Y15.6134 
G01 X-22.5942 Y12.3266 
G01 X-22.6213 Y12.2613 
G01 X-22.6713 Y12.2113 
G01 X-22.7366 Y12.1842 
G01 X-26.0234 Y12.1842 
G01 X-26.0887 Y12.2113 
G01 X-26.1387 Y12.2613 
G01 X-26.1658 Y12.3266 
G00 X-43.3194 Y31.4518 
G01 Z0.0000 F254000.00 
G01 X-41.7406 Y31.4518 F3000.00 
G01 X-41.6753 Y31.4247 
G01 X-41.6253 Y31.3747 
G01 X-41.5982 Y31.3094 
G01 X-41.5982 Y29.7306 
G01 X-41.6253 Y29.6653 
G01 X-41.6753 Y29.6153 
G01 X-41.7406 Y29.5882 
G01 X-43.3194 Y29.5882 
G01 X-43.3847 Y29.6153 
G01 X-43.4347 Y29.6653 
G01 X-43.4618 Y29.7306 
G01 X-43.4618 Y31.3094 
G01 X-43.4347 Y31.3747 
G01 X-43.3847 Y31.4247 
G01 X-43.3194 Y31.4518 
G00 X-56.2406 Y36.4518 
G01 Z0.0000 F254000.00 
G01 X-56.1753 Y36.4247 F3000.00 
G01 X-56.1253 Y36.3747 
G01 X-56.0982 Y36.3094 
G01 X-56.0982 Y34.7306 
G01 X-56.1253 Y34.6653 
G01 X-56.1753 Y34.6153 
G01 X-56.2406 Y34.5882 
G01 X-57.8194 Y34.5882 
G01 X-57.8847 Y34.6153 
G01 X-57.9347 Y34.6653 
G01 X-57.9618 Y34.7306 
G01 X-57.9618 Y36.3094 
G01 X-57.9347 Y36.3747 
G01 X-57.8847 Y36.4247 
G01 X-57.8358 Y36.4450 
G01 X-57.8358 Y42.2654 
G01 X-57.8946 Y42.3082 
G01 X-58.0218 Y42.4354 
G01 X-58.1276 Y42.5809 
G01 X-58.2093 Y42.7412 
G01 X-58.2649 Y42.9123 
G01 X-58.2930 Y43.0900 
G01 X-58.2930 Y43.2700 
G01 X-58.2649 Y43.4477 
G01 X-58.2093 Y43.6188 
G01 X-58.1276 Y43.7791 
G01 X-58.0218 Y43.9246 
G01 X-57.8946 Y44.0518 
G01 X-57.7491 Y44.1576 
G01 X-57.5888 Y44.2393 
G01 X-57.4177 Y44.2949 
G01 X-57.2400 Y44.3230 
G01 X-57.0600 Y44.3230 
G01 X-56.8823 Y44.2949 
G01 X-56.7112 Y44.2393 
G01 X-56.5509 Y44.1576 
G01 X-56.4054 Y44.0518 
G01 X-56.2782 Y43.9246 
G01 X-56.1724 Y43.7791 
G01 X-56.0907 Y43.6188 
G01 X-56.0351 Y43.4477 
G01 X-56.0070 Y43.2700 
G01 X-56.0070 Y43.0900 
G01 X-56.0351 Y42.9123 
G01 X-56.0907 Y42.7412 
G01 X-56.1724 Y42.5809 
G01 X-56.2782 Y42.4354 
G01 X-56.4054 Y42.3082 
G01 X-56.4642 Y42.2654 
G01 X-56.4642 Y36.4518 
G01 X-56.2406 Y36.4518 
G00 X-57.8194 Y33.9518 
G01 Z0.0000 F254000.00 
G01 X-56.2406 Y33.9518 F3000.00 
G01 X-56.1753 Y33.9247 
G01 X-56.1253 Y33.8747 
G01 X-56.0982 Y33.8094 
G01 X-56.0982 Y32.2306 
G01 X-56.1253 Y32.1653 
G01 X-56.1753 Y32.1153 
G01 X-56.2406 Y32.0882 
G01 X-57.8194 Y32.0882 
G01 X-57.8847 Y32.1153 
G01 X-57.9347 Y32.1653 
G01 X-57.9618 Y32.2306 
G01 X-57.9618 Y33.8094 
G01 X-57.9347 Y33.8747 
G01 X-57.8847 Y33.9247 
G01 X-57.8194 Y33.9518 
G00 X-9.7866 Y25.1342 
G01 Z0.0000 F254000.00 
G01 X-13.0734 Y25.1342 F3000.00 
G01 X-13.1387 Y25.1613 
G01 X-13.1887 Y25.2113 
G01 X-13.2158 Y25.2766 
G01 X-13.2158 Y28.5634 
G01 X-13.1887 Y28.6287 
G01 X-13.1387 Y28.6787 
G01 X-13.0734 Y28.7058 
G01 X-9.7866 Y28.7058 
G01 X-9.7213 Y28.6787 
G01 X-9.6713 Y28.6287 
G01 X-9.6442 Y28.5634 
G01 X-9.6442 Y25.2766 
G01 X-9.6713 Y25.2113 
G01 X-9.7213 Y25.1613 
G01 X-9.7866 Y25.1342 
G00 X-9.7866 Y37.3342 
G01 Z0.0000 F254000.00 
G01 X-13.0734 Y37.3342 F3000.00 
G01 X-13.1387 Y37.3613 
G01 X-13.1887 Y37.4113 
G01 X-13.2158 Y37.4766 
G01 X-13.2158 Y40.7634 
G01 X-13.1887 Y40.8287 
G01 X-13.1387 Y40.8787 
G01 X-13.0734 Y40.9058 
G01 X-9.7866 Y40.9058 
G01 X-9.7213 Y40.8787 
G01 X-9.6713 Y40.8287 
G01 X-9.6442 Y40.7634 
G01 X-9.6442 Y37.4766 
G01 X-9.6713 Y37.4113 
G01 X-9.7213 Y37.3613 
G01 X-9.7866 Y37.3342 
G00 X-32.0482 Y45.8594 
G01 Z0.0000 F254000.00 
G01 X-32.0482 Y44.2806 F3000.00 
G01 X-32.0753 Y44.2153 
G01 X-32.1253 Y44.1653 
G01 X-32.1906 Y44.1382 
G01 X-33.7694 Y44.1382 
G01 X-33.8347 Y44.1653 
G01 X-33.8847 Y44.2153 
G01 X-33.9118 Y44.2806 
G01 X-33.9118 Y45.8594 
G01 X-33.8847 Y45.9247 
G01 X-33.8347 Y45.9747 
G01 X-33.7694 Y46.0018 
G01 X-32.1906 Y46.0018 
G01 X-32.1253 Y45.9747 
G01 X-32.0753 Y45.9247 
G01 X-32.0482 Y45.8594 
G00 X-29.5482 Y60.3594 
G01 Z0.0000 F254000.00 
G01 X-29.5482 Y58.7806 F3000.00 
G01 X-29.5753 Y58.7153 
G01 X-29.6253 Y58.6653 
G01 X-29.6906 Y58.6382 
G01 X-31.2694 Y58.6382 
G01 X-31.3347 Y58.6653 
G01 X-31.3847 Y58.7153 
G01 X-31.4118 Y58.7806 
G01 X-31.4118 Y60.3594 
G01 X-31.3847 Y60.4247 
G01 X-31.3347 Y60.4747 
G01 X-31.2694 Y60.5018 
G01 X-29.6906 Y60.5018 
G01 X-29.6253 Y60.4747 
G01 X-29.5753 Y60.4247 
G01 X-29.5482 Y60.3594 
G00 X-32.0482 Y60.3594 
G01 Z0.0000 F254000.00 
G01 X-32.0482 Y58.7806 F3000.00 
G01 X-32.0753 Y58.7153 
G01 X-32.1253 Y58.6653 
G01 X-32.1906 Y58.6382 
G01 X-33.7694 Y58.6382 
G01 X-33.8347 Y58.6653 
G01 X-33.8847 Y58.7153 
G01 X-33.9118 Y58.7806 
G01 X-33.9118 Y58.8918 
G01 X-46.7159 Y58.9967 
G01 X-46.7532 Y58.9454 
G01 X-46.8804 Y58.8182 
G01 X-47.0259 Y58.7124 
G01 X-47.1862 Y58.6307 
G01 X-47.3573 Y58.5751 
G01 X-47.5350 Y58.5470 
G01 X-47.7150 Y58.5470 
G01 X-47.8927 Y58.5751 
G01 X-48.0638 Y58.6307 
G01 X-48.2241 Y58.7124 
G01 X-48.3696 Y58.8182 
G01 X-48.4968 Y58.9454 
G01 X-48.6026 Y59.0909 
G01 X-48.6843 Y59.2512 
G01 X-48.7399 Y59.4223 
G01 X-48.7680 Y59.6000 
G01 X-48.7680 Y59.7800 
G01 X-48.7399 Y59.9577 
G01 X-48.6843 Y60.1288 
G01 X-48.6026 Y60.2891 
G01 X-48.4968 Y60.4346 
G01 X-48.3696 Y60.5618 
G01 X-48.2241 Y60.6676 
G01 X-48.0638 Y60.7493 
G01 X-47.8927 Y60.8049 
G01 X-47.7150 Y60.8330 
G01 X-47.5350 Y60.8330 
G01 X-47.3573 Y60.8049 
G01 X-47.1862 Y60.7493 
G01 X-47.0259 Y60.6676 
G01 X-46.8804 Y60.5618 
G01 X-46.7532 Y60.4346 
G01 X-46.7050 Y60.3683 
G01 X-33.9118 Y60.2635 
G01 X-33.9118 Y60.3594 
G01 X-33.8847 Y60.4247 
G01 X-33.8347 Y60.4747 
G01 X-33.7694 Y60.5018 
G01 X-32.1906 Y60.5018 
G01 X-32.1253 Y60.4747 
G01 X-32.0753 Y60.4247 
G01 X-32.0482 Y60.3594 
G00 X-48.1330 Y43.0900 
G01 Z0.0000 F254000.00 
G01 X-48.1330 Y43.2700 F3000.00 
G01 X-48.1049 Y43.4477 
G01 X-48.0493 Y43.6188 
G01 X-47.9676 Y43.7791 
G01 X-47.8618 Y43.9246 
G01 X-47.7346 Y44.0518 
G01 X-47.5891 Y44.1576 
G01 X-47.5742 Y44.1652 
G01 X-47.5742 Y45.7775 
G01 X-47.5517 Y45.8904 
G01 X-47.5077 Y45.9967 
G01 X-47.4438 Y46.0924 
G01 X-47.3624 Y46.1738 
G01 X-43.5524 Y49.9838 
G01 X-43.4567 Y50.0477 
G01 X-43.3504 Y50.0917 
G01 X-43.2375 Y50.1142 
G01 X-38.4512 Y50.1142 
G01 X-38.3939 Y50.1142 
G01 X-38.3362 Y50.1142 
G01 X-38.2970 Y50.1064 
G01 X-34.8630 Y50.1064 
G01 X-34.8239 Y50.1142 
G01 X-34.7665 Y50.1142 
G01 X-34.7088 Y50.1142 
G01 X-26.2513 Y50.1142 
G01 X-26.1940 Y50.1142 
G01 X-26.1362 Y50.1142 
G01 X-26.0970 Y50.1064 
G01 X-22.6630 Y50.1064 
G01 X-22.6238 Y50.1142 
G01 X-22.5666 Y50.1142 
G01 X-22.5088 Y50.1142 
G01 X-22.1244 Y50.1142 
G01 X-22.0860 Y50.1167 
G01 X-22.0670 Y50.1142 
G01 X-22.0477 Y50.1142 
G01 X-22.0100 Y50.1067 
G01 X-21.9719 Y50.1017 
G01 X-21.9537 Y50.0955 
G01 X-21.9349 Y50.0917 
G01 X-21.8994 Y50.0770 
G01 X-21.8630 Y50.0647 
G01 X-21.8463 Y50.0551 
G01 X-21.8285 Y50.0477 
G01 X-21.7966 Y50.0264 
G01 X-21.7633 Y50.0072 
G01 X-21.7489 Y49.9945 
G01 X-21.7329 Y49.9838 
G01 X-21.7057 Y49.9566 
G01 X-21.6768 Y49.9313 
G01 X-21.4751 Y49.9292 
G01 X-21.4676 Y49.9441 
G01 X-21.3618 Y50.0896 
G01 X-21.2346 Y50.2168 
G01 X-21.0891 Y50.3226 
G01 X-20.9288 Y50.4043 
G01 X-20.7577 Y50.4599 
G01 X-20.5800 Y50.4880 
G01 X-20.4000 Y50.4880 
G01 X-20.2223 Y50.4599 
G01 X-20.0512 Y50.4043 
G01 X-19.8909 Y50.3226 
G01 X-19.7454 Y50.2168 
G01 X-19.6182 Y50.0896 
G01 X-19.5124 Y49.9441 
G01 X-19.5049 Y49.9292 
G01 X-19.3048 Y49.9292 
G01 X-19.2743 Y49.9566 
G01 X-19.2471 Y49.9838 
G01 X-19.2311 Y49.9945 
G01 X-19.2167 Y50.0072 
G01 X-19.1834 Y50.0264 
G01 X-19.1515 Y50.0477 
G01 X-19.1337 Y50.0551 
G01 X-19.1170 Y50.0647 
G01 X-19.0806 Y50.0770 
G01 X-19.0451 Y50.0917 
G01 X-19.0263 Y50.0955 
G01 X-19.0081 Y50.1017 
G01 X-18.9699 Y50.1067 
G01 X-18.9323 Y50.1142 
G01 X-18.9130 Y50.1142 
G01 X-18.8940 Y50.1167 
G01 X-18.8556 Y50.1142 
G01 X-17.7225 Y50.1142 
G01 X-17.6096 Y50.0917 
G01 X-17.5033 Y50.0477 
G01 X-17.4076 Y49.9838 
G01 X-17.3262 Y49.9024 
G01 X-13.5162 Y46.0924 
G01 X-13.4523 Y45.9967 
G01 X-13.4083 Y45.8904 
G01 X-13.3858 Y45.7775 
G01 X-13.3858 Y45.6625 
G01 X-13.4083 Y45.5496 
G01 X-13.4523 Y45.4433 
G01 X-13.5162 Y45.3476 
G01 X-13.5976 Y45.2662 
G01 X-13.6933 Y45.2023 
G01 X-13.7996 Y45.1583 
G01 X-13.9125 Y45.1358 
G01 X-17.2025 Y45.1358 
G01 X-17.3154 Y45.1583 
G01 X-17.4217 Y45.2023 
G01 X-17.5174 Y45.2662 
G01 X-17.5988 Y45.3476 
G01 X-18.6570 Y46.4058 
G01 X-41.6680 Y46.4058 
G01 X-43.8658 Y44.2080 
G01 X-43.8658 Y21.8320 
G01 X-41.6680 Y19.6342 
G01 X-19.2920 Y19.6342 
G01 X-17.0942 Y21.8320 
G01 X-17.0942 Y44.5075 
G01 X-17.0717 Y44.6204 
G01 X-17.0277 Y44.7267 
G01 X-16.9638 Y44.8224 
G01 X-16.8824 Y44.9038 
G01 X-16.7867 Y44.9677 
G01 X-16.6804 Y45.0117 
G01 X-16.5675 Y45.0342 
G01 X-13.9125 Y45.0342 
G01 X-13.7996 Y45.0117 
G01 X-13.6933 Y44.9677 
G01 X-13.5976 Y44.9038 
G01 X-13.5162 Y44.8224 
G01 X-13.4523 Y44.7267 
G01 X-13.4083 Y44.6204 
G01 X-13.3858 Y44.5075 
G01 X-13.3858 Y40.9331 
G01 X-13.3858 Y40.8762 
G01 X-13.3896 Y40.8570 
G01 X-13.3936 Y40.8370 
G01 X-13.3936 Y37.4030 
G01 X-13.3892 Y37.3809 
G01 X-13.3858 Y37.3638 
G01 X-13.3858 Y37.3056 
G01 X-13.3858 Y28.7331 
G01 X-13.3858 Y28.6762 
G01 X-13.3896 Y28.6570 
G01 X-13.3936 Y28.6370 
G01 X-13.3936 Y25.2030 
G01 X-13.3892 Y25.1809 
G01 X-13.3858 Y25.1638 
G01 X-13.3858 Y25.1056 
G01 X-13.3858 Y23.8452 
G01 X-13.3709 Y23.8376 
G01 X-13.2254 Y23.7318 
G01 X-13.0982 Y23.6046 
G01 X-12.9924 Y23.4591 
G01 X-12.9107 Y23.2988 
G01 X-12.8551 Y23.1277 
G01 X-12.8270 Y22.9500 
G01 X-12.8270 Y22.7700 
G01 X-12.8551 Y22.5923 
G01 X-12.9107 Y22.4212 
G01 X-12.9924 Y22.2609 
G01 X-13.0982 Y22.1154 
G01 X-13.2254 Y21.9882 
G01 X-13.3709 Y21.8824 
G01 X-13.3858 Y21.8748 
G01 X-13.3858 Y20.2625 
G01 X-13.4083 Y20.1496 
G01 X-13.4523 Y20.0433 
G01 X-13.5162 Y19.9476 
G01 X-13.5976 Y19.8662 
G01 X-17.4076 Y16.0562 
G01 X-17.5033 Y15.9923 
G01 X-17.6096 Y15.9483 
G01 X-17.7225 Y15.9258 
G01 X-22.5087 Y15.9258 
G01 X-22.5656 Y15.9258 
G01 X-22.6238 Y15.9258 
G01 X-22.6630 Y15.9336 
G01 X-26.0970 Y15.9336 
G01 X-26.1355 Y15.9259 
G01 X-26.1931 Y15.9258 
G01 X-26.2513 Y15.9258 
G01 X-34.7087 Y15.9258 
G01 X-34.7656 Y15.9258 
G01 X-34.8238 Y15.9258 
G01 X-34.8630 Y15.9336 
G01 X-38.2970 Y15.9336 
G01 X-38.3355 Y15.9259 
G01 X-38.3931 Y15.9258 
G01 X-38.4513 Y15.9258 
G01 X-39.6548 Y15.9258 
G01 X-39.6624 Y15.9109 
G01 X-39.7682 Y15.7654 
G01 X-39.8954 Y15.6382 
G01 X-40.0409 Y15.5324 
G01 X-40.2012 Y15.4507 
G01 X-40.3723 Y15.3951 
G01 X-40.5500 Y15.3670 
G01 X-40.7300 Y15.3670 
G01 X-40.9077 Y15.3951 
G01 X-41.0788 Y15.4507 
G01 X-41.2391 Y15.5324 
G01 X-41.3846 Y15.6382 
G01 X-41.5118 Y15.7654 
G01 X-41.6176 Y15.9109 
G01 X-41.6252 Y15.9258 
G01 X-43.2375 Y15.9258 
G01 X-43.3504 Y15.9483 
G01 X-43.4567 Y15.9923 
G01 X-43.5524 Y16.0562 
G01 X-43.6338 Y16.1376 
G01 X-47.4438 Y19.9476 
G01 X-47.5077 Y20.0433 
G01 X-47.5517 Y20.1496 
G01 X-47.5742 Y20.2625 
G01 X-47.5742 Y25.0487 
G01 X-47.5742 Y25.1060 
G01 X-47.5742 Y25.1638 
G01 X-47.5664 Y25.2030 
G01 X-47.5664 Y28.6370 
G01 X-47.5742 Y28.6762 
G01 X-47.5742 Y28.7334 
G01 X-47.5742 Y28.7912 
G01 X-47.5742 Y37.2487 
G01 X-47.5742 Y37.3060 
G01 X-47.5742 Y37.3638 
G01 X-47.5664 Y37.4030 
G01 X-47.5664 Y40.8370 
G01 X-47.5742 Y40.8762 
G01 X-47.5742 Y40.9334 
G01 X-47.5742 Y40.9912 
G01 X-47.5742 Y42.1948 
G01 X-47.5891 Y42.2024 
G01 X-47.7346 Y42.3082 
G01 X-47.8618 Y42.4354 
G01 X-47.9676 Y42.5809 
G01 X-48.0493 Y42.7412 
G01 X-48.1049 Y42.9123 
G01 X-48.1330 Y43.0900 
G00 X-46.9000 Y17.0180 
G01 Z0.0000 F254000.00 
G01 X-46.7223 Y16.9899 F3000.00 
G01 X-46.5512 Y16.9343 
G01 X-46.3909 Y16.8526 
G01 X-46.2454 Y16.7468 
G01 X-46.1182 Y16.6196 
G01 X-46.0124 Y16.4741 
G01 X-45.9307 Y16.3138 
G01 X-45.8751 Y16.1427 
G01 X-45.8470 Y15.9650 
G01 X-45.8470 Y15.9228 
G01 X-45.8345 Y15.9353 
G01 X-45.8228 Y15.9506 
G01 X-45.7939 Y15.9759 
G01 X-45.7667 Y16.0031 
G01 X-45.7507 Y16.0138 
G01 X-45.7363 Y16.0265 
G01 X-45.7030 Y16.0457 
G01 X-45.6710 Y16.0670 
G01 X-45.6533 Y16.0744 
G01 X-45.6366 Y16.0840 
G01 X-45.6002 Y16.0964 
G01 X-45.5647 Y16.1111 
G01 X-45.5458 Y16.1148 
G01 X-45.5276 Y16.1210 
G01 X-45.4895 Y16.1260 
G01 X-45.4519 Y16.1335 
G01 X-45.4326 Y16.1335 
G01 X-45.4135 Y16.1360 
G01 X-45.3752 Y16.1335 
G01 X-45.3368 Y16.1335 
G01 X-45.3179 Y16.1298 
G01 X-45.2987 Y16.1285 
G01 X-45.2616 Y16.1186 
G01 X-45.2239 Y16.1111 
G01 X-45.2061 Y16.1037 
G01 X-45.1875 Y16.0987 
G01 X-45.1531 Y16.0817 
G01 X-45.1176 Y16.0670 
G01 X-45.1016 Y16.0563 
G01 X-45.0843 Y16.0478 
G01 X-45.0539 Y16.0244 
G01 X-45.0219 Y16.0031 
G01 X-45.0083 Y15.9895 
G01 X-44.9930 Y15.9778 
G01 X-44.9677 Y15.9489 
G01 X-40.3980 Y11.3792 
G01 X-20.5620 Y11.3792 
G01 X-15.3573 Y16.5839 
G01 X-15.3320 Y16.6128 
G01 X-15.3167 Y16.6245 
G01 X-15.3031 Y16.6381 
G01 X-15.2711 Y16.6594 
G01 X-15.2407 Y16.6828 
G01 X-15.2234 Y16.6913 
G01 X-15.2074 Y16.7020 
G01 X-15.1719 Y16.7167 
G01 X-15.1375 Y16.7337 
G01 X-15.1189 Y16.7387 
G01 X-15.1011 Y16.7461 
G01 X-15.0634 Y16.7536 
G01 X-15.0263 Y16.7635 
G01 X-15.0071 Y16.7648 
G01 X-14.9882 Y16.7685 
G01 X-14.9498 Y16.7685 
G01 X-14.9115 Y16.7710 
G01 X-14.8924 Y16.7685 
G01 X-14.8731 Y16.7685 
G01 X-14.8355 Y16.7610 
G01 X-14.7974 Y16.7560 
G01 X-14.7792 Y16.7498 
G01 X-14.7603 Y16.7461 
G01 X-14.7248 Y16.7314 
G01 X-14.6884 Y16.7190 
G01 X-14.6717 Y16.7094 
G01 X-14.6540 Y16.7020 
G01 X-14.6220 Y16.6807 
G01 X-14.5887 Y16.6615 
G01 X-14.5743 Y16.6488 
G01 X-14.5583 Y16.6381 
G01 X-14.5311 Y16.6109 
G01 X-14.5022 Y16.5856 
G01 X-14.4905 Y16.5703 
G01 X-14.4780 Y16.5578 
G01 X-14.4780 Y16.6000 
G01 X-14.4499 Y16.7777 
G01 X-14.3943 Y16.9488 
G01 X-14.3126 Y17.1091 
G01 X-14.2068 Y17.2546 
G01 X-14.0796 Y17.3818 
G01 X-13.9341 Y17.4876 
G01 X-13.7738 Y17.5693 
G01 X-13.6027 Y17.6249 
G01 X-13.4250 Y17.6530 
G01 X-13.3828 Y17.6530 
G01 X-13.3953 Y17.6655 
G01 X-13.4106 Y17.6772 
G01 X-13.4359 Y17.7061 
G01 X-13.4631 Y17.7333 
G01 X-13.4738 Y17.7493 
G01 X-13.4865 Y17.7637 
G01 X-13.5057 Y17.7970 
G01 X-13.5270 Y17.8290 
G01 X-13.5344 Y17.8467 
G01 X-13.5440 Y17.8634 
G01 X-13.5564 Y17.8998 
G01 X-13.5711 Y17.9353 
G01 X-13.5748 Y17.9541 
G01 X-13.5810 Y17.9724 
G01 X-13.5860 Y18.0105 
G01 X-13.5935 Y18.0481 
G01 X-13.5935 Y18.0674 
G01 X-13.5960 Y18.0865 
G01 X-13.5935 Y18.1248 
G01 X-13.5935 Y18.1632 
G01 X-13.5898 Y18.1821 
G01 X-13.5885 Y18.2013 
G01 X-13.5786 Y18.2384 
G01 X-13.5711 Y18.2761 
G01 X-13.5637 Y18.2939 
G01 X-13.5587 Y18.3125 
G01 X-13.5417 Y18.3469 
G01 X-13.5270 Y18.3824 
G01 X-13.5163 Y18.3984 
G01 X-13.5078 Y18.4157 
G01 X-13.4844 Y18.4461 
G01 X-13.4631 Y18.4781 
G01 X-13.4495 Y18.4917 
G01 X-13.4378 Y18.5070 
G01 X-13.4089 Y18.5323 
G01 X-8.8392 Y23.1020 
G01 X-8.8392 Y45.7775 
G01 X-8.8167 Y45.8904 
G01 X-8.7727 Y45.9967 
G01 X-8.7088 Y46.0924 
G01 X-8.6274 Y46.1738 
G01 X-8.5317 Y46.2377 
G01 X-8.4254 Y46.2817 
G01 X-8.3125 Y46.3042 
G01 X-5.6575 Y46.3042 
G01 X-5.5446 Y46.2817 
G01 X-5.4383 Y46.2377 
G01 X-5.3426 Y46.1738 
G01 X-5.2612 Y46.0924 
G01 X-5.1973 Y45.9967 
G01 X-5.1532 Y45.8904 
G01 X-5.1308 Y45.7775 
G01 X-5.1308 Y20.2625 
G01 X-5.1532 Y20.1496 
G01 X-5.1973 Y20.0433 
G01 X-5.2612 Y19.9476 
G01 X-5.3426 Y19.8662 
G01 X-17.4076 Y7.8012 
G01 X-17.5033 Y7.7373 
G01 X-17.6096 Y7.6933 
G01 X-17.7225 Y7.6708 
G01 X-43.2375 Y7.6708 
G01 X-43.3504 Y7.6933 
G01 X-43.4567 Y7.7373 
G01 X-43.5524 Y7.8012 
G01 X-43.6338 Y7.8826 
G01 X-55.6988 Y19.9476 
G01 X-55.7627 Y20.0433 
G01 X-55.8067 Y20.1496 
G01 X-55.8292 Y20.2625 
G01 X-55.8292 Y45.7775 
G01 X-55.8067 Y45.8904 
G01 X-55.7627 Y45.9967 
G01 X-55.6988 Y46.0924 
G01 X-55.6174 Y46.1738 
G01 X-43.5524 Y58.2388 
G01 X-43.4567 Y58.3027 
G01 X-43.3504 Y58.3467 
G01 X-43.2375 Y58.3692 
G01 X-21.2580 Y58.3692 
G01 X-21.1451 Y58.3467 
G01 X-21.0831 Y58.3210 
G01 X-21.0388 Y58.3027 
G01 X-20.7527 Y58.1842 
G01 X-20.2273 Y58.1842 
G01 X-19.9412 Y58.3027 
G01 X-19.9006 Y58.3195 
G01 X-19.8349 Y58.3467 
G01 X-19.7220 Y58.3692 
G01 X-17.7225 Y58.3692 
G01 X-17.6096 Y58.3467 
G01 X-17.5033 Y58.3027 
G01 X-17.4076 Y58.2388 
G01 X-17.3262 Y58.1574 
G01 X-6.5312 Y47.3624 
G01 X-6.4673 Y47.2667 
G01 X-6.4233 Y47.1604 
G01 X-6.4008 Y47.0475 
G01 X-6.4008 Y46.9325 
G01 X-6.4233 Y46.8196 
G01 X-6.4673 Y46.7133 
G01 X-6.5312 Y46.6176 
G01 X-6.6126 Y46.5362 
G01 X-6.7083 Y46.4723 
G01 X-6.8146 Y46.4283 
G01 X-6.9275 Y46.4058 
G01 X-12.1225 Y46.4058 
G01 X-12.2354 Y46.4283 
G01 X-12.3417 Y46.4723 
G01 X-12.4374 Y46.5362 
G01 X-12.5188 Y46.6176 
G01 X-14.0439 Y48.1427 
G01 X-14.0728 Y48.1680 
G01 X-14.0845 Y48.1833 
G01 X-14.0981 Y48.1969 
G01 X-14.1194 Y48.2289 
G01 X-14.1428 Y48.2593 
G01 X-14.1513 Y48.2766 
G01 X-14.1620 Y48.2926 
G01 X-14.1767 Y48.3281 
G01 X-14.1937 Y48.3625 
G01 X-14.1987 Y48.3811 
G01 X-14.2061 Y48.3989 
G01 X-14.2136 Y48.4366 
G01 X-14.2235 Y48.4737 
G01 X-14.2248 Y48.4929 
G01 X-14.2285 Y48.5118 
G01 X-14.2285 Y48.5502 
G01 X-14.2310 Y48.5885 
G01 X-14.2285 Y48.6076 
G01 X-14.2285 Y48.6269 
G01 X-14.2210 Y48.6645 
G01 X-14.2160 Y48.7026 
G01 X-14.2098 Y48.7208 
G01 X-14.2061 Y48.7397 
G01 X-14.1914 Y48.7752 
G01 X-14.1790 Y48.8116 
G01 X-14.1694 Y48.8283 
G01 X-14.1620 Y48.8460 
G01 X-14.1407 Y48.8780 
G01 X-14.1215 Y48.9113 
G01 X-14.1088 Y48.9257 
G01 X-14.0981 Y48.9417 
G01 X-14.0709 Y48.9689 
G01 X-14.0456 Y48.9978 
G01 X-14.0303 Y49.0095 
G01 X-14.0178 Y49.0220 
G01 X-14.0600 Y49.0220 
G01 X-14.2377 Y49.0501 
G01 X-14.4088 Y49.1057 
G01 X-14.5691 Y49.1874 
G01 X-14.7146 Y49.2932 
G01 X-14.8418 Y49.4204 
G01 X-14.9476 Y49.5659 
G01 X-15.0293 Y49.7262 
G01 X-15.0849 Y49.8973 
G01 X-15.1130 Y50.0750 
G01 X-15.1130 Y50.1172 
G01 X-15.1255 Y50.1047 
G01 X-15.1372 Y50.0894 
G01 X-15.1661 Y50.0641 
G01 X-15.1933 Y50.0369 
G01 X-15.2093 Y50.0262 
G01 X-15.2237 Y50.0135 
G01 X-15.2570 Y49.9943 
G01 X-15.2890 Y49.9730 
G01 X-15.3067 Y49.9656 
G01 X-15.3234 Y49.9560 
G01 X-15.3598 Y49.9436 
G01 X-15.3953 Y49.9289 
G01 X-15.4141 Y49.9252 
G01 X-15.4324 Y49.9190 
G01 X-15.4705 Y49.9140 
G01 X-15.5081 Y49.9065 
G01 X-15.5274 Y49.9065 
G01 X-15.5465 Y49.9040 
G01 X-15.5848 Y49.9065 
G01 X-15.6232 Y49.9065 
G01 X-15.6421 Y49.9102 
G01 X-15.6613 Y49.9115 
G01 X-15.6984 Y49.9214 
G01 X-15.7361 Y49.9289 
G01 X-15.7539 Y49.9363 
G01 X-15.7725 Y49.9413 
G01 X-15.8069 Y49.9583 
G01 X-15.8424 Y49.9730 
G01 X-15.8584 Y49.9837 
G01 X-15.8757 Y49.9922 
G01 X-15.9061 Y50.0156 
G01 X-15.9381 Y50.0369 
G01 X-15.9517 Y50.0505 
G01 X-15.9670 Y50.0622 
G01 X-15.9923 Y50.0911 
G01 X-20.5620 Y54.6608 
G01 X-40.3980 Y54.6608 
G01 X-45.6027 Y49.4561 
G01 X-45.6280 Y49.4272 
G01 X-45.6433 Y49.4155 
G01 X-45.6569 Y49.4019 
G01 X-45.6889 Y49.3805 
G01 X-45.7193 Y49.3572 
G01 X-45.7366 Y49.3487 
G01 X-45.7526 Y49.3380 
G01 X-45.7881 Y49.3233 
G01 X-45.8225 Y49.3063 
G01 X-45.8411 Y49.3013 
G01 X-45.8589 Y49.2939 
G01 X-45.8966 Y49.2864 
G01 X-45.9337 Y49.2765 
G01 X-45.9529 Y49.2752 
G01 X-45.9718 Y49.2715 
G01 X-46.0102 Y49.2715 
G01 X-46.0485 Y49.2690 
G01 X-46.0676 Y49.2715 
G01 X-46.0869 Y49.2715 
G01 X-46.1245 Y49.2790 
G01 X-46.1626 Y49.2840 
G01 X-46.1808 Y49.2902 
G01 X-46.1997 Y49.2939 
G01 X-46.2352 Y49.3086 
G01 X-46.2716 Y49.3210 
G01 X-46.2883 Y49.3306 
G01 X-46.3060 Y49.3380 
G01 X-46.3380 Y49.3593 
G01 X-46.3713 Y49.3785 
G01 X-46.3857 Y49.3912 
G01 X-46.4017 Y49.4019 
G01 X-46.4289 Y49.4291 
G01 X-46.4578 Y49.4544 
G01 X-46.4695 Y49.4697 
G01 X-46.4820 Y49.4822 
G01 X-46.4820 Y49.4400 
G01 X-46.5101 Y49.2623 
G01 X-46.5657 Y49.0912 
G01 X-46.6474 Y48.9309 
G01 X-46.7532 Y48.7854 
G01 X-46.8804 Y48.6582 
G01 X-47.0259 Y48.5524 
G01 X-47.1862 Y48.4707 
G01 X-47.3573 Y48.4151 
G01 X-47.5350 Y48.3870 
G01 X-47.5772 Y48.3870 
G01 X-47.5647 Y48.3745 
G01 X-47.5494 Y48.3628 
G01 X-47.5241 Y48.3339 
G01 X-47.4969 Y48.3067 
G01 X-47.4862 Y48.2907 
G01 X-47.4735 Y48.2763 
G01 X-47.4543 Y48.2430 
G01 X-47.4330 Y48.2110 
G01 X-47.4256 Y48.1933 
G01 X-47.4160 Y48.1766 
G01 X-47.4036 Y48.1402 
G01 X-47.3889 Y48.1047 
G01 X-47.3852 Y48.0858 
G01 X-47.3790 Y48.0676 
G01 X-47.3740 Y48.0295 
G01 X-47.3665 Y47.9919 
G01 X-47.3665 Y47.9726 
G01 X-47.3640 Y47.9535 
G01 X-47.3665 Y47.9152 
G01 X-47.3665 Y47.8768 
G01 X-47.3702 Y47.8579 
G01 X-47.3715 Y47.8387 
G01 X-47.3814 Y47.8016 
G01 X-47.3889 Y47.7639 
G01 X-47.3963 Y47.7461 
G01 X-47.4013 Y47.7275 
G01 X-47.4183 Y47.6931 
G01 X-47.4330 Y47.6576 
G01 X-47.4437 Y47.6416 
G01 X-47.4522 Y47.6243 
G01 X-47.4756 Y47.5939 
G01 X-47.4969 Y47.5619 
G01 X-47.5105 Y47.5483 
G01 X-47.5222 Y47.5330 
G01 X-47.5511 Y47.5077 
G01 X-52.1208 Y42.9380 
G01 X-52.1208 Y23.1020 
G01 X-46.9161 Y17.8973 
G01 X-46.8872 Y17.8720 
G01 X-46.8755 Y17.8567 
G01 X-46.8619 Y17.8431 
G01 X-46.8406 Y17.8111 
G01 X-46.8172 Y17.7807 
G01 X-46.8087 Y17.7634 
G01 X-46.7980 Y17.7474 
G01 X-46.7833 Y17.7119 
G01 X-46.7663 Y17.6775 
G01 X-46.7613 Y17.6589 
G01 X-46.7539 Y17.6411 
G01 X-46.7464 Y17.6034 
G01 X-46.7365 Y17.5663 
G01 X-46.7352 Y17.5471 
G01 X-46.7315 Y17.5282 
G01 X-46.7315 Y17.4898 
G01 X-46.7290 Y17.4515 
G01 X-46.7315 Y17.4324 
G01 X-46.7315 Y17.4131 
G01 X-46.7390 Y17.3755 
G01 X-46.7440 Y17.3374 
G01 X-46.7502 Y17.3192 
G01 X-46.7539 Y17.3003 
G01 X-46.7686 Y17.2648 
G01 X-46.7810 Y17.2284 
G01 X-46.7906 Y17.2117 
G01 X-46.7980 Y17.1940 
G01 X-46.8193 Y17.1620 
G01 X-46.8385 Y17.1287 
G01 X-46.8512 Y17.1143 
G01 X-46.8619 Y17.0983 
G01 X-46.8891 Y17.0711 
G01 X-46.9144 Y17.0422 
G01 X-46.9297 Y17.0305 
G01 X-46.9422 Y17.0180 
G01 X-46.9000 Y17.0180 
G00 X-58.2930 Y15.7850 
G01 Z0.0000 F254000.00 
G01 X-58.2930 Y15.9650 F3000.00 
G01 X-58.2649 Y16.1427 
G01 X-58.2093 Y16.3138 
G01 X-58.1276 Y16.4741 
G01 X-58.0218 Y16.6196 
G01 X-57.8946 Y16.7468 
G01 X-57.8279 Y16.7953 
G01 X-57.7184 Y29.5882 
G01 X-57.8194 Y29.5882 
G01 X-57.8847 Y29.6153 
G01 X-57.9347 Y29.6653 
G01 X-57.9618 Y29.7306 
G01 X-57.9618 Y31.3094 
G01 X-57.9347 Y31.3747 
G01 X-57.8847 Y31.4247 
G01 X-57.8194 Y31.4518 
G01 X-56.2406 Y31.4518 
G01 X-56.1753 Y31.4247 
G01 X-56.1253 Y31.3747 
G01 X-56.0982 Y31.3094 
G01 X-56.0982 Y29.7306 
G01 X-56.1253 Y29.6653 
G01 X-56.1753 Y29.6153 
G01 X-56.2406 Y29.5882 
G01 X-56.3467 Y29.5882 
G01 X-56.4564 Y16.7839 
G01 X-56.4054 Y16.7468 
G01 X-56.2782 Y16.6196 
G01 X-56.1724 Y16.4741 
G01 X-56.0907 Y16.3138 
G01 X-56.0351 Y16.1427 
G01 X-56.0070 Y15.9650 
G01 X-56.0070 Y15.7850 
G01 X-56.0351 Y15.6073 
G01 X-56.0907 Y15.4362 
G01 X-56.1724 Y15.2759 
G01 X-56.2782 Y15.1304 
G01 X-56.4054 Y15.0032 
G01 X-56.5509 Y14.8974 
G01 X-56.7112 Y14.8157 
G01 X-56.8823 Y14.7601 
G01 X-57.0600 Y14.7320 
G01 X-57.2400 Y14.7320 
G01 X-57.4177 Y14.7601 
G01 X-57.5888 Y14.8157 
G01 X-57.7491 Y14.8974 
G01 X-57.8946 Y15.0032 
G01 X-58.0218 Y15.1304 
G01 X-58.1276 Y15.2759 
G01 X-58.2093 Y15.4362 
G01 X-58.2649 Y15.6073 
G01 X-58.2930 Y15.7850 
G00 X-21.4676 Y60.1041 
G01 Z0.0000 F254000.00 
G01 X-21.3618 Y60.2496 F3000.00 
G01 X-21.2346 Y60.3768 
G01 X-21.0891 Y60.4826 
G01 X-20.9288 Y60.5643 
G01 X-20.7577 Y60.6199 
G01 X-20.5800 Y60.6480 
G01 X-20.4000 Y60.6480 
G01 X-20.2223 Y60.6199 
G01 X-20.0512 Y60.5643 
G01 X-19.8909 Y60.4826 
G01 X-19.7454 Y60.3768 
G01 X-19.6182 Y60.2496 
G01 X-19.5124 Y60.1041 
G01 X-19.4307 Y59.9438 
G01 X-19.3751 Y59.7727 
G01 X-19.3470 Y59.5950 
G01 X-19.3470 Y59.4150 
G01 X-19.3751 Y59.2373 
G01 X-19.4307 Y59.0662 
G01 X-19.5124 Y58.9059 
G01 X-19.6182 Y58.7604 
G01 X-19.7454 Y58.6332 
G01 X-19.8909 Y58.5274 
G01 X-20.0512 Y58.4457 
G01 X-20.2223 Y58.3901 
G01 X-20.4000 Y58.3620 
G01 X-20.5800 Y58.3620 
G01 X-20.7577 Y58.3901 
G01 X-20.9288 Y58.4457 
G01 X-21.0891 Y58.5274 
G01 X-21.2346 Y58.6332 
G01 X-21.3618 Y58.7604 
G01 X-21.4676 Y58.9059 
G01 X-21.4762 Y58.9228 
G01 X-27.0482 Y58.9340 
G01 X-27.0482 Y58.7806 
G01 X-27.0753 Y58.7153 
G01 X-27.1253 Y58.6653 
G01 X-27.1906 Y58.6382 
G01 X-28.7694 Y58.6382 
G01 X-28.8347 Y58.6653 
G01 X-28.8847 Y58.7153 
G01 X-28.9118 Y58.7806 
G01 X-28.9118 Y60.3594 
G01 X-28.8847 Y60.4247 
G01 X-28.8347 Y60.4747 
G01 X-28.7694 Y60.5018 
G01 X-27.1906 Y60.5018 
G01 X-27.1253 Y60.4747 
G01 X-27.0753 Y60.4247 
G01 X-27.0482 Y60.3594 
G01 X-27.0482 Y60.1024 
G01 X-21.4741 Y60.0912 
G01 X-21.4676 Y60.1041 
G00 X-41.7830 Y6.2600 
G01 Z0.0000 F254000.00 
G01 X-41.7830 Y6.4400 F3000.00 
G01 X-41.7549 Y6.6177 
G01 X-41.6993 Y6.7888 
G01 X-41.6176 Y6.9491 
G01 X-41.5118 Y7.0946 
G01 X-41.3846 Y7.2218 
G01 X-41.2391 Y7.3276 
G01 X-41.0788 Y7.4093 
G01 X-40.9077 Y7.4649 
G01 X-40.7300 Y7.4930 
G01 X-40.5500 Y7.4930 
G01 X-40.3723 Y7.4649 
G01 X-40.2012 Y7.4093 
G01 X-40.0409 Y7.3276 
G01 X-39.8954 Y7.2218 
G01 X-39.7682 Y7.0946 
G01 X-39.7388 Y7.0542 
G01 X-33.9118 Y7.0542 
G01 X-33.9118 Y7.2594 
G01 X-33.8847 Y7.3247 
G01 X-33.8347 Y7.3747 
G01 X-33.7694 Y7.4018 
G01 X-32.1906 Y7.4018 
G01 X-32.1253 Y7.3747 
G01 X-32.0753 Y7.3247 
G01 X-32.0482 Y7.2594 
G01 X-32.0482 Y5.6806 
G01 X-32.0753 Y5.6153 
G01 X-32.1253 Y5.5653 
G01 X-32.1906 Y5.5382 
G01 X-33.7694 Y5.5382 
G01 X-33.8347 Y5.5653 
G01 X-33.8847 Y5.6153 
G01 X-33.9118 Y5.6806 
G01 X-33.9118 Y5.8858 
G01 X-39.5937 Y5.8858 
G01 X-39.6624 Y5.7509 
G01 X-39.7682 Y5.6054 
G01 X-39.8954 Y5.4782 
G01 X-40.0409 Y5.3724 
G01 X-40.2012 Y5.2907 
G01 X-40.3723 Y5.2351 
G01 X-40.5500 Y5.2070 
G01 X-40.7300 Y5.2070 
G01 X-40.9077 Y5.2351 
G01 X-41.0788 Y5.2907 
G01 X-41.2391 Y5.3724 
G01 X-41.3846 Y5.4782 
G01 X-41.5118 Y5.6054 
G01 X-41.6176 Y5.7509 
G01 X-41.6993 Y5.9112 
G01 X-41.7549 Y6.0823 
G01 X-41.7830 Y6.2600 
G00 X-34.4678 Y20.2846 
G01 Z0.0000 F254000.00 
G01 X-34.4678 Y24.1654 F3000.00 
G01 X-34.4407 Y24.2307 
G01 X-34.3907 Y24.2807 
G01 X-34.3254 Y24.3078 
G01 X-33.5990 Y24.3078 
G01 X-33.4588 Y24.3793 
G01 X-33.2877 Y24.4349 
G01 X-33.1100 Y24.4630 
G01 X-32.9300 Y24.4630 
G01 X-32.7523 Y24.4349 
G01 X-32.5812 Y24.3793 
G01 X-32.4410 Y24.3078 
G01 X-31.7146 Y24.3078 
G01 X-31.6493 Y24.2807 
G01 X-31.5993 Y24.2307 
G01 X-31.5722 Y24.1654 
G01 X-31.5722 Y20.2846 
G01 X-31.5993 Y20.2193 
G01 X-31.6493 Y20.1693 
G01 X-31.7146 Y20.1422 
G01 X-32.0641 Y20.1422 
G01 X-32.0753 Y20.1153 
G01 X-32.1253 Y20.0653 
G01 X-32.1906 Y20.0382 
G01 X-33.7694 Y20.0382 
G01 X-33.8347 Y20.0653 
G01 X-33.8847 Y20.1153 
G01 X-33.8959 Y20.1422 
G01 X-34.3254 Y20.1422 
G01 X-34.3907 Y20.1693 
G01 X-34.4407 Y20.2193 
G01 X-34.4678 Y20.2846 
G00 X-21.7678 Y29.1746 
G01 Z0.0000 F254000.00 
G01 X-21.7678 Y29.5887 F3000.00 
G01 X-21.7946 Y29.6082 
G01 X-21.9218 Y29.7354 
G01 X-22.0276 Y29.8809 
G01 X-22.1093 Y30.0412 
G01 X-22.1649 Y30.2123 
G01 X-22.1930 Y30.3900 
G01 X-22.1930 Y30.5700 
G01 X-22.1649 Y30.7477 
G01 X-22.1093 Y30.9188 
G01 X-22.0276 Y31.0791 
G01 X-21.9218 Y31.2246 
G01 X-21.7946 Y31.3518 
G01 X-21.7678 Y31.3713 
G01 X-21.7678 Y31.7854 
G01 X-21.7407 Y31.8507 
G01 X-21.6907 Y31.9007 
G01 X-21.6254 Y31.9278 
G01 X-17.7446 Y31.9278 
G01 X-17.6793 Y31.9007 
G01 X-17.6293 Y31.8507 
G01 X-17.6022 Y31.7854 
G01 X-17.6022 Y31.4359 
G01 X-17.5753 Y31.4247 
G01 X-17.5253 Y31.3747 
G01 X-17.4982 Y31.3094 
G01 X-17.4982 Y29.7306 
G01 X-17.5253 Y29.6653 
G01 X-17.5753 Y29.6153 
G01 X-17.6022 Y29.6041 
G01 X-17.6022 Y29.1746 
G01 X-17.6293 Y29.1093 
G01 X-17.6793 Y29.0593 
G01 X-17.7446 Y29.0322 
G01 X-21.6254 Y29.0322 
G01 X-21.6907 Y29.0593 
G01 X-21.7407 Y29.1093 
G01 X-21.7678 Y29.1746 
G00 X-43.3578 Y34.2546 
G01 Z0.0000 F254000.00 
G01 X-43.3578 Y34.6041 F3000.00 
G01 X-43.3847 Y34.6153 
G01 X-43.4347 Y34.6653 
G01 X-43.4618 Y34.7306 
G01 X-43.4618 Y36.3094 
G01 X-43.4347 Y36.3747 
G01 X-43.3847 Y36.4247 
G01 X-43.3578 Y36.4359 
G01 X-43.3578 Y36.8654 
G01 X-43.3307 Y36.9307 
G01 X-43.2807 Y36.9807 
G01 X-43.2154 Y37.0078 
G01 X-39.3346 Y37.0078 
G01 X-39.2693 Y36.9807 
G01 X-39.2193 Y36.9307 
G01 X-39.1922 Y36.8654 
G01 X-39.1922 Y35.5694 
G01 X-39.1851 Y35.5477 
G01 X-39.1570 Y35.3700 
G01 X-39.1570 Y35.1900 
G01 X-39.1851 Y35.0123 
G01 X-39.1922 Y34.9906 
G01 X-39.1922 Y34.2546 
G01 X-39.2193 Y34.1893 
G01 X-39.2693 Y34.1393 
G01 X-39.3346 Y34.1122 
G01 X-43.2154 Y34.1122 
G01 X-43.2807 Y34.1393 
G01 X-43.3307 Y34.1893 
G01 X-43.3578 Y34.2546 
G00 X-29.3878 Y41.8746 
G01 Z0.0000 F254000.00 
G01 X-29.3878 Y45.7554 F3000.00 
G01 X-29.3607 Y45.8207 
G01 X-29.3107 Y45.8707 
G01 X-29.2454 Y45.8978 
G01 X-28.8959 Y45.8978 
G01 X-28.8847 Y45.9247 
G01 X-28.8347 Y45.9747 
G01 X-28.7694 Y46.0018 
G01 X-27.1906 Y46.0018 
G01 X-27.1253 Y45.9747 
G01 X-27.0753 Y45.9247 
G01 X-27.0641 Y45.8978 
G01 X-26.6346 Y45.8978 
G01 X-26.5693 Y45.8707 
G01 X-26.5193 Y45.8207 
G01 X-26.4922 Y45.7554 
G01 X-26.4922 Y41.8746 
G01 X-26.5193 Y41.8093 
G01 X-26.5693 Y41.7593 
G01 X-26.6346 Y41.7322 
G01 X-27.2449 Y41.7322 
G01 X-27.3409 Y41.6624 
G01 X-27.5012 Y41.5807 
G01 X-27.6723 Y41.5251 
G01 X-27.8500 Y41.4970 
G01 X-28.0300 Y41.4970 
G01 X-28.2077 Y41.5251 
G01 X-28.3788 Y41.5807 
G01 X-28.5391 Y41.6624 
G01 X-28.6351 Y41.7322 
G01 X-29.2454 Y41.7322 
G01 X-29.3107 Y41.7593 
G01 X-29.3607 Y41.8093 
G01 X-29.3878 Y41.8746 
G00 X-4.9530 Y50.0750 
G01 Z0.0000 F254000.00 
G01 X-4.9530 Y50.2550 F3000.00 
G01 X-4.9249 Y50.4327 
G01 X-4.8693 Y50.6038 
G01 X-4.7876 Y50.7641 
G01 X-4.6818 Y50.9096 
G01 X-4.5546 Y51.0368 
G01 X-4.4091 Y51.1426 
G01 X-4.2488 Y51.2243 
G01 X-4.0777 Y51.2799 
G01 X-3.9000 Y51.3080 
G01 X-3.7200 Y51.3080 
G01 X-3.5423 Y51.2799 
G01 X-3.3712 Y51.2243 
G01 X-3.2109 Y51.1426 
G01 X-3.0654 Y51.0368 
G01 X-2.9382 Y50.9096 
G01 X-2.8324 Y50.7641 
G01 X-2.7507 Y50.6038 
G01 X-2.6951 Y50.4327 
G01 X-2.6670 Y50.2550 
G01 X-2.6670 Y50.0750 
G01 X-2.6951 Y49.8973 
G01 X-2.7507 Y49.7262 
G01 X-2.8324 Y49.5659 
G01 X-2.9382 Y49.4204 
G01 X-3.0654 Y49.2932 
G01 X-3.1317 Y49.2450 
G01 X-3.2365 Y36.4518 
G01 X-3.1406 Y36.4518 
G01 X-3.0753 Y36.4247 
G01 X-3.0253 Y36.3747 
G01 X-2.9982 Y36.3094 
G01 X-2.9982 Y34.7306 
G01 X-3.0253 Y34.6653 
G01 X-3.0753 Y34.6153 
G01 X-3.1406 Y34.5882 
G01 X-4.7194 Y34.5882 
G01 X-4.7847 Y34.6153 
G01 X-4.8347 Y34.6653 
G01 X-4.8618 Y34.7306 
G01 X-4.8618 Y36.3094 
G01 X-4.8347 Y36.3747 
G01 X-4.7847 Y36.4247 
G01 X-4.7194 Y36.4518 
G01 X-4.6082 Y36.4518 
G01 X-4.5033 Y49.2559 
G01 X-4.5546 Y49.2932 
G01 X-4.6818 Y49.4204 
G01 X-4.7876 Y49.5659 
G01 X-4.8693 Y49.7262 
G01 X-4.9249 Y49.8973 
G01 X-4.9530 Y50.0750 
G00 X-4.9530 Y22.7700 
G01 Z0.0000 F254000.00 
G01 X-4.9530 Y22.9500 F3000.00 
G01 X-4.9249 Y23.1277 
G01 X-4.8693 Y23.2988 
G01 X-4.7876 Y23.4591 
G01 X-4.6818 Y23.6046 
G01 X-4.5546 Y23.7318 
G01 X-4.4379 Y23.8166 
G01 X-4.5116 Y25.4495 
G01 X-4.5142 Y25.4625 
G01 X-4.5142 Y25.5068 
G01 X-4.5162 Y25.5512 
G01 X-4.5142 Y25.5643 
G01 X-4.5142 Y29.5882 
G01 X-4.7194 Y29.5882 
G01 X-4.7847 Y29.6153 
G01 X-4.8347 Y29.6653 
G01 X-4.8618 Y29.7306 
G01 X-4.8618 Y31.3094 
G01 X-4.8347 Y31.3747 
G01 X-4.7847 Y31.4247 
G01 X-4.7194 Y31.4518 
G01 X-3.1406 Y31.4518 
G01 X-3.0753 Y31.4247 
G01 X-3.0253 Y31.3747 
G01 X-2.9982 Y31.3094 
G01 X-2.9982 Y29.7306 
G01 X-3.0253 Y29.6653 
G01 X-3.0753 Y29.6153 
G01 X-3.1406 Y29.5882 
G01 X-3.3458 Y29.5882 
G01 X-3.3458 Y25.5332 
G01 X-3.2707 Y23.8680 
G01 X-3.2109 Y23.8376 
G01 X-3.0654 Y23.7318 
G01 X-2.9382 Y23.6046 
G01 X-2.8324 Y23.4591 
G01 X-2.7507 Y23.2988 
G01 X-2.6951 Y23.1277 
G01 X-2.6670 Y22.9500 
G01 X-2.6670 Y22.7700 
G01 X-2.6951 Y22.5923 
G01 X-2.7507 Y22.4212 
G01 X-2.8324 Y22.2609 
G01 X-2.9382 Y22.1154 
G01 X-3.0654 Y21.9882 
G01 X-3.2109 Y21.8824 
G01 X-3.3712 Y21.8007 
G01 X-3.5423 Y21.7451 
G01 X-3.7200 Y21.7170 
G01 X-3.9000 Y21.7170 
G01 X-4.0777 Y21.7451 
G01 X-4.2488 Y21.8007 
G01 X-4.4091 Y21.8824 
G01 X-4.5546 Y21.9882 
G01 X-4.6818 Y22.1154 
G01 X-4.7876 Y22.2609 
G01 X-4.8693 Y22.4212 
G01 X-4.9249 Y22.5923 
G01 X-4.9530 Y22.7700 
G00 X-34.7942 Y53.7134 
G01 Z0.0000 F254000.00 
G01 X-34.7942 Y50.4266 F3000.00 
G01 X-34.8213 Y50.3613 
G01 X-34.8713 Y50.3113 
G01 X-34.9366 Y50.2842 
G01 X-38.2234 Y50.2842 
G01 X-38.2887 Y50.3113 
G01 X-38.3387 Y50.3613 
G01 X-38.3658 Y50.4266 
G01 X-38.3658 Y53.7134 
G01 X-38.3387 Y53.7787 
G01 X-38.2887 Y53.8287 
G01 X-38.2234 Y53.8558 
G01 X-34.9366 Y53.8558 
G01 X-34.8713 Y53.8287 
G01 X-34.8213 Y53.7787 
G01 X-34.7942 Y53.7134 
G00 X-22.5942 Y53.7134 
G01 Z0.0000 F254000.00 
G01 X-22.5942 Y50.4266 F3000.00 
G01 X-22.6213 Y50.3613 
G01 X-22.6713 Y50.3113 
G01 X-22.7366 Y50.2842 
G01 X-26.0234 Y50.2842 
G01 X-26.0887 Y50.3113 
G01 X-26.1387 Y50.3613 
G01 X-26.1658 Y50.4266 
G01 X-26.1658 Y53.7134 
G01 X-26.1387 Y53.7787 
G01 X-26.0887 Y53.8287 
G01 X-26.0234 Y53.8558 
G01 X-22.7366 Y53.8558 
G01 X-22.6713 Y53.8287 
G01 X-22.6213 Y53.7787 
G01 X-22.5942 Y53.7134 
G00 X-3.1406 Y32.0882 
G01 Z0.0000 F254000.00 
G01 X-4.7194 Y32.0882 F3000.00 
G01 X-4.7847 Y32.1153 
G01 X-4.8347 Y32.1653 
G01 X-4.8618 Y32.2306 
G01 X-4.8618 Y33.8094 
G01 X-4.8347 Y33.8747 
G01 X-4.7847 Y33.9247 
G01 X-4.7194 Y33.9518 
G01 X-3.1406 Y33.9518 
G01 X-3.0753 Y33.9247 
G01 X-3.0253 Y33.8747 
G01 X-2.9982 Y33.8094 
G01 X-2.9982 Y32.2306 
G01 X-3.0253 Y32.1653 
G01 X-3.0753 Y32.1153 
G01 X-3.1406 Y32.0882 
G00 X-17.6406 Y34.5882 
G01 Z0.0000 F254000.00 
G01 X-19.2194 Y34.5882 F3000.00 
G01 X-19.2847 Y34.6153 
G01 X-19.3347 Y34.6653 
G01 X-19.3618 Y34.7306 
G01 X-19.3618 Y36.3094 
G01 X-19.3347 Y36.3747 
G01 X-19.2847 Y36.4247 
G01 X-19.2194 Y36.4518 
G01 X-17.6406 Y36.4518 
G01 X-17.5753 Y36.4247 
G01 X-17.5253 Y36.3747 
G01 X-17.4982 Y36.3094 
G01 X-17.4982 Y34.7306 
G01 X-17.5253 Y34.6653 
G01 X-17.5753 Y34.6153 
G01 X-17.6406 Y34.5882 
G00 X-51.1734 Y28.7058 
G01 Z0.0000 F254000.00 
G01 X-47.8866 Y28.7058 F3000.00 
G01 X-47.8213 Y28.6787 
G01 X-47.7713 Y28.6287 
G01 X-47.7442 Y28.5634 
G01 X-47.7442 Y25.2766 
G01 X-47.7713 Y25.2113 
G01 X-47.8213 Y25.1613 
G01 X-47.8866 Y25.1342 
G01 X-51.1734 Y25.1342 
G01 X-51.2387 Y25.1613 
G01 X-51.2887 Y25.2113 
G01 X-51.3158 Y25.2766 
G01 X-51.3158 Y28.5634 
G01 X-51.2887 Y28.6287 
G01 X-51.2387 Y28.6787 
G01 X-51.1734 Y28.7058 
G00 X-51.1734 Y40.9058 
G01 Z0.0000 F254000.00 
G01 X-47.8866 Y40.9058 F3000.00 
G01 X-47.8213 Y40.8787 
G01 X-47.7713 Y40.8287 
G01 X-47.7442 Y40.7634 
G01 X-47.7442 Y37.4766 
G01 X-47.7713 Y37.4113 
G01 X-47.8213 Y37.3613 
G01 X-47.8866 Y37.3342 
G01 X-51.1734 Y37.3342 
G01 X-51.2387 Y37.3613 
G01 X-51.2887 Y37.4113 
G01 X-51.3158 Y37.4766 
G01 X-51.3158 Y40.7634 
G01 X-51.2887 Y40.8287 
G01 X-51.2387 Y40.8787 
G01 X-51.1734 Y40.9058 
G00 X-28.9118 Y5.6806 
G01 Z0.0000 F254000.00 
G01 X-28.9118 Y7.2594 F3000.00 
G01 X-28.8847 Y7.3247 
G01 X-28.8347 Y7.3747 
G01 X-28.7694 Y7.4018 
G01 X-27.1906 Y7.4018 
G01 X-27.1253 Y7.3747 
G01 X-27.0753 Y7.3247 
G01 X-27.0482 Y7.2594 
G01 X-27.0482 Y7.1533 
G01 X-14.2439 Y7.0436 
G01 X-14.2068 Y7.0946 
G01 X-14.0796 Y7.2218 
G01 X-13.9341 Y7.3276 
G01 X-13.7738 Y7.4093 
G01 X-13.6027 Y7.4649 
G01 X-13.4250 Y7.4930 
G01 X-13.2450 Y7.4930 
G01 X-13.0673 Y7.4649 
G01 X-12.8962 Y7.4093 
G01 X-12.7359 Y7.3276 
G01 X-12.5904 Y7.2218 
G01 X-12.4632 Y7.0946 
G01 X-12.3574 Y6.9491 
G01 X-12.2757 Y6.7888 
G01 X-12.2201 Y6.6177 
G01 X-12.1920 Y6.4400 
G01 X-12.1920 Y6.2600 
G01 X-12.2201 Y6.0823 
G01 X-12.2757 Y5.9112 
G01 X-12.3574 Y5.7509 
G01 X-12.4632 Y5.6054 
G01 X-12.5904 Y5.4782 
G01 X-12.7359 Y5.3724 
G01 X-12.8962 Y5.2907 
G01 X-13.0673 Y5.2351 
G01 X-13.2450 Y5.2070 
G01 X-13.4250 Y5.2070 
G01 X-13.6027 Y5.2351 
G01 X-13.7738 Y5.2907 
G01 X-13.9341 Y5.3724 
G01 X-14.0796 Y5.4782 
G01 X-14.2068 Y5.6054 
G01 X-14.2553 Y5.6721 
G01 X-27.0482 Y5.7816 
G01 X-27.0482 Y5.6806 
G01 X-27.0753 Y5.6153 
G01 X-27.1253 Y5.5653 
G01 X-27.1906 Y5.5382 
G01 X-28.7694 Y5.5382 
G01 X-28.8347 Y5.5653 
G01 X-28.8847 Y5.6153 
G01 X-28.9118 Y5.6806 
G00 X-31.4118 Y5.6806 
G01 Z0.0000 F254000.00 
G01 X-31.4118 Y7.2594 F3000.00 
G01 X-31.3847 Y7.3247 
G01 X-31.3347 Y7.3747 
G01 X-31.2694 Y7.4018 
G01 X-29.6906 Y7.4018 
G01 X-29.6253 Y7.3747 
G01 X-29.5753 Y7.3247 
G01 X-29.5482 Y7.2594 
G01 X-29.5482 Y5.6806 
G01 X-29.5753 Y5.6153 
G01 X-29.6253 Y5.5653 
G01 X-29.6906 Y5.5382 
G01 X-31.2694 Y5.5382 
G01 X-31.3347 Y5.5653 
G01 X-31.3847 Y5.6153 
G01 X-31.4118 Y5.6806 
G00 X-28.9118 Y20.1806 
G01 Z0.0000 F254000.00 
G01 X-28.9118 Y21.7594 F3000.00 
G01 X-28.8847 Y21.8247 
G01 X-28.8347 Y21.8747 
G01 X-28.7694 Y21.9018 
G01 X-27.1906 Y21.9018 
G01 X-27.1253 Y21.8747 
G01 X-27.0753 Y21.8247 
G01 X-27.0482 Y21.7594 
G01 X-27.0482 Y20.1806 
G01 X-27.0753 Y20.1153 
G01 X-27.1253 Y20.0653 
G01 X-27.1906 Y20.0382 
G01 X-28.7694 Y20.0382 
G01 X-28.8347 Y20.0653 
G01 X-28.8847 Y20.1153 
G01 X-28.9118 Y20.1806 
G00 X-36.1442 Y38.1575 
G01 Z0.0000 F254000.00 
G01 X-36.1217 Y38.2704 F3000.00 
G01 X-36.0777 Y38.3767 
G01 X-36.0138 Y38.4724 
G01 X-35.9324 Y38.5538 
G01 X-35.8367 Y38.6177 
G01 X-35.7304 Y38.6617 
G01 X-35.6175 Y38.6842 
G01 X-25.3425 Y38.6842 
G01 X-25.2296 Y38.6617 
G01 X-25.1233 Y38.6177 
G01 X-25.0276 Y38.5538 
G01 X-24.9462 Y38.4724 
G01 X-24.8823 Y38.3767 
G01 X-24.8383 Y38.2704 
G01 X-24.8158 Y38.1575 
G01 X-24.8158 Y27.8825 
G01 X-24.8383 Y27.7696 
G01 X-24.8823 Y27.6633 
G01 X-24.9462 Y27.5676 
G01 X-25.0276 Y27.4862 
G01 X-25.1233 Y27.4223 
G01 X-25.2296 Y27.3783 
G01 X-25.3425 Y27.3558 
G01 X-35.6175 Y27.3558 
G01 X-35.7304 Y27.3783 
G01 X-35.8367 Y27.4223 
G01 X-35.9324 Y27.4862 
G01 X-36.0138 Y27.5676 
G01 X-36.0777 Y27.6633 
G01 X-36.1217 Y27.7696 
G01 X-36.1442 Y27.8825 
G01 X-36.1442 Y27.9975 
G01 X-36.1442 Y38.1575 
G00 Z0.0000 
G00 X-18.6833 Y46.3423 
G01 Z0.0000 F254000.00 
G01 X-41.6417 Y46.3423 F3000.00 
G01 X-43.8023 Y44.1817 
G01 X-43.8023 Y21.8583 
G01 X-41.6417 Y19.6977 
G01 X-19.3183 Y19.6977 
G01 X-17.1577 Y21.8583 
G01 X-17.1577 Y44.5138 
G01 X-17.1328 Y44.6389 
G01 X-17.0840 Y44.7568 
G01 X-17.0131 Y44.8629 
G01 X-16.9229 Y44.9531 
G01 X-16.8168 Y45.0240 
G01 X-16.7001 Y45.0723 
G01 X-17.2088 Y45.0723 
G01 X-17.3339 Y45.0972 
G01 X-17.4518 Y45.1460 
G01 X-17.5579 Y45.2169 
G01 X-17.6481 Y45.3071 
G01 X-18.6833 Y46.3423 
G00 X-28.9753 Y20.1680 
G01 Z0.0000 F254000.00 
G01 X-28.9753 Y21.7720 F3000.00 
G01 X-28.9386 Y21.8607 
G01 X-28.8707 Y21.9286 
G01 X-28.7820 Y21.9653 
G01 X-27.1780 Y21.9653 
G01 X-27.0893 Y21.9286 
G01 X-27.0214 Y21.8607 
G01 X-26.9847 Y21.7720 
G01 X-26.9847 Y20.1680 
G01 X-27.0214 Y20.0793 
G01 X-27.0893 Y20.0114 
G01 X-27.1780 Y19.9747 
G01 X-28.7820 Y19.9747 
G01 X-28.8707 Y20.0114 
G01 X-28.9386 Y20.0793 
G01 X-28.9753 Y20.1680 
G00 X-17.6280 Y34.5247 
G01 Z0.0000 F254000.00 
G01 X-19.2320 Y34.5247 F3000.00 
G01 X-19.3207 Y34.5614 
G01 X-19.3886 Y34.6293 
G01 X-19.4253 Y34.7180 
G01 X-19.4253 Y36.3220 
G01 X-19.3886 Y36.4107 
G01 X-19.3207 Y36.4786 
G01 X-19.2320 Y36.5153 
G01 X-17.6280 Y36.5153 
G01 X-17.5393 Y36.4786 
G01 X-17.4714 Y36.4107 
G01 X-17.4347 Y36.3220 
G01 X-17.4347 Y34.7180 
G01 X-17.4714 Y34.6293 
G01 X-17.5393 Y34.5614 
G01 X-17.6280 Y34.5247 
G00 X-29.4513 Y41.8620 
G01 Z0.0000 F254000.00 
G01 X-29.4513 Y45.7680 F3000.00 
G01 X-29.4146 Y45.8567 
G01 X-29.3467 Y45.9246 
G01 X-29.2580 Y45.9613 
G01 X-28.9380 Y45.9613 
G01 X-28.8707 Y46.0286 
G01 X-28.7820 Y46.0653 
G01 X-27.1780 Y46.0653 
G01 X-27.0893 Y46.0286 
G01 X-27.0220 Y45.9613 
G01 X-26.6220 Y45.9613 
G01 X-26.5333 Y45.9246 
G01 X-26.4654 Y45.8567 
G01 X-26.4287 Y45.7680 
G01 X-26.4287 Y41.8620 
G01 X-26.4654 Y41.7733 
G01 X-26.5333 Y41.7054 
G01 X-26.6220 Y41.6687 
G01 X-27.2243 Y41.6687 
G01 X-27.3077 Y41.6081 
G01 X-27.4769 Y41.5219 
G01 X-27.6575 Y41.4632 
G01 X-27.8450 Y41.4335 
G01 X-28.0350 Y41.4335 
G01 X-28.2225 Y41.4632 
G01 X-28.4031 Y41.5219 
G01 X-28.5723 Y41.6081 
G01 X-28.6557 Y41.6687 
G01 X-29.2580 Y41.6687 
G01 X-29.3467 Y41.7054 
G01 X-29.4146 Y41.7733 
G01 X-29.4513 Y41.8620 
G00 X-43.4213 Y34.2420 
G01 Z0.0000 F254000.00 
G01 X-43.4213 Y34.5620 F3000.00 
G01 X-43.4886 Y34.6293 
G01 X-43.5253 Y34.7180 
G01 X-43.5253 Y36.3220 
G01 X-43.4886 Y36.4107 
G01 X-43.4213 Y36.4779 
G01 X-43.4213 Y36.8780 
G01 X-43.3846 Y36.9667 
G01 X-43.3167 Y37.0346 
G01 X-43.2280 Y37.0713 
G01 X-39.3220 Y37.0713 
G01 X-39.2333 Y37.0346 
G01 X-39.1654 Y36.9667 
G01 X-39.1287 Y36.8780 
G01 X-39.1287 Y35.5794 
G01 X-39.1232 Y35.5625 
G01 X-39.0935 Y35.3750 
G01 X-39.0935 Y35.1850 
G01 X-39.1232 Y34.9975 
G01 X-39.1287 Y34.9806 
G01 X-39.1287 Y34.2420 
G01 X-39.1654 Y34.1533 
G01 X-39.2333 Y34.0854 
G01 X-39.3220 Y34.0487 
G01 X-43.2280 Y34.0487 
G01 X-43.3167 Y34.0854 
G01 X-43.3846 Y34.1533 
G01 X-43.4213 Y34.2420 
G00 X-21.8313 Y29.1620 
G01 Z0.0000 F254000.00 
G01 X-21.8313 Y29.5563 F3000.00 
G01 X-21.8360 Y29.5597 
G01 X-21.9703 Y29.6940 
G01 X-22.0819 Y29.8477 
G01 X-22.1681 Y30.0169 
G01 X-22.2268 Y30.1975 
G01 X-22.2565 Y30.3850 
G01 X-22.2565 Y30.5750 
G01 X-22.2268 Y30.7625 
G01 X-22.1681 Y30.9431 
G01 X-22.0819 Y31.1123 
G01 X-21.9703 Y31.2660 
G01 X-21.8360 Y31.4003 
G01 X-21.8313 Y31.4037 
G01 X-21.8313 Y31.7980 
G01 X-21.7946 Y31.8867 
G01 X-21.7267 Y31.9546 
G01 X-21.6380 Y31.9913 
G01 X-17.7320 Y31.9913 
G01 X-17.6433 Y31.9546 
G01 X-17.5754 Y31.8867 
G01 X-17.5387 Y31.7980 
G01 X-17.5387 Y31.4779 
G01 X-17.4714 Y31.4107 
G01 X-17.4347 Y31.3220 
G01 X-17.4347 Y29.7180 
G01 X-17.4714 Y29.6293 
G01 X-17.5387 Y29.5620 
G01 X-17.5387 Y29.1620 
G01 X-17.5754 Y29.0733 
G01 X-17.6433 Y29.0054 
G01 X-17.7320 Y28.9687 
G01 X-21.6380 Y28.9687 
G01 X-21.7267 Y29.0054 
G01 X-21.7946 Y29.0733 
G01 X-21.8313 Y29.1620 
G00 X-34.5313 Y20.2720 
G01 Z0.0000 F254000.00 
G01 X-34.5313 Y24.1780 F3000.00 
G01 X-34.4946 Y24.2667 
G01 X-34.4267 Y24.3346 
G01 X-34.3380 Y24.3713 
G01 X-33.6142 Y24.3713 
G01 X-33.4831 Y24.4381 
G01 X-33.3025 Y24.4968 
G01 X-33.1150 Y24.5265 
G01 X-32.9250 Y24.5265 
G01 X-32.7375 Y24.4968 
G01 X-32.5569 Y24.4381 
G01 X-32.4258 Y24.3713 
G01 X-31.7020 Y24.3713 
G01 X-31.6133 Y24.3346 
G01 X-31.5454 Y24.2667 
G01 X-31.5087 Y24.1780 
G01 X-31.5087 Y20.2720 
G01 X-31.5454 Y20.1833 
G01 X-31.6133 Y20.1154 
G01 X-31.7020 Y20.0787 
G01 X-32.0220 Y20.0787 
G01 X-32.0893 Y20.0114 
G01 X-32.1780 Y19.9747 
G01 X-33.7820 Y19.9747 
G01 X-33.8707 Y20.0114 
G01 X-33.9380 Y20.0787 
G01 X-34.3380 Y20.0787 
G01 X-34.4267 Y20.1154 
G01 X-34.4946 Y20.1833 
G01 X-34.5313 Y20.2720 
G00 X-31.9847 Y45.8720 
G01 Z0.0000 F254000.00 
G01 X-31.9847 Y44.2680 F3000.00 
G01 X-32.0214 Y44.1793 
G01 X-32.0893 Y44.1114 
G01 X-32.1780 Y44.0747 
G01 X-33.7820 Y44.0747 
G01 X-33.8707 Y44.1114 
G01 X-33.9386 Y44.1793 
G01 X-33.9753 Y44.2680 
G01 X-33.9753 Y45.8720 
G01 X-33.9386 Y45.9607 
G01 X-33.8707 Y46.0286 
G01 X-33.7820 Y46.0653 
G01 X-32.1780 Y46.0653 
G01 X-32.0893 Y46.0286 
G01 X-32.0214 Y45.9607 
G01 X-31.9847 Y45.8720 
G00 X-43.3320 Y31.5153 
G01 Z0.0000 F254000.00 
G01 X-41.7280 Y31.5153 F3000.00 
G01 X-41.6393 Y31.4786 
G01 X-41.5714 Y31.4107 
G01 X-41.5347 Y31.3220 
G01 X-41.5347 Y29.7180 
G01 X-41.5714 Y29.6293 
G01 X-41.6393 Y29.5614 
G01 X-41.7280 Y29.5247 
G01 X-43.3320 Y29.5247 
G01 X-43.4207 Y29.5614 
G01 X-43.4886 Y29.6293 
G01 X-43.5253 Y29.7180 
G01 X-43.5253 Y31.3220 
G01 X-43.4886 Y31.4107 
G01 X-43.4207 Y31.4786 
G01 X-43.3320 Y31.5153 
G00 X-36.2077 Y38.1638 
G01 Z0.0000 F254000.00 
G01 X-36.1828 Y38.2889 F3000.00 
G01 X-36.1340 Y38.4068 
G01 X-36.0631 Y38.5129 
G01 X-35.9729 Y38.6031 
G01 X-35.8668 Y38.6740 
G01 X-35.7489 Y38.7228 
G01 X-35.6238 Y38.7477 
G01 X-25.3362 Y38.7477 
G01 X-25.2111 Y38.7228 
G01 X-25.0932 Y38.6740 
G01 X-24.9871 Y38.6031 
G01 X-24.8969 Y38.5129 
G01 X-24.8260 Y38.4068 
G01 X-24.7772 Y38.2889 
G01 X-24.7523 Y38.1638 
G01 X-24.7523 Y27.8762 
G01 X-24.7772 Y27.7511 
G01 X-24.8260 Y27.6332 
G01 X-24.8969 Y27.5271 
G01 X-24.9871 Y27.4369 
G01 X-25.0932 Y27.3660 
G01 X-25.2111 Y27.3172 
G01 X-25.3362 Y27.2923 
G01 X-35.6238 Y27.2923 
G01 X-35.7489 Y27.3172 
G01 X-35.8668 Y27.3660 
G01 X-35.9729 Y27.4369 
G01 X-36.0631 Y27.5271 
G01 X-36.1340 Y27.6332 
G01 X-36.1828 Y27.7511 
G01 X-36.2077 Y27.8762 
G01 X-36.2077 Y28.0038 
G01 X-36.2077 Y38.1638 
G00 X-46.7075 Y17.0518 
G01 Z0.0000 F254000.00 
G01 X-46.5269 Y16.9931 F3000.00 
G01 X-46.3577 Y16.9069 
G01 X-46.2040 Y16.7953 
G01 X-46.0697 Y16.6610 
G01 X-45.9581 Y16.5073 
G01 X-45.8719 Y16.3381 
G01 X-45.8132 Y16.1575 
G01 X-45.7976 Y16.0588 
G01 X-45.7895 Y16.0643 
G01 X-45.7734 Y16.0783 
G01 X-45.7365 Y16.0996 
G01 X-45.7011 Y16.1233 
G01 X-45.6814 Y16.1315 
G01 X-45.6629 Y16.1421 
G01 X-45.6226 Y16.1558 
G01 X-45.5832 Y16.1721 
G01 X-45.5623 Y16.1763 
G01 X-45.5421 Y16.1832 
G01 X-45.4999 Y16.1887 
G01 X-45.4581 Y16.1970 
G01 X-45.4368 Y16.1970 
G01 X-45.4156 Y16.1998 
G01 X-45.3731 Y16.1970 
G01 X-45.3305 Y16.1970 
G01 X-45.3096 Y16.1929 
G01 X-45.2883 Y16.1915 
G01 X-45.2472 Y16.1804 
G01 X-45.2054 Y16.1721 
G01 X-45.1857 Y16.1640 
G01 X-45.1651 Y16.1584 
G01 X-45.1269 Y16.1396 
G01 X-45.0875 Y16.1233 
G01 X-45.0698 Y16.1114 
G01 X-45.0506 Y16.1020 
G01 X-45.0168 Y16.0761 
G01 X-44.9814 Y16.0524 
G01 X-44.9664 Y16.0373 
G01 X-44.9494 Y16.0243 
G01 X-44.9213 Y15.9923 
G01 X-40.3717 Y11.4427 
G01 X-20.5883 Y11.4427 
G01 X-15.4037 Y16.6273 
G01 X-15.3756 Y16.6593 
G01 X-15.3586 Y16.6723 
G01 X-15.3436 Y16.6874 
G01 X-15.3081 Y16.7111 
G01 X-15.2744 Y16.7370 
G01 X-15.2552 Y16.7464 
G01 X-15.2375 Y16.7583 
G01 X-15.1981 Y16.7746 
G01 X-15.1599 Y16.7934 
G01 X-15.1393 Y16.7990 
G01 X-15.1196 Y16.8071 
G01 X-15.0778 Y16.8154 
G01 X-15.0367 Y16.8265 
G01 X-15.0154 Y16.8279 
G01 X-14.9945 Y16.8320 
G01 X-14.9519 Y16.8320 
G01 X-14.9094 Y16.8348 
G01 X-14.8882 Y16.8320 
G01 X-14.8669 Y16.8320 
G01 X-14.8251 Y16.8237 
G01 X-14.7829 Y16.8181 
G01 X-14.7627 Y16.8113 
G01 X-14.7417 Y16.8071 
G01 X-14.7024 Y16.7908 
G01 X-14.6621 Y16.7771 
G01 X-14.6436 Y16.7665 
G01 X-14.6239 Y16.7583 
G01 X-14.5885 Y16.7346 
G01 X-14.5516 Y16.7133 
G01 X-14.5355 Y16.6993 
G01 X-14.5274 Y16.6939 
G01 X-14.5118 Y16.7925 
G01 X-14.4531 Y16.9731 
G01 X-14.3669 Y17.1423 
G01 X-14.2553 Y17.2960 
G01 X-14.1210 Y17.4303 
G01 X-13.9673 Y17.5419 
G01 X-13.7981 Y17.6281 
G01 X-13.6175 Y17.6868 
G01 X-13.5189 Y17.7024 
G01 X-13.5243 Y17.7105 
G01 X-13.5383 Y17.7266 
G01 X-13.5596 Y17.7635 
G01 X-13.5833 Y17.7989 
G01 X-13.5915 Y17.8186 
G01 X-13.6021 Y17.8371 
G01 X-13.6158 Y17.8774 
G01 X-13.6321 Y17.9167 
G01 X-13.6363 Y17.9377 
G01 X-13.6432 Y17.9579 
G01 X-13.6487 Y18.0001 
G01 X-13.6570 Y18.0419 
G01 X-13.6570 Y18.0632 
G01 X-13.6598 Y18.0844 
G01 X-13.6570 Y18.1269 
G01 X-13.6570 Y18.1695 
G01 X-13.6529 Y18.1904 
G01 X-13.6515 Y18.2117 
G01 X-13.6404 Y18.2528 
G01 X-13.6321 Y18.2946 
G01 X-13.6240 Y18.3143 
G01 X-13.6184 Y18.3349 
G01 X-13.5996 Y18.3731 
G01 X-13.5833 Y18.4125 
G01 X-13.5714 Y18.4302 
G01 X-13.5620 Y18.4494 
G01 X-13.5361 Y18.4831 
G01 X-13.5124 Y18.5186 
G01 X-13.4973 Y18.5336 
G01 X-13.4843 Y18.5506 
G01 X-13.4523 Y18.5787 
G01 X-8.9027 Y23.1283 
G01 X-8.9027 Y45.7838 
G01 X-8.8778 Y45.9089 
G01 X-8.8290 Y46.0268 
G01 X-8.7581 Y46.1329 
G01 X-8.6679 Y46.2231 
G01 X-8.5618 Y46.2940 
G01 X-8.4451 Y46.3423 
G01 X-12.1288 Y46.3423 
G01 X-12.2539 Y46.3672 
G01 X-12.3718 Y46.4160 
G01 X-12.4779 Y46.4869 
G01 X-12.5681 Y46.5771 
G01 X-14.0873 Y48.0963 
G01 X-14.1193 Y48.1244 
G01 X-14.1323 Y48.1414 
G01 X-14.1474 Y48.1564 
G01 X-14.1711 Y48.1919 
G01 X-14.1970 Y48.2256 
G01 X-14.2064 Y48.2448 
G01 X-14.2183 Y48.2625 
G01 X-14.2346 Y48.3019 
G01 X-14.2534 Y48.3401 
G01 X-14.2590 Y48.3607 
G01 X-14.2671 Y48.3804 
G01 X-14.2754 Y48.4222 
G01 X-14.2865 Y48.4633 
G01 X-14.2879 Y48.4846 
G01 X-14.2920 Y48.5055 
G01 X-14.2920 Y48.5481 
G01 X-14.2948 Y48.5906 
G01 X-14.2920 Y48.6118 
G01 X-14.2920 Y48.6331 
G01 X-14.2837 Y48.6749 
G01 X-14.2782 Y48.7171 
G01 X-14.2713 Y48.7373 
G01 X-14.2671 Y48.7582 
G01 X-14.2508 Y48.7976 
G01 X-14.2371 Y48.8379 
G01 X-14.2265 Y48.8564 
G01 X-14.2183 Y48.8761 
G01 X-14.1946 Y48.9115 
G01 X-14.1733 Y48.9484 
G01 X-14.1593 Y48.9645 
G01 X-14.1539 Y48.9726 
G01 X-14.2525 Y48.9882 
G01 X-14.4331 Y49.0469 
G01 X-14.6023 Y49.1331 
G01 X-14.7560 Y49.2447 
G01 X-14.8903 Y49.3790 
G01 X-15.0019 Y49.5327 
G01 X-15.0881 Y49.7019 
G01 X-15.1468 Y49.8825 
G01 X-15.1624 Y49.9811 
G01 X-15.1705 Y49.9757 
G01 X-15.1866 Y49.9616 
G01 X-15.2235 Y49.9404 
G01 X-15.2589 Y49.9167 
G01 X-15.2786 Y49.9085 
G01 X-15.2971 Y49.8979 
G01 X-15.3374 Y49.8842 
G01 X-15.3767 Y49.8679 
G01 X-15.3977 Y49.8637 
G01 X-15.4179 Y49.8568 
G01 X-15.4601 Y49.8513 
G01 X-15.5019 Y49.8430 
G01 X-15.5232 Y49.8430 
G01 X-15.5444 Y49.8402 
G01 X-15.5869 Y49.8430 
G01 X-15.6295 Y49.8430 
G01 X-15.6504 Y49.8471 
G01 X-15.6717 Y49.8485 
G01 X-15.7128 Y49.8596 
G01 X-15.7546 Y49.8679 
G01 X-15.7743 Y49.8760 
G01 X-15.7949 Y49.8816 
G01 X-15.8331 Y49.9004 
G01 X-15.8725 Y49.9167 
G01 X-15.8902 Y49.9285 
G01 X-15.9094 Y49.9380 
G01 X-15.9431 Y49.9639 
G01 X-15.9786 Y49.9876 
G01 X-15.9936 Y50.0027 
G01 X-16.0106 Y50.0157 
G01 X-16.0387 Y50.0477 
G01 X-20.5883 Y54.5973 
G01 X-40.3717 Y54.5973 
G01 X-45.5563 Y49.4127 
G01 X-45.5844 Y49.3807 
G01 X-45.6013 Y49.3677 
G01 X-45.6164 Y49.3526 
G01 X-45.6519 Y49.3289 
G01 X-45.6856 Y49.3030 
G01 X-45.7048 Y49.2936 
G01 X-45.7225 Y49.2817 
G01 X-45.7619 Y49.2654 
G01 X-45.8001 Y49.2466 
G01 X-45.8207 Y49.2410 
G01 X-45.8404 Y49.2329 
G01 X-45.8822 Y49.2246 
G01 X-45.9233 Y49.2135 
G01 X-45.9446 Y49.2121 
G01 X-45.9655 Y49.2080 
G01 X-46.0081 Y49.2080 
G01 X-46.0506 Y49.2052 
G01 X-46.0718 Y49.2080 
G01 X-46.0931 Y49.2080 
G01 X-46.1349 Y49.2163 
G01 X-46.1771 Y49.2218 
G01 X-46.1973 Y49.2287 
G01 X-46.2182 Y49.2329 
G01 X-46.2576 Y49.2492 
G01 X-46.2979 Y49.2629 
G01 X-46.3164 Y49.2735 
G01 X-46.3361 Y49.2817 
G01 X-46.3715 Y49.3054 
G01 X-46.4084 Y49.3266 
G01 X-46.4245 Y49.3407 
G01 X-46.4326 Y49.3461 
G01 X-46.4482 Y49.2475 
G01 X-46.5069 Y49.0669 
G01 X-46.5931 Y48.8977 
G01 X-46.7047 Y48.7440 
G01 X-46.8390 Y48.6097 
G01 X-46.9927 Y48.4981 
G01 X-47.1619 Y48.4119 
G01 X-47.3425 Y48.3532 
G01 X-47.4411 Y48.3376 
G01 X-47.4357 Y48.3295 
G01 X-47.4216 Y48.3134 
G01 X-47.4004 Y48.2765 
G01 X-47.3767 Y48.2411 
G01 X-47.3685 Y48.2214 
G01 X-47.3579 Y48.2029 
G01 X-47.3442 Y48.1626 
G01 X-47.3279 Y48.1232 
G01 X-47.3237 Y48.1023 
G01 X-47.3168 Y48.0821 
G01 X-47.3113 Y48.0399 
G01 X-47.3030 Y47.9981 
G01 X-47.3030 Y47.9768 
G01 X-47.3002 Y47.9556 
G01 X-47.3030 Y47.9131 
G01 X-47.3030 Y47.8705 
G01 X-47.3071 Y47.8496 
G01 X-47.3085 Y47.8283 
G01 X-47.3196 Y47.7872 
G01 X-47.3279 Y47.7454 
G01 X-47.3360 Y47.7257 
G01 X-47.3416 Y47.7051 
G01 X-47.3604 Y47.6669 
G01 X-47.3767 Y47.6275 
G01 X-47.3885 Y47.6098 
G01 X-47.3980 Y47.5906 
G01 X-47.4239 Y47.5569 
G01 X-47.4476 Y47.5214 
G01 X-47.4627 Y47.5063 
G01 X-47.4757 Y47.4894 
G01 X-47.5077 Y47.4613 
G01 X-52.0573 Y42.9117 
G01 X-52.0573 Y23.1283 
G01 X-46.8727 Y17.9437 
G01 X-46.8407 Y17.9156 
G01 X-46.8277 Y17.8986 
G01 X-46.8126 Y17.8836 
G01 X-46.7889 Y17.8481 
G01 X-46.7630 Y17.8144 
G01 X-46.7535 Y17.7952 
G01 X-46.7417 Y17.7775 
G01 X-46.7254 Y17.7381 
G01 X-46.7066 Y17.6999 
G01 X-46.7010 Y17.6793 
G01 X-46.6929 Y17.6596 
G01 X-46.6846 Y17.6178 
G01 X-46.6735 Y17.5767 
G01 X-46.6721 Y17.5554 
G01 X-46.6680 Y17.5345 
G01 X-46.6680 Y17.4919 
G01 X-46.6652 Y17.4494 
G01 X-46.6680 Y17.4282 
G01 X-46.6680 Y17.4069 
G01 X-46.6763 Y17.3651 
G01 X-46.6818 Y17.3229 
G01 X-46.6887 Y17.3027 
G01 X-46.6929 Y17.2817 
G01 X-46.7092 Y17.2424 
G01 X-46.7229 Y17.2021 
G01 X-46.7335 Y17.1836 
G01 X-46.7417 Y17.1639 
G01 X-46.7654 Y17.1285 
G01 X-46.7866 Y17.0916 
G01 X-46.8007 Y17.0755 
G01 X-46.8061 Y17.0674 
G01 X-46.7075 Y17.0518 
G00 X-51.1860 Y40.9693 
G01 Z0.0000 F254000.00 
G01 X-47.8740 Y40.9693 F3000.00 
G01 X-47.7853 Y40.9326 
G01 X-47.7174 Y40.8647 
G01 X-47.6807 Y40.7760 
G01 X-47.6807 Y37.4640 
G01 X-47.7174 Y37.3753 
G01 X-47.7853 Y37.3074 
G01 X-47.8740 Y37.2707 
G01 X-51.1860 Y37.2707 
G01 X-51.2747 Y37.3074 
G01 X-51.3426 Y37.3753 
G01 X-51.3793 Y37.4640 
G01 X-51.3793 Y40.7760 
G01 X-51.3426 Y40.8647 
G01 X-51.2747 Y40.9326 
G01 X-51.1860 Y40.9693 
G00 X-51.1860 Y28.7693 
G01 Z0.0000 F254000.00 
G01 X-47.8740 Y28.7693 F3000.00 
G01 X-47.7853 Y28.7326 
G01 X-47.7174 Y28.6647 
G01 X-47.6807 Y28.5760 
G01 X-47.6807 Y25.2640 
G01 X-47.7174 Y25.1753 
G01 X-47.7853 Y25.1074 
G01 X-47.8740 Y25.0707 
G01 X-51.1860 Y25.0707 
G01 X-51.2747 Y25.1074 
G01 X-51.3426 Y25.1753 
G01 X-51.3793 Y25.2640 
G01 X-51.3793 Y28.5760 
G01 X-51.3426 Y28.6647 
G01 X-51.2747 Y28.7326 
G01 X-51.1860 Y28.7693 
G00 X-22.5307 Y53.7260 
G01 Z0.0000 F254000.00 
G01 X-22.5307 Y50.4140 F3000.00 
G01 X-22.5674 Y50.3253 
G01 X-22.6353 Y50.2574 
G01 X-22.7240 Y50.2207 
G01 X-26.0360 Y50.2207 
G01 X-26.1247 Y50.2574 
G01 X-26.1926 Y50.3253 
G01 X-26.2293 Y50.4140 
G01 X-26.2293 Y53.7260 
G01 X-26.1926 Y53.8147 
G01 X-26.1247 Y53.8826 
G01 X-26.0360 Y53.9193 
G01 X-22.7240 Y53.9193 
G01 X-22.6353 Y53.8826 
G01 X-22.5674 Y53.8147 
G01 X-22.5307 Y53.7260 
G00 X-34.7307 Y53.7260 
G01 Z0.0000 F254000.00 
G01 X-34.7307 Y50.4140 F3000.00 
G01 X-34.7674 Y50.3253 
G01 X-34.8353 Y50.2574 
G01 X-34.9240 Y50.2207 
G01 X-38.2360 Y50.2207 
G01 X-38.3247 Y50.2574 
G01 X-38.3926 Y50.3253 
G01 X-38.4293 Y50.4140 
G01 X-38.4293 Y53.7260 
G01 X-38.3926 Y53.8147 
G01 X-38.3247 Y53.8826 
G01 X-38.2360 Y53.9193 
G01 X-34.9240 Y53.9193 
G01 X-34.8353 Y53.8826 
G01 X-34.7674 Y53.8147 
G01 X-34.7307 Y53.7260 
G00 X-48.1965 Y43.0850 
G01 Z0.0000 F254000.00 
G01 X-48.1965 Y43.2750 F3000.00 
G01 X-48.1668 Y43.4625 
G01 X-48.1081 Y43.6431 
G01 X-48.0219 Y43.8123 
G01 X-47.9103 Y43.9660 
G01 X-47.7760 Y44.1003 
G01 X-47.6377 Y44.2007 
G01 X-47.6377 Y45.7838 
G01 X-47.6128 Y45.9089 
G01 X-47.5640 Y46.0268 
G01 X-47.4931 Y46.1329 
G01 X-47.4029 Y46.2231 
G01 X-43.5929 Y50.0331 
G01 X-43.4868 Y50.1040 
G01 X-43.3689 Y50.1528 
G01 X-43.2438 Y50.1777 
G01 X-38.4575 Y50.1777 
G01 X-38.3939 Y50.1777 
G01 X-38.3300 Y50.1777 
G01 X-38.2907 Y50.1699 
G01 X-34.8693 Y50.1699 
G01 X-34.8301 Y50.1777 
G01 X-34.7666 Y50.1777 
G01 X-34.7026 Y50.1777 
G01 X-26.2575 Y50.1777 
G01 X-26.1940 Y50.1777 
G01 X-26.1300 Y50.1777 
G01 X-26.0907 Y50.1699 
G01 X-22.6693 Y50.1699 
G01 X-22.6301 Y50.1777 
G01 X-22.5667 Y50.1777 
G01 X-22.5025 Y50.1777 
G01 X-22.1265 Y50.1777 
G01 X-22.0839 Y50.1805 
G01 X-22.0628 Y50.1777 
G01 X-22.0415 Y50.1777 
G01 X-21.9997 Y50.1694 
G01 X-21.9575 Y50.1638 
G01 X-21.9373 Y50.1570 
G01 X-21.9163 Y50.1528 
G01 X-21.8770 Y50.1365 
G01 X-21.8366 Y50.1228 
G01 X-21.8182 Y50.1121 
G01 X-21.7985 Y50.1040 
G01 X-21.7630 Y50.0803 
G01 X-21.7262 Y50.0590 
G01 X-21.7101 Y50.0449 
G01 X-21.6924 Y50.0331 
G01 X-21.6623 Y50.0030 
G01 X-21.6506 Y49.9927 
G01 X-21.5107 Y49.9927 
G01 X-21.4103 Y50.1310 
G01 X-21.2760 Y50.2653 
G01 X-21.1223 Y50.3769 
G01 X-20.9531 Y50.4631 
G01 X-20.7725 Y50.5218 
G01 X-20.5850 Y50.5515 
G01 X-20.3950 Y50.5515 
G01 X-20.2075 Y50.5218 
G01 X-20.0269 Y50.4631 
G01 X-19.8577 Y50.3769 
G01 X-19.7040 Y50.2653 
G01 X-19.5697 Y50.1310 
G01 X-19.4693 Y49.9927 
G01 X-19.3294 Y49.9927 
G01 X-19.3177 Y50.0030 
G01 X-19.2876 Y50.0331 
G01 X-19.2699 Y50.0449 
G01 X-19.2538 Y50.0590 
G01 X-19.2170 Y50.0803 
G01 X-19.1815 Y50.1040 
G01 X-19.1618 Y50.1121 
G01 X-19.1434 Y50.1228 
G01 X-19.1030 Y50.1365 
G01 X-19.0637 Y50.1528 
G01 X-19.0427 Y50.1570 
G01 X-19.0225 Y50.1638 
G01 X-18.9803 Y50.1694 
G01 X-18.9385 Y50.1777 
G01 X-18.9172 Y50.1777 
G01 X-18.8960 Y50.1805 
G01 X-18.8535 Y50.1777 
G01 X-17.7162 Y50.1777 
G01 X-17.5911 Y50.1528 
G01 X-17.4732 Y50.1040 
G01 X-17.3671 Y50.0331 
G01 X-17.2769 Y49.9429 
G01 X-13.4669 Y46.1329 
G01 X-13.3960 Y46.0268 
G01 X-13.3472 Y45.9089 
G01 X-13.3223 Y45.7838 
G01 X-13.3223 Y45.6562 
G01 X-13.3472 Y45.5311 
G01 X-13.3960 Y45.4132 
G01 X-13.4669 Y45.3071 
G01 X-13.5571 Y45.2169 
G01 X-13.6632 Y45.1460 
G01 X-13.7811 Y45.0972 
G01 X-13.8424 Y45.0850 
G01 X-13.7811 Y45.0728 
G01 X-13.6632 Y45.0240 
G01 X-13.5571 Y44.9531 
G01 X-13.4669 Y44.8629 
G01 X-13.3960 Y44.7568 
G01 X-13.3472 Y44.6389 
G01 X-13.3223 Y44.5138 
G01 X-13.3223 Y40.9331 
G01 X-13.3223 Y40.8700 
G01 X-13.3301 Y40.8308 
G01 X-13.3301 Y37.4092 
G01 X-13.3223 Y37.3700 
G01 X-13.3223 Y37.3055 
G01 X-13.3223 Y28.7331 
G01 X-13.3223 Y28.6700 
G01 X-13.3301 Y28.6308 
G01 X-13.3301 Y25.2092 
G01 X-13.3223 Y25.1700 
G01 X-13.3223 Y25.1055 
G01 X-13.3223 Y23.8807 
G01 X-13.1840 Y23.7803 
G01 X-13.0497 Y23.6460 
G01 X-12.9381 Y23.4923 
G01 X-12.8519 Y23.3231 
G01 X-12.7932 Y23.1425 
G01 X-12.7635 Y22.9550 
G01 X-12.7635 Y22.7650 
G01 X-12.7932 Y22.5775 
G01 X-12.8519 Y22.3969 
G01 X-12.9381 Y22.2277 
G01 X-13.0497 Y22.0740 
G01 X-13.1840 Y21.9397 
G01 X-13.3223 Y21.8393 
G01 X-13.3223 Y20.2562 
G01 X-13.3472 Y20.1311 
G01 X-13.3960 Y20.0132 
G01 X-13.4669 Y19.9071 
G01 X-13.5571 Y19.8169 
G01 X-17.3671 Y16.0069 
G01 X-17.4732 Y15.9360 
G01 X-17.5911 Y15.8872 
G01 X-17.7162 Y15.8623 
G01 X-22.5024 Y15.8623 
G01 X-22.5655 Y15.8623 
G01 X-22.6300 Y15.8623 
G01 X-22.6692 Y15.8701 
G01 X-26.0908 Y15.8701 
G01 X-26.1290 Y15.8625 
G01 X-26.1930 Y15.8623 
G01 X-26.2575 Y15.8623 
G01 X-34.7024 Y15.8623 
G01 X-34.7655 Y15.8623 
G01 X-34.8300 Y15.8623 
G01 X-34.8692 Y15.8701 
G01 X-38.2908 Y15.8701 
G01 X-38.3290 Y15.8625 
G01 X-38.3930 Y15.8623 
G01 X-38.4575 Y15.8623 
G01 X-39.6193 Y15.8623 
G01 X-39.7197 Y15.7240 
G01 X-39.8540 Y15.5897 
G01 X-40.0077 Y15.4781 
G01 X-40.1769 Y15.3919 
G01 X-40.3575 Y15.3332 
G01 X-40.5450 Y15.3035 
G01 X-40.7350 Y15.3035 
G01 X-40.9225 Y15.3332 
G01 X-41.1031 Y15.3919 
G01 X-41.2723 Y15.4781 
G01 X-41.4260 Y15.5897 
G01 X-41.5603 Y15.7240 
