(.../pcb-gcode-3_6_0_4/pcb-gcode.ulp)
(Copyright 2005 - 2012 by John Johnson)
(See readme.txt for licensing terms.)
(This file generated from the board:)
(.../midi_pad/midi_pad_laser_optimized.brd)
(Current profile is .../pcb-gcode-3_6_0_4/profiles/generic.pp  )
(This file generated 25.08.22 18:40)
(Settings from pcb-machine.h)
(  Tool Size)
(2.0000 )
(Z Axis Settings)
(  High     Up        Down     Drill)
(1.0000 	1.0000 	1.0000 	1.0000 )
(spindle on time = 3.0000)
(milling depth = 1.0000)
(text depth = 1.0000)
(tool change at 12.7000 15.2400 25.4000 )
(feed rate xy = F3000.00 )
(feed rate z  = F9000.00 )
(Settings from pcb-defaults.h)
(isolate min = 0.0254)
(isolate max = 0.2540)
(isolate step = 0.0635)
(Generated )
(Unit of measure: mm)
(Metric Mode)
G21
(Absolute Coordinates)
G90
G00 X0.0000 Y0.0000 
M03
G04 P3.000000
G00 Z1.0000 
G00 X2.5400 Y5.0800 
G01 Z1.0000 F9000.00 
G01 X7.6200 Y5.0800 F3000.00 
G00 X5.0800 Y7.6200 
G01 Z1.0000 F9000.00 
G01 X5.0800 Y2.5400 F3000.00 
G00 X132.0800 Y124.4600 
G01 Z1.0000 F9000.00 
G01 X137.1600 Y124.4600 F3000.00 
G00 X134.6200 Y127.0000 
G01 Z1.0000 F9000.00 
G01 X134.6200 Y121.9200 F3000.00 
G00 X1.2700 Y1.2700 
G01 Z1.0000 F9000.00 
G01 X10.1600 Y1.2700 F3000.00 
G01 Z1.0000 F9000.00 
G01 X1.2700 Y10.1600 F3000.00 
G00 X138.4300 Y128.2700 
G01 Z1.0000 F9000.00 
G01 X138.4300 Y116.8400 F3000.00 
G01 Z1.0000 F9000.00 
G01 X127.0000 Y128.2700 F3000.00 
G00 X134.6200 Y2.5400 
G01 Z1.0000 F9000.00 
G01 X134.6200 Y7.6200 F3000.00 
G00 X132.0800 Y5.0800 
G01 Z1.0000 F9000.00 
G01 X137.1600 Y5.0800 F3000.00 
G00 X138.4300 Y1.2700 
G01 Z1.0000 F9000.00 
G01 X138.4300 Y10.1600 F3000.00 
G01 Z1.0000 F9000.00 
G01 X129.5400 Y1.2700 F3000.00 
G00 X5.0800 Y121.9200 
G01 Z1.0000 F9000.00 
G01 X5.0800 Y127.0000 F3000.00 
G00 X2.5400 Y124.4600 
G01 Z1.0000 F9000.00 
G01 X7.6200 Y124.4600 F3000.00 
G00 X1.2700 Y128.2700 
G01 Z1.0000 F9000.00 
G01 X12.7000 Y128.2700 F3000.00 
G01 Z1.0000 F9000.00 
G01 X1.2700 Y116.8400 F3000.00 
G00 X100.3300 Y109.2200 
G01 Z1.0000 F9000.00 
G01 X100.3300 Y89.5350 F3000.00 
G01 X107.9500 Y89.5350 
G01 X107.9500 Y109.2200 
G01 X100.3300 Y109.2200 
M05
M02
