(.../pcb-gcode-3_6_0_4/pcb-gcode.ulp)
(Copyright 2005 - 2012 by John Johnson)
(See readme.txt for licensing terms.)
(This file generated from the board:)
(.../midi_pad/midi_pad_laser_optimized.brd)
(Current profile is .../pcb-gcode-3_6_0_4/profiles/generic.pp  )
(This file generated 25.08.22 18:40)
(Settings from pcb-machine.h)
(  Tool Size)
(1.0000 )
(Z Axis Settings)
(  High     Up        Down     Drill)
(1.0000 	1.0000 	1.0000 	1.0000 )
(spindle on time = 3.0000)
(milling depth = 1.0000)
(text depth = 1.0000)
(tool change at 12.7000 15.2400 25.4000 )
(feed rate xy = F3000.00 )
(feed rate z  = F9000.00 )
(Settings from pcb-defaults.h)
(isolate min = 0.0254)
(isolate max = 0.2540)
(isolate step = 0.0635)
(Generated )
(Unit of measure: mm)
(Metric Mode)
G21
(Absolute Coordinates)
G90
M03
G04 P3.000000
G00 X-6.1891 Y92.0811 
G01 Z1.0000 F9000.00 
G01 X-6.2343 Y92.0811 F3000.00 
G00 X-7.0019 Y92.3069 
G01 Z1.0000 F9000.00 
G03 X-7.1826 Y92.1263 I0.0000 J-0.1806 
G00 X-7.1826 Y92.1263 
G01 Z1.0000 F9000.00 
G03 X-7.1374 Y91.9005 I0.5871 J0.0000 
G00 X-6.8665 Y92.2618 
G01 Z1.0000 F9000.00 
G03 X-7.0019 Y92.3069 I-0.1355 J-0.1806 
G00 X-6.7762 Y92.1715 
G01 Z1.0000 F9000.00 
G03 X-6.8665 Y92.2618 I-0.3613 J-0.2710 
G01 Z1.0000 F9000.00 
G03 X-6.6407 Y92.0811 I0.1957 J0.1468 
G00 X-6.6407 Y92.0811 
G01 Z1.0000 F9000.00 
G01 X-6.5504 Y92.0811 F3000.00 
G00 X-5.3763 Y92.0811 
G01 Z1.0000 F9000.00 
G01 X-6.7310 Y92.9391 F3000.00 
G01 X-8.0857 Y92.0811 
G01 X-6.7310 Y91.2232 
G01 X-5.3763 Y92.0811 
G00 X-6.1891 Y94.4779 
G01 Z1.0000 F9000.00 
G01 X-6.2343 Y94.4779 F3000.00 
G00 X-7.0019 Y94.7037 
G01 Z1.0000 F9000.00 
G03 X-7.1826 Y94.5231 I0.0000 J-0.1806 
G00 X-7.1826 Y94.5231 
G01 Z1.0000 F9000.00 
G03 X-7.1374 Y94.2973 I0.5871 J0.0000 
G00 X-6.8665 Y94.6586 
G01 Z1.0000 F9000.00 
G03 X-7.0019 Y94.7037 I-0.1355 J-0.1806 
G00 X-6.7762 Y94.5683 
G01 Z1.0000 F9000.00 
G03 X-6.8665 Y94.6586 I-0.3613 J-0.2710 
G01 Z1.0000 F9000.00 
G03 X-6.6407 Y94.4779 I0.1957 J0.1468 
G00 X-6.6407 Y94.4779 
G01 Z1.0000 F9000.00 
G01 X-6.5504 Y94.4779 F3000.00 
G00 X-5.3763 Y94.4779 
G01 Z1.0000 F9000.00 
G01 X-6.7310 Y95.3359 F3000.00 
G01 X-8.0857 Y94.4779 
G01 X-6.7310 Y93.6200 
G01 X-5.3763 Y94.4779 
G00 X-6.1891 Y96.8747 
G01 Z1.0000 F9000.00 
G01 X-6.2343 Y96.8747 F3000.00 
G00 X-7.0019 Y97.1005 
G01 Z1.0000 F9000.00 
G03 X-7.1826 Y96.9199 I0.0000 J-0.1806 
G00 X-7.1826 Y96.9199 
G01 Z1.0000 F9000.00 
G03 X-7.1374 Y96.6941 I0.5871 J0.0000 
G00 X-6.8665 Y97.0554 
G01 Z1.0000 F9000.00 
G03 X-7.0019 Y97.1005 I-0.1355 J-0.1806 
G00 X-6.7762 Y96.9650 
G01 Z1.0000 F9000.00 
G03 X-6.8665 Y97.0554 I-0.3613 J-0.2710 
G01 Z1.0000 F9000.00 
G03 X-6.6407 Y96.8747 I0.1957 J0.1468 
G00 X-6.6407 Y96.8747 
G01 Z1.0000 F9000.00 
G01 X-6.5504 Y96.8747 F3000.00 
G00 X-5.3763 Y96.8747 
G01 Z1.0000 F9000.00 
G01 X-6.7310 Y97.7327 F3000.00 
G01 X-8.0857 Y96.8747 
G01 X-6.7310 Y96.0168 
G01 X-5.3763 Y96.8747 
G00 X-6.1891 Y99.2715 
G01 Z1.0000 F9000.00 
G01 X-6.2343 Y99.2715 F3000.00 
G00 X-7.0019 Y99.4973 
G01 Z1.0000 F9000.00 
G03 X-7.1826 Y99.3167 I0.0000 J-0.1806 
G00 X-7.1826 Y99.3167 
G01 Z1.0000 F9000.00 
G03 X-7.1374 Y99.0909 I0.5871 J0.0000 
G00 X-6.8665 Y99.4521 
G01 Z1.0000 F9000.00 
G03 X-7.0019 Y99.4973 I-0.1355 J-0.1806 
G00 X-6.7762 Y99.3618 
G01 Z1.0000 F9000.00 
G03 X-6.8665 Y99.4521 I-0.3613 J-0.2710 
G01 Z1.0000 F9000.00 
G03 X-6.6407 Y99.2715 I0.1957 J0.1468 
G00 X-6.6407 Y99.2715 
G01 Z1.0000 F9000.00 
G01 X-6.5504 Y99.2715 F3000.00 
G00 X-5.3763 Y99.2715 
G01 Z1.0000 F9000.00 
G01 X-6.7310 Y100.1295 F3000.00 
G01 X-8.0857 Y99.2715 
G01 X-6.7310 Y98.4136 
G01 X-5.3763 Y99.2715 
G00 X-6.1891 Y101.6683 
G01 Z1.0000 F9000.00 
G01 X-6.2343 Y101.6683 F3000.00 
G00 X-7.0019 Y101.8941 
G01 Z1.0000 F9000.00 
G03 X-7.1826 Y101.7135 I0.0000 J-0.1806 
G00 X-7.1826 Y101.7135 
G01 Z1.0000 F9000.00 
G03 X-7.1374 Y101.4877 I0.5871 J0.0000 
G00 X-6.8665 Y101.8489 
G01 Z1.0000 F9000.00 
G03 X-7.0019 Y101.8941 I-0.1355 J-0.1806 
G00 X-6.7762 Y101.7586 
G01 Z1.0000 F9000.00 
G03 X-6.8665 Y101.8489 I-0.3613 J-0.2710 
G01 Z1.0000 F9000.00 
G03 X-6.6407 Y101.6683 I0.1957 J0.1468 
G00 X-6.6407 Y101.6683 
G01 Z1.0000 F9000.00 
G01 X-6.5504 Y101.6683 F3000.00 
G00 X-5.3763 Y101.6683 
G01 Z1.0000 F9000.00 
G01 X-6.7310 Y102.5263 F3000.00 
G01 X-8.0857 Y101.6683 
G01 X-6.7310 Y100.8104 
G01 X-5.3763 Y101.6683 
G00 X-6.1891 Y104.0651 
G01 Z1.0000 F9000.00 
G01 X-6.2343 Y104.0651 F3000.00 
G00 X-7.0019 Y104.2909 
G01 Z1.0000 F9000.00 
G03 X-7.1826 Y104.1103 I0.0000 J-0.1806 
G00 X-7.1826 Y104.1103 
G01 Z1.0000 F9000.00 
G03 X-7.1374 Y103.8845 I0.5871 J0.0000 
G00 X-6.8665 Y104.2457 
G01 Z1.0000 F9000.00 
G03 X-7.0019 Y104.2909 I-0.1355 J-0.1806 
G00 X-6.7762 Y104.1554 
G01 Z1.0000 F9000.00 
G03 X-6.8665 Y104.2457 I-0.3613 J-0.2710 
G01 Z1.0000 F9000.00 
G03 X-6.6407 Y104.0651 I0.1957 J0.1468 
G00 X-6.6407 Y104.0651 
G01 Z1.0000 F9000.00 
G01 X-6.5504 Y104.0651 F3000.00 
G00 X-5.3763 Y104.0651 
G01 Z1.0000 F9000.00 
G01 X-6.7310 Y104.9231 F3000.00 
G01 X-8.0857 Y104.0651 
G01 X-6.7310 Y103.2071 
G01 X-5.3763 Y104.0651 
G00 X-6.1891 Y106.4619 
G01 Z1.0000 F9000.00 
G01 X-6.2343 Y106.4619 F3000.00 
G00 X-7.0019 Y106.6877 
G01 Z1.0000 F9000.00 
G03 X-7.1826 Y106.5070 I0.0000 J-0.1806 
G00 X-7.1826 Y106.5070 
G01 Z1.0000 F9000.00 
G03 X-7.1374 Y106.2813 I0.5871 J0.0000 
G00 X-6.8665 Y106.6425 
G01 Z1.0000 F9000.00 
G03 X-7.0019 Y106.6877 I-0.1355 J-0.1806 
G00 X-6.7762 Y106.5522 
G01 Z1.0000 F9000.00 
G03 X-6.8665 Y106.6425 I-0.3613 J-0.2710 
G01 Z1.0000 F9000.00 
G03 X-6.6407 Y106.4619 I0.1957 J0.1468 
G00 X-6.6407 Y106.4619 
G01 Z1.0000 F9000.00 
G01 X-6.5504 Y106.4619 F3000.00 
G00 X-5.3763 Y106.4619 
G01 Z1.0000 F9000.00 
G01 X-6.7310 Y107.3198 F3000.00 
G01 X-8.0857 Y106.4619 
G01 X-6.7310 Y105.6039 
G01 X-5.3763 Y106.4619 
G00 X-6.1891 Y108.8587 
G01 Z1.0000 F9000.00 
G01 X-6.2343 Y108.8587 F3000.00 
G00 X-7.0019 Y109.0845 
G01 Z1.0000 F9000.00 
G03 X-7.1826 Y108.9038 I0.0000 J-0.1806 
G00 X-7.1826 Y108.9038 
G01 Z1.0000 F9000.00 
G03 X-7.1374 Y108.6781 I0.5871 J0.0000 
G00 X-6.8665 Y109.0393 
G01 Z1.0000 F9000.00 
G03 X-7.0019 Y109.0845 I-0.1355 J-0.1806 
G00 X-6.7762 Y108.9490 
G01 Z1.0000 F9000.00 
G03 X-6.8665 Y109.0393 I-0.3613 J-0.2710 
G01 Z1.0000 F9000.00 
G03 X-6.6407 Y108.8587 I0.1957 J0.1468 
G00 X-6.6407 Y108.8587 
G01 Z1.0000 F9000.00 
G01 X-6.5504 Y108.8587 F3000.00 
G00 X-5.3763 Y108.8587 
G01 Z1.0000 F9000.00 
G01 X-6.7310 Y109.7166 F3000.00 
G01 X-8.0857 Y108.8587 
G01 X-6.7310 Y108.0007 
G01 X-5.3763 Y108.8587 
G00 X-6.1891 Y111.2555 
G01 Z1.0000 F9000.00 
G01 X-6.2343 Y111.2555 F3000.00 
G00 X-7.0019 Y111.4813 
G01 Z1.0000 F9000.00 
G03 X-7.1826 Y111.3006 I0.0000 J-0.1806 
G00 X-7.1826 Y111.3006 
G01 Z1.0000 F9000.00 
G03 X-7.1374 Y111.0749 I0.5871 J0.0000 
G00 X-6.8665 Y111.4361 
G01 Z1.0000 F9000.00 
G03 X-7.0019 Y111.4813 I-0.1355 J-0.1806 
G00 X-6.7762 Y111.3458 
G01 Z1.0000 F9000.00 
G03 X-6.8665 Y111.4361 I-0.3613 J-0.2710 
G01 Z1.0000 F9000.00 
G03 X-6.6407 Y111.2555 I0.1957 J0.1468 
G00 X-6.6407 Y111.2555 
G01 Z1.0000 F9000.00 
G01 X-6.5504 Y111.2555 F3000.00 
G00 X-5.3763 Y111.2555 
G01 Z1.0000 F9000.00 
G01 X-6.7310 Y112.1134 F3000.00 
G01 X-8.0857 Y111.2555 
G01 X-6.7310 Y110.3975 
G01 X-5.3763 Y111.2555 
G00 X-6.1891 Y113.6523 
G01 Z1.0000 F9000.00 
G01 X-6.2343 Y113.6523 F3000.00 
G00 X-7.0019 Y113.8780 
G01 Z1.0000 F9000.00 
G03 X-7.1826 Y113.6974 I0.0000 J-0.1806 
G00 X-7.1826 Y113.6974 
G01 Z1.0000 F9000.00 
G03 X-7.1374 Y113.4716 I0.5871 J0.0000 
G00 X-6.8665 Y113.8329 
G01 Z1.0000 F9000.00 
G03 X-7.0019 Y113.8780 I-0.1355 J-0.1806 
G00 X-6.7762 Y113.7426 
G01 Z1.0000 F9000.00 
G03 X-6.8665 Y113.8329 I-0.3613 J-0.2710 
G01 Z1.0000 F9000.00 
G03 X-6.6407 Y113.6523 I0.1957 J0.1468 
G00 X-6.6407 Y113.6523 
G01 Z1.0000 F9000.00 
G01 X-6.5504 Y113.6523 F3000.00 
G00 X-5.3763 Y113.6523 
G01 Z1.0000 F9000.00 
G01 X-6.7310 Y114.5102 F3000.00 
G01 X-8.0857 Y113.6523 
G01 X-6.7310 Y112.7943 
G01 X-5.3763 Y113.6523 
G00 X-6.1891 Y116.0491 
G01 Z1.0000 F9000.00 
G01 X-6.2343 Y116.0491 F3000.00 
G00 X-7.0019 Y116.2748 
G01 Z1.0000 F9000.00 
G03 X-7.1826 Y116.0942 I0.0000 J-0.1806 
G00 X-7.1826 Y116.0942 
G01 Z1.0000 F9000.00 
G03 X-7.1374 Y115.8684 I0.5871 J0.0000 
G00 X-6.8665 Y116.2297 
G01 Z1.0000 F9000.00 
G03 X-7.0019 Y116.2748 I-0.1355 J-0.1806 
G00 X-6.7762 Y116.1394 
G01 Z1.0000 F9000.00 
G03 X-6.8665 Y116.2297 I-0.3613 J-0.2710 
G01 Z1.0000 F9000.00 
G03 X-6.6407 Y116.0491 I0.1957 J0.1468 
G00 X-6.6407 Y116.0491 
G01 Z1.0000 F9000.00 
G01 X-6.5504 Y116.0491 F3000.00 
G00 X-5.3763 Y116.0491 
G01 Z1.0000 F9000.00 
G01 X-6.7310 Y116.9070 F3000.00 
G01 X-8.0857 Y116.0491 
G01 X-6.7310 Y115.1911 
G01 X-5.3763 Y116.0491 
G00 X-6.1891 Y118.4458 
G01 Z1.0000 F9000.00 
G01 X-6.2343 Y118.4458 F3000.00 
G00 X-7.0019 Y118.6716 
G01 Z1.0000 F9000.00 
G03 X-7.1826 Y118.4910 I0.0000 J-0.1806 
G00 X-7.1826 Y118.4910 
G01 Z1.0000 F9000.00 
G03 X-7.1374 Y118.2652 I0.5871 J0.0000 
G00 X-6.8665 Y118.6265 
G01 Z1.0000 F9000.00 
G03 X-7.0019 Y118.6716 I-0.1355 J-0.1806 
G00 X-6.7762 Y118.5362 
G01 Z1.0000 F9000.00 
G03 X-6.8665 Y118.6265 I-0.3613 J-0.2710 
G01 Z1.0000 F9000.00 
G03 X-6.6407 Y118.4458 I0.1957 J0.1468 
G00 X-6.6407 Y118.4458 
G01 Z1.0000 F9000.00 
G01 X-6.5504 Y118.4458 F3000.00 
G00 X-5.3763 Y118.4458 
G01 Z1.0000 F9000.00 
G01 X-6.7310 Y119.3038 F3000.00 
G01 X-8.0857 Y118.4458 
G01 X-6.7310 Y117.5879 
G01 X-5.3763 Y118.4458 
G00 X-8.7291 Y92.0811 
G01 Z1.0000 F9000.00 
G01 X-8.7743 Y92.0811 F3000.00 
G00 X-9.5419 Y92.3069 
G01 Z1.0000 F9000.00 
G03 X-9.7226 Y92.1263 I0.0000 J-0.1806 
G00 X-9.7226 Y92.1263 
G01 Z1.0000 F9000.00 
G03 X-9.6774 Y91.9005 I0.5871 J0.0000 
G00 X-9.4065 Y92.2618 
G01 Z1.0000 F9000.00 
G03 X-9.5419 Y92.3069 I-0.1355 J-0.1806 
G00 X-9.3162 Y92.1715 
G01 Z1.0000 F9000.00 
G03 X-9.4065 Y92.2618 I-0.3613 J-0.2710 
G01 Z1.0000 F9000.00 
G03 X-9.1807 Y92.0811 I0.1957 J0.1468 
G00 X-9.1807 Y92.0811 
G01 Z1.0000 F9000.00 
G01 X-9.0904 Y92.0811 F3000.00 
G00 X-7.9163 Y92.0811 
G01 Z1.0000 F9000.00 
G01 X-9.2710 Y92.9391 F3000.00 
G01 X-10.6257 Y92.0811 
G01 X-9.2710 Y91.2232 
G01 X-7.9163 Y92.0811 
G00 X-8.7291 Y94.4779 
G01 Z1.0000 F9000.00 
G01 X-8.7743 Y94.4779 F3000.00 
G00 X-9.5419 Y94.7037 
G01 Z1.0000 F9000.00 
G03 X-9.7226 Y94.5231 I0.0000 J-0.1806 
G00 X-9.7226 Y94.5231 
G01 Z1.0000 F9000.00 
G03 X-9.6774 Y94.2973 I0.5871 J0.0000 
G00 X-9.4065 Y94.6586 
G01 Z1.0000 F9000.00 
G03 X-9.5419 Y94.7037 I-0.1355 J-0.1806 
G00 X-9.3162 Y94.5683 
G01 Z1.0000 F9000.00 
G03 X-9.4065 Y94.6586 I-0.3613 J-0.2710 
G01 Z1.0000 F9000.00 
G03 X-9.1807 Y94.4779 I0.1957 J0.1468 
G00 X-9.1807 Y94.4779 
G01 Z1.0000 F9000.00 
G01 X-9.0904 Y94.4779 F3000.00 
G00 X-7.9163 Y94.4779 
G01 Z1.0000 F9000.00 
G01 X-9.2710 Y95.3359 F3000.00 
G01 X-10.6257 Y94.4779 
G01 X-9.2710 Y93.6200 
G01 X-7.9163 Y94.4779 
G00 X-8.7291 Y96.8747 
G01 Z1.0000 F9000.00 
G01 X-8.7743 Y96.8747 F3000.00 
G00 X-9.5419 Y97.1005 
G01 Z1.0000 F9000.00 
G03 X-9.7226 Y96.9199 I0.0000 J-0.1806 
G00 X-9.7226 Y96.9199 
G01 Z1.0000 F9000.00 
G03 X-9.6774 Y96.6941 I0.5871 J0.0000 
G00 X-9.4065 Y97.0554 
G01 Z1.0000 F9000.00 
G03 X-9.5419 Y97.1005 I-0.1355 J-0.1806 
G00 X-9.3162 Y96.9650 
G01 Z1.0000 F9000.00 
G03 X-9.4065 Y97.0554 I-0.3613 J-0.2710 
G01 Z1.0000 F9000.00 
G03 X-9.1807 Y96.8747 I0.1957 J0.1468 
G00 X-9.1807 Y96.8747 
G01 Z1.0000 F9000.00 
G01 X-9.0904 Y96.8747 F3000.00 
G00 X-7.9163 Y96.8747 
G01 Z1.0000 F9000.00 
G01 X-9.2710 Y97.7327 F3000.00 
G01 X-10.6257 Y96.8747 
G01 X-9.2710 Y96.0168 
G01 X-7.9163 Y96.8747 
G00 X-8.7291 Y99.2715 
G01 Z1.0000 F9000.00 
G01 X-8.7743 Y99.2715 F3000.00 
G00 X-9.5419 Y99.4973 
G01 Z1.0000 F9000.00 
G03 X-9.7226 Y99.3167 I0.0000 J-0.1806 
G00 X-9.7226 Y99.3167 
G01 Z1.0000 F9000.00 
G03 X-9.6774 Y99.0909 I0.5871 J0.0000 
G00 X-9.4065 Y99.4521 
G01 Z1.0000 F9000.00 
G03 X-9.5419 Y99.4973 I-0.1355 J-0.1806 
G00 X-9.3162 Y99.3618 
G01 Z1.0000 F9000.00 
G03 X-9.4065 Y99.4521 I-0.3613 J-0.2710 
G01 Z1.0000 F9000.00 
G03 X-9.1807 Y99.2715 I0.1957 J0.1468 
G00 X-9.1807 Y99.2715 
G01 Z1.0000 F9000.00 
G01 X-9.0904 Y99.2715 F3000.00 
G00 X-7.9163 Y99.2715 
G01 Z1.0000 F9000.00 
G01 X-9.2710 Y100.1295 F3000.00 
G01 X-10.6257 Y99.2715 
G01 X-9.2710 Y98.4136 
G01 X-7.9163 Y99.2715 
G00 X-8.7291 Y101.6683 
G01 Z1.0000 F9000.00 
G01 X-8.7743 Y101.6683 F3000.00 
G00 X-9.5419 Y101.8941 
G01 Z1.0000 F9000.00 
G03 X-9.7226 Y101.7135 I0.0000 J-0.1806 
G00 X-9.7226 Y101.7135 
G01 Z1.0000 F9000.00 
G03 X-9.6774 Y101.4877 I0.5871 J0.0000 
G00 X-9.4065 Y101.8489 
G01 Z1.0000 F9000.00 
G03 X-9.5419 Y101.8941 I-0.1355 J-0.1806 
G00 X-9.3162 Y101.7586 
G01 Z1.0000 F9000.00 
G03 X-9.4065 Y101.8489 I-0.3613 J-0.2710 
G01 Z1.0000 F9000.00 
G03 X-9.1807 Y101.6683 I0.1957 J0.1468 
G00 X-9.1807 Y101.6683 
G01 Z1.0000 F9000.00 
G01 X-9.0904 Y101.6683 F3000.00 
G00 X-7.9163 Y101.6683 
G01 Z1.0000 F9000.00 
G01 X-9.2710 Y102.5263 F3000.00 
G01 X-10.6257 Y101.6683 
G01 X-9.2710 Y100.8104 
G01 X-7.9163 Y101.6683 
G00 X-8.7291 Y104.0651 
G01 Z1.0000 F9000.00 
G01 X-8.7743 Y104.0651 F3000.00 
G00 X-9.5419 Y104.2909 
G01 Z1.0000 F9000.00 
G03 X-9.7226 Y104.1103 I0.0000 J-0.1806 
G00 X-9.7226 Y104.1103 
G01 Z1.0000 F9000.00 
G03 X-9.6774 Y103.8845 I0.5871 J0.0000 
G00 X-9.4065 Y104.2457 
G01 Z1.0000 F9000.00 
G03 X-9.5419 Y104.2909 I-0.1355 J-0.1806 
G00 X-9.3162 Y104.1554 
G01 Z1.0000 F9000.00 
G03 X-9.4065 Y104.2457 I-0.3613 J-0.2710 
G01 Z1.0000 F9000.00 
G03 X-9.1807 Y104.0651 I0.1957 J0.1468 
G00 X-9.1807 Y104.0651 
G01 Z1.0000 F9000.00 
G01 X-9.0904 Y104.0651 F3000.00 
G00 X-7.9163 Y104.0651 
G01 Z1.0000 F9000.00 
G01 X-9.2710 Y104.9231 F3000.00 
G01 X-10.6257 Y104.0651 
G01 X-9.2710 Y103.2071 
G01 X-7.9163 Y104.0651 
G00 X-8.7291 Y106.4619 
G01 Z1.0000 F9000.00 
G01 X-8.7743 Y106.4619 F3000.00 
G00 X-9.5419 Y106.6877 
G01 Z1.0000 F9000.00 
G03 X-9.7226 Y106.5070 I0.0000 J-0.1806 
G00 X-9.7226 Y106.5070 
G01 Z1.0000 F9000.00 
G03 X-9.6774 Y106.2813 I0.5871 J0.0000 
G00 X-9.4065 Y106.6425 
G01 Z1.0000 F9000.00 
G03 X-9.5419 Y106.6877 I-0.1355 J-0.1806 
G00 X-9.3162 Y106.5522 
G01 Z1.0000 F9000.00 
G03 X-9.4065 Y106.6425 I-0.3613 J-0.2710 
G01 Z1.0000 F9000.00 
G03 X-9.1807 Y106.4619 I0.1957 J0.1468 
G00 X-9.1807 Y106.4619 
G01 Z1.0000 F9000.00 
G01 X-9.0904 Y106.4619 F3000.00 
G00 X-7.9163 Y106.4619 
G01 Z1.0000 F9000.00 
G01 X-9.2710 Y107.3198 F3000.00 
G01 X-10.6257 Y106.4619 
G01 X-9.2710 Y105.6039 
G01 X-7.9163 Y106.4619 
G00 X-8.7291 Y108.8587 
G01 Z1.0000 F9000.00 
G01 X-8.7743 Y108.8587 F3000.00 
G00 X-9.5419 Y109.0845 
G01 Z1.0000 F9000.00 
G03 X-9.7226 Y108.9038 I0.0000 J-0.1806 
G00 X-9.7226 Y108.9038 
G01 Z1.0000 F9000.00 
G03 X-9.6774 Y108.6781 I0.5871 J0.0000 
G00 X-9.4065 Y109.0393 
G01 Z1.0000 F9000.00 
G03 X-9.5419 Y109.0845 I-0.1355 J-0.1806 
G00 X-9.3162 Y108.9490 
G01 Z1.0000 F9000.00 
G03 X-9.4065 Y109.0393 I-0.3613 J-0.2710 
G01 Z1.0000 F9000.00 
G03 X-9.1807 Y108.8587 I0.1957 J0.1468 
G00 X-9.1807 Y108.8587 
G01 Z1.0000 F9000.00 
G01 X-9.0904 Y108.8587 F3000.00 
G00 X-7.9163 Y108.8587 
G01 Z1.0000 F9000.00 
G01 X-9.2710 Y109.7166 F3000.00 
G01 X-10.6257 Y108.8587 
G01 X-9.2710 Y108.0007 
G01 X-7.9163 Y108.8587 
G00 X-8.7291 Y111.2555 
G01 Z1.0000 F9000.00 
G01 X-8.7743 Y111.2555 F3000.00 
G00 X-9.5419 Y111.4813 
G01 Z1.0000 F9000.00 
G03 X-9.7226 Y111.3006 I0.0000 J-0.1806 
G00 X-9.7226 Y111.3006 
G01 Z1.0000 F9000.00 
G03 X-9.6774 Y111.0749 I0.5871 J0.0000 
G00 X-9.4065 Y111.4361 
G01 Z1.0000 F9000.00 
G03 X-9.5419 Y111.4813 I-0.1355 J-0.1806 
G00 X-9.3162 Y111.3458 
G01 Z1.0000 F9000.00 
G03 X-9.4065 Y111.4361 I-0.3613 J-0.2710 
G01 Z1.0000 F9000.00 
G03 X-9.1807 Y111.2555 I0.1957 J0.1468 
G00 X-9.1807 Y111.2555 
G01 Z1.0000 F9000.00 
G01 X-9.0904 Y111.2555 F3000.00 
G00 X-7.9163 Y111.2555 
G01 Z1.0000 F9000.00 
G01 X-9.2710 Y112.1134 F3000.00 
G01 X-10.6257 Y111.2555 
G01 X-9.2710 Y110.3975 
G01 X-7.9163 Y111.2555 
G00 X-8.7291 Y113.6523 
G01 Z1.0000 F9000.00 
G01 X-8.7743 Y113.6523 F3000.00 
G00 X-9.5419 Y113.8780 
G01 Z1.0000 F9000.00 
G03 X-9.7226 Y113.6974 I0.0000 J-0.1806 
G00 X-9.7226 Y113.6974 
G01 Z1.0000 F9000.00 
G03 X-9.6774 Y113.4716 I0.5871 J0.0000 
G00 X-9.4065 Y113.8329 
G01 Z1.0000 F9000.00 
G03 X-9.5419 Y113.8780 I-0.1355 J-0.1806 
G00 X-9.3162 Y113.7426 
G01 Z1.0000 F9000.00 
G03 X-9.4065 Y113.8329 I-0.3613 J-0.2710 
G01 Z1.0000 F9000.00 
G03 X-9.1807 Y113.6523 I0.1957 J0.1468 
G00 X-9.1807 Y113.6523 
G01 Z1.0000 F9000.00 
G01 X-9.0904 Y113.6523 F3000.00 
G00 X-7.9163 Y113.6523 
G01 Z1.0000 F9000.00 
G01 X-9.2710 Y114.5102 F3000.00 
G01 X-10.6257 Y113.6523 
G01 X-9.2710 Y112.7943 
G01 X-7.9163 Y113.6523 
G00 X-8.7291 Y116.0491 
G01 Z1.0000 F9000.00 
G01 X-8.7743 Y116.0491 F3000.00 
G00 X-9.5419 Y116.2748 
G01 Z1.0000 F9000.00 
G03 X-9.7226 Y116.0942 I0.0000 J-0.1806 
G00 X-9.7226 Y116.0942 
G01 Z1.0000 F9000.00 
G03 X-9.6774 Y115.8684 I0.5871 J0.0000 
G00 X-9.4065 Y116.2297 
G01 Z1.0000 F9000.00 
G03 X-9.5419 Y116.2748 I-0.1355 J-0.1806 
G00 X-9.3162 Y116.1394 
G01 Z1.0000 F9000.00 
G03 X-9.4065 Y116.2297 I-0.3613 J-0.2710 
G01 Z1.0000 F9000.00 
G03 X-9.1807 Y116.0491 I0.1957 J0.1468 
G00 X-9.1807 Y116.0491 
G01 Z1.0000 F9000.00 
G01 X-9.0904 Y116.0491 F3000.00 
G00 X-7.9163 Y116.0491 
G01 Z1.0000 F9000.00 
G01 X-9.2710 Y116.9070 F3000.00 
G01 X-10.6257 Y116.0491 
G01 X-9.2710 Y115.1911 
G01 X-7.9163 Y116.0491 
G00 X-8.7291 Y118.4458 
G01 Z1.0000 F9000.00 
G01 X-8.7743 Y118.4458 F3000.00 
G00 X-9.5419 Y118.6716 
G01 Z1.0000 F9000.00 
G03 X-9.7226 Y118.4910 I0.0000 J-0.1806 
G00 X-9.7226 Y118.4910 
G01 Z1.0000 F9000.00 
G03 X-9.6774 Y118.2652 I0.5871 J0.0000 
G00 X-9.4065 Y118.6265 
G01 Z1.0000 F9000.00 
G03 X-9.5419 Y118.6716 I-0.1355 J-0.1806 
G00 X-9.3162 Y118.5362 
G01 Z1.0000 F9000.00 
G03 X-9.4065 Y118.6265 I-0.3613 J-0.2710 
G01 Z1.0000 F9000.00 
G03 X-9.1807 Y118.4458 I0.1957 J0.1468 
G00 X-9.1807 Y118.4458 
G01 Z1.0000 F9000.00 
G01 X-9.0904 Y118.4458 F3000.00 
G00 X-7.9163 Y118.4458 
G01 Z1.0000 F9000.00 
G01 X-9.2710 Y119.3038 F3000.00 
G01 X-10.6257 Y118.4458 
G01 X-9.2710 Y117.5879 
G01 X-7.9163 Y118.4458 
G00 X-11.2691 Y92.0811 
G01 Z1.0000 F9000.00 
G01 X-11.3143 Y92.0811 F3000.00 
G00 X-12.0819 Y92.3069 
G01 Z1.0000 F9000.00 
G03 X-12.2626 Y92.1263 I0.0000 J-0.1806 
G00 X-12.2626 Y92.1263 
G01 Z1.0000 F9000.00 
G03 X-12.2174 Y91.9005 I0.5871 J0.0000 
G00 X-11.9465 Y92.2618 
G01 Z1.0000 F9000.00 
G03 X-12.0819 Y92.3069 I-0.1355 J-0.1806 
G00 X-11.8562 Y92.1715 
G01 Z1.0000 F9000.00 
G03 X-11.9465 Y92.2618 I-0.3613 J-0.2710 
G01 Z1.0000 F9000.00 
G03 X-11.7207 Y92.0811 I0.1957 J0.1468 
G00 X-11.7207 Y92.0811 
G01 Z1.0000 F9000.00 
G01 X-11.6304 Y92.0811 F3000.00 
G00 X-10.4563 Y92.0811 
G01 Z1.0000 F9000.00 
G01 X-11.8110 Y92.9391 F3000.00 
G01 X-13.1657 Y92.0811 
G01 X-11.8110 Y91.2232 
G01 X-10.4563 Y92.0811 
G00 X-11.2691 Y94.4779 
G01 Z1.0000 F9000.00 
G01 X-11.3143 Y94.4779 F3000.00 
G00 X-12.0819 Y94.7037 
G01 Z1.0000 F9000.00 
G03 X-12.2626 Y94.5231 I0.0000 J-0.1806 
G00 X-12.2626 Y94.5231 
G01 Z1.0000 F9000.00 
G03 X-12.2174 Y94.2973 I0.5871 J0.0000 
G00 X-11.9465 Y94.6586 
G01 Z1.0000 F9000.00 
G03 X-12.0819 Y94.7037 I-0.1355 J-0.1806 
G00 X-11.8562 Y94.5683 
G01 Z1.0000 F9000.00 
G03 X-11.9465 Y94.6586 I-0.3613 J-0.2710 
G01 Z1.0000 F9000.00 
G03 X-11.7207 Y94.4779 I0.1957 J0.1468 
G00 X-11.7207 Y94.4779 
G01 Z1.0000 F9000.00 
G01 X-11.6304 Y94.4779 F3000.00 
G00 X-10.4563 Y94.4779 
G01 Z1.0000 F9000.00 
G01 X-11.8110 Y95.3359 F3000.00 
G01 X-13.1657 Y94.4779 
G01 X-11.8110 Y93.6200 
G01 X-10.4563 Y94.4779 
G00 X-11.2691 Y96.8747 
G01 Z1.0000 F9000.00 
G01 X-11.3143 Y96.8747 F3000.00 
G00 X-12.0819 Y97.1005 
G01 Z1.0000 F9000.00 
G03 X-12.2626 Y96.9199 I0.0000 J-0.1806 
G00 X-12.2626 Y96.9199 
G01 Z1.0000 F9000.00 
G03 X-12.2174 Y96.6941 I0.5871 J0.0000 
G00 X-11.9465 Y97.0554 
G01 Z1.0000 F9000.00 
G03 X-12.0819 Y97.1005 I-0.1355 J-0.1806 
G00 X-11.8562 Y96.9650 
G01 Z1.0000 F9000.00 
G03 X-11.9465 Y97.0554 I-0.3613 J-0.2710 
G01 Z1.0000 F9000.00 
G03 X-11.7207 Y96.8747 I0.1957 J0.1468 
G00 X-11.7207 Y96.8747 
G01 Z1.0000 F9000.00 
G01 X-11.6304 Y96.8747 F3000.00 
G00 X-10.4563 Y96.8747 
G01 Z1.0000 F9000.00 
G01 X-11.8110 Y97.7327 F3000.00 
G01 X-13.1657 Y96.8747 
G01 X-11.8110 Y96.0168 
G01 X-10.4563 Y96.8747 
G00 X-11.2691 Y99.2715 
G01 Z1.0000 F9000.00 
G01 X-11.3143 Y99.2715 F3000.00 
G00 X-12.0819 Y99.4973 
G01 Z1.0000 F9000.00 
G03 X-12.2626 Y99.3167 I0.0000 J-0.1806 
G00 X-12.2626 Y99.3167 
G01 Z1.0000 F9000.00 
G03 X-12.2174 Y99.0909 I0.5871 J0.0000 
G00 X-11.9465 Y99.4521 
G01 Z1.0000 F9000.00 
G03 X-12.0819 Y99.4973 I-0.1355 J-0.1806 
G00 X-11.8562 Y99.3618 
G01 Z1.0000 F9000.00 
G03 X-11.9465 Y99.4521 I-0.3613 J-0.2710 
G01 Z1.0000 F9000.00 
G03 X-11.7207 Y99.2715 I0.1957 J0.1468 
G00 X-11.7207 Y99.2715 
G01 Z1.0000 F9000.00 
G01 X-11.6304 Y99.2715 F3000.00 
G00 X-10.4563 Y99.2715 
G01 Z1.0000 F9000.00 
G01 X-11.8110 Y100.1295 F3000.00 
G01 X-13.1657 Y99.2715 
G01 X-11.8110 Y98.4136 
G01 X-10.4563 Y99.2715 
G00 X-11.2691 Y101.6683 
G01 Z1.0000 F9000.00 
G01 X-11.3143 Y101.6683 F3000.00 
G00 X-12.0819 Y101.8941 
G01 Z1.0000 F9000.00 
G03 X-12.2626 Y101.7135 I0.0000 J-0.1806 
G00 X-12.2626 Y101.7135 
G01 Z1.0000 F9000.00 
G03 X-12.2174 Y101.4877 I0.5871 J0.0000 
G00 X-11.9465 Y101.8489 
G01 Z1.0000 F9000.00 
G03 X-12.0819 Y101.8941 I-0.1355 J-0.1806 
G00 X-11.8562 Y101.7586 
G01 Z1.0000 F9000.00 
G03 X-11.9465 Y101.8489 I-0.3613 J-0.2710 
G01 Z1.0000 F9000.00 
G03 X-11.7207 Y101.6683 I0.1957 J0.1468 
G00 X-11.7207 Y101.6683 
G01 Z1.0000 F9000.00 
G01 X-11.6304 Y101.6683 F3000.00 
G00 X-10.4563 Y101.6683 
G01 Z1.0000 F9000.00 
G01 X-11.8110 Y102.5263 F3000.00 
G01 X-13.1657 Y101.6683 
G01 X-11.8110 Y100.8104 
G01 X-10.4563 Y101.6683 
G00 X-11.2691 Y104.0651 
G01 Z1.0000 F9000.00 
G01 X-11.3143 Y104.0651 F3000.00 
G00 X-12.0819 Y104.2909 
G01 Z1.0000 F9000.00 
G03 X-12.2626 Y104.1103 I0.0000 J-0.1806 
G00 X-12.2626 Y104.1103 
G01 Z1.0000 F9000.00 
G03 X-12.2174 Y103.8845 I0.5871 J0.0000 
G00 X-11.9465 Y104.2457 
G01 Z1.0000 F9000.00 
G03 X-12.0819 Y104.2909 I-0.1355 J-0.1806 
G00 X-11.8562 Y104.1554 
G01 Z1.0000 F9000.00 
G03 X-11.9465 Y104.2457 I-0.3613 J-0.2710 
G01 Z1.0000 F9000.00 
G03 X-11.7207 Y104.0651 I0.1957 J0.1468 
G00 X-11.7207 Y104.0651 
G01 Z1.0000 F9000.00 
G01 X-11.6304 Y104.0651 F3000.00 
G00 X-10.4563 Y104.0651 
G01 Z1.0000 F9000.00 
G01 X-11.8110 Y104.9231 F3000.00 
G01 X-13.1657 Y104.0651 
G01 X-11.8110 Y103.2071 
G01 X-10.4563 Y104.0651 
G00 X-11.2691 Y106.4619 
G01 Z1.0000 F9000.00 
G01 X-11.3143 Y106.4619 F3000.00 
G00 X-12.0819 Y106.6877 
G01 Z1.0000 F9000.00 
G03 X-12.2626 Y106.5070 I0.0000 J-0.1806 
G00 X-12.2626 Y106.5070 
G01 Z1.0000 F9000.00 
G03 X-12.2174 Y106.2813 I0.5871 J0.0000 
G00 X-11.9465 Y106.6425 
G01 Z1.0000 F9000.00 
G03 X-12.0819 Y106.6877 I-0.1355 J-0.1806 
G00 X-11.8562 Y106.5522 
G01 Z1.0000 F9000.00 
G03 X-11.9465 Y106.6425 I-0.3613 J-0.2710 
G01 Z1.0000 F9000.00 
G03 X-11.7207 Y106.4619 I0.1957 J0.1468 
G00 X-11.7207 Y106.4619 
G01 Z1.0000 F9000.00 
G01 X-11.6304 Y106.4619 F3000.00 
G00 X-10.4563 Y106.4619 
G01 Z1.0000 F9000.00 
G01 X-11.8110 Y107.3198 F3000.00 
G01 X-13.1657 Y106.4619 
G01 X-11.8110 Y105.6039 
G01 X-10.4563 Y106.4619 
G00 X-11.2691 Y108.8587 
G01 Z1.0000 F9000.00 
G01 X-11.3143 Y108.8587 F3000.00 
G00 X-12.0819 Y109.0845 
G01 Z1.0000 F9000.00 
G03 X-12.2626 Y108.9038 I0.0000 J-0.1806 
G00 X-12.2626 Y108.9038 
G01 Z1.0000 F9000.00 
G03 X-12.2174 Y108.6781 I0.5871 J0.0000 
G00 X-11.9465 Y109.0393 
G01 Z1.0000 F9000.00 
G03 X-12.0819 Y109.0845 I-0.1355 J-0.1806 
G00 X-11.8562 Y108.9490 
G01 Z1.0000 F9000.00 
G03 X-11.9465 Y109.0393 I-0.3613 J-0.2710 
G01 Z1.0000 F9000.00 
G03 X-11.7207 Y108.8587 I0.1957 J0.1468 
G00 X-11.7207 Y108.8587 
G01 Z1.0000 F9000.00 
G01 X-11.6304 Y108.8587 F3000.00 
G00 X-10.4563 Y108.8587 
G01 Z1.0000 F9000.00 
G01 X-11.8110 Y109.7166 F3000.00 
G01 X-13.1657 Y108.8587 
G01 X-11.8110 Y108.0007 
G01 X-10.4563 Y108.8587 
G00 X-11.2691 Y111.2555 
G01 Z1.0000 F9000.00 
G01 X-11.3143 Y111.2555 F3000.00 
G00 X-12.0819 Y111.4813 
G01 Z1.0000 F9000.00 
G03 X-12.2626 Y111.3006 I0.0000 J-0.1806 
G00 X-12.2626 Y111.3006 
G01 Z1.0000 F9000.00 
G03 X-12.2174 Y111.0749 I0.5871 J0.0000 
G00 X-11.9465 Y111.4361 
G01 Z1.0000 F9000.00 
G03 X-12.0819 Y111.4813 I-0.1355 J-0.1806 
G00 X-11.8562 Y111.3458 
G01 Z1.0000 F9000.00 
G03 X-11.9465 Y111.4361 I-0.3613 J-0.2710 
G01 Z1.0000 F9000.00 
G03 X-11.7207 Y111.2555 I0.1957 J0.1468 
G00 X-11.7207 Y111.2555 
G01 Z1.0000 F9000.00 
G01 X-11.6304 Y111.2555 F3000.00 
G00 X-10.4563 Y111.2555 
G01 Z1.0000 F9000.00 
G01 X-11.8110 Y112.1134 F3000.00 
G01 X-13.1657 Y111.2555 
G01 X-11.8110 Y110.3975 
G01 X-10.4563 Y111.2555 
G00 X-11.2691 Y113.6523 
G01 Z1.0000 F9000.00 
G01 X-11.3143 Y113.6523 F3000.00 
G00 X-12.0819 Y113.8780 
G01 Z1.0000 F9000.00 
G03 X-12.2626 Y113.6974 I0.0000 J-0.1806 
G00 X-12.2626 Y113.6974 
G01 Z1.0000 F9000.00 
G03 X-12.2174 Y113.4716 I0.5871 J0.0000 
G00 X-11.9465 Y113.8329 
G01 Z1.0000 F9000.00 
G03 X-12.0819 Y113.8780 I-0.1355 J-0.1806 
G00 X-11.8562 Y113.7426 
G01 Z1.0000 F9000.00 
G03 X-11.9465 Y113.8329 I-0.3613 J-0.2710 
G01 Z1.0000 F9000.00 
G03 X-11.7207 Y113.6523 I0.1957 J0.1468 
G00 X-11.7207 Y113.6523 
G01 Z1.0000 F9000.00 
G01 X-11.6304 Y113.6523 F3000.00 
G00 X-10.4563 Y113.6523 
G01 Z1.0000 F9000.00 
G01 X-11.8110 Y114.5102 F3000.00 
G01 X-13.1657 Y113.6523 
G01 X-11.8110 Y112.7943 
G01 X-10.4563 Y113.6523 
G00 X-11.2691 Y116.0491 
G01 Z1.0000 F9000.00 
G01 X-11.3143 Y116.0491 F3000.00 
G00 X-12.0819 Y116.2748 
G01 Z1.0000 F9000.00 
G03 X-12.2626 Y116.0942 I0.0000 J-0.1806 
G00 X-12.2626 Y116.0942 
G01 Z1.0000 F9000.00 
G03 X-12.2174 Y115.8684 I0.5871 J0.0000 
G00 X-11.9465 Y116.2297 
G01 Z1.0000 F9000.00 
G03 X-12.0819 Y116.2748 I-0.1355 J-0.1806 
G00 X-11.8562 Y116.1394 
G01 Z1.0000 F9000.00 
G03 X-11.9465 Y116.2297 I-0.3613 J-0.2710 
G01 Z1.0000 F9000.00 
G03 X-11.7207 Y116.0491 I0.1957 J0.1468 
G00 X-11.7207 Y116.0491 
G01 Z1.0000 F9000.00 
G01 X-11.6304 Y116.0491 F3000.00 
G00 X-10.4563 Y116.0491 
G01 Z1.0000 F9000.00 
G01 X-11.8110 Y116.9070 F3000.00 
G01 X-13.1657 Y116.0491 
G01 X-11.8110 Y115.1911 
G01 X-10.4563 Y116.0491 
G00 X-11.2691 Y118.4458 
G01 Z1.0000 F9000.00 
G01 X-11.3143 Y118.4458 F3000.00 
G00 X-12.0819 Y118.6716 
G01 Z1.0000 F9000.00 
G03 X-12.2626 Y118.4910 I0.0000 J-0.1806 
G00 X-12.2626 Y118.4910 
G01 Z1.0000 F9000.00 
G03 X-12.2174 Y118.2652 I0.5871 J0.0000 
G00 X-11.9465 Y118.6265 
G01 Z1.0000 F9000.00 
G03 X-12.0819 Y118.6716 I-0.1355 J-0.1806 
G00 X-11.8562 Y118.5362 
G01 Z1.0000 F9000.00 
G03 X-11.9465 Y118.6265 I-0.3613 J-0.2710 
G01 Z1.0000 F9000.00 
G03 X-11.7207 Y118.4458 I0.1957 J0.1468 
G00 X-11.7207 Y118.4458 
G01 Z1.0000 F9000.00 
G01 X-11.6304 Y118.4458 F3000.00 
G00 X-10.4563 Y118.4458 
G01 Z1.0000 F9000.00 
G01 X-11.8110 Y119.3038 F3000.00 
G01 X-13.1657 Y118.4458 
G01 X-11.8110 Y117.5879 
G01 X-10.4563 Y118.4458 
G00 X-6.1891 Y90.9355 
G01 Z1.0000 F9000.00 
G01 X-6.2343 Y90.9355 F3000.00 
G00 X-7.0019 Y91.1613 
G01 Z1.0000 F9000.00 
G03 X-7.1826 Y90.9806 I0.0000 J-0.1806 
G00 X-7.1826 Y90.9806 
G01 Z1.0000 F9000.00 
G03 X-7.1374 Y90.7549 I0.5871 J0.0000 
G00 X-6.8665 Y91.1161 
G01 Z1.0000 F9000.00 
G03 X-7.0019 Y91.1613 I-0.1355 J-0.1806 
G00 X-6.7762 Y91.0258 
G01 Z1.0000 F9000.00 
G03 X-6.8665 Y91.1161 I-0.3613 J-0.2710 
G01 Z1.0000 F9000.00 
G03 X-6.6407 Y90.9355 I0.1957 J0.1468 
G00 X-6.6407 Y90.9355 
G01 Z1.0000 F9000.00 
G01 X-6.5504 Y90.9355 F3000.00 
G00 X-5.3763 Y90.9355 
G01 Z1.0000 F9000.00 
G01 X-6.7310 Y91.7934 F3000.00 
G01 X-8.0857 Y90.9355 
G01 X-6.7310 Y90.0775 
G01 X-5.3763 Y90.9355 
G00 X-6.1891 Y93.3323 
G01 Z1.0000 F9000.00 
G01 X-6.2343 Y93.3323 F3000.00 
G00 X-7.0019 Y93.5580 
G01 Z1.0000 F9000.00 
G03 X-7.1826 Y93.3774 I0.0000 J-0.1806 
G00 X-7.1826 Y93.3774 
G01 Z1.0000 F9000.00 
G03 X-7.1374 Y93.1516 I0.5871 J0.0000 
G00 X-6.8665 Y93.5129 
G01 Z1.0000 F9000.00 
G03 X-7.0019 Y93.5580 I-0.1355 J-0.1806 
G00 X-6.7762 Y93.4226 
G01 Z1.0000 F9000.00 
G03 X-6.8665 Y93.5129 I-0.3613 J-0.2710 
G01 Z1.0000 F9000.00 
G03 X-6.6407 Y93.3323 I0.1957 J0.1468 
G00 X-6.6407 Y93.3323 
G01 Z1.0000 F9000.00 
G01 X-6.5504 Y93.3323 F3000.00 
G00 X-5.3763 Y93.3323 
G01 Z1.0000 F9000.00 
G01 X-6.7310 Y94.1902 F3000.00 
G01 X-8.0857 Y93.3323 
G01 X-6.7310 Y92.4743 
G01 X-5.3763 Y93.3323 
G00 X-6.1891 Y95.7291 
G01 Z1.0000 F9000.00 
G01 X-6.2343 Y95.7291 F3000.00 
G00 X-7.0019 Y95.9548 
G01 Z1.0000 F9000.00 
G03 X-7.1826 Y95.7742 I0.0000 J-0.1806 
G00 X-7.1826 Y95.7742 
G01 Z1.0000 F9000.00 
G03 X-7.1374 Y95.5484 I0.5871 J0.0000 
G00 X-6.8665 Y95.9097 
G01 Z1.0000 F9000.00 
G03 X-7.0019 Y95.9548 I-0.1355 J-0.1806 
G00 X-6.7762 Y95.8194 
G01 Z1.0000 F9000.00 
G03 X-6.8665 Y95.9097 I-0.3613 J-0.2710 
G01 Z1.0000 F9000.00 
G03 X-6.6407 Y95.7291 I0.1957 J0.1468 
G00 X-6.6407 Y95.7291 
G01 Z1.0000 F9000.00 
G01 X-6.5504 Y95.7291 F3000.00 
G00 X-5.3763 Y95.7291 
G01 Z1.0000 F9000.00 
G01 X-6.7310 Y96.5870 F3000.00 
G01 X-8.0857 Y95.7291 
G01 X-6.7310 Y94.8711 
G01 X-5.3763 Y95.7291 
G00 X-6.1891 Y98.1258 
G01 Z1.0000 F9000.00 
G01 X-6.2343 Y98.1258 F3000.00 
G00 X-7.0019 Y98.3516 
G01 Z1.0000 F9000.00 
G03 X-7.1826 Y98.1710 I0.0000 J-0.1806 
G00 X-7.1826 Y98.1710 
G01 Z1.0000 F9000.00 
G03 X-7.1374 Y97.9452 I0.5871 J0.0000 
G00 X-6.8665 Y98.3065 
G01 Z1.0000 F9000.00 
G03 X-7.0019 Y98.3516 I-0.1355 J-0.1806 
G00 X-6.7762 Y98.2162 
G01 Z1.0000 F9000.00 
G03 X-6.8665 Y98.3065 I-0.3613 J-0.2710 
G01 Z1.0000 F9000.00 
G03 X-6.6407 Y98.1258 I0.1957 J0.1468 
G00 X-6.6407 Y98.1258 
G01 Z1.0000 F9000.00 
G01 X-6.5504 Y98.1258 F3000.00 
G00 X-5.3763 Y98.1258 
G01 Z1.0000 F9000.00 
G01 X-6.7310 Y98.9838 F3000.00 
G01 X-8.0857 Y98.1258 
G01 X-6.7310 Y97.2679 
G01 X-5.3763 Y98.1258 
G00 X-8.7291 Y90.9355 
G01 Z1.0000 F9000.00 
G01 X-8.7743 Y90.9355 F3000.00 
G00 X-9.5419 Y91.1613 
G01 Z1.0000 F9000.00 
G03 X-9.7226 Y90.9806 I0.0000 J-0.1806 
G00 X-9.7226 Y90.9806 
G01 Z1.0000 F9000.00 
G03 X-9.6774 Y90.7549 I0.5871 J0.0000 
G00 X-9.4065 Y91.1161 
G01 Z1.0000 F9000.00 
G03 X-9.5419 Y91.1613 I-0.1355 J-0.1806 
G00 X-9.3162 Y91.0258 
G01 Z1.0000 F9000.00 
G03 X-9.4065 Y91.1161 I-0.3613 J-0.2710 
G01 Z1.0000 F9000.00 
G03 X-9.1807 Y90.9355 I0.1957 J0.1468 
G00 X-9.1807 Y90.9355 
G01 Z1.0000 F9000.00 
G01 X-9.0904 Y90.9355 F3000.00 
G00 X-7.9163 Y90.9355 
G01 Z1.0000 F9000.00 
G01 X-9.2710 Y91.7934 F3000.00 
G01 X-10.6257 Y90.9355 
G01 X-9.2710 Y90.0775 
G01 X-7.9163 Y90.9355 
G00 X-8.7291 Y93.3323 
G01 Z1.0000 F9000.00 
G01 X-8.7743 Y93.3323 F3000.00 
G00 X-9.5419 Y93.5580 
G01 Z1.0000 F9000.00 
G03 X-9.7226 Y93.3774 I0.0000 J-0.1806 
G00 X-9.7226 Y93.3774 
G01 Z1.0000 F9000.00 
G03 X-9.6774 Y93.1516 I0.5871 J0.0000 
G00 X-9.4065 Y93.5129 
G01 Z1.0000 F9000.00 
G03 X-9.5419 Y93.5580 I-0.1355 J-0.1806 
G00 X-9.3162 Y93.4226 
G01 Z1.0000 F9000.00 
G03 X-9.4065 Y93.5129 I-0.3613 J-0.2710 
G01 Z1.0000 F9000.00 
G03 X-9.1807 Y93.3323 I0.1957 J0.1468 
G00 X-9.1807 Y93.3323 
G01 Z1.0000 F9000.00 
G01 X-9.0904 Y93.3323 F3000.00 
G00 X-7.9163 Y93.3323 
G01 Z1.0000 F9000.00 
G01 X-9.2710 Y94.1902 F3000.00 
G01 X-10.6257 Y93.3323 
G01 X-9.2710 Y92.4743 
G01 X-7.9163 Y93.3323 
G00 X-8.7291 Y95.7291 
G01 Z1.0000 F9000.00 
G01 X-8.7743 Y95.7291 F3000.00 
G00 X-9.5419 Y95.9548 
G01 Z1.0000 F9000.00 
G03 X-9.7226 Y95.7742 I0.0000 J-0.1806 
G00 X-9.7226 Y95.7742 
G01 Z1.0000 F9000.00 
G03 X-9.6774 Y95.5484 I0.5871 J0.0000 
G00 X-9.4065 Y95.9097 
G01 Z1.0000 F9000.00 
G03 X-9.5419 Y95.9548 I-0.1355 J-0.1806 
G00 X-9.3162 Y95.8194 
G01 Z1.0000 F9000.00 
G03 X-9.4065 Y95.9097 I-0.3613 J-0.2710 
G01 Z1.0000 F9000.00 
G03 X-9.1807 Y95.7291 I0.1957 J0.1468 
G00 X-9.1807 Y95.7291 
G01 Z1.0000 F9000.00 
G01 X-9.0904 Y95.7291 F3000.00 
G00 X-7.9163 Y95.7291 
G01 Z1.0000 F9000.00 
G01 X-9.2710 Y96.5870 F3000.00 
G01 X-10.6257 Y95.7291 
G01 X-9.2710 Y94.8711 
G01 X-7.9163 Y95.7291 
G00 X-8.7291 Y98.1258 
G01 Z1.0000 F9000.00 
G01 X-8.7743 Y98.1258 F3000.00 
G00 X-9.5419 Y98.3516 
G01 Z1.0000 F9000.00 
G03 X-9.7226 Y98.1710 I0.0000 J-0.1806 
G00 X-9.7226 Y98.1710 
G01 Z1.0000 F9000.00 
G03 X-9.6774 Y97.9452 I0.5871 J0.0000 
G00 X-9.4065 Y98.3065 
G01 Z1.0000 F9000.00 
G03 X-9.5419 Y98.3516 I-0.1355 J-0.1806 
G00 X-9.3162 Y98.2162 
G01 Z1.0000 F9000.00 
G03 X-9.4065 Y98.3065 I-0.3613 J-0.2710 
G01 Z1.0000 F9000.00 
G03 X-9.1807 Y98.1258 I0.1957 J0.1468 
G00 X-9.1807 Y98.1258 
G01 Z1.0000 F9000.00 
G01 X-9.0904 Y98.1258 F3000.00 
G00 X-7.9163 Y98.1258 
G01 Z1.0000 F9000.00 
G01 X-9.2710 Y98.9838 F3000.00 
G01 X-10.6257 Y98.1258 
G01 X-9.2710 Y97.2679 
G01 X-7.9163 Y98.1258 
G00 X-11.2691 Y90.9355 
G01 Z1.0000 F9000.00 
G01 X-11.3143 Y90.9355 F3000.00 
G00 X-12.0819 Y91.1613 
G01 Z1.0000 F9000.00 
G03 X-12.2626 Y90.9806 I0.0000 J-0.1806 
G00 X-12.2626 Y90.9806 
G01 Z1.0000 F9000.00 
G03 X-12.2174 Y90.7549 I0.5871 J0.0000 
G00 X-11.9465 Y91.1161 
G01 Z1.0000 F9000.00 
G03 X-12.0819 Y91.1613 I-0.1355 J-0.1806 
G00 X-11.8562 Y91.0258 
G01 Z1.0000 F9000.00 
G03 X-11.9465 Y91.1161 I-0.3613 J-0.2710 
G01 Z1.0000 F9000.00 
G03 X-11.7207 Y90.9355 I0.1957 J0.1468 
G00 X-11.7207 Y90.9355 
G01 Z1.0000 F9000.00 
G01 X-11.6304 Y90.9355 F3000.00 
G00 X-10.4563 Y90.9355 
G01 Z1.0000 F9000.00 
G01 X-11.8110 Y91.7934 F3000.00 
G01 X-13.1657 Y90.9355 
G01 X-11.8110 Y90.0775 
G01 X-10.4563 Y90.9355 
G00 X-11.2691 Y93.3323 
G01 Z1.0000 F9000.00 
G01 X-11.3143 Y93.3323 F3000.00 
G00 X-12.0819 Y93.5580 
G01 Z1.0000 F9000.00 
G03 X-12.2626 Y93.3774 I0.0000 J-0.1806 
G00 X-12.2626 Y93.3774 
G01 Z1.0000 F9000.00 
G03 X-12.2174 Y93.1516 I0.5871 J0.0000 
G00 X-11.9465 Y93.5129 
G01 Z1.0000 F9000.00 
G03 X-12.0819 Y93.5580 I-0.1355 J-0.1806 
G00 X-11.8562 Y93.4226 
G01 Z1.0000 F9000.00 
G03 X-11.9465 Y93.5129 I-0.3613 J-0.2710 
G01 Z1.0000 F9000.00 
G03 X-11.7207 Y93.3323 I0.1957 J0.1468 
G00 X-11.7207 Y93.3323 
G01 Z1.0000 F9000.00 
G01 X-11.6304 Y93.3323 F3000.00 
G00 X-10.4563 Y93.3323 
G01 Z1.0000 F9000.00 
G01 X-11.8110 Y94.1902 F3000.00 
G01 X-13.1657 Y93.3323 
G01 X-11.8110 Y92.4743 
G01 X-10.4563 Y93.3323 
G00 X-11.2691 Y95.7291 
G01 Z1.0000 F9000.00 
G01 X-11.3143 Y95.7291 F3000.00 
G00 X-12.0819 Y95.9548 
G01 Z1.0000 F9000.00 
G03 X-12.2626 Y95.7742 I0.0000 J-0.1806 
G00 X-12.2626 Y95.7742 
G01 Z1.0000 F9000.00 
G03 X-12.2174 Y95.5484 I0.5871 J0.0000 
G00 X-11.9465 Y95.9097 
G01 Z1.0000 F9000.00 
G03 X-12.0819 Y95.9548 I-0.1355 J-0.1806 
G00 X-11.8562 Y95.8194 
G01 Z1.0000 F9000.00 
G03 X-11.9465 Y95.9097 I-0.3613 J-0.2710 
G01 Z1.0000 F9000.00 
G03 X-11.7207 Y95.7291 I0.1957 J0.1468 
G00 X-11.7207 Y95.7291 
G01 Z1.0000 F9000.00 
G01 X-11.6304 Y95.7291 F3000.00 
G00 X-10.4563 Y95.7291 
G01 Z1.0000 F9000.00 
G01 X-11.8110 Y96.5870 F3000.00 
G01 X-13.1657 Y95.7291 
G01 X-11.8110 Y94.8711 
G01 X-10.4563 Y95.7291 
G00 X-11.2691 Y98.1258 
G01 Z1.0000 F9000.00 
G01 X-11.3143 Y98.1258 F3000.00 
G00 X-12.0819 Y98.3516 
G01 Z1.0000 F9000.00 
G03 X-12.2626 Y98.1710 I0.0000 J-0.1806 
G00 X-12.2626 Y98.1710 
G01 Z1.0000 F9000.00 
G03 X-12.2174 Y97.9452 I0.5871 J0.0000 
G00 X-11.9465 Y98.3065 
G01 Z1.0000 F9000.00 
G03 X-12.0819 Y98.3516 I-0.1355 J-0.1806 
G00 X-11.8562 Y98.2162 
G01 Z1.0000 F9000.00 
G03 X-11.9465 Y98.3065 I-0.3613 J-0.2710 
G01 Z1.0000 F9000.00 
G03 X-11.7207 Y98.1258 I0.1957 J0.1468 
G00 X-11.7207 Y98.1258 
G01 Z1.0000 F9000.00 
G01 X-11.6304 Y98.1258 F3000.00 
G00 X-10.4563 Y98.1258 
G01 Z1.0000 F9000.00 
G01 X-11.8110 Y98.9838 F3000.00 
G01 X-13.1657 Y98.1258 
G01 X-11.8110 Y97.2679 
G01 X-10.4563 Y98.1258 
G00 X-6.6858 Y117.1871 
G01 Z1.0000 F9000.00 
G01 X-6.6858 Y117.2323 F3000.00 
G00 X-6.4601 Y117.9999 
G01 Z1.0000 F9000.00 
G03 X-6.6407 Y118.1806 I-0.1806 J0.0000 
G00 X-6.6407 Y118.1806 
G01 Z1.0000 F9000.00 
G03 X-6.8665 Y118.1354 I0.0000 J-0.5871 
G00 X-6.5052 Y117.8645 
G01 Z1.0000 F9000.00 
G03 X-6.4601 Y117.9999 I-0.1806 J0.1355 
G00 X-6.5955 Y117.7742 
G01 Z1.0000 F9000.00 
G03 X-6.5052 Y117.8645 I-0.2710 J0.3613 
G01 Z1.0000 F9000.00 
G03 X-6.6858 Y117.6387 I0.1468 J-0.1957 
G00 X-6.6858 Y117.6387 
G01 Z1.0000 F9000.00 
G01 X-6.6858 Y117.5484 F3000.00 
G00 X-6.6858 Y116.3743 
G01 Z1.0000 F9000.00 
G01 X-5.8279 Y117.7290 F3000.00 
G01 X-6.6858 Y119.0837 
G01 X-7.5438 Y117.7290 
G01 X-6.6858 Y116.3743 
G00 X-4.2891 Y117.1871 
G01 Z1.0000 F9000.00 
G01 X-4.2891 Y117.2323 F3000.00 
G00 X-4.0633 Y117.9999 
G01 Z1.0000 F9000.00 
G03 X-4.2439 Y118.1806 I-0.1806 J0.0000 
G00 X-4.2439 Y118.1806 
G01 Z1.0000 F9000.00 
G03 X-4.4697 Y118.1354 I0.0000 J-0.5871 
G00 X-4.1084 Y117.8645 
G01 Z1.0000 F9000.00 
G03 X-4.0633 Y117.9999 I-0.1806 J0.1355 
G00 X-4.1987 Y117.7742 
G01 Z1.0000 F9000.00 
G03 X-4.1084 Y117.8645 I-0.2710 J0.3613 
G01 Z1.0000 F9000.00 
G03 X-4.2891 Y117.6387 I0.1468 J-0.1957 
G00 X-4.2891 Y117.6387 
G01 Z1.0000 F9000.00 
G01 X-4.2891 Y117.5484 F3000.00 
G00 X-4.2891 Y116.3743 
G01 Z1.0000 F9000.00 
G01 X-3.4311 Y117.7290 F3000.00 
G01 X-4.2891 Y119.0837 
G01 X-5.1470 Y117.7290 
G01 X-4.2891 Y116.3743 
G00 X-1.8923 Y117.1871 
G01 Z1.0000 F9000.00 
G01 X-1.8923 Y117.2323 F3000.00 
G00 X-1.6665 Y117.9999 
G01 Z1.0000 F9000.00 
G03 X-1.8471 Y118.1806 I-0.1806 J0.0000 
G00 X-1.8471 Y118.1806 
G01 Z1.0000 F9000.00 
G03 X-2.0729 Y118.1354 I0.0000 J-0.5871 
G00 X-1.7116 Y117.8645 
G01 Z1.0000 F9000.00 
G03 X-1.6665 Y117.9999 I-0.1806 J0.1355 
G00 X-1.8020 Y117.7742 
G01 Z1.0000 F9000.00 
G03 X-1.7116 Y117.8645 I-0.2710 J0.3613 
G01 Z1.0000 F9000.00 
G03 X-1.8923 Y117.6387 I0.1468 J-0.1957 
G00 X-1.8923 Y117.6387 
G01 Z1.0000 F9000.00 
G01 X-1.8923 Y117.5484 F3000.00 
G00 X-1.8923 Y116.3743 
G01 Z1.0000 F9000.00 
G01 X-1.0343 Y117.7290 F3000.00 
G01 X-1.8923 Y119.0837 
G01 X-2.7502 Y117.7290 
G01 X-1.8923 Y116.3743 
G00 X0.5045 Y117.1871 
G01 Z1.0000 F9000.00 
G01 X0.5045 Y117.2323 F3000.00 
G00 X0.7303 Y117.9999 
G01 Z1.0000 F9000.00 
G03 X0.5497 Y118.1806 I-0.1806 J0.0000 
G00 X0.5497 Y118.1806 
G01 Z1.0000 F9000.00 
G03 X0.3239 Y118.1354 I0.0000 J-0.5871 
G00 X0.6851 Y117.8645 
G01 Z1.0000 F9000.00 
G03 X0.7303 Y117.9999 I-0.1806 J0.1355 
G00 X0.5948 Y117.7742 
G01 Z1.0000 F9000.00 
G03 X0.6851 Y117.8645 I-0.2710 J0.3613 
G01 Z1.0000 F9000.00 
G03 X0.5045 Y117.6387 I0.1468 J-0.1957 
G00 X0.5045 Y117.6387 
G01 Z1.0000 F9000.00 
G01 X0.5045 Y117.5484 F3000.00 
G00 X0.5045 Y116.3743 
G01 Z1.0000 F9000.00 
G01 X1.3625 Y117.7290 F3000.00 
G01 X0.5045 Y119.0837 
G01 X-0.3534 Y117.7290 
G01 X0.5045 Y116.3743 
G00 X-6.6858 Y91.7871 
G01 Z1.0000 F9000.00 
G01 X-6.6858 Y91.8323 F3000.00 
G00 X-6.4601 Y92.5999 
G01 Z1.0000 F9000.00 
G03 X-6.6407 Y92.7806 I-0.1806 J0.0000 
G00 X-6.6407 Y92.7806 
G01 Z1.0000 F9000.00 
G03 X-6.8665 Y92.7354 I0.0000 J-0.5871 
G00 X-6.5052 Y92.4645 
G01 Z1.0000 F9000.00 
G03 X-6.4601 Y92.5999 I-0.1806 J0.1355 
G00 X-6.5955 Y92.3742 
G01 Z1.0000 F9000.00 
G03 X-6.5052 Y92.4645 I-0.2710 J0.3613 
G01 Z1.0000 F9000.00 
G03 X-6.6858 Y92.2387 I0.1468 J-0.1957 
G00 X-6.6858 Y92.2387 
G01 Z1.0000 F9000.00 
G01 X-6.6858 Y92.1484 F3000.00 
G00 X-6.6858 Y90.9743 
G01 Z1.0000 F9000.00 
G01 X-5.8279 Y92.3290 F3000.00 
G01 X-6.6858 Y93.6837 
G01 X-7.5438 Y92.3290 
G01 X-6.6858 Y90.9743 
G00 X-4.2891 Y91.7871 
G01 Z1.0000 F9000.00 
G01 X-4.2891 Y91.8323 F3000.00 
G00 X-4.0633 Y92.5999 
G01 Z1.0000 F9000.00 
G03 X-4.2439 Y92.7806 I-0.1806 J0.0000 
G00 X-4.2439 Y92.7806 
G01 Z1.0000 F9000.00 
G03 X-4.4697 Y92.7354 I0.0000 J-0.5871 
G00 X-4.1084 Y92.4645 
G01 Z1.0000 F9000.00 
G03 X-4.0633 Y92.5999 I-0.1806 J0.1355 
G00 X-4.1987 Y92.3742 
G01 Z1.0000 F9000.00 
G03 X-4.1084 Y92.4645 I-0.2710 J0.3613 
G01 Z1.0000 F9000.00 
G03 X-4.2891 Y92.2387 I0.1468 J-0.1957 
G00 X-4.2891 Y92.2387 
G01 Z1.0000 F9000.00 
G01 X-4.2891 Y92.1484 F3000.00 
G00 X-4.2891 Y90.9743 
G01 Z1.0000 F9000.00 
G01 X-3.4311 Y92.3290 F3000.00 
G01 X-4.2891 Y93.6837 
G01 X-5.1470 Y92.3290 
G01 X-4.2891 Y90.9743 
G00 X-1.8923 Y91.7871 
G01 Z1.0000 F9000.00 
G01 X-1.8923 Y91.8323 F3000.00 
G00 X-1.6665 Y92.5999 
G01 Z1.0000 F9000.00 
G03 X-1.8471 Y92.7806 I-0.1806 J0.0000 
G00 X-1.8471 Y92.7806 
G01 Z1.0000 F9000.00 
G03 X-2.0729 Y92.7354 I0.0000 J-0.5871 
G00 X-1.7116 Y92.4645 
G01 Z1.0000 F9000.00 
G03 X-1.6665 Y92.5999 I-0.1806 J0.1355 
G00 X-1.8020 Y92.3742 
G01 Z1.0000 F9000.00 
G03 X-1.7116 Y92.4645 I-0.2710 J0.3613 
G01 Z1.0000 F9000.00 
G03 X-1.8923 Y92.2387 I0.1468 J-0.1957 
G00 X-1.8923 Y92.2387 
G01 Z1.0000 F9000.00 
G01 X-1.8923 Y92.1484 F3000.00 
G00 X-1.8923 Y90.9743 
G01 Z1.0000 F9000.00 
G01 X-1.0343 Y92.3290 F3000.00 
G01 X-1.8923 Y93.6837 
G01 X-2.7502 Y92.3290 
G01 X-1.8923 Y90.9743 
G00 X0.5045 Y91.7871 
G01 Z1.0000 F9000.00 
G01 X0.5045 Y91.8323 F3000.00 
G00 X0.7303 Y92.5999 
G01 Z1.0000 F9000.00 
G03 X0.5497 Y92.7806 I-0.1806 J0.0000 
G00 X0.5497 Y92.7806 
G01 Z1.0000 F9000.00 
G03 X0.3239 Y92.7354 I0.0000 J-0.5871 
G00 X0.6851 Y92.4645 
G01 Z1.0000 F9000.00 
G03 X0.7303 Y92.5999 I-0.1806 J0.1355 
G00 X0.5948 Y92.3742 
G01 Z1.0000 F9000.00 
G03 X0.6851 Y92.4645 I-0.2710 J0.3613 
G01 Z1.0000 F9000.00 
G03 X0.5045 Y92.2387 I0.1468 J-0.1957 
G00 X0.5045 Y92.2387 
G01 Z1.0000 F9000.00 
G01 X0.5045 Y92.1484 F3000.00 
G00 X0.5045 Y90.9743 
G01 Z1.0000 F9000.00 
G01 X1.3625 Y92.3290 F3000.00 
G01 X0.5045 Y93.6837 
G01 X-0.3534 Y92.3290 
G01 X0.5045 Y90.9743 
G00 X-12.4008 Y91.7871 
G01 Z1.0000 F9000.00 
G01 X-12.4008 Y91.8323 F3000.00 
G00 X-12.1751 Y92.5999 
G01 Z1.0000 F9000.00 
G03 X-12.3557 Y92.7806 I-0.1806 J0.0000 
G00 X-12.3557 Y92.7806 
G01 Z1.0000 F9000.00 
G03 X-12.5815 Y92.7354 I0.0000 J-0.5871 
G00 X-12.2202 Y92.4645 
G01 Z1.0000 F9000.00 
G03 X-12.1751 Y92.5999 I-0.1806 J0.1355 
G00 X-12.3105 Y92.3742 
G01 Z1.0000 F9000.00 
G03 X-12.2202 Y92.4645 I-0.2710 J0.3613 
G01 Z1.0000 F9000.00 
G03 X-12.4008 Y92.2387 I0.1468 J-0.1957 
G00 X-12.4008 Y92.2387 
G01 Z1.0000 F9000.00 
G01 X-12.4008 Y92.1484 F3000.00 
G00 X-12.4008 Y90.9743 
G01 Z1.0000 F9000.00 
G01 X-11.5429 Y92.3290 F3000.00 
G01 X-12.4008 Y93.6837 
G01 X-13.2588 Y92.3290 
G01 X-12.4008 Y90.9743 
G00 X-10.0041 Y91.7871 
G01 Z1.0000 F9000.00 
G01 X-10.0041 Y91.8323 F3000.00 
G00 X-9.7783 Y92.5999 
G01 Z1.0000 F9000.00 
G03 X-9.9589 Y92.7806 I-0.1806 J0.0000 
G00 X-9.9589 Y92.7806 
G01 Z1.0000 F9000.00 
G03 X-10.1847 Y92.7354 I0.0000 J-0.5871 
G00 X-9.8234 Y92.4645 
G01 Z1.0000 F9000.00 
G03 X-9.7783 Y92.5999 I-0.1806 J0.1355 
G00 X-9.9137 Y92.3742 
G01 Z1.0000 F9000.00 
G03 X-9.8234 Y92.4645 I-0.2710 J0.3613 
G01 Z1.0000 F9000.00 
G03 X-10.0041 Y92.2387 I0.1468 J-0.1957 
G00 X-10.0041 Y92.2387 
G01 Z1.0000 F9000.00 
G01 X-10.0041 Y92.1484 F3000.00 
G00 X-10.0041 Y90.9743 
G01 Z1.0000 F9000.00 
G01 X-9.1461 Y92.3290 F3000.00 
G01 X-10.0041 Y93.6837 
G01 X-10.8620 Y92.3290 
G01 X-10.0041 Y90.9743 
G00 X-7.6073 Y91.7871 
G01 Z1.0000 F9000.00 
G01 X-7.6073 Y91.8323 F3000.00 
G00 X-7.3815 Y92.5999 
G01 Z1.0000 F9000.00 
G03 X-7.5621 Y92.7806 I-0.1806 J0.0000 
G00 X-7.5621 Y92.7806 
G01 Z1.0000 F9000.00 
G03 X-7.7879 Y92.7354 I0.0000 J-0.5871 
G00 X-7.4266 Y92.4645 
G01 Z1.0000 F9000.00 
G03 X-7.3815 Y92.5999 I-0.1806 J0.1355 
G00 X-7.5170 Y92.3742 
G01 Z1.0000 F9000.00 
G03 X-7.4266 Y92.4645 I-0.2710 J0.3613 
G01 Z1.0000 F9000.00 
G03 X-7.6073 Y92.2387 I0.1468 J-0.1957 
G00 X-7.6073 Y92.2387 
G01 Z1.0000 F9000.00 
G01 X-7.6073 Y92.1484 F3000.00 
G00 X-7.6073 Y90.9743 
G01 Z1.0000 F9000.00 
G01 X-6.7493 Y92.3290 F3000.00 
G01 X-7.6073 Y93.6837 
G01 X-8.4652 Y92.3290 
G01 X-7.6073 Y90.9743 
G00 X-5.2105 Y91.7871 
G01 Z1.0000 F9000.00 
G01 X-5.2105 Y91.8323 F3000.00 
G00 X-4.9847 Y92.5999 
G01 Z1.0000 F9000.00 
G03 X-5.1653 Y92.7806 I-0.1806 J0.0000 
G00 X-5.1653 Y92.7806 
G01 Z1.0000 F9000.00 
G03 X-5.3911 Y92.7354 I0.0000 J-0.5871 
G00 X-5.0299 Y92.4645 
G01 Z1.0000 F9000.00 
G03 X-4.9847 Y92.5999 I-0.1806 J0.1355 
G00 X-5.1202 Y92.3742 
G01 Z1.0000 F9000.00 
G03 X-5.0299 Y92.4645 I-0.2710 J0.3613 
G01 Z1.0000 F9000.00 
G03 X-5.2105 Y92.2387 I0.1468 J-0.1957 
G00 X-5.2105 Y92.2387 
G01 Z1.0000 F9000.00 
G01 X-5.2105 Y92.1484 F3000.00 
G00 X-5.2105 Y90.9743 
G01 Z1.0000 F9000.00 
G01 X-4.3525 Y92.3290 F3000.00 
G01 X-5.2105 Y93.6837 
G01 X-6.0684 Y92.3290 
G01 X-5.2105 Y90.9743 
M05
M02
