(/home/lu/EAGLE/ulps/pcb-gcode.ulp)
(Copyright 2005 - 2012 by John Johnson)
(See readme.txt for licensing terms.)
(This file generated from the board:)
(.../midi_pad/midi_pad_laser_test.brd)
(Current profile is .../pcb-gcode-3_6_0_4/profiles/generic.pp  )
(This file generated 20.08.22 03:22)
(Settings from pcb-machine.h)
(  Tool Size)
(0.1778 )
(Z Axis Settings)
(  High     Up        Down     Drill)
(0.0000 	0.0000 	0.0000 	0.0000 )
(spindle on time = 3.0000)
(milling depth = 0.0000)
(text depth = 0.0000)
(tool change at 12.7000 15.2400 25.4000 )
(feed rate xy = F3000.00 )
(feed rate z  = F254000.00 )
(Settings from pcb-defaults.h)
(isolate min = 0.0254)
(isolate max = 0.5080)
(isolate step = 0.1270)
(Generated bottom outlines, )
(Unit of measure: mm)
(Metric Mode)
G21
(Absolute Coordinates)
G90
G00 X0.0000 Y0.0000 
M03
G04 P3.000000
G00 Z0.0000 
G00 X-46.3748 Y42.2593 
G01 Z0.0000 F254000.00 
G01 X-46.2599 Y42.3475 F3000.00 
G01 X-46.1575 Y42.4499 
G01 X-46.0693 Y42.5648 
G01 X-46.0148 Y42.6593 
G01 X-46.0438 Y42.6593 
G01 X-46.0667 Y42.6142 
G01 X-46.1666 Y42.4768 
G01 X-46.2868 Y42.3566 
G01 X-46.4242 Y42.2567 
G01 X-46.4693 Y42.2338 
G01 X-46.4693 Y42.2048 
G01 X-46.3748 Y42.2593 
G00 X-41.2552 Y17.4307 
G01 Z0.0000 F254000.00 
G01 X-41.3701 Y17.3425 F3000.00 
G01 X-41.4725 Y17.2401 
G01 X-41.5607 Y17.1252 
G01 X-41.6152 Y17.0307 
G01 X-41.5862 Y17.0307 
G01 X-41.5633 Y17.0758 
G01 X-41.4634 Y17.2132 
G01 X-41.3432 Y17.3334 
G01 X-41.2058 Y17.4333 
G01 X-41.1607 Y17.4562 
G01 X-41.1607 Y17.4852 
G01 X-41.2552 Y17.4307 
G00 X-39.7193 Y17.1252 
G01 Z0.0000 F254000.00 
G01 X-39.8075 Y17.2401 F3000.00 
G01 X-39.9099 Y17.3425 
G01 X-40.0248 Y17.4307 
G01 X-40.1193 Y17.4852 
G01 X-40.1193 Y17.4562 
G01 X-40.0742 Y17.4333 
G01 X-39.9368 Y17.3334 
G01 X-39.8166 Y17.2132 
G01 X-39.7167 Y17.0758 
G01 X-39.6938 Y17.0307 
G01 X-39.6648 Y17.0307 
G01 X-39.7193 Y17.1252 
G00 X-12.7198 Y15.5893 
G01 Z0.0000 F254000.00 
G01 X-12.6049 Y15.6775 F3000.00 
G01 X-12.5025 Y15.7799 
G01 X-12.4143 Y15.8948 
G01 X-12.3598 Y15.9893 
G01 X-12.3888 Y15.9893 
G01 X-12.4117 Y15.9442 
G01 X-12.5116 Y15.8068 
G01 X-12.6318 Y15.6866 
G01 X-12.7692 Y15.5867 
G01 X-12.8143 Y15.5638 
G01 X-12.8143 Y15.5348 
G01 X-12.7198 Y15.5893 
G00 X-47.9107 Y15.2598 
G01 Z0.0000 F254000.00 
G01 X-47.8225 Y15.1449 F3000.00 
G01 X-47.7201 Y15.0425 
G01 X-47.6052 Y14.9543 
G01 X-47.5107 Y14.8998 
G01 X-47.5107 Y14.9288 
G01 X-47.5558 Y14.9517 
G01 X-47.6932 Y15.0516 
G01 X-47.8134 Y15.1718 
G01 X-47.9133 Y15.3092 
G01 X-47.9362 Y15.3543 
G01 X-47.9652 Y15.3543 
G01 X-47.9107 Y15.2598 
G00 X-48.2402 Y50.4507 
G01 Z0.0000 F254000.00 
G01 X-48.3551 Y50.3625 F3000.00 
G01 X-48.4575 Y50.2601 
G01 X-48.5457 Y50.1452 
G01 X-48.6002 Y50.0507 
G01 X-48.5712 Y50.0507 
G01 X-48.5483 Y50.0958 
G01 X-48.4484 Y50.2332 
G01 X-48.3282 Y50.3534 
G01 X-48.1908 Y50.4533 
G01 X-48.1457 Y50.4762 
G01 X-48.1457 Y50.5052 
G01 X-48.2402 Y50.4507 
G00 X-13.4042 Y51.0883 
G01 Z0.0000 F254000.00 
G01 X-13.2668 Y50.9884 F3000.00 
G01 X-13.1466 Y50.8682 
G01 X-13.0467 Y50.7308 
G01 X-13.0238 Y50.6857 
G01 X-12.9948 Y50.6857 
G01 X-13.0493 Y50.7802 
G01 X-13.1375 Y50.8951 
G01 X-13.2399 Y50.9975 
G01 X-13.3548 Y51.0857 
G01 X-13.4493 Y51.1402 
G01 X-13.4493 Y51.1112 
G01 X-13.4042 Y51.0883 
G00 X-29.2193 Y35.8952 
G01 Z0.0000 F254000.00 
G01 X-29.3075 Y36.0101 F3000.00 
G01 X-29.4099 Y36.1125 
G01 X-29.5248 Y36.2007 
G01 X-29.6193 Y36.2552 
G01 X-29.6193 Y36.2262 
G01 X-29.5742 Y36.2033 
G01 X-29.4368 Y36.1034 
G01 X-29.3166 Y35.9832 
G01 X-29.2167 Y35.8458 
G01 X-29.1938 Y35.8007 
G01 X-29.1648 Y35.8007 
G01 X-29.2193 Y35.8952 
G00 X-30.9725 Y36.0101 
G01 Z0.0000 F254000.00 
G01 X-31.0607 Y35.8952 F3000.00 
G01 X-31.1152 Y35.8007 
G01 X-31.0862 Y35.8007 
G01 X-31.0633 Y35.8458 
G01 X-30.9634 Y35.9832 
G01 X-30.8432 Y36.1034 
G01 X-30.7058 Y36.2033 
G01 X-30.6607 Y36.2262 
G01 X-30.6607 Y36.2552 
G01 X-30.7552 Y36.2007 
G01 X-30.8701 Y36.1125 
G01 X-30.9725 Y36.0101 
G00 X-21.4107 Y48.7298 
G01 Z0.0000 F254000.00 
G01 X-21.3225 Y48.6149 F3000.00 
G01 X-21.2201 Y48.5125 
G01 X-21.1052 Y48.4243 
G01 X-21.0107 Y48.3698 
G01 X-21.0107 Y48.3988 
G01 X-21.0558 Y48.4217 
G01 X-21.1932 Y48.5216 
G01 X-21.3134 Y48.6418 
G01 X-21.4133 Y48.7792 
G01 X-21.4362 Y48.8243 
G01 X-21.4652 Y48.8243 
G01 X-21.4107 Y48.7298 
G00 X-46.4242 Y44.1033 
G01 Z0.0000 F254000.00 
G01 X-46.2868 Y44.0034 F3000.00 
G01 X-46.1666 Y43.8832 
G01 X-46.0667 Y43.7458 
G01 X-46.0438 Y43.7007 
G01 X-46.0148 Y43.7007 
G01 X-46.0693 Y43.7952 
G01 X-46.1575 Y43.9101 
G01 X-46.2599 Y44.0125 
G01 X-46.3748 Y44.1007 
G01 X-46.4693 Y44.1552 
G01 X-46.4693 Y44.1262 
G01 X-46.4242 Y44.1033 
G00 X-19.8748 Y48.4243 
G01 Z0.0000 F254000.00 
G01 X-19.7599 Y48.5125 F3000.00 
G01 X-19.6575 Y48.6149 
G01 X-19.5693 Y48.7298 
G01 X-19.5148 Y48.8243 
G01 X-19.5438 Y48.8243 
G01 X-19.5667 Y48.7792 
G01 X-19.6666 Y48.6418 
G01 X-19.7868 Y48.5216 
G01 X-19.9242 Y48.4217 
G01 X-19.9693 Y48.3988 
G01 X-19.9693 Y48.3698 
G01 X-19.8748 Y48.4243 
G00 X-14.8933 Y23.4258 
G01 Z0.0000 F254000.00 
G01 X-14.7934 Y23.5632 F3000.00 
G01 X-14.6732 Y23.6834 
G01 X-14.5358 Y23.7833 
G01 X-14.4907 Y23.8062 
G01 X-14.4907 Y23.8352 
G01 X-14.5852 Y23.7807 
G01 X-14.7001 Y23.6925 
G01 X-14.8025 Y23.5901 
G01 X-14.8907 Y23.4752 
G01 X-14.9452 Y23.3807 
G01 X-14.9162 Y23.3807 
G01 X-14.8933 Y23.4258 
G00 X-14.8907 Y22.2448 
G01 Z0.0000 F254000.00 
G01 X-14.8025 Y22.1299 F3000.00 
G01 X-14.7001 Y22.0275 
G01 X-14.5852 Y21.9393 
G01 X-14.4907 Y21.8848 
G01 X-14.4907 Y21.9138 
G01 X-14.5358 Y21.9367 
G01 X-14.6732 Y22.0366 
G01 X-14.7934 Y22.1568 
G01 X-14.8933 Y22.2942 
G01 X-14.9162 Y22.3393 
G01 X-14.9452 Y22.3393 
G01 X-14.8907 Y22.2448 
G00 X-27.0193 Y33.0952 
G01 Z0.0000 F254000.00 
G01 X-27.1075 Y33.2101 F3000.00 
G01 X-27.2099 Y33.3125 
G01 X-27.3248 Y33.4007 
G01 X-27.4193 Y33.4552 
G01 X-27.4193 Y33.4262 
G01 X-27.3742 Y33.4033 
G01 X-27.2368 Y33.3034 
G01 X-27.1166 Y33.1832 
G01 X-27.0167 Y33.0458 
G01 X-26.9938 Y33.0007 
G01 X-26.9648 Y33.0007 
G01 X-27.0193 Y33.0952 
G00 X-33.9433 Y34.0458 
G01 Z0.0000 F254000.00 
G01 X-33.8434 Y34.1832 F3000.00 
G01 X-33.7232 Y34.3034 
G01 X-33.5858 Y34.4033 
G01 X-33.5407 Y34.4262 
G01 X-33.5407 Y34.4552 
G01 X-33.6352 Y34.4007 
G01 X-33.7501 Y34.3125 
G01 X-33.8525 Y34.2101 
G01 X-33.9407 Y34.0952 
G01 X-33.9952 Y34.0007 
G01 X-33.9662 Y34.0007 
G01 X-33.9433 Y34.0458 
G00 X-33.9407 Y32.8648 
G01 Z0.0000 F254000.00 
G01 X-33.8525 Y32.7499 F3000.00 
G01 X-33.7501 Y32.6475 
G01 X-33.6352 Y32.5593 
G01 X-33.5407 Y32.5048 
G01 X-33.5407 Y32.5338 
G01 X-33.5858 Y32.5567 
G01 X-33.7232 Y32.6566 
G01 X-33.8434 Y32.7768 
G01 X-33.9433 Y32.9142 
G01 X-33.9662 Y32.9593 
G01 X-33.9952 Y32.9593 
G01 X-33.9407 Y32.8648 
G00 X-30.5948 Y29.5593 
G01 Z0.0000 F254000.00 
G01 X-30.4799 Y29.6475 F3000.00 
G01 X-30.3775 Y29.7499 
G01 X-30.2893 Y29.8648 
G01 X-30.2348 Y29.9593 
G01 X-30.2638 Y29.9593 
G01 X-30.2867 Y29.9142 
G01 X-30.3866 Y29.7768 
G01 X-30.5068 Y29.6566 
G01 X-30.6442 Y29.5567 
G01 X-30.6893 Y29.5338 
G01 X-30.6893 Y29.5048 
G01 X-30.5948 Y29.5593 
G00 X-31.7758 Y29.5567 
G01 Z0.0000 F254000.00 
G01 X-31.9132 Y29.6566 F3000.00 
G01 X-32.0334 Y29.7768 
G01 X-32.1333 Y29.9142 
G01 X-32.1562 Y29.9593 
G01 X-32.1852 Y29.9593 
G01 X-32.1307 Y29.8648 
G01 X-32.0425 Y29.7499 
G01 X-31.9401 Y29.6475 
G01 X-31.8252 Y29.5593 
G01 X-31.7307 Y29.5048 
G01 X-31.7307 Y29.5338 
G01 X-31.7758 Y29.5567 
G00 X-27.1075 Y31.7499 
G01 Z0.0000 F254000.00 
G01 X-27.0193 Y31.8648 F3000.00 
G01 X-26.9648 Y31.9593 
G01 X-26.9938 Y31.9593 
G01 X-27.0167 Y31.9142 
G01 X-27.1166 Y31.7768 
G01 X-27.2368 Y31.6566 
G01 X-27.3742 Y31.5567 
G01 X-27.4193 Y31.5338 
G01 X-27.4193 Y31.5048 
G01 X-27.3248 Y31.5593 
G01 X-27.2099 Y31.6475 
G01 X-27.1075 Y31.7499 
G00 X-36.0807 Y38.1686 
G01 Z0.0000 F254000.00 
G01 X-36.0452 Y38.3010 F3000.00 
G01 X-35.9767 Y38.4197 
G01 X-35.8797 Y38.5167 
G01 X-35.7610 Y38.5852 
G01 X-35.6286 Y38.6207 
G01 X-25.3314 Y38.6207 
G01 X-25.1990 Y38.5852 
G01 X-25.0803 Y38.5167 
G01 X-24.9833 Y38.4197 
G01 X-24.9148 Y38.3010 
G01 X-24.8793 Y38.1686 
G01 X-24.8793 Y27.8714 
G01 X-24.9148 Y27.7390 
G01 X-24.9833 Y27.6203 
G01 X-25.0803 Y27.5233 
G01 X-25.1990 Y27.4548 
G01 X-25.3314 Y27.4193 
G01 X-35.6286 Y27.4193 
G01 X-35.7610 Y27.4548 
G01 X-35.8797 Y27.5233 
G01 X-35.9767 Y27.6203 
G01 X-36.0452 Y27.7390 
G01 X-36.0807 Y27.8714 
G01 X-36.0807 Y28.0085 
G01 X-36.0807 Y38.1686 
G00 X-28.8483 Y20.1933 
G01 Z0.0000 F254000.00 
G01 X-28.8483 Y21.7467 F3000.00 
G01 X-28.8309 Y21.7887 
G01 X-28.7987 Y21.8209 
G01 X-28.7567 Y21.8383 
G01 X-27.2033 Y21.8383 
G01 X-27.1613 Y21.8209 
G01 X-27.1291 Y21.7887 
G01 X-27.1117 Y21.7467 
G01 X-27.1117 Y20.1933 
G01 X-27.1291 Y20.1513 
G01 X-27.1613 Y20.1191 
G01 X-27.2033 Y20.1017 
G01 X-28.7567 Y20.1017 
G01 X-28.7987 Y20.1191 
G01 X-28.8309 Y20.1513 
G01 X-28.8483 Y20.1933 
G00 X-31.3483 Y5.6933 
G01 Z0.0000 F254000.00 
G01 X-31.3483 Y7.2467 F3000.00 
G01 X-31.3309 Y7.2887 
G01 X-31.2987 Y7.3209 
G01 X-31.2567 Y7.3383 
G01 X-29.7033 Y7.3383 
G01 X-29.6613 Y7.3209 
G01 X-29.6291 Y7.2887 
G01 X-29.6117 Y7.2467 
G01 X-29.6117 Y5.6933 
G01 X-29.6291 Y5.6513 
G01 X-29.6613 Y5.6191 
G01 X-29.7033 Y5.6017 
G01 X-31.2567 Y5.6017 
G01 X-31.2987 Y5.6191 
G01 X-31.3309 Y5.6513 
G01 X-31.3483 Y5.6933 
G00 X-28.8483 Y5.6933 
G01 Z0.0000 F254000.00 
G01 X-28.8483 Y7.2467 F3000.00 
G01 X-28.8309 Y7.2887 
G01 X-28.7987 Y7.3209 
G01 X-28.7567 Y7.3383 
G01 X-27.2033 Y7.3383 
G01 X-27.1613 Y7.3209 
G01 X-27.1291 Y7.2887 
G01 X-27.1117 Y7.2467 
G01 X-27.1117 Y7.0903 
G01 X-14.2117 Y6.9798 
G01 X-14.1584 Y7.0532 
G01 X-14.0382 Y7.1734 
G01 X-13.9008 Y7.2733 
G01 X-13.7494 Y7.3504 
G01 X-13.5878 Y7.4029 
G01 X-13.4200 Y7.4295 
G01 X-13.2500 Y7.4295 
G01 X-13.0822 Y7.4029 
G01 X-12.9206 Y7.3504 
G01 X-12.7692 Y7.2733 
G01 X-12.6318 Y7.1734 
G01 X-12.5116 Y7.0532 
G01 X-12.4117 Y6.9158 
G01 X-12.3346 Y6.7644 
G01 X-12.2821 Y6.6028 
G01 X-12.2555 Y6.4350 
G01 X-12.2555 Y6.2650 
G01 X-12.2821 Y6.0972 
G01 X-12.3346 Y5.9356 
G01 X-12.4117 Y5.7842 
G01 X-12.5116 Y5.6468 
G01 X-12.6318 Y5.5266 
G01 X-12.7692 Y5.4267 
G01 X-12.9206 Y5.3496 
G01 X-13.0822 Y5.2971 
G01 X-13.2500 Y5.2705 
G01 X-13.4200 Y5.2705 
G01 X-13.5878 Y5.2971 
G01 X-13.7494 Y5.3496 
G01 X-13.9008 Y5.4267 
G01 X-14.0382 Y5.5266 
G01 X-14.1584 Y5.6468 
G01 X-14.2227 Y5.7353 
G01 X-27.1117 Y5.8457 
G01 X-27.1117 Y5.6933 
G01 X-27.1291 Y5.6513 
G01 X-27.1613 Y5.6191 
G01 X-27.2033 Y5.6017 
G01 X-28.7567 Y5.6017 
G01 X-28.7987 Y5.6191 
G01 X-28.8309 Y5.6513 
G01 X-28.8483 Y5.6933 
G00 X-51.1607 Y40.8423 
G01 Z0.0000 F254000.00 
G01 X-47.8993 Y40.8423 F3000.00 
G01 X-47.8573 Y40.8249 
G01 X-47.8251 Y40.7927 
G01 X-47.8077 Y40.7507 
G01 X-47.8077 Y37.4893 
G01 X-47.8251 Y37.4473 
G01 X-47.8573 Y37.4151 
G01 X-47.8993 Y37.3977 
G01 X-51.1607 Y37.3977 
G01 X-51.2027 Y37.4151 
G01 X-51.2349 Y37.4473 
G01 X-51.2523 Y37.4893 
G01 X-51.2523 Y40.7507 
G01 X-51.2349 Y40.7927 
G01 X-51.2027 Y40.8249 
G01 X-51.1607 Y40.8423 
G00 X-51.1607 Y28.6423 
G01 Z0.0000 F254000.00 
G01 X-47.8993 Y28.6423 F3000.00 
G01 X-47.8573 Y28.6249 
G01 X-47.8251 Y28.5927 
G01 X-47.8077 Y28.5507 
G01 X-47.8077 Y25.2893 
G01 X-47.8251 Y25.2473 
G01 X-47.8573 Y25.2151 
G01 X-47.8993 Y25.1977 
G01 X-51.1607 Y25.1977 
G01 X-51.2027 Y25.2151 
G01 X-51.2349 Y25.2473 
G01 X-51.2523 Y25.2893 
G01 X-51.2523 Y28.5507 
G01 X-51.2349 Y28.5927 
G01 X-51.2027 Y28.6249 
G01 X-51.1607 Y28.6423 
G00 X-17.6533 Y34.6517 
G01 Z0.0000 F254000.00 
G01 X-19.2067 Y34.6517 F3000.00 
G01 X-19.2487 Y34.6691 
G01 X-19.2809 Y34.7013 
G01 X-19.2983 Y34.7433 
G01 X-19.2983 Y36.2967 
G01 X-19.2809 Y36.3387 
G01 X-19.2487 Y36.3709 
G01 X-19.2067 Y36.3883 
G01 X-17.6533 Y36.3883 
G01 X-17.6113 Y36.3709 
G01 X-17.5791 Y36.3387 
G01 X-17.5617 Y36.2967 
G01 X-17.5617 Y34.7433 
G01 X-17.5791 Y34.7013 
G01 X-17.6113 Y34.6691 
G01 X-17.6533 Y34.6517 
G00 X-3.1533 Y32.1517 
G01 Z0.0000 F254000.00 
G01 X-4.7067 Y32.1517 F3000.00 
G01 X-4.7487 Y32.1691 
G01 X-4.7809 Y32.2013 
G01 X-4.7983 Y32.2433 
G01 X-4.7983 Y33.7967 
G01 X-4.7809 Y33.8387 
G01 X-4.7487 Y33.8709 
G01 X-4.7067 Y33.8883 
G01 X-3.1533 Y33.8883 
G01 X-3.1113 Y33.8709 
G01 X-3.0791 Y33.8387 
G01 X-3.0617 Y33.7967 
G01 X-3.0617 Y32.2433 
G01 X-3.0791 Y32.2013 
G01 X-3.1113 Y32.1691 
G01 X-3.1533 Y32.1517 
G00 X-22.6577 Y53.7007 
G01 Z0.0000 F254000.00 
G01 X-22.6577 Y50.4393 F3000.00 
G01 X-22.6751 Y50.3973 
G01 X-22.7073 Y50.3651 
G01 X-22.7493 Y50.3477 
G01 X-26.0107 Y50.3477 
G01 X-26.0527 Y50.3651 
G01 X-26.0849 Y50.3973 
G01 X-26.1023 Y50.4393 
G01 X-26.1023 Y53.7007 
G01 X-26.0849 Y53.7427 
G01 X-26.0527 Y53.7749 
G01 X-26.0107 Y53.7923 
G01 X-22.7493 Y53.7923 
G01 X-22.7073 Y53.7749 
G01 X-22.6751 Y53.7427 
G01 X-22.6577 Y53.7007 
G00 X-34.8577 Y53.7007 
G01 Z0.0000 F254000.00 
G01 X-34.8577 Y50.4393 F3000.00 
G01 X-34.8751 Y50.3973 
G01 X-34.9073 Y50.3651 
G01 X-34.9493 Y50.3477 
G01 X-38.2107 Y50.3477 
G01 X-38.2527 Y50.3651 
G01 X-38.2849 Y50.3973 
G01 X-38.3023 Y50.4393 
G01 X-38.3023 Y53.7007 
G01 X-38.2849 Y53.7427 
G01 X-38.2527 Y53.7749 
G01 X-38.2107 Y53.7923 
G01 X-34.9493 Y53.7923 
G01 X-34.9073 Y53.7749 
G01 X-34.8751 Y53.7427 
G01 X-34.8577 Y53.7007 
G00 X-13.4042 Y23.7833 
G01 Z0.0000 F254000.00 
G01 X-13.2668 Y23.6834 F3000.00 
G01 X-13.1466 Y23.5632 
G01 X-13.0467 Y23.4258 
G01 X-12.9696 Y23.2744 
G01 X-12.9171 Y23.1128 
G01 X-12.8905 Y22.9450 
G01 X-12.8905 Y22.7750 
G01 X-12.9171 Y22.6072 
G01 X-12.9696 Y22.4456 
G01 X-13.0467 Y22.2942 
G01 X-13.1466 Y22.1568 
G01 X-13.2668 Y22.0366 
G01 X-13.4042 Y21.9367 
G01 X-13.4493 Y21.9138 
G01 X-13.4493 Y20.2514 
G01 X-13.4848 Y20.1190 
G01 X-13.5533 Y20.0003 
G01 X-13.6503 Y19.9033 
G01 X-17.4603 Y16.0933 
G01 X-17.5790 Y16.0248 
G01 X-17.7114 Y15.9893 
G01 X-22.5321 Y15.9893 
G01 X-22.5663 Y15.9848 
G01 X-22.6004 Y15.9893 
G01 X-22.6348 Y15.9893 
G01 X-22.6639 Y15.9971 
G01 X-26.0961 Y15.9971 
G01 X-26.1252 Y15.9893 
G01 X-26.1596 Y15.9893 
G01 X-26.1937 Y15.9848 
G01 X-26.2279 Y15.9893 
G01 X-34.7321 Y15.9893 
G01 X-34.7663 Y15.9848 
G01 X-34.8004 Y15.9893 
G01 X-34.8348 Y15.9893 
G01 X-34.8639 Y15.9971 
G01 X-38.2961 Y15.9971 
G01 X-38.3252 Y15.9893 
G01 X-38.3596 Y15.9893 
G01 X-38.3937 Y15.9848 
G01 X-38.4279 Y15.9893 
G01 X-39.6938 Y15.9893 
G01 X-39.7167 Y15.9442 
G01 X-39.8166 Y15.8068 
G01 X-39.9368 Y15.6866 
G01 X-40.0742 Y15.5867 
G01 X-40.2256 Y15.5096 
G01 X-40.3872 Y15.4571 
G01 X-40.5550 Y15.4305 
G01 X-40.7250 Y15.4305 
G01 X-40.8928 Y15.4571 
G01 X-41.0544 Y15.5096 
G01 X-41.2058 Y15.5867 
G01 X-41.3432 Y15.6866 
G01 X-41.4634 Y15.8068 
G01 X-41.5633 Y15.9442 
G01 X-41.5862 Y15.9893 
G01 X-43.2486 Y15.9893 
G01 X-43.3810 Y16.0248 
G01 X-43.4997 Y16.0933 
G01 X-43.5967 Y16.1903 
G01 X-47.4067 Y20.0003 
G01 X-47.4752 Y20.1190 
G01 X-47.5107 Y20.2514 
G01 X-47.5107 Y25.0721 
G01 X-47.5152 Y25.1063 
G01 X-47.5107 Y25.1404 
G01 X-47.5107 Y25.1748 
G01 X-47.5029 Y25.2039 
G01 X-47.5029 Y28.6361 
G01 X-47.5107 Y28.6652 
G01 X-47.5107 Y28.6996 
G01 X-47.5152 Y28.7337 
G01 X-47.5107 Y28.7679 
G01 X-47.5107 Y37.2721 
G01 X-47.5152 Y37.3063 
G01 X-47.5107 Y37.3404 
G01 X-47.5107 Y37.3748 
G01 X-47.5029 Y37.4039 
G01 X-47.5029 Y40.8361 
G01 X-47.5107 Y40.8652 
G01 X-47.5107 Y40.8996 
G01 X-47.5152 Y40.9337 
G01 X-47.5107 Y40.9679 
G01 X-47.5107 Y42.2338 
G01 X-47.5558 Y42.2567 
G01 X-47.6932 Y42.3566 
G01 X-47.8134 Y42.4768 
G01 X-47.9133 Y42.6142 
G01 X-47.9904 Y42.7656 
G01 X-48.0429 Y42.9272 
G01 X-48.0695 Y43.0950 
G01 X-48.0695 Y43.2650 
G01 X-48.0429 Y43.4328 
G01 X-47.9904 Y43.5944 
G01 X-47.9133 Y43.7458 
G01 X-47.8134 Y43.8832 
G01 X-47.6932 Y44.0034 
G01 X-47.5558 Y44.1033 
G01 X-47.5107 Y44.1262 
G01 X-47.5107 Y45.7886 
G01 X-47.4752 Y45.9210 
G01 X-47.4067 Y46.0397 
G01 X-47.3097 Y46.1367 
G01 X-43.4997 Y49.9467 
G01 X-43.3810 Y50.0152 
G01 X-43.2486 Y50.0507 
G01 X-38.4278 Y50.0507 
G01 X-38.3937 Y50.0552 
G01 X-38.3596 Y50.0507 
G01 X-38.3252 Y50.0507 
G01 X-38.2961 Y50.0429 
G01 X-34.8639 Y50.0429 
G01 X-34.8348 Y50.0507 
G01 X-34.8004 Y50.0507 
G01 X-34.7663 Y50.0552 
G01 X-34.7321 Y50.0507 
G01 X-26.2279 Y50.0507 
G01 X-26.1937 Y50.0552 
G01 X-26.1596 Y50.0507 
G01 X-26.1252 Y50.0507 
G01 X-26.0961 Y50.0429 
G01 X-22.6639 Y50.0429 
G01 X-22.6348 Y50.0507 
G01 X-22.6004 Y50.0507 
G01 X-22.5663 Y50.0552 
G01 X-22.5321 Y50.0507 
G01 X-22.1394 Y50.0507 
G01 X-22.1052 Y50.0552 
G01 X-22.0711 Y50.0507 
G01 X-22.0367 Y50.0507 
G01 X-22.0035 Y50.0418 
G01 X-21.9693 Y50.0373 
G01 X-21.9375 Y50.0241 
G01 X-21.9043 Y50.0152 
G01 X-21.8745 Y49.9980 
G01 X-21.8427 Y49.9848 
G01 X-21.8154 Y49.9639 
G01 X-21.7855 Y49.9467 
G01 X-21.7612 Y49.9223 
G01 X-21.7339 Y49.9014 
G01 X-21.7129 Y49.8741 
G01 X-21.7046 Y49.8657 
G01 X-21.4362 Y49.8657 
G01 X-21.4133 Y49.9108 
G01 X-21.3134 Y50.0482 
G01 X-21.1932 Y50.1684 
G01 X-21.0558 Y50.2683 
G01 X-20.9044 Y50.3454 
G01 X-20.7428 Y50.3979 
G01 X-20.5750 Y50.4245 
G01 X-20.4050 Y50.4245 
G01 X-20.2372 Y50.3979 
G01 X-20.0756 Y50.3454 
G01 X-19.9242 Y50.2683 
G01 X-19.7868 Y50.1684 
G01 X-19.6666 Y50.0482 
G01 X-19.5667 Y49.9108 
G01 X-19.5438 Y49.8657 
G01 X-19.2754 Y49.8657 
G01 X-19.2671 Y49.8741 
G01 X-19.2461 Y49.9014 
G01 X-19.2188 Y49.9223 
G01 X-19.1944 Y49.9467 
G01 X-19.1646 Y49.9639 
G01 X-19.1373 Y49.9848 
G01 X-19.1055 Y49.9980 
G01 X-19.0757 Y50.0152 
G01 X-19.0425 Y50.0241 
G01 X-19.0107 Y50.0373 
G01 X-18.9765 Y50.0418 
G01 X-18.9433 Y50.0507 
G01 X-18.9089 Y50.0507 
G01 X-18.8748 Y50.0552 
G01 X-18.8406 Y50.0507 
G01 X-17.7114 Y50.0507 
G01 X-17.5790 Y50.0152 
G01 X-17.4603 Y49.9467 
G01 X-17.3633 Y49.8497 
G01 X-13.5533 Y46.0397 
G01 X-13.4848 Y45.9210 
G01 X-13.4493 Y45.7886 
G01 X-13.4493 Y45.6514 
G01 X-13.4848 Y45.5190 
G01 X-13.5533 Y45.4003 
G01 X-13.6503 Y45.3033 
G01 X-13.7690 Y45.2348 
G01 X-13.9014 Y45.1993 
G01 X-17.2136 Y45.1993 
G01 X-17.3460 Y45.2348 
G01 X-17.4647 Y45.3033 
G01 X-17.5617 Y45.4003 
G01 X-18.6307 Y46.4693 
G01 X-41.6943 Y46.4693 
G01 X-43.9293 Y44.2343 
G01 X-43.9293 Y21.8057 
G01 X-41.6943 Y19.5707 
G01 X-19.2657 Y19.5707 
G01 X-17.0307 Y21.8057 
G01 X-17.0307 Y44.5186 
G01 X-16.9952 Y44.6510 
G01 X-16.9267 Y44.7697 
G01 X-16.8297 Y44.8667 
G01 X-16.7110 Y44.9352 
G01 X-16.5785 Y44.9707 
G01 X-13.9014 Y44.9707 
G01 X-13.7690 Y44.9352 
G01 X-13.6503 Y44.8667 
G01 X-13.5533 Y44.7697 
G01 X-13.4848 Y44.6510 
G01 X-13.4493 Y44.5186 
G01 X-13.4493 Y40.9679 
G01 X-13.4448 Y40.9338 
G01 X-13.4493 Y40.8996 
G01 X-13.4493 Y40.8652 
G01 X-13.4571 Y40.8361 
G01 X-13.4571 Y37.4039 
G01 X-13.4493 Y37.3748 
G01 X-13.4493 Y37.3404 
G01 X-13.4448 Y37.3062 
G01 X-13.4493 Y37.2721 
G01 X-13.4493 Y28.7679 
G01 X-13.4448 Y28.7338 
G01 X-13.4493 Y28.6996 
G01 X-13.4493 Y28.6652 
G01 X-13.4571 Y28.6361 
G01 X-13.4571 Y25.2039 
G01 X-13.4493 Y25.1748 
G01 X-13.4493 Y25.1404 
G01 X-13.4448 Y25.1062 
G01 X-13.4493 Y25.0721 
G01 X-13.4493 Y23.8062 
G01 X-13.4042 Y23.7833 
G00 X-4.8895 Y22.7750 
G01 Z0.0000 F254000.00 
G01 X-4.8895 Y22.9450 F3000.00 
G01 X-4.8629 Y23.1128 
G01 X-4.8104 Y23.2744 
G01 X-4.7333 Y23.4258 
G01 X-4.6334 Y23.5632 
G01 X-4.5132 Y23.6834 
G01 X-4.3758 Y23.7833 
G01 X-4.3729 Y23.7847 
G01 X-4.4476 Y25.4399 
G01 X-4.4507 Y25.4514 
G01 X-4.4507 Y25.5083 
G01 X-4.4533 Y25.5650 
G01 X-4.4507 Y25.5766 
G01 X-4.4507 Y29.6517 
G01 X-4.7067 Y29.6517 
G01 X-4.7487 Y29.6691 
G01 X-4.7809 Y29.7013 
G01 X-4.7983 Y29.7433 
G01 X-4.7983 Y31.2967 
G01 X-4.7809 Y31.3387 
G01 X-4.7487 Y31.3709 
G01 X-4.7067 Y31.3883 
G01 X-3.1533 Y31.3883 
G01 X-3.1113 Y31.3709 
G01 X-3.0791 Y31.3387 
G01 X-3.0617 Y31.2967 
G01 X-3.0617 Y29.7433 
G01 X-3.0791 Y29.7013 
G01 X-3.1113 Y29.6691 
G01 X-3.1533 Y29.6517 
G01 X-3.4093 Y29.6517 
G01 X-3.4093 Y25.5317 
G01 X-3.3325 Y23.8282 
G01 X-3.2442 Y23.7833 
G01 X-3.1068 Y23.6834 
G01 X-2.9866 Y23.5632 
G01 X-2.8867 Y23.4258 
G01 X-2.8096 Y23.2744 
G01 X-2.7571 Y23.1128 
G01 X-2.7305 Y22.9450 
G01 X-2.7305 Y22.7750 
G01 X-2.7571 Y22.6072 
G01 X-2.8096 Y22.4456 
G01 X-2.8867 Y22.2942 
G01 X-2.9866 Y22.1568 
G01 X-3.1068 Y22.0366 
G01 X-3.2442 Y21.9367 
G01 X-3.3956 Y21.8596 
G01 X-3.5572 Y21.8071 
G01 X-3.7250 Y21.7805 
G01 X-3.8950 Y21.7805 
G01 X-4.0628 Y21.8071 
G01 X-4.2244 Y21.8596 
G01 X-4.3758 Y21.9367 
G01 X-4.5132 Y22.0366 
G01 X-4.6334 Y22.1568 
G01 X-4.7333 Y22.2942 
G01 X-4.8104 Y22.4456 
G01 X-4.8629 Y22.6072 
G01 X-4.8895 Y22.7750 
G00 X-4.8895 Y50.0800 
G01 Z0.0000 F254000.00 
G01 X-4.8895 Y50.2500 F3000.00 
G01 X-4.8629 Y50.4178 
G01 X-4.8104 Y50.5794 
G01 X-4.7333 Y50.7308 
G01 X-4.6334 Y50.8682 
G01 X-4.5132 Y50.9884 
G01 X-4.3758 Y51.0883 
G01 X-4.2244 Y51.1654 
G01 X-4.0628 Y51.2179 
G01 X-3.8950 Y51.2445 
G01 X-3.7250 Y51.2445 
G01 X-3.5572 Y51.2179 
G01 X-3.3956 Y51.1654 
G01 X-3.2442 Y51.0883 
G01 X-3.1068 Y50.9884 
G01 X-2.9866 Y50.8682 
G01 X-2.8867 Y50.7308 
G01 X-2.8096 Y50.5794 
G01 X-2.7571 Y50.4178 
G01 X-2.7305 Y50.2500 
G01 X-2.7305 Y50.0800 
G01 X-2.7571 Y49.9122 
G01 X-2.8096 Y49.7506 
G01 X-2.8867 Y49.5992 
G01 X-2.9866 Y49.4618 
G01 X-3.1068 Y49.3416 
G01 X-3.1950 Y49.2775 
G01 X-3.3006 Y36.3883 
G01 X-3.1533 Y36.3883 
G01 X-3.1113 Y36.3709 
G01 X-3.0791 Y36.3387 
G01 X-3.0617 Y36.2967 
G01 X-3.0617 Y34.7433 
G01 X-3.0791 Y34.7013 
G01 X-3.1113 Y34.6691 
G01 X-3.1533 Y34.6517 
G01 X-4.7067 Y34.6517 
G01 X-4.7487 Y34.6691 
G01 X-4.7809 Y34.7013 
G01 X-4.7983 Y34.7433 
G01 X-4.7983 Y36.2967 
G01 X-4.7809 Y36.3387 
G01 X-4.7487 Y36.3709 
G01 X-4.7067 Y36.3883 
G01 X-4.5452 Y36.3883 
G01 X-4.4395 Y49.2880 
G01 X-4.5132 Y49.3416 
G01 X-4.6334 Y49.4618 
G01 X-4.7333 Y49.5992 
G01 X-4.8104 Y49.7506 
G01 X-4.8629 Y49.9122 
G01 X-4.8895 Y50.0800 
G00 X-29.3243 Y41.8873 
G01 Z0.0000 F254000.00 
G01 X-29.3243 Y45.7427 F3000.00 
G01 X-29.3069 Y45.7847 
G01 X-29.2747 Y45.8169 
G01 X-29.2327 Y45.8343 
G01 X-28.8483 Y45.8343 
G01 X-28.8483 Y45.8467 
G01 X-28.8309 Y45.8887 
G01 X-28.7987 Y45.9209 
G01 X-28.7567 Y45.9383 
G01 X-27.2033 Y45.9383 
G01 X-27.1613 Y45.9209 
G01 X-27.1291 Y45.8887 
G01 X-27.1117 Y45.8467 
G01 X-27.1117 Y45.8343 
G01 X-26.6473 Y45.8343 
G01 X-26.6053 Y45.8169 
G01 X-26.5731 Y45.7847 
G01 X-26.5557 Y45.7427 
G01 X-26.5557 Y41.8873 
G01 X-26.5731 Y41.8453 
G01 X-26.6053 Y41.8131 
G01 X-26.6473 Y41.7957 
G01 X-27.2655 Y41.7957 
G01 X-27.3742 Y41.7167 
G01 X-27.5256 Y41.6396 
G01 X-27.6872 Y41.5871 
G01 X-27.8550 Y41.5605 
G01 X-28.0250 Y41.5605 
G01 X-28.1928 Y41.5871 
G01 X-28.3544 Y41.6396 
G01 X-28.5058 Y41.7167 
G01 X-28.6145 Y41.7957 
G01 X-29.2327 Y41.7957 
G01 X-29.2747 Y41.8131 
G01 X-29.3069 Y41.8453 
G01 X-29.3243 Y41.8873 
G00 X-43.2943 Y34.2673 
G01 Z0.0000 F254000.00 
G01 X-43.2943 Y34.6517 F3000.00 
G01 X-43.3067 Y34.6517 
G01 X-43.3487 Y34.6691 
G01 X-43.3809 Y34.7013 
G01 X-43.3983 Y34.7433 
G01 X-43.3983 Y36.2967 
G01 X-43.3809 Y36.3387 
G01 X-43.3487 Y36.3709 
G01 X-43.3067 Y36.3883 
G01 X-43.2943 Y36.3883 
G01 X-43.2943 Y36.8527 
G01 X-43.2769 Y36.8947 
G01 X-43.2447 Y36.9269 
G01 X-43.2027 Y36.9443 
G01 X-39.3473 Y36.9443 
G01 X-39.3053 Y36.9269 
G01 X-39.2731 Y36.8947 
G01 X-39.2557 Y36.8527 
G01 X-39.2557 Y35.5593 
G01 X-39.2471 Y35.5328 
G01 X-39.2205 Y35.3650 
G01 X-39.2205 Y35.1950 
G01 X-39.2471 Y35.0272 
G01 X-39.2557 Y35.0007 
G01 X-39.2557 Y34.2673 
G01 X-39.2731 Y34.2253 
G01 X-39.3053 Y34.1931 
G01 X-39.3473 Y34.1757 
G01 X-43.2027 Y34.1757 
G01 X-43.2447 Y34.1931 
G01 X-43.2769 Y34.2253 
G01 X-43.2943 Y34.2673 
G00 X-21.7043 Y29.1873 
G01 Z0.0000 F254000.00 
G01 X-21.7043 Y29.6210 F3000.00 
G01 X-21.7532 Y29.6566 
G01 X-21.8734 Y29.7768 
G01 X-21.9733 Y29.9142 
G01 X-22.0504 Y30.0656 
G01 X-22.1029 Y30.2272 
G01 X-22.1295 Y30.3950 
G01 X-22.1295 Y30.5650 
G01 X-22.1029 Y30.7328 
G01 X-22.0504 Y30.8944 
G01 X-21.9733 Y31.0458 
G01 X-21.8734 Y31.1832 
G01 X-21.7532 Y31.3034 
G01 X-21.7043 Y31.3390 
G01 X-21.7043 Y31.7727 
G01 X-21.6869 Y31.8147 
G01 X-21.6547 Y31.8469 
G01 X-21.6127 Y31.8643 
G01 X-17.7573 Y31.8643 
G01 X-17.7153 Y31.8469 
G01 X-17.6831 Y31.8147 
G01 X-17.6657 Y31.7727 
G01 X-17.6657 Y31.3883 
G01 X-17.6533 Y31.3883 
G01 X-17.6113 Y31.3709 
G01 X-17.5791 Y31.3387 
G01 X-17.5617 Y31.2967 
G01 X-17.5617 Y29.7433 
G01 X-17.5791 Y29.7013 
G01 X-17.6113 Y29.6691 
G01 X-17.6533 Y29.6517 
G01 X-17.6657 Y29.6517 
G01 X-17.6657 Y29.1873 
G01 X-17.6831 Y29.1453 
G01 X-17.7153 Y29.1131 
G01 X-17.7573 Y29.0957 
G01 X-21.6127 Y29.0957 
G01 X-21.6547 Y29.1131 
G01 X-21.6869 Y29.1453 
G01 X-21.7043 Y29.1873 
G00 X-34.4043 Y20.2973 
G01 Z0.0000 F254000.00 
G01 X-34.4043 Y24.1527 F3000.00 
G01 X-34.3869 Y24.1947 
G01 X-34.3547 Y24.2269 
G01 X-34.3127 Y24.2443 
G01 X-33.5838 Y24.2443 
G01 X-33.4344 Y24.3204 
G01 X-33.2728 Y24.3729 
G01 X-33.1050 Y24.3995 
G01 X-32.9350 Y24.3995 
G01 X-32.7672 Y24.3729 
G01 X-32.6056 Y24.3204 
G01 X-32.4562 Y24.2443 
G01 X-31.7273 Y24.2443 
G01 X-31.6853 Y24.2269 
G01 X-31.6531 Y24.1947 
G01 X-31.6357 Y24.1527 
G01 X-31.6357 Y20.2973 
G01 X-31.6531 Y20.2553 
G01 X-31.6853 Y20.2231 
G01 X-31.7273 Y20.2057 
G01 X-32.1117 Y20.2057 
G01 X-32.1117 Y20.1933 
G01 X-32.1291 Y20.1513 
G01 X-32.1613 Y20.1191 
G01 X-32.2033 Y20.1017 
G01 X-33.7567 Y20.1017 
G01 X-33.7987 Y20.1191 
G01 X-33.8309 Y20.1513 
G01 X-33.8483 Y20.1933 
G01 X-33.8483 Y20.2057 
G01 X-34.3127 Y20.2057 
G01 X-34.3547 Y20.2231 
G01 X-34.3869 Y20.2553 
G01 X-34.4043 Y20.2973 
G00 X-14.4145 Y16.4250 
G01 Z0.0000 F254000.00 
G01 X-14.4145 Y16.5950 F3000.00 
G01 X-14.3879 Y16.7628 
G01 X-14.3354 Y16.9244 
G01 X-14.2583 Y17.0758 
G01 X-14.1584 Y17.2132 
G01 X-14.0382 Y17.3334 
G01 X-13.9008 Y17.4333 
G01 X-13.7494 Y17.5104 
G01 X-13.5878 Y17.5629 
G01 X-13.4200 Y17.5895 
G01 X-13.2500 Y17.5895 
G01 X-13.0822 Y17.5629 
G01 X-12.9206 Y17.5104 
G01 X-12.7692 Y17.4333 
G01 X-12.6318 Y17.3334 
G01 X-12.5116 Y17.2132 
G01 X-12.4117 Y17.0758 
G01 X-12.3888 Y17.0307 
G01 X-12.3598 Y17.0307 
G01 X-12.4143 Y17.1252 
G01 X-12.5025 Y17.2401 
G01 X-12.6049 Y17.3425 
G01 X-12.7198 Y17.4307 
G01 X-12.8453 Y17.5031 
G01 X-12.9791 Y17.5585 
G01 X-13.0779 Y17.5850 
G01 X-13.2103 Y17.6205 
G01 X-13.3290 Y17.6890 
G01 X-13.4245 Y17.7844 
G01 X-13.4541 Y17.8346 
G01 X-13.4945 Y17.9047 
G01 X-13.5300 Y18.0371 
G01 X-13.5300 Y18.1742 
G01 X-13.4945 Y18.3067 
G01 X-13.4260 Y18.4254 
G01 X-8.7757 Y23.0757 
G01 X-8.7757 Y45.7886 
G01 X-8.7402 Y45.9210 
G01 X-8.6717 Y46.0397 
G01 X-8.5747 Y46.1367 
G01 X-8.4560 Y46.2052 
G01 X-8.3236 Y46.2407 
G01 X-5.6464 Y46.2407 
G01 X-5.5140 Y46.2052 
G01 X-5.3953 Y46.1367 
G01 X-5.2983 Y46.0397 
G01 X-5.2298 Y45.9210 
G01 X-5.1943 Y45.7886 
G01 X-5.1943 Y20.2514 
G01 X-5.2298 Y20.1190 
G01 X-5.2983 Y20.0003 
G01 X-5.3953 Y19.9033 
G01 X-17.4603 Y7.8383 
G01 X-17.5790 Y7.7698 
G01 X-17.7114 Y7.7343 
G01 X-43.2486 Y7.7343 
G01 X-43.3810 Y7.7698 
G01 X-43.4997 Y7.8383 
G01 X-43.5967 Y7.9353 
G01 X-55.6617 Y20.0003 
G01 X-55.7302 Y20.1190 
G01 X-55.7657 Y20.2514 
G01 X-55.7657 Y45.7886 
G01 X-55.7302 Y45.9210 
G01 X-55.6617 Y46.0397 
G01 X-55.5647 Y46.1367 
G01 X-43.4997 Y58.2017 
G01 X-43.3810 Y58.2702 
G01 X-43.2486 Y58.3057 
G01 X-21.3497 Y58.3057 
G01 X-21.3155 Y58.3102 
G01 X-21.2814 Y58.3057 
G01 X-21.2470 Y58.3057 
G01 X-21.2137 Y58.2968 
G01 X-21.1796 Y58.2923 
G01 X-21.1478 Y58.2791 
G01 X-21.1146 Y58.2702 
G01 X-21.0847 Y58.2530 
G01 X-20.7654 Y58.1207 
G01 X-20.2146 Y58.1207 
G01 X-19.8952 Y58.2530 
G01 X-19.8654 Y58.2702 
G01 X-19.8322 Y58.2791 
G01 X-19.8004 Y58.2923 
G01 X-19.7662 Y58.2968 
G01 X-19.7330 Y58.3057 
G01 X-19.6986 Y58.3057 
G01 X-19.6645 Y58.3102 
G01 X-19.6303 Y58.3057 
G01 X-17.7114 Y58.3057 
G01 X-17.5790 Y58.2702 
G01 X-17.4603 Y58.2017 
G01 X-17.3633 Y58.1047 
G01 X-6.5683 Y47.3097 
G01 X-6.4998 Y47.1910 
G01 X-6.4643 Y47.0586 
G01 X-6.4643 Y46.9214 
G01 X-6.4998 Y46.7890 
G01 X-6.5683 Y46.6703 
G01 X-6.6653 Y46.5733 
G01 X-6.7840 Y46.5048 
G01 X-6.9164 Y46.4693 
G01 X-12.1336 Y46.4693 
G01 X-12.2660 Y46.5048 
G01 X-12.3847 Y46.5733 
G01 X-12.4817 Y46.6703 
G01 X-14.0610 Y48.2496 
G01 X-14.1295 Y48.3683 
G01 X-14.1650 Y48.5008 
G01 X-14.1650 Y48.6379 
G01 X-14.1295 Y48.7703 
G01 X-14.0908 Y48.8373 
G01 X-14.0610 Y48.8890 
G01 X-13.9640 Y48.9860 
G01 X-13.8453 Y49.0545 
G01 X-13.7129 Y49.0900 
G01 X-13.6141 Y49.1165 
G01 X-13.4803 Y49.1719 
G01 X-13.3548 Y49.2443 
G01 X-13.2399 Y49.3325 
G01 X-13.1375 Y49.4349 
G01 X-13.0493 Y49.5498 
G01 X-12.9948 Y49.6443 
G01 X-13.0238 Y49.6443 
G01 X-13.0467 Y49.5992 
G01 X-13.1466 Y49.4618 
G01 X-13.2668 Y49.3416 
G01 X-13.4042 Y49.2417 
G01 X-13.5556 Y49.1646 
G01 X-13.7172 Y49.1121 
G01 X-13.8850 Y49.0855 
G01 X-14.0550 Y49.0855 
G01 X-14.2228 Y49.1121 
G01 X-14.3844 Y49.1646 
G01 X-14.5358 Y49.2417 
G01 X-14.6732 Y49.3416 
G01 X-14.7934 Y49.4618 
G01 X-14.8933 Y49.5992 
G01 X-14.9704 Y49.7506 
G01 X-15.0229 Y49.9122 
G01 X-15.0495 Y50.0800 
G01 X-15.0495 Y50.2500 
G01 X-15.0229 Y50.4178 
G01 X-14.9704 Y50.5794 
G01 X-14.8933 Y50.7308 
G01 X-14.7934 Y50.8682 
G01 X-14.6732 Y50.9884 
G01 X-14.5358 Y51.0883 
G01 X-14.4907 Y51.1112 
G01 X-14.4907 Y51.1402 
G01 X-14.5852 Y51.0857 
G01 X-14.7001 Y50.9975 
G01 X-14.8025 Y50.8951 
G01 X-14.8907 Y50.7802 
G01 X-14.9631 Y50.6547 
G01 X-15.0185 Y50.5209 
G01 X-15.0450 Y50.4221 
G01 X-15.0805 Y50.2897 
G01 X-15.1490 Y50.1710 
G01 X-15.2444 Y50.0755 
G01 X-15.2946 Y50.0459 
G01 X-15.3647 Y50.0055 
G01 X-15.4971 Y49.9700 
G01 X-15.6342 Y49.9700 
G01 X-15.7667 Y50.0055 
G01 X-15.8854 Y50.0740 
G01 X-15.9808 Y50.1694 
G01 X-20.5357 Y54.7243 
G01 X-40.4243 Y54.7243 
G01 X-45.6127 Y49.5360 
G01 X-45.7096 Y49.4390 
G01 X-45.8283 Y49.3705 
G01 X-45.9608 Y49.3350 
G01 X-46.0979 Y49.3350 
G01 X-46.2303 Y49.3705 
G01 X-46.2973 Y49.4092 
G01 X-46.3490 Y49.4390 
G01 X-46.4460 Y49.5360 
G01 X-46.5145 Y49.6547 
G01 X-46.5500 Y49.7871 
G01 X-46.5765 Y49.8859 
G01 X-46.6319 Y50.0197 
G01 X-46.7043 Y50.1452 
G01 X-46.7925 Y50.2601 
G01 X-46.8949 Y50.3625 
G01 X-47.0098 Y50.4507 
G01 X-47.1043 Y50.5052 
G01 X-47.1043 Y50.4762 
G01 X-47.0592 Y50.4533 
G01 X-46.9218 Y50.3534 
G01 X-46.8016 Y50.2332 
G01 X-46.7017 Y50.0958 
G01 X-46.6246 Y49.9444 
G01 X-46.5721 Y49.7828 
G01 X-46.5455 Y49.6150 
G01 X-46.5455 Y49.4450 
G01 X-46.5721 Y49.2772 
G01 X-46.6246 Y49.1156 
G01 X-46.7017 Y48.9642 
G01 X-46.8016 Y48.8268 
G01 X-46.9218 Y48.7066 
G01 X-47.0592 Y48.6067 
G01 X-47.2106 Y48.5296 
G01 X-47.3722 Y48.4771 
G01 X-47.5400 Y48.4505 
G01 X-47.7100 Y48.4505 
G01 X-47.8778 Y48.4771 
G01 X-48.0394 Y48.5296 
G01 X-48.1908 Y48.6067 
G01 X-48.3282 Y48.7066 
G01 X-48.4484 Y48.8268 
G01 X-48.5483 Y48.9642 
G01 X-48.5712 Y49.0093 
G01 X-48.6002 Y49.0093 
G01 X-48.5457 Y48.9148 
G01 X-48.4575 Y48.7999 
G01 X-48.3551 Y48.6975 
G01 X-48.2402 Y48.6093 
G01 X-48.1147 Y48.5369 
G01 X-47.9809 Y48.4815 
G01 X-47.8821 Y48.4550 
G01 X-47.7497 Y48.4195 
G01 X-47.6310 Y48.3510 
G01 X-47.5355 Y48.2555 
G01 X-47.5059 Y48.2054 
G01 X-47.4655 Y48.1353 
G01 X-47.4300 Y48.0029 
G01 X-47.4300 Y47.8658 
G01 X-47.4655 Y47.7333 
G01 X-47.5340 Y47.6146 
G01 X-47.6276 Y47.5210 
G01 X-47.6310 Y47.5177 
G01 X-52.1843 Y42.9643 
G01 X-52.1843 Y23.0757 
G01 X-46.8990 Y17.7904 
G01 X-46.8305 Y17.6717 
G01 X-46.7950 Y17.5392 
G01 X-46.7950 Y17.4021 
G01 X-46.8305 Y17.2697 
G01 X-46.8692 Y17.2027 
G01 X-46.8990 Y17.1510 
G01 X-46.9960 Y17.0540 
G01 X-47.1147 Y16.9855 
G01 X-47.2471 Y16.9500 
G01 X-47.3459 Y16.9235 
G01 X-47.4797 Y16.8681 
G01 X-47.6052 Y16.7957 
G01 X-47.7201 Y16.7075 
G01 X-47.8225 Y16.6051 
G01 X-47.9107 Y16.4902 
G01 X-47.9652 Y16.3957 
G01 X-47.9362 Y16.3957 
G01 X-47.9133 Y16.4408 
G01 X-47.8134 Y16.5782 
G01 X-47.6932 Y16.6984 
G01 X-47.5558 Y16.7983 
G01 X-47.4044 Y16.8754 
G01 X-47.2428 Y16.9279 
G01 X-47.0750 Y16.9545 
G01 X-46.9050 Y16.9545 
G01 X-46.7372 Y16.9279 
G01 X-46.5756 Y16.8754 
G01 X-46.4242 Y16.7983 
G01 X-46.2868 Y16.6984 
G01 X-46.1666 Y16.5782 
G01 X-46.0667 Y16.4408 
G01 X-45.9896 Y16.2894 
G01 X-45.9371 Y16.1278 
G01 X-45.9105 Y15.9600 
G01 X-45.9105 Y15.7900 
G01 X-45.9371 Y15.6222 
G01 X-45.9896 Y15.4606 
G01 X-46.0667 Y15.3092 
G01 X-46.1666 Y15.1718 
G01 X-46.2868 Y15.0516 
G01 X-46.4242 Y14.9517 
G01 X-46.4693 Y14.9288 
G01 X-46.4693 Y14.8998 
G01 X-46.3748 Y14.9543 
G01 X-46.2599 Y15.0425 
G01 X-46.1575 Y15.1449 
G01 X-46.0693 Y15.2598 
G01 X-45.9969 Y15.3853 
G01 X-45.9415 Y15.5191 
G01 X-45.9150 Y15.6179 
G01 X-45.8795 Y15.7503 
G01 X-45.8110 Y15.8690 
G01 X-45.7156 Y15.9645 
G01 X-45.6654 Y15.9941 
G01 X-45.5953 Y16.0345 
G01 X-45.4629 Y16.0700 
G01 X-45.3258 Y16.0700 
G01 X-45.1933 Y16.0345 
G01 X-45.0746 Y15.9660 
G01 X-44.9792 Y15.8706 
G01 X-40.4243 Y11.3157 
G01 X-20.5357 Y11.3157 
G01 X-15.2504 Y16.6010 
G01 X-15.1317 Y16.6695 
G01 X-14.9992 Y16.7050 
G01 X-14.8621 Y16.7050 
G01 X-14.7297 Y16.6695 
G01 X-14.6627 Y16.6308 
G01 X-14.6110 Y16.6010 
G01 X-14.5140 Y16.5040 
G01 X-14.4455 Y16.3853 
G01 X-14.4100 Y16.2529 
G01 X-14.3835 Y16.1541 
G01 X-14.3281 Y16.0203 
G01 X-14.2557 Y15.8948 
G01 X-14.1675 Y15.7799 
G01 X-14.0651 Y15.6775 
G01 X-13.9502 Y15.5893 
G01 X-13.8557 Y15.5348 
G01 X-13.8557 Y15.5638 
G01 X-13.9008 Y15.5867 
G01 X-14.0382 Y15.6866 
G01 X-14.1584 Y15.8068 
G01 X-14.2583 Y15.9442 
G01 X-14.3354 Y16.0956 
G01 X-14.3879 Y16.2572 
G01 X-14.4145 Y16.4250 
G00 X-41.7195 Y6.2650 
G01 Z0.0000 F254000.00 
G01 X-41.7195 Y6.4350 F3000.00 
G01 X-41.6929 Y6.6028 
G01 X-41.6404 Y6.7644 
G01 X-41.5633 Y6.9158 
G01 X-41.4634 Y7.0532 
G01 X-41.3432 Y7.1734 
G01 X-41.2058 Y7.2733 
G01 X-41.0544 Y7.3504 
G01 X-40.8928 Y7.4029 
G01 X-40.7250 Y7.4295 
G01 X-40.5550 Y7.4295 
G01 X-40.3872 Y7.4029 
G01 X-40.2256 Y7.3504 
G01 X-40.0742 Y7.2733 
G01 X-39.9368 Y7.1734 
G01 X-39.8166 Y7.0532 
G01 X-39.7712 Y6.9907 
G01 X-33.8483 Y6.9907 
G01 X-33.8483 Y7.2467 
G01 X-33.8309 Y7.2887 
G01 X-33.7987 Y7.3209 
G01 X-33.7567 Y7.3383 
G01 X-32.2033 Y7.3383 
G01 X-32.1613 Y7.3209 
G01 X-32.1291 Y7.2887 
G01 X-32.1117 Y7.2467 
G01 X-32.1117 Y5.6933 
G01 X-32.1291 Y5.6513 
G01 X-32.1613 Y5.6191 
G01 X-32.2033 Y5.6017 
G01 X-33.7567 Y5.6017 
G01 X-33.7987 Y5.6191 
G01 X-33.8309 Y5.6513 
G01 X-33.8483 Y5.6933 
G01 X-33.8483 Y5.9493 
G01 X-39.6351 Y5.9493 
G01 X-39.6396 Y5.9356 
G01 X-39.7167 Y5.7842 
G01 X-39.8166 Y5.6468 
G01 X-39.9368 Y5.5266 
G01 X-40.0742 Y5.4267 
G01 X-40.2256 Y5.3496 
G01 X-40.3872 Y5.2971 
G01 X-40.5550 Y5.2705 
G01 X-40.7250 Y5.2705 
G01 X-40.8928 Y5.2971 
G01 X-41.0544 Y5.3496 
G01 X-41.2058 Y5.4267 
G01 X-41.3432 Y5.5266 
G01 X-41.4634 Y5.6468 
G01 X-41.5633 Y5.7842 
G01 X-41.6404 Y5.9356 
G01 X-41.6929 Y6.0972 
G01 X-41.7195 Y6.2650 
G00 X-21.4133 Y60.0708 
G01 Z0.0000 F254000.00 
G01 X-21.3134 Y60.2082 F3000.00 
G01 X-21.1932 Y60.3284 
G01 X-21.0558 Y60.4283 
G01 X-20.9044 Y60.5054 
G01 X-20.7428 Y60.5579 
G01 X-20.5750 Y60.5845 
G01 X-20.4050 Y60.5845 
G01 X-20.2372 Y60.5579 
G01 X-20.0756 Y60.5054 
G01 X-19.9242 Y60.4283 
G01 X-19.7868 Y60.3284 
G01 X-19.6666 Y60.2082 
G01 X-19.5667 Y60.0708 
G01 X-19.4896 Y59.9194 
G01 X-19.4371 Y59.7578 
G01 X-19.4105 Y59.5900 
G01 X-19.4105 Y59.4200 
G01 X-19.4371 Y59.2522 
G01 X-19.4896 Y59.0906 
G01 X-19.5667 Y58.9392 
G01 X-19.6666 Y58.8018 
G01 X-19.7868 Y58.6816 
G01 X-19.9242 Y58.5817 
G01 X-20.0756 Y58.5046 
G01 X-20.2372 Y58.4521 
G01 X-20.4050 Y58.4255 
G01 X-20.5750 Y58.4255 
G01 X-20.7428 Y58.4521 
G01 X-20.9044 Y58.5046 
G01 X-21.0558 Y58.5817 
G01 X-21.1932 Y58.6816 
G01 X-21.3134 Y58.8018 
G01 X-21.4133 Y58.9392 
G01 X-21.4372 Y58.9862 
G01 X-27.1117 Y58.9977 
G01 X-27.1117 Y58.7933 
G01 X-27.1291 Y58.7513 
G01 X-27.1613 Y58.7191 
G01 X-27.2033 Y58.7017 
G01 X-28.7567 Y58.7017 
G01 X-28.7987 Y58.7191 
G01 X-28.8309 Y58.7513 
G01 X-28.8483 Y58.7933 
G01 X-28.8483 Y60.3467 
G01 X-28.8309 Y60.3887 
G01 X-28.7987 Y60.4209 
G01 X-28.7567 Y60.4383 
G01 X-27.2033 Y60.4383 
G01 X-27.1613 Y60.4209 
G01 X-27.1291 Y60.3887 
G01 X-27.1117 Y60.3467 
G01 X-27.1117 Y60.0390 
G01 X-21.4353 Y60.0276 
G01 X-21.4133 Y60.0708 
G00 X-58.2295 Y15.7900 
G01 Z0.0000 F254000.00 
G01 X-58.2295 Y15.9600 F3000.00 
G01 X-58.2029 Y16.1278 
G01 X-58.1504 Y16.2894 
G01 X-58.0733 Y16.4408 
G01 X-57.9734 Y16.5782 
G01 X-57.8532 Y16.6984 
G01 X-57.7647 Y16.7627 
G01 X-57.6543 Y29.6517 
G01 X-57.8067 Y29.6517 
G01 X-57.8487 Y29.6691 
G01 X-57.8809 Y29.7013 
G01 X-57.8983 Y29.7433 
G01 X-57.8983 Y31.2967 
G01 X-57.8809 Y31.3387 
G01 X-57.8487 Y31.3709 
G01 X-57.8067 Y31.3883 
G01 X-56.2533 Y31.3883 
G01 X-56.2113 Y31.3709 
G01 X-56.1791 Y31.3387 
G01 X-56.1617 Y31.2967 
G01 X-56.1617 Y29.7433 
G01 X-56.1791 Y29.7013 
G01 X-56.2113 Y29.6691 
G01 X-56.2533 Y29.6517 
G01 X-56.4097 Y29.6517 
G01 X-56.5202 Y16.7517 
G01 X-56.4468 Y16.6984 
G01 X-56.3266 Y16.5782 
G01 X-56.2267 Y16.4408 
G01 X-56.1496 Y16.2894 
G01 X-56.0971 Y16.1278 
G01 X-56.0705 Y15.9600 
G01 X-56.0705 Y15.7900 
G01 X-56.0971 Y15.6222 
G01 X-56.1496 Y15.4606 
G01 X-56.2267 Y15.3092 
G01 X-56.3266 Y15.1718 
G01 X-56.4468 Y15.0516 
G01 X-56.5842 Y14.9517 
G01 X-56.7356 Y14.8746 
G01 X-56.8972 Y14.8221 
G01 X-57.0650 Y14.7955 
G01 X-57.2350 Y14.7955 
G01 X-57.4028 Y14.8221 
G01 X-57.5644 Y14.8746 
G01 X-57.7158 Y14.9517 
G01 X-57.8532 Y15.0516 
G01 X-57.9734 Y15.1718 
G01 X-58.0733 Y15.3092 
G01 X-58.1504 Y15.4606 
G01 X-58.2029 Y15.6222 
G01 X-58.2295 Y15.7900 
G00 X-32.1117 Y60.3467 
G01 Z0.0000 F254000.00 
G01 X-32.1117 Y58.7933 F3000.00 
G01 X-32.1291 Y58.7513 
G01 X-32.1613 Y58.7191 
G01 X-32.2033 Y58.7017 
G01 X-33.7567 Y58.7017 
G01 X-33.7987 Y58.7191 
G01 X-33.8309 Y58.7513 
G01 X-33.8483 Y58.7933 
G01 X-33.8483 Y58.9548 
G01 X-46.7480 Y59.0605 
G01 X-46.8016 Y58.9868 
G01 X-46.9218 Y58.8666 
G01 X-47.0592 Y58.7667 
G01 X-47.2106 Y58.6896 
G01 X-47.3722 Y58.6371 
G01 X-47.5400 Y58.6105 
G01 X-47.7100 Y58.6105 
G01 X-47.8778 Y58.6371 
G01 X-48.0394 Y58.6896 
G01 X-48.1908 Y58.7667 
G01 X-48.3282 Y58.8666 
G01 X-48.4484 Y58.9868 
G01 X-48.5483 Y59.1242 
G01 X-48.6254 Y59.2756 
G01 X-48.6779 Y59.4372 
G01 X-48.7045 Y59.6050 
G01 X-48.7045 Y59.7750 
G01 X-48.6779 Y59.9428 
G01 X-48.6254 Y60.1044 
G01 X-48.5483 Y60.2558 
G01 X-48.4484 Y60.3932 
G01 X-48.3282 Y60.5134 
G01 X-48.1908 Y60.6133 
G01 X-48.0394 Y60.6904 
G01 X-47.8778 Y60.7429 
G01 X-47.7100 Y60.7695 
G01 X-47.5400 Y60.7695 
G01 X-47.3722 Y60.7429 
G01 X-47.2106 Y60.6904 
G01 X-47.0592 Y60.6133 
G01 X-46.9218 Y60.5134 
G01 X-46.8016 Y60.3932 
G01 X-46.7375 Y60.3050 
G01 X-33.8483 Y60.1994 
G01 X-33.8483 Y60.3467 
G01 X-33.8309 Y60.3887 
G01 X-33.7987 Y60.4209 
G01 X-33.7567 Y60.4383 
G01 X-32.2033 Y60.4383 
G01 X-32.1613 Y60.4209 
G01 X-32.1291 Y60.3887 
G01 X-32.1117 Y60.3467 
G00 X-29.6117 Y60.3467 
G01 Z0.0000 F254000.00 
G01 X-29.6117 Y58.7933 F3000.00 
G01 X-29.6291 Y58.7513 
G01 X-29.6613 Y58.7191 
G01 X-29.7033 Y58.7017 
G01 X-31.2567 Y58.7017 
G01 X-31.2987 Y58.7191 
G01 X-31.3309 Y58.7513 
G01 X-31.3483 Y58.7933 
G01 X-31.3483 Y60.3467 
G01 X-31.3309 Y60.3887 
G01 X-31.2987 Y60.4209 
G01 X-31.2567 Y60.4383 
G01 X-29.7033 Y60.4383 
G01 X-29.6613 Y60.4209 
G01 X-29.6291 Y60.3887 
G01 X-29.6117 Y60.3467 
G00 X-32.1117 Y45.8467 
G01 Z0.0000 F254000.00 
G01 X-32.1117 Y44.2933 F3000.00 
G01 X-32.1291 Y44.2513 
G01 X-32.1613 Y44.2191 
G01 X-32.2033 Y44.2017 
G01 X-33.7567 Y44.2017 
G01 X-33.7987 Y44.2191 
G01 X-33.8309 Y44.2513 
G01 X-33.8483 Y44.2933 
G01 X-33.8483 Y45.8467 
G01 X-33.8309 Y45.8887 
G01 X-33.7987 Y45.9209 
G01 X-33.7567 Y45.9383 
G01 X-32.2033 Y45.9383 
G01 X-32.1613 Y45.9209 
G01 X-32.1291 Y45.8887 
G01 X-32.1117 Y45.8467 
G00 X-9.7993 Y37.3977 
G01 Z0.0000 F254000.00 
G01 X-13.0607 Y37.3977 F3000.00 
G01 X-13.1027 Y37.4151 
G01 X-13.1349 Y37.4473 
G01 X-13.1523 Y37.4893 
G01 X-13.1523 Y40.7507 
G01 X-13.1349 Y40.7927 
G01 X-13.1027 Y40.8249 
G01 X-13.0607 Y40.8423 
G01 X-9.7993 Y40.8423 
G01 X-9.7573 Y40.8249 
G01 X-9.7251 Y40.7927 
G01 X-9.7077 Y40.7507 
G01 X-9.7077 Y37.4893 
G01 X-9.7251 Y37.4473 
G01 X-9.7573 Y37.4151 
G01 X-9.7993 Y37.3977 
G00 X-9.7993 Y25.1977 
G01 Z0.0000 F254000.00 
G01 X-13.0607 Y25.1977 F3000.00 
G01 X-13.1027 Y25.2151 
G01 X-13.1349 Y25.2473 
G01 X-13.1523 Y25.2893 
G01 X-13.1523 Y28.5507 
G01 X-13.1349 Y28.5927 
G01 X-13.1027 Y28.6249 
G01 X-13.0607 Y28.6423 
G01 X-9.7993 Y28.6423 
G01 X-9.7573 Y28.6249 
G01 X-9.7251 Y28.5927 
G01 X-9.7077 Y28.5507 
G01 X-9.7077 Y25.2893 
G01 X-9.7251 Y25.2473 
G01 X-9.7573 Y25.2151 
G01 X-9.7993 Y25.1977 
G00 X-57.8067 Y33.8883 
G01 Z0.0000 F254000.00 
G01 X-56.2533 Y33.8883 F3000.00 
G01 X-56.2113 Y33.8709 
G01 X-56.1791 Y33.8387 
G01 X-56.1617 Y33.7967 
G01 X-56.1617 Y32.2433 
G01 X-56.1791 Y32.2013 
G01 X-56.2113 Y32.1691 
G01 X-56.2533 Y32.1517 
G01 X-57.8067 Y32.1517 
G01 X-57.8487 Y32.1691 
G01 X-57.8809 Y32.2013 
G01 X-57.8983 Y32.2433 
G01 X-57.8983 Y33.7967 
G01 X-57.8809 Y33.8387 
G01 X-57.8487 Y33.8709 
G01 X-57.8067 Y33.8883 
G00 X-57.8067 Y36.3883 
G01 Z0.0000 F254000.00 
G01 X-57.7723 Y36.3883 F3000.00 
G01 X-57.7723 Y42.2978 
G01 X-57.8532 Y42.3566 
G01 X-57.9734 Y42.4768 
G01 X-58.0733 Y42.6142 
G01 X-58.1504 Y42.7656 
G01 X-58.2029 Y42.9272 
G01 X-58.2295 Y43.0950 
G01 X-58.2295 Y43.2650 
G01 X-58.2029 Y43.4328 
G01 X-58.1504 Y43.5944 
G01 X-58.0733 Y43.7458 
G01 X-57.9734 Y43.8832 
G01 X-57.8532 Y44.0034 
G01 X-57.7158 Y44.1033 
G01 X-57.5644 Y44.1804 
G01 X-57.4028 Y44.2329 
G01 X-57.2350 Y44.2595 
G01 X-57.0650 Y44.2595 
G01 X-56.8972 Y44.2329 
G01 X-56.7356 Y44.1804 
G01 X-56.5842 Y44.1033 
G01 X-56.4468 Y44.0034 
G01 X-56.3266 Y43.8832 
G01 X-56.2267 Y43.7458 
G01 X-56.1496 Y43.5944 
G01 X-56.0971 Y43.4328 
G01 X-56.0705 Y43.2650 
G01 X-56.0705 Y43.0950 
G01 X-56.0971 Y42.9272 
G01 X-56.1496 Y42.7656 
G01 X-56.2267 Y42.6142 
G01 X-56.3266 Y42.4768 
G01 X-56.4468 Y42.3566 
G01 X-56.5277 Y42.2978 
G01 X-56.5277 Y36.3883 
G01 X-56.2533 Y36.3883 
G01 X-56.2113 Y36.3709 
G01 X-56.1791 Y36.3387 
G01 X-56.1617 Y36.2967 
G01 X-56.1617 Y34.7433 
G01 X-56.1791 Y34.7013 
G01 X-56.2113 Y34.6691 
G01 X-56.2533 Y34.6517 
G01 X-57.8067 Y34.6517 
G01 X-57.8487 Y34.6691 
G01 X-57.8809 Y34.7013 
G01 X-57.8983 Y34.7433 
G01 X-57.8983 Y36.2967 
G01 X-57.8809 Y36.3387 
G01 X-57.8487 Y36.3709 
G01 X-57.8067 Y36.3883 
G00 X-43.3067 Y31.3883 
G01 Z0.0000 F254000.00 
G01 X-41.7533 Y31.3883 F3000.00 
G01 X-41.7113 Y31.3709 
G01 X-41.6791 Y31.3387 
G01 X-41.6617 Y31.2967 
G01 X-41.6617 Y29.7433 
G01 X-41.6791 Y29.7013 
G01 X-41.7113 Y29.6691 
G01 X-41.7533 Y29.6517 
G01 X-43.3067 Y29.6517 
G01 X-43.3487 Y29.6691 
G01 X-43.3809 Y29.7013 
G01 X-43.3983 Y29.7433 
G01 X-43.3983 Y31.2967 
G01 X-43.3809 Y31.3387 
G01 X-43.3487 Y31.3709 
G01 X-43.3067 Y31.3883 
G00 X-26.1023 Y12.3393 
G01 Z0.0000 F254000.00 
G01 X-26.1023 Y15.6007 F3000.00 
G01 X-26.0849 Y15.6427 
G01 X-26.0527 Y15.6749 
G01 X-26.0107 Y15.6923 
G01 X-22.7493 Y15.6923 
G01 X-22.7073 Y15.6749 
G01 X-22.6751 Y15.6427 
G01 X-22.6577 Y15.6007 
G01 X-22.6577 Y12.3393 
G01 X-22.6751 Y12.2973 
G01 X-22.7073 Y12.2651 
G01 X-22.7493 Y12.2477 
G01 X-26.0107 Y12.2477 
G01 X-26.0527 Y12.2651 
G01 X-26.0849 Y12.2973 
G01 X-26.1023 Y12.3393 
G00 X-38.3023 Y12.3393 
G01 Z0.0000 F254000.00 
G01 X-38.3023 Y15.6007 F3000.00 
G01 X-38.2849 Y15.6427 
G01 X-38.2527 Y15.6749 
G01 X-38.2107 Y15.6923 
G01 X-34.9493 Y15.6923 
G01 X-34.9073 Y15.6749 
G01 X-34.8751 Y15.6427 
G01 X-34.8577 Y15.6007 
G01 X-34.8577 Y12.3393 
G01 X-34.8751 Y12.2973 
G01 X-34.9073 Y12.2651 
G01 X-34.9493 Y12.2477 
G01 X-38.2107 Y12.2477 
G01 X-38.2527 Y12.2651 
G01 X-38.2849 Y12.2973 
G01 X-38.3023 Y12.3393 
G00 Z0.0000 
G00 X-18.6833 Y46.3423 
G01 Z0.0000 F254000.00 
G01 X-41.6417 Y46.3423 F3000.00 
G01 X-43.8023 Y44.1817 
G01 X-43.8023 Y21.8583 
G01 X-41.6417 Y19.6977 
G01 X-19.3183 Y19.6977 
G01 X-17.1577 Y21.8583 
G01 X-17.1577 Y44.5138 
G01 X-17.1328 Y44.6389 
G01 X-17.0840 Y44.7568 
G01 X-17.0131 Y44.8629 
G01 X-16.9229 Y44.9531 
G01 X-16.8168 Y45.0240 
G01 X-16.7001 Y45.0723 
G01 X-17.2088 Y45.0723 
G01 X-17.3339 Y45.0972 
G01 X-17.4518 Y45.1460 
G01 X-17.5579 Y45.2169 
G01 X-17.6481 Y45.3071 
G01 X-18.6833 Y46.3423 
G00 X-28.9753 Y20.1680 
G01 Z0.0000 F254000.00 
G01 X-28.9753 Y21.7720 F3000.00 
G01 X-28.9386 Y21.8607 
G01 X-28.8707 Y21.9286 
G01 X-28.7820 Y21.9653 
G01 X-27.1780 Y21.9653 
G01 X-27.0893 Y21.9286 
G01 X-27.0214 Y21.8607 
G01 X-26.9847 Y21.7720 
G01 X-26.9847 Y20.1680 
G01 X-27.0214 Y20.0793 
G01 X-27.0893 Y20.0114 
G01 X-27.1780 Y19.9747 
G01 X-28.7820 Y19.9747 
G01 X-28.8707 Y20.0114 
G01 X-28.9386 Y20.0793 
G01 X-28.9753 Y20.1680 
G00 X-17.6280 Y34.5247 
G01 Z0.0000 F254000.00 
G01 X-19.2320 Y34.5247 F3000.00 
G01 X-19.3207 Y34.5614 
G01 X-19.3886 Y34.6293 
G01 X-19.4253 Y34.7180 
G01 X-19.4253 Y36.3220 
G01 X-19.3886 Y36.4107 
G01 X-19.3207 Y36.4786 
G01 X-19.2320 Y36.5153 
G01 X-17.6280 Y36.5153 
G01 X-17.5393 Y36.4786 
G01 X-17.4714 Y36.4107 
G01 X-17.4347 Y36.3220 
G01 X-17.4347 Y34.7180 
G01 X-17.4714 Y34.6293 
G01 X-17.5393 Y34.5614 
G01 X-17.6280 Y34.5247 
G00 X-29.4513 Y41.8620 
G01 Z0.0000 F254000.00 
G01 X-29.4513 Y45.7680 F3000.00 
G01 X-29.4146 Y45.8567 
G01 X-29.3467 Y45.9246 
G01 X-29.2580 Y45.9613 
G01 X-28.9380 Y45.9613 
G01 X-28.8707 Y46.0286 
G01 X-28.7820 Y46.0653 
G01 X-27.1780 Y46.0653 
G01 X-27.0893 Y46.0286 
G01 X-27.0220 Y45.9613 
G01 X-26.6220 Y45.9613 
G01 X-26.5333 Y45.9246 
G01 X-26.4654 Y45.8567 
G01 X-26.4287 Y45.7680 
G01 X-26.4287 Y41.8620 
G01 X-26.4654 Y41.7733 
G01 X-26.5333 Y41.7054 
G01 X-26.6220 Y41.6687 
G01 X-27.2243 Y41.6687 
G01 X-27.3077 Y41.6081 
G01 X-27.4769 Y41.5219 
G01 X-27.6575 Y41.4632 
G01 X-27.8450 Y41.4335 
G01 X-28.0350 Y41.4335 
G01 X-28.2225 Y41.4632 
G01 X-28.4031 Y41.5219 
G01 X-28.5723 Y41.6081 
G01 X-28.6557 Y41.6687 
G01 X-29.2580 Y41.6687 
G01 X-29.3467 Y41.7054 
G01 X-29.4146 Y41.7733 
G01 X-29.4513 Y41.8620 
G00 X-43.4213 Y34.2420 
G01 Z0.0000 F254000.00 
G01 X-43.4213 Y34.5620 F3000.00 
G01 X-43.4886 Y34.6293 
G01 X-43.5253 Y34.7180 
G01 X-43.5253 Y36.3220 
G01 X-43.4886 Y36.4107 
G01 X-43.4213 Y36.4779 
G01 X-43.4213 Y36.8780 
G01 X-43.3846 Y36.9667 
G01 X-43.3167 Y37.0346 
G01 X-43.2280 Y37.0713 
G01 X-39.3220 Y37.0713 
G01 X-39.2333 Y37.0346 
G01 X-39.1654 Y36.9667 
G01 X-39.1287 Y36.8780 
G01 X-39.1287 Y35.5794 
G01 X-39.1232 Y35.5625 
G01 X-39.0935 Y35.3750 
G01 X-39.0935 Y35.1850 
G01 X-39.1232 Y34.9975 
G01 X-39.1287 Y34.9806 
G01 X-39.1287 Y34.2420 
G01 X-39.1654 Y34.1533 
G01 X-39.2333 Y34.0854 
G01 X-39.3220 Y34.0487 
G01 X-43.2280 Y34.0487 
G01 X-43.3167 Y34.0854 
G01 X-43.3846 Y34.1533 
G01 X-43.4213 Y34.2420 
G00 X-21.8313 Y29.1620 
G01 Z0.0000 F254000.00 
G01 X-21.8313 Y29.5563 F3000.00 
G01 X-21.8360 Y29.5597 
G01 X-21.9703 Y29.6940 
G01 X-22.0819 Y29.8477 
G01 X-22.1681 Y30.0169 
G01 X-22.2268 Y30.1975 
G01 X-22.2565 Y30.3850 
G01 X-22.2565 Y30.5750 
G01 X-22.2268 Y30.7625 
G01 X-22.1681 Y30.9431 
G01 X-22.0819 Y31.1123 
G01 X-21.9703 Y31.2660 
G01 X-21.8360 Y31.4003 
G01 X-21.8313 Y31.4037 
G01 X-21.8313 Y31.7980 
G01 X-21.7946 Y31.8867 
G01 X-21.7267 Y31.9546 
G01 X-21.6380 Y31.9913 
G01 X-17.7320 Y31.9913 
G01 X-17.6433 Y31.9546 
G01 X-17.5754 Y31.8867 
G01 X-17.5387 Y31.7980 
G01 X-17.5387 Y31.4779 
G01 X-17.4714 Y31.4107 
G01 X-17.4347 Y31.3220 
G01 X-17.4347 Y29.7180 
G01 X-17.4714 Y29.6293 
G01 X-17.5387 Y29.5620 
G01 X-17.5387 Y29.1620 
G01 X-17.5754 Y29.0733 
G01 X-17.6433 Y29.0054 
G01 X-17.7320 Y28.9687 
G01 X-21.6380 Y28.9687 
G01 X-21.7267 Y29.0054 
G01 X-21.7946 Y29.0733 
G01 X-21.8313 Y29.1620 
G00 X-34.5313 Y20.2720 
G01 Z0.0000 F254000.00 
G01 X-34.5313 Y24.1780 F3000.00 
G01 X-34.4946 Y24.2667 
G01 X-34.4267 Y24.3346 
G01 X-34.3380 Y24.3713 
G01 X-33.6142 Y24.3713 
G01 X-33.4831 Y24.4381 
G01 X-33.3025 Y24.4968 
G01 X-33.1150 Y24.5265 
G01 X-32.9250 Y24.5265 
G01 X-32.7375 Y24.4968 
G01 X-32.5569 Y24.4381 
G01 X-32.4258 Y24.3713 
G01 X-31.7020 Y24.3713 
G01 X-31.6133 Y24.3346 
G01 X-31.5454 Y24.2667 
G01 X-31.5087 Y24.1780 
G01 X-31.5087 Y20.2720 
G01 X-31.5454 Y20.1833 
G01 X-31.6133 Y20.1154 
G01 X-31.7020 Y20.0787 
G01 X-32.0220 Y20.0787 
G01 X-32.0893 Y20.0114 
G01 X-32.1780 Y19.9747 
G01 X-33.7820 Y19.9747 
G01 X-33.8707 Y20.0114 
G01 X-33.9380 Y20.0787 
G01 X-34.3380 Y20.0787 
G01 X-34.4267 Y20.1154 
G01 X-34.4946 Y20.1833 
G01 X-34.5313 Y20.2720 
G00 X-31.9847 Y45.8720 
G01 Z0.0000 F254000.00 
G01 X-31.9847 Y44.2680 F3000.00 
G01 X-32.0214 Y44.1793 
G01 X-32.0893 Y44.1114 
G01 X-32.1780 Y44.0747 
G01 X-33.7820 Y44.0747 
G01 X-33.8707 Y44.1114 
G01 X-33.9386 Y44.1793 
G01 X-33.9753 Y44.2680 
G01 X-33.9753 Y45.8720 
G01 X-33.9386 Y45.9607 
G01 X-33.8707 Y46.0286 
G01 X-33.7820 Y46.0653 
G01 X-32.1780 Y46.0653 
G01 X-32.0893 Y46.0286 
G01 X-32.0214 Y45.9607 
G01 X-31.9847 Y45.8720 
G00 X-43.3320 Y31.5153 
G01 Z0.0000 F254000.00 
G01 X-41.7280 Y31.5153 F3000.00 
G01 X-41.6393 Y31.4786 
G01 X-41.5714 Y31.4107 
G01 X-41.5347 Y31.3220 
G01 X-41.5347 Y29.7180 
G01 X-41.5714 Y29.6293 
G01 X-41.6393 Y29.5614 
G01 X-41.7280 Y29.5247 
G01 X-43.3320 Y29.5247 
G01 X-43.4207 Y29.5614 
G01 X-43.4886 Y29.6293 
G01 X-43.5253 Y29.7180 
G01 X-43.5253 Y31.3220 
G01 X-43.4886 Y31.4107 
G01 X-43.4207 Y31.4786 
G01 X-43.3320 Y31.5153 
G00 X-36.2077 Y38.1638 
G01 Z0.0000 F254000.00 
G01 X-36.1828 Y38.2889 F3000.00 
G01 X-36.1340 Y38.4068 
G01 X-36.0631 Y38.5129 
G01 X-35.9729 Y38.6031 
G01 X-35.8668 Y38.6740 
G01 X-35.7489 Y38.7228 
G01 X-35.6238 Y38.7477 
G01 X-25.3362 Y38.7477 
G01 X-25.2111 Y38.7228 
G01 X-25.0932 Y38.6740 
G01 X-24.9871 Y38.6031 
G01 X-24.8969 Y38.5129 
G01 X-24.8260 Y38.4068 
G01 X-24.7772 Y38.2889 
G01 X-24.7523 Y38.1638 
G01 X-24.7523 Y27.8762 
G01 X-24.7772 Y27.7511 
G01 X-24.8260 Y27.6332 
G01 X-24.8969 Y27.5271 
G01 X-24.9871 Y27.4369 
G01 X-25.0932 Y27.3660 
G01 X-25.2111 Y27.3172 
G01 X-25.3362 Y27.2923 
G01 X-35.6238 Y27.2923 
G01 X-35.7489 Y27.3172 
G01 X-35.8668 Y27.3660 
G01 X-35.9729 Y27.4369 
G01 X-36.0631 Y27.5271 
G01 X-36.1340 Y27.6332 
G01 X-36.1828 Y27.7511 
G01 X-36.2077 Y27.8762 
G01 X-36.2077 Y28.0038 
G01 X-36.2077 Y38.1638 
G00 X-46.7075 Y17.0518 
G01 Z0.0000 F254000.00 
G01 X-46.5269 Y16.9931 F3000.00 
G01 X-46.3577 Y16.9069 
G01 X-46.2040 Y16.7953 
G01 X-46.0697 Y16.6610 
G01 X-45.9581 Y16.5073 
G01 X-45.8719 Y16.3381 
G01 X-45.8132 Y16.1575 
G01 X-45.7976 Y16.0588 
G01 X-45.7895 Y16.0643 
G01 X-45.7734 Y16.0783 
G01 X-45.7365 Y16.0996 
G01 X-45.7011 Y16.1233 
G01 X-45.6814 Y16.1315 
G01 X-45.6629 Y16.1421 
G01 X-45.6226 Y16.1558 
G01 X-45.5832 Y16.1721 
G01 X-45.5623 Y16.1763 
G01 X-45.5421 Y16.1832 
G01 X-45.4999 Y16.1887 
G01 X-45.4581 Y16.1970 
G01 X-45.4368 Y16.1970 
G01 X-45.4156 Y16.1998 
G01 X-45.3731 Y16.1970 
G01 X-45.3305 Y16.1970 
G01 X-45.3096 Y16.1929 
G01 X-45.2883 Y16.1915 
G01 X-45.2472 Y16.1804 
G01 X-45.2054 Y16.1721 
G01 X-45.1857 Y16.1640 
G01 X-45.1651 Y16.1584 
G01 X-45.1269 Y16.1396 
G01 X-45.0875 Y16.1233 
G01 X-45.0698 Y16.1114 
G01 X-45.0506 Y16.1020 
G01 X-45.0168 Y16.0761 
G01 X-44.9814 Y16.0524 
G01 X-44.9664 Y16.0373 
G01 X-44.9494 Y16.0243 
G01 X-44.9213 Y15.9923 
G01 X-40.3717 Y11.4427 
G01 X-20.5883 Y11.4427 
G01 X-15.4037 Y16.6273 
G01 X-15.3756 Y16.6593 
G01 X-15.3586 Y16.6723 
G01 X-15.3436 Y16.6874 
G01 X-15.3081 Y16.7111 
G01 X-15.2744 Y16.7370 
G01 X-15.2552 Y16.7464 
G01 X-15.2375 Y16.7583 
G01 X-15.1981 Y16.7746 
G01 X-15.1599 Y16.7934 
G01 X-15.1393 Y16.7990 
G01 X-15.1196 Y16.8071 
G01 X-15.0778 Y16.8154 
G01 X-15.0367 Y16.8265 
G01 X-15.0154 Y16.8279 
G01 X-14.9945 Y16.8320 
G01 X-14.9519 Y16.8320 
G01 X-14.9094 Y16.8348 
G01 X-14.8882 Y16.8320 
G01 X-14.8669 Y16.8320 
G01 X-14.8251 Y16.8237 
G01 X-14.7829 Y16.8181 
G01 X-14.7627 Y16.8113 
G01 X-14.7417 Y16.8071 
G01 X-14.7024 Y16.7908 
G01 X-14.6621 Y16.7771 
G01 X-14.6436 Y16.7665 
G01 X-14.6239 Y16.7583 
G01 X-14.5885 Y16.7346 
G01 X-14.5516 Y16.7133 
G01 X-14.5355 Y16.6993 
G01 X-14.5274 Y16.6939 
G01 X-14.5118 Y16.7925 
G01 X-14.4531 Y16.9731 
G01 X-14.3669 Y17.1423 
G01 X-14.2553 Y17.2960 
G01 X-14.1210 Y17.4303 
G01 X-13.9673 Y17.5419 
G01 X-13.7981 Y17.6281 
G01 X-13.6175 Y17.6868 
G01 X-13.5189 Y17.7024 
G01 X-13.5243 Y17.7105 
G01 X-13.5383 Y17.7266 
G01 X-13.5596 Y17.7635 
G01 X-13.5833 Y17.7989 
G01 X-13.5915 Y17.8186 
G01 X-13.6021 Y17.8371 
G01 X-13.6158 Y17.8774 
G01 X-13.6321 Y17.9167 
G01 X-13.6363 Y17.9377 
G01 X-13.6432 Y17.9579 
G01 X-13.6487 Y18.0001 
G01 X-13.6570 Y18.0419 
G01 X-13.6570 Y18.0632 
G01 X-13.6598 Y18.0844 
G01 X-13.6570 Y18.1269 
G01 X-13.6570 Y18.1695 
G01 X-13.6529 Y18.1904 
G01 X-13.6515 Y18.2117 
G01 X-13.6404 Y18.2528 
G01 X-13.6321 Y18.2946 
G01 X-13.6240 Y18.3143 
G01 X-13.6184 Y18.3349 
G01 X-13.5996 Y18.3731 
G01 X-13.5833 Y18.4125 
G01 X-13.5714 Y18.4302 
G01 X-13.5620 Y18.4494 
G01 X-13.5361 Y18.4831 
G01 X-13.5124 Y18.5186 
G01 X-13.4973 Y18.5336 
G01 X-13.4843 Y18.5506 
G01 X-13.4523 Y18.5787 
G01 X-8.9027 Y23.1283 
G01 X-8.9027 Y45.7838 
G01 X-8.8778 Y45.9089 
G01 X-8.8290 Y46.0268 
G01 X-8.7581 Y46.1329 
G01 X-8.6679 Y46.2231 
G01 X-8.5618 Y46.2940 
G01 X-8.4451 Y46.3423 
G01 X-12.1288 Y46.3423 
G01 X-12.2539 Y46.3672 
G01 X-12.3718 Y46.4160 
G01 X-12.4779 Y46.4869 
G01 X-12.5681 Y46.5771 
G01 X-14.0873 Y48.0963 
G01 X-14.1193 Y48.1244 
G01 X-14.1323 Y48.1414 
G01 X-14.1474 Y48.1564 
G01 X-14.1711 Y48.1919 
G01 X-14.1970 Y48.2256 
G01 X-14.2064 Y48.2448 
G01 X-14.2183 Y48.2625 
G01 X-14.2346 Y48.3019 
G01 X-14.2534 Y48.3401 
G01 X-14.2590 Y48.3607 
G01 X-14.2671 Y48.3804 
G01 X-14.2754 Y48.4222 
G01 X-14.2865 Y48.4633 
G01 X-14.2879 Y48.4846 
G01 X-14.2920 Y48.5055 
G01 X-14.2920 Y48.5481 
G01 X-14.2948 Y48.5906 
G01 X-14.2920 Y48.6118 
G01 X-14.2920 Y48.6331 
G01 X-14.2837 Y48.6749 
G01 X-14.2782 Y48.7171 
G01 X-14.2713 Y48.7373 
G01 X-14.2671 Y48.7582 
G01 X-14.2508 Y48.7976 
G01 X-14.2371 Y48.8379 
G01 X-14.2265 Y48.8564 
G01 X-14.2183 Y48.8761 
G01 X-14.1946 Y48.9115 
G01 X-14.1733 Y48.9484 
G01 X-14.1593 Y48.9645 
G01 X-14.1539 Y48.9726 
G01 X-14.2525 Y48.9882 
G01 X-14.4331 Y49.0469 
G01 X-14.6023 Y49.1331 
G01 X-14.7560 Y49.2447 
G01 X-14.8903 Y49.3790 
G01 X-15.0019 Y49.5327 
G01 X-15.0881 Y49.7019 
G01 X-15.1468 Y49.8825 
G01 X-15.1624 Y49.9811 
G01 X-15.1705 Y49.9757 
G01 X-15.1866 Y49.9616 
G01 X-15.2235 Y49.9404 
G01 X-15.2589 Y49.9167 
G01 X-15.2786 Y49.9085 
G01 X-15.2971 Y49.8979 
G01 X-15.3374 Y49.8842 
G01 X-15.3767 Y49.8679 
G01 X-15.3977 Y49.8637 
G01 X-15.4179 Y49.8568 
G01 X-15.4601 Y49.8513 
G01 X-15.5019 Y49.8430 
G01 X-15.5232 Y49.8430 
G01 X-15.5444 Y49.8402 
G01 X-15.5869 Y49.8430 
G01 X-15.6295 Y49.8430 
G01 X-15.6504 Y49.8471 
G01 X-15.6717 Y49.8485 
G01 X-15.7128 Y49.8596 
G01 X-15.7546 Y49.8679 
G01 X-15.7743 Y49.8760 
G01 X-15.7949 Y49.8816 
G01 X-15.8331 Y49.9004 
G01 X-15.8725 Y49.9167 
G01 X-15.8902 Y49.9285 
G01 X-15.9094 Y49.9380 
G01 X-15.9431 Y49.9639 
G01 X-15.9786 Y49.9876 
G01 X-15.9936 Y50.0027 
G01 X-16.0106 Y50.0157 
G01 X-16.0387 Y50.0477 
G01 X-20.5883 Y54.5973 
G01 X-40.3717 Y54.5973 
G01 X-45.5563 Y49.4127 
G01 X-45.5844 Y49.3807 
G01 X-45.6013 Y49.3677 
G01 X-45.6164 Y49.3526 
G01 X-45.6519 Y49.3289 
G01 X-45.6856 Y49.3030 
G01 X-45.7048 Y49.2936 
G01 X-45.7225 Y49.2817 
G01 X-45.7619 Y49.2654 
G01 X-45.8001 Y49.2466 
G01 X-45.8207 Y49.2410 
G01 X-45.8404 Y49.2329 
G01 X-45.8822 Y49.2246 
G01 X-45.9233 Y49.2135 
G01 X-45.9446 Y49.2121 
G01 X-45.9655 Y49.2080 
G01 X-46.0081 Y49.2080 
G01 X-46.0506 Y49.2052 
G01 X-46.0718 Y49.2080 
G01 X-46.0931 Y49.2080 
G01 X-46.1349 Y49.2163 
G01 X-46.1771 Y49.2218 
G01 X-46.1973 Y49.2287 
G01 X-46.2182 Y49.2329 
G01 X-46.2576 Y49.2492 
G01 X-46.2979 Y49.2629 
G01 X-46.3164 Y49.2735 
G01 X-46.3361 Y49.2817 
G01 X-46.3715 Y49.3054 
G01 X-46.4084 Y49.3266 
G01 X-46.4245 Y49.3407 
G01 X-46.4326 Y49.3461 
G01 X-46.4482 Y49.2475 
G01 X-46.5069 Y49.0669 
G01 X-46.5931 Y48.8977 
G01 X-46.7047 Y48.7440 
G01 X-46.8390 Y48.6097 
G01 X-46.9927 Y48.4981 
G01 X-47.1619 Y48.4119 
G01 X-47.3425 Y48.3532 
G01 X-47.4411 Y48.3376 
G01 X-47.4357 Y48.3295 
G01 X-47.4216 Y48.3134 
G01 X-47.4004 Y48.2765 
G01 X-47.3767 Y48.2411 
G01 X-47.3685 Y48.2214 
G01 X-47.3579 Y48.2029 
G01 X-47.3442 Y48.1626 
G01 X-47.3279 Y48.1232 
G01 X-47.3237 Y48.1023 
G01 X-47.3168 Y48.0821 
G01 X-47.3113 Y48.0399 
G01 X-47.3030 Y47.9981 
G01 X-47.3030 Y47.9768 
G01 X-47.3002 Y47.9556 
G01 X-47.3030 Y47.9131 
G01 X-47.3030 Y47.8705 
G01 X-47.3071 Y47.8496 
G01 X-47.3085 Y47.8283 
G01 X-47.3196 Y47.7872 
G01 X-47.3279 Y47.7454 
G01 X-47.3360 Y47.7257 
G01 X-47.3416 Y47.7051 
G01 X-47.3604 Y47.6669 
G01 X-47.3767 Y47.6275 
G01 X-47.3885 Y47.6098 
G01 X-47.3980 Y47.5906 
G01 X-47.4239 Y47.5569 
G01 X-47.4476 Y47.5214 
G01 X-47.4627 Y47.5063 
G01 X-47.4757 Y47.4894 
G01 X-47.5077 Y47.4613 
G01 X-52.0573 Y42.9117 
G01 X-52.0573 Y23.1283 
G01 X-46.8727 Y17.9437 
G01 X-46.8407 Y17.9156 
G01 X-46.8277 Y17.8986 
G01 X-46.8126 Y17.8836 
G01 X-46.7889 Y17.8481 
G01 X-46.7630 Y17.8144 
G01 X-46.7535 Y17.7952 
G01 X-46.7417 Y17.7775 
G01 X-46.7254 Y17.7381 
G01 X-46.7066 Y17.6999 
G01 X-46.7010 Y17.6793 
G01 X-46.6929 Y17.6596 
G01 X-46.6846 Y17.6178 
G01 X-46.6735 Y17.5767 
G01 X-46.6721 Y17.5554 
G01 X-46.6680 Y17.5345 
G01 X-46.6680 Y17.4919 
G01 X-46.6652 Y17.4494 
G01 X-46.6680 Y17.4282 
G01 X-46.6680 Y17.4069 
G01 X-46.6763 Y17.3651 
G01 X-46.6818 Y17.3229 
G01 X-46.6887 Y17.3027 
G01 X-46.6929 Y17.2817 
G01 X-46.7092 Y17.2424 
G01 X-46.7229 Y17.2021 
G01 X-46.7335 Y17.1836 
G01 X-46.7417 Y17.1639 
G01 X-46.7654 Y17.1285 
G01 X-46.7866 Y17.0916 
G01 X-46.8007 Y17.0755 
G01 X-46.8061 Y17.0674 
G01 X-46.7075 Y17.0518 
G00 X-51.1860 Y40.9693 
G01 Z0.0000 F254000.00 
G01 X-47.8740 Y40.9693 F3000.00 
G01 X-47.7853 Y40.9326 
G01 X-47.7174 Y40.8647 
G01 X-47.6807 Y40.7760 
G01 X-47.6807 Y37.4640 
G01 X-47.7174 Y37.3753 
G01 X-47.7853 Y37.3074 
G01 X-47.8740 Y37.2707 
G01 X-51.1860 Y37.2707 
G01 X-51.2747 Y37.3074 
G01 X-51.3426 Y37.3753 
G01 X-51.3793 Y37.4640 
G01 X-51.3793 Y40.7760 
G01 X-51.3426 Y40.8647 
G01 X-51.2747 Y40.9326 
G01 X-51.1860 Y40.9693 
G00 X-51.1860 Y28.7693 
G01 Z0.0000 F254000.00 
G01 X-47.8740 Y28.7693 F3000.00 
G01 X-47.7853 Y28.7326 
G01 X-47.7174 Y28.6647 
G01 X-47.6807 Y28.5760 
G01 X-47.6807 Y25.2640 
G01 X-47.7174 Y25.1753 
G01 X-47.7853 Y25.1074 
G01 X-47.8740 Y25.0707 
G01 X-51.1860 Y25.0707 
G01 X-51.2747 Y25.1074 
G01 X-51.3426 Y25.1753 
G01 X-51.3793 Y25.2640 
G01 X-51.3793 Y28.5760 
G01 X-51.3426 Y28.6647 
G01 X-51.2747 Y28.7326 
G01 X-51.1860 Y28.7693 
G00 X-22.5307 Y53.7260 
G01 Z0.0000 F254000.00 
G01 X-22.5307 Y50.4140 F3000.00 
G01 X-22.5674 Y50.3253 
G01 X-22.6353 Y50.2574 
G01 X-22.7240 Y50.2207 
G01 X-26.0360 Y50.2207 
G01 X-26.1247 Y50.2574 
G01 X-26.1926 Y50.3253 
G01 X-26.2293 Y50.4140 
G01 X-26.2293 Y53.7260 
G01 X-26.1926 Y53.8147 
G01 X-26.1247 Y53.8826 
G01 X-26.0360 Y53.9193 
G01 X-22.7240 Y53.9193 
G01 X-22.6353 Y53.8826 
G01 X-22.5674 Y53.8147 
G01 X-22.5307 Y53.7260 
G00 X-34.7307 Y53.7260 
G01 Z0.0000 F254000.00 
G01 X-34.7307 Y50.4140 F3000.00 
G01 X-34.7674 Y50.3253 
G01 X-34.8353 Y50.2574 
G01 X-34.9240 Y50.2207 
G01 X-38.2360 Y50.2207 
G01 X-38.3247 Y50.2574 
G01 X-38.3926 Y50.3253 
G01 X-38.4293 Y50.4140 
G01 X-38.4293 Y53.7260 
G01 X-38.3926 Y53.8147 
G01 X-38.3247 Y53.8826 
G01 X-38.2360 Y53.9193 
G01 X-34.9240 Y53.9193 
G01 X-34.8353 Y53.8826 
G01 X-34.7674 Y53.8147 
G01 X-34.7307 Y53.7260 
G00 X-48.1965 Y43.0850 
G01 Z0.0000 F254000.00 
G01 X-48.1965 Y43.2750 F3000.00 
G01 X-48.1668 Y43.4625 
G01 X-48.1081 Y43.6431 
G01 X-48.0219 Y43.8123 
G01 X-47.9103 Y43.9660 
G01 X-47.7760 Y44.1003 
G01 X-47.6377 Y44.2007 
G01 X-47.6377 Y45.7838 
G01 X-47.6128 Y45.9089 
G01 X-47.5640 Y46.0268 
G01 X-47.4931 Y46.1329 
G01 X-47.4029 Y46.2231 
G01 X-43.5929 Y50.0331 
G01 X-43.4868 Y50.1040 
G01 X-43.3689 Y50.1528 
G01 X-43.2438 Y50.1777 
G01 X-38.4575 Y50.1777 
G01 X-38.3939 Y50.1777 
G01 X-38.3300 Y50.1777 
G01 X-38.2907 Y50.1699 
G01 X-34.8693 Y50.1699 
G01 X-34.8301 Y50.1777 
G01 X-34.7666 Y50.1777 
G01 X-34.7026 Y50.1777 
G01 X-26.2575 Y50.1777 
G01 X-26.1940 Y50.1777 
G01 X-26.1300 Y50.1777 
G01 X-26.0907 Y50.1699 
G01 X-22.6693 Y50.1699 
G01 X-22.6301 Y50.1777 
G01 X-22.5667 Y50.1777 
G01 X-22.5025 Y50.1777 
G01 X-22.1265 Y50.1777 
G01 X-22.0839 Y50.1805 
G01 X-22.0628 Y50.1777 
G01 X-22.0415 Y50.1777 
G01 X-21.9997 Y50.1694 
G01 X-21.9575 Y50.1638 
G01 X-21.9373 Y50.1570 
G01 X-21.9163 Y50.1528 
G01 X-21.8770 Y50.1365 
G01 X-21.8366 Y50.1228 
G01 X-21.8182 Y50.1121 
G01 X-21.7985 Y50.1040 
G01 X-21.7630 Y50.0803 
G01 X-21.7262 Y50.0590 
G01 X-21.7101 Y50.0449 
G01 X-21.6924 Y50.0331 
G01 X-21.6623 Y50.0030 
G01 X-21.6506 Y49.9927 
G01 X-21.5107 Y49.9927 
G01 X-21.4103 Y50.1310 
G01 X-21.2760 Y50.2653 
G01 X-21.1223 Y50.3769 
G01 X-20.9531 Y50.4631 
G01 X-20.7725 Y50.5218 
G01 X-20.5850 Y50.5515 
G01 X-20.3950 Y50.5515 
G01 X-20.2075 Y50.5218 
G01 X-20.0269 Y50.4631 
G01 X-19.8577 Y50.3769 
G01 X-19.7040 Y50.2653 
G01 X-19.5697 Y50.1310 
G01 X-19.4693 Y49.9927 
G01 X-19.3294 Y49.9927 
G01 X-19.3177 Y50.0030 
G01 X-19.2876 Y50.0331 
G01 X-19.2699 Y50.0449 
G01 X-19.2538 Y50.0590 
G01 X-19.2170 Y50.0803 
G01 X-19.1815 Y50.1040 
G01 X-19.1618 Y50.1121 
G01 X-19.1434 Y50.1228 
G01 X-19.1030 Y50.1365 
G01 X-19.0637 Y50.1528 
G01 X-19.0427 Y50.1570 
G01 X-19.0225 Y50.1638 
G01 X-18.9803 Y50.1694 
G01 X-18.9385 Y50.1777 
G01 X-18.9172 Y50.1777 
G01 X-18.8960 Y50.1805 
G01 X-18.8535 Y50.1777 
G01 X-17.7162 Y50.1777 
G01 X-17.5911 Y50.1528 
G01 X-17.4732 Y50.1040 
G01 X-17.3671 Y50.0331 
G01 X-17.2769 Y49.9429 
G01 X-13.4669 Y46.1329 
G01 X-13.3960 Y46.0268 
G01 X-13.3472 Y45.9089 
G01 X-13.3223 Y45.7838 
G01 X-13.3223 Y45.6562 
G01 X-13.3472 Y45.5311 
G01 X-13.3960 Y45.4132 
G01 X-13.4669 Y45.3071 
G01 X-13.5571 Y45.2169 
G01 X-13.6632 Y45.1460 
G01 X-13.7811 Y45.0972 
G01 X-13.8424 Y45.0850 
G01 X-13.7811 Y45.0728 
G01 X-13.6632 Y45.0240 
G01 X-13.5571 Y44.9531 
G01 X-13.4669 Y44.8629 
G01 X-13.3960 Y44.7568 
G01 X-13.3472 Y44.6389 
G01 X-13.3223 Y44.5138 
G01 X-13.3223 Y40.9331 
G01 X-13.3223 Y40.8700 
G01 X-13.3301 Y40.8308 
G01 X-13.3301 Y37.4092 
G01 X-13.3223 Y37.3700 
G01 X-13.3223 Y37.3055 
G01 X-13.3223 Y28.7331 
G01 X-13.3223 Y28.6700 
G01 X-13.3301 Y28.6308 
G01 X-13.3301 Y25.2092 
G01 X-13.3223 Y25.1700 
G01 X-13.3223 Y25.1055 
G01 X-13.3223 Y23.8807 
G01 X-13.1840 Y23.7803 
G01 X-13.0497 Y23.6460 
G01 X-12.9381 Y23.4923 
G01 X-12.8519 Y23.3231 
G01 X-12.7932 Y23.1425 
G01 X-12.7635 Y22.9550 
G01 X-12.7635 Y22.7650 
G01 X-12.7932 Y22.5775 
G01 X-12.8519 Y22.3969 
G01 X-12.9381 Y22.2277 
G01 X-13.0497 Y22.0740 
G01 X-13.1840 Y21.9397 
G01 X-13.3223 Y21.8393 
G01 X-13.3223 Y20.2562 
G01 X-13.3472 Y20.1311 
G01 X-13.3960 Y20.0132 
G01 X-13.4669 Y19.9071 
G01 X-13.5571 Y19.8169 
G01 X-17.3671 Y16.0069 
G01 X-17.4732 Y15.9360 
G01 X-17.5911 Y15.8872 
G01 X-17.7162 Y15.8623 
G01 X-22.5024 Y15.8623 
G01 X-22.5655 Y15.8623 
G01 X-22.6300 Y15.8623 
G01 X-22.6692 Y15.8701 
G01 X-26.0908 Y15.8701 
G01 X-26.1290 Y15.8625 
G01 X-26.1930 Y15.8623 
G01 X-26.2575 Y15.8623 
G01 X-34.7024 Y15.8623 
G01 X-34.7655 Y15.8623 
G01 X-34.8300 Y15.8623 
G01 X-34.8692 Y15.8701 
G01 X-38.2908 Y15.8701 
G01 X-38.3290 Y15.8625 
G01 X-38.3930 Y15.8623 
G01 X-38.4575 Y15.8623 
G01 X-39.6193 Y15.8623 
G01 X-39.7197 Y15.7240 
G01 X-39.8540 Y15.5897 
G01 X-40.0077 Y15.4781 
G01 X-40.1769 Y15.3919 
G01 X-40.3575 Y15.3332 
G01 X-40.5450 Y15.3035 
G01 X-40.7350 Y15.3035 
G01 X-40.9225 Y15.3332 
G01 X-41.1031 Y15.3919 
G01 X-41.2723 Y15.4781 
G01 X-41.4260 Y15.5897 
G01 X-41.5603 Y15.7240 
G01 X-41.6607 Y15.8623 
G01 X-43.2438 Y15.8623 
G01 X-43.3689 Y15.8872 
G01 X-43.4868 Y15.9360 
G01 X-43.5929 Y16.0069 
G01 X-43.6831 Y16.0971 
G01 X-47.4931 Y19.9071 
G01 X-47.5640 Y20.0132 
G01 X-47.6128 Y20.1311 
G01 X-47.6377 Y20.2562 
G01 X-47.6377 Y25.0425 
G01 X-47.6377 Y25.1059 
G01 X-47.6377 Y25.1700 
G01 X-47.6299 Y25.2093 
G01 X-47.6299 Y28.6307 
G01 X-47.6377 Y28.6699 
G01 X-47.6377 Y28.7333 
G01 X-47.6377 Y28.7975 
G01 X-47.6377 Y37.2425 
G01 X-47.6377 Y37.3060 
G01 X-47.6377 Y37.3700 
G01 X-47.6299 Y37.4093 
G01 X-47.6299 Y40.8307 
G01 X-47.6377 Y40.8699 
G01 X-47.6377 Y40.9333 
G01 X-47.6377 Y40.9975 
G01 X-47.6377 Y42.1593 
G01 X-47.7760 Y42.2597 
G01 X-47.9103 Y42.3940 
G01 X-48.0219 Y42.5477 
G01 X-48.1081 Y42.7169 
G01 X-48.1668 Y42.8975 
G01 X-48.1965 Y43.0850 
G00 X-9.7740 Y37.2707 
G01 Z0.0000 F254000.00 
G01 X-13.0860 Y37.2707 F3000.00 
G01 X-13.1747 Y37.3074 
G01 X-13.2426 Y37.3753 
G01 X-13.2793 Y37.4640 
G01 X-13.2793 Y40.7760 
G01 X-13.2426 Y40.8647 
G01 X-13.1747 Y40.9326 
G01 X-13.0860 Y40.9693 
G01 X-9.7740 Y40.9693 
G01 X-9.6853 Y40.9326 
G01 X-9.6174 Y40.8647 
G01 X-9.5807 Y40.7760 
G01 X-9.5807 Y37.4640 
G01 X-9.6174 Y37.3753 
G01 X-9.6853 Y37.3074 
G01 X-9.7740 Y37.2707 
G00 X-9.7740 Y25.0707 
G01 Z0.0000 F254000.00 
G01 X-13.0860 Y25.0707 F3000.00 
G01 X-13.1747 Y25.1074 
G01 X-13.2426 Y25.1753 
G01 X-13.2793 Y25.2640 
G01 X-13.2793 Y28.5760 
G01 X-13.2426 Y28.6647 
G01 X-13.1747 Y28.7326 
G01 X-13.0860 Y28.7693 
G01 X-9.7740 Y28.7693 
G01 X-9.6853 Y28.7326 
G01 X-9.6174 Y28.6647 
G01 X-9.5807 Y28.5760 
G01 X-9.5807 Y25.2640 
G01 X-9.6174 Y25.1753 
G01 X-9.6853 Y25.1074 
G01 X-9.7740 Y25.0707 
G00 X-26.2293 Y12.3140 
G01 Z0.0000 F254000.00 
G01 X-26.2293 Y15.6260 F3000.00 
G01 X-26.1926 Y15.7147 
G01 X-26.1247 Y15.7826 
G01 X-26.0360 Y15.8193 
G01 X-22.7240 Y15.8193 
G01 X-22.6353 Y15.7826 
G01 X-22.5674 Y15.7147 
G01 X-22.5307 Y15.6260 
G01 X-22.5307 Y12.3140 
G01 X-22.5674 Y12.2253 
G01 X-22.6353 Y12.1574 
G01 X-22.7240 Y12.1207 
G01 X-26.0360 Y12.1207 
G01 X-26.1247 Y12.1574 
G01 X-26.1926 Y12.2253 
G01 X-26.2293 Y12.3140 
G00 X-38.4293 Y12.3140 
G01 Z0.0000 F254000.00 
G01 X-38.4293 Y15.6260 F3000.00 
G01 X-38.3926 Y15.7147 
G01 X-38.3247 Y15.7826 
G01 X-38.2360 Y15.8193 
G01 X-34.9240 Y15.8193 
G01 X-34.8353 Y15.7826 
G01 X-34.7674 Y15.7147 
G01 X-34.7307 Y15.6260 
G01 X-34.7307 Y12.3140 
G01 X-34.7674 Y12.2253 
G01 X-34.8353 Y12.1574 
G01 X-34.9240 Y12.1207 
G01 X-38.2360 Y12.1207 
G01 X-38.3247 Y12.1574 
G01 X-38.3926 Y12.2253 
G01 X-38.4293 Y12.3140 
G00 X-31.4753 Y5.6680 
G01 Z0.0000 F254000.00 
G01 X-31.4753 Y7.2720 F3000.00 
G01 X-31.4386 Y7.3607 
G01 X-31.3707 Y7.4286 
G01 X-31.2820 Y7.4653 
G01 X-29.6780 Y7.4653 
G01 X-29.5893 Y7.4286 
G01 X-29.5214 Y7.3607 
G01 X-29.4847 Y7.2720 
G01 X-29.4847 Y5.6680 
G01 X-29.5214 Y5.5793 
G01 X-29.5893 Y5.5114 
G01 X-29.6780 Y5.4747 
G01 X-31.2820 Y5.4747 
G01 X-31.3707 Y5.5114 
G01 X-31.4386 Y5.5793 
G01 X-31.4753 Y5.6680 
G00 X-28.9753 Y5.6680 
G01 Z0.0000 F254000.00 
G01 X-28.9753 Y7.2720 F3000.00 
G01 X-28.9386 Y7.3607 
G01 X-28.8707 Y7.4286 
G01 X-28.7820 Y7.4653 
G01 X-27.1780 Y7.4653 
G01 X-27.0893 Y7.4286 
G01 X-27.0214 Y7.3607 
G01 X-26.9847 Y7.2720 
G01 X-26.9847 Y7.2162 
G01 X-14.2760 Y7.1074 
G01 X-14.2553 Y7.1360 
G01 X-14.1210 Y7.2703 
G01 X-13.9673 Y7.3819 
G01 X-13.7981 Y7.4681 
G01 X-13.6175 Y7.5268 
G01 X-13.4300 Y7.5565 
G01 X-13.2400 Y7.5565 
G01 X-13.0525 Y7.5268 
G01 X-12.8719 Y7.4681 
G01 X-12.7027 Y7.3819 
G01 X-12.5490 Y7.2703 
G01 X-12.4147 Y7.1360 
G01 X-12.3031 Y6.9823 
G01 X-12.2169 Y6.8131 
G01 X-12.1582 Y6.6325 
G01 X-12.1285 Y6.4450 
G01 X-12.1285 Y6.2550 
G01 X-12.1582 Y6.0675 
G01 X-12.2169 Y5.8869 
G01 X-12.3031 Y5.7177 
G01 X-12.4147 Y5.5640 
G01 X-12.5490 Y5.4297 
G01 X-12.7027 Y5.3181 
G01 X-12.8719 Y5.2319 
G01 X-13.0525 Y5.1732 
G01 X-13.2400 Y5.1435 
G01 X-13.4300 Y5.1435 
G01 X-13.6175 Y5.1732 
G01 X-13.7981 Y5.2319 
G01 X-13.9673 Y5.3181 
G01 X-14.1210 Y5.4297 
G01 X-14.2553 Y5.5640 
G01 X-14.2878 Y5.6088 
G01 X-26.9847 Y5.7176 
G01 X-26.9847 Y5.6680 
G01 X-27.0214 Y5.5793 
G01 X-27.0893 Y5.5114 
G01 X-27.1780 Y5.4747 
G01 X-28.7820 Y5.4747 
G01 X-28.8707 Y5.5114 
G01 X-28.9386 Y5.5793 
G01 X-28.9753 Y5.6680 
G00 X-3.1280 Y32.0247 
G01 Z0.0000 F254000.00 
G01 X-4.7320 Y32.0247 F3000.00 
G01 X-4.8207 Y32.0614 
G01 X-4.8886 Y32.1293 
G01 X-4.9253 Y32.2180 
G01 X-4.9253 Y33.8220 
G01 X-4.8886 Y33.9107 
G01 X-4.8207 Y33.9786 
G01 X-4.7320 Y34.0153 
G01 X-3.1280 Y34.0153 
G01 X-3.0393 Y33.9786 
G01 X-2.9714 Y33.9107 
G01 X-2.9347 Y33.8220 
G01 X-2.9347 Y32.2180 
G01 X-2.9714 Y32.1293 
G01 X-3.0393 Y32.0614 
G01 X-3.1280 Y32.0247 
G00 X-5.0165 Y22.7650 
G01 Z0.0000 F254000.00 
G01 X-5.0165 Y22.9550 F3000.00 
G01 X-4.9868 Y23.1425 
G01 X-4.9281 Y23.3231 
G01 X-4.8419 Y23.4923 
G01 X-4.7303 Y23.6460 
G01 X-4.5960 Y23.7803 
G01 X-4.5029 Y23.8479 
G01 X-4.5748 Y25.4418 
G01 X-4.5777 Y25.4562 
G01 X-4.5777 Y25.5054 
G01 X-4.5799 Y25.5545 
G01 X-4.5777 Y25.5691 
G01 X-4.5777 Y29.5247 
G01 X-4.7320 Y29.5247 
G01 X-4.8207 Y29.5614 
G01 X-4.8886 Y29.6293 
G01 X-4.9253 Y29.7180 
G01 X-4.9253 Y31.3220 
G01 X-4.8886 Y31.4107 
G01 X-4.8207 Y31.4786 
G01 X-4.7320 Y31.5153 
G01 X-3.1280 Y31.5153 
G01 X-3.0393 Y31.4786 
G01 X-2.9714 Y31.4107 
G01 X-2.9347 Y31.3220 
G01 X-2.9347 Y29.7180 
G01 X-2.9714 Y29.6293 
G01 X-3.0393 Y29.5614 
G01 X-3.1280 Y29.5247 
G01 X-3.2823 Y29.5247 
G01 X-3.2823 Y25.5346 
G01 X-3.2089 Y23.9078 
G01 X-3.1777 Y23.8919 
G01 X-3.0240 Y23.7803 
G01 X-2.8897 Y23.6460 
G01 X-2.7781 Y23.4923 
G01 X-2.6919 Y23.3231 
G01 X-2.6332 Y23.1425 
G01 X-2.6035 Y22.9550 
G01 X-2.6035 Y22.7650 
G01 X-2.6332 Y22.5775 
G01 X-2.6919 Y22.3969 
G01 X-2.7781 Y22.2277 
G01 X-2.8897 Y22.0740 
G01 X-3.0240 Y21.9397 
G01 X-3.1777 Y21.8281 
G01 X-3.3469 Y21.7419 
G01 X-3.5275 Y21.6832 
G01 X-3.7150 Y21.6535 
G01 X-3.9050 Y21.6535 
G01 X-4.0925 Y21.6832 
G01 X-4.2731 Y21.7419 
G01 X-4.4423 Y21.8281 
G01 X-4.5960 Y21.9397 
G01 X-4.7303 Y22.0740 
G01 X-4.8419 Y22.2277 
G01 X-4.9281 Y22.3969 
G01 X-4.9868 Y22.5775 
G01 X-5.0165 Y22.7650 
G00 X-5.0673 Y20.2562 
G01 Z0.0000 F254000.00 
G01 X-5.0922 Y20.1311 F3000.00 
G01 X-5.1410 Y20.0132 
G01 X-5.2119 Y19.9071 
G01 X-5.3021 Y19.8169 
G01 X-17.3671 Y7.7519 
G01 X-17.4732 Y7.6810 
G01 X-17.5911 Y7.6322 
G01 X-17.7162 Y7.6073 
G01 X-43.2438 Y7.6073 
G01 X-43.3689 Y7.6322 
G01 X-43.4868 Y7.6810 
G01 X-43.5929 Y7.7519 
G01 X-43.6831 Y7.8421 
G01 X-55.7481 Y19.9071 
G01 X-55.8190 Y20.0132 
G01 X-55.8678 Y20.1311 
G01 X-55.8927 Y20.2562 
G01 X-55.8927 Y45.7838 
G01 X-55.8678 Y45.9089 
G01 X-55.8190 Y46.0268 
G01 X-55.7481 Y46.1329 
G01 X-55.6579 Y46.2231 
G01 X-43.5929 Y58.2881 
G01 X-43.4868 Y58.3590 
G01 X-43.3689 Y58.4078 
G01 X-43.2438 Y58.4327 
G01 X-21.2518 Y58.4327 
G01 X-21.1266 Y58.4078 
G01 X-20.7401 Y58.2477 
G01 X-20.2399 Y58.2477 
G01 X-19.8534 Y58.4078 
G01 X-19.7282 Y58.4327 
G01 X-17.7162 Y58.4327 
G01 X-17.5911 Y58.4078 
G01 X-17.4732 Y58.3590 
G01 X-17.3671 Y58.2881 
G01 X-17.2769 Y58.1979 
G01 X-6.4819 Y47.4029 
G01 X-6.4110 Y47.2968 
G01 X-6.3622 Y47.1789 
G01 X-6.3373 Y47.0538 
G01 X-6.3373 Y46.9262 
G01 X-6.3622 Y46.8011 
G01 X-6.4110 Y46.6832 
G01 X-6.4819 Y46.5771 
G01 X-6.5721 Y46.4869 
G01 X-6.6782 Y46.4160 
G01 X-6.7949 Y46.3677 
G01 X-5.6512 Y46.3677 
G01 X-5.5261 Y46.3428 
G01 X-5.4082 Y46.2940 
G01 X-5.3021 Y46.2231 
G01 X-5.2119 Y46.1329 
G01 X-5.1410 Y46.0268 
G01 X-5.0922 Y45.9089 
G01 X-5.0673 Y45.7838 
G01 X-5.0673 Y45.6562 
G01 X-5.0673 Y20.2562 
G00 X-5.0165 Y50.0700 
G01 Z0.0000 F254000.00 
G01 X-5.0165 Y50.2600 F3000.00 
G01 X-4.9868 Y50.4475 
G01 X-4.9281 Y50.6281 
G01 X-4.8419 Y50.7973 
G01 X-4.7303 Y50.9510 
G01 X-4.5960 Y51.0853 
G01 X-4.4423 Y51.1969 
G01 X-4.2731 Y51.2831 
G01 X-4.0925 Y51.3418 
G01 X-3.9050 Y51.3715 
G01 X-3.7150 Y51.3715 
G01 X-3.5275 Y51.3418 
G01 X-3.3469 Y51.2831 
G01 X-3.1777 Y51.1969 
G01 X-3.0240 Y51.0853 
G01 X-2.8897 Y50.9510 
G01 X-2.7781 Y50.7973 
G01 X-2.6919 Y50.6281 
G01 X-2.6332 Y50.4475 
G01 X-2.6035 Y50.2600 
G01 X-2.6035 Y50.0700 
G01 X-2.6332 Y49.8825 
G01 X-2.6919 Y49.7019 
G01 X-2.7781 Y49.5327 
G01 X-2.8897 Y49.3790 
G01 X-3.0240 Y49.2447 
G01 X-3.0685 Y49.2124 
G01 X-3.1725 Y36.5153 
G01 X-3.1280 Y36.5153 
G01 X-3.0393 Y36.4786 
G01 X-2.9714 Y36.4107 
G01 X-2.9347 Y36.3220 
G01 X-2.9347 Y34.7180 
G01 X-2.9714 Y34.6293 
G01 X-3.0393 Y34.5614 
G01 X-3.1280 Y34.5247 
G01 X-4.7320 Y34.5247 
G01 X-4.8207 Y34.5614 
G01 X-4.8886 Y34.6293 
G01 X-4.9253 Y34.7180 
G01 X-4.9253 Y36.3220 
G01 X-4.8886 Y36.4107 
G01 X-4.8207 Y36.4786 
G01 X-4.7320 Y36.5153 
G01 X-4.6712 Y36.5153 
G01 X-4.5670 Y49.2237 
G01 X-4.5960 Y49.2447 
G01 X-4.7303 Y49.3790 
G01 X-4.8419 Y49.5327 
G01 X-4.9281 Y49.7019 
G01 X-4.9868 Y49.8825 
G01 X-5.0165 Y50.0700 
G00 X-41.8465 Y6.2550 
G01 Z0.0000 F254000.00 
G01 X-41.8465 Y6.4450 F3000.00 
G01 X-41.8168 Y6.6325 
G01 X-41.7581 Y6.8131 
G01 X-41.6719 Y6.9823 
G01 X-41.5603 Y7.1360 
G01 X-41.4260 Y7.2703 
G01 X-41.2723 Y7.3819 
G01 X-41.1031 Y7.4681 
G01 X-40.9225 Y7.5268 
G01 X-40.7350 Y7.5565 
G01 X-40.5450 Y7.5565 
G01 X-40.3575 Y7.5268 
G01 X-40.1769 Y7.4681 
G01 X-40.0077 Y7.3819 
G01 X-39.8540 Y7.2703 
G01 X-39.7197 Y7.1360 
G01 X-39.7065 Y7.1177 
G01 X-33.9753 Y7.1177 
G01 X-33.9753 Y7.2720 
G01 X-33.9386 Y7.3607 
G01 X-33.8707 Y7.4286 
G01 X-33.7820 Y7.4653 
G01 X-32.1780 Y7.4653 
G01 X-32.0893 Y7.4286 
G01 X-32.0214 Y7.3607 
G01 X-31.9847 Y7.2720 
G01 X-31.9847 Y5.6680 
G01 X-32.0214 Y5.5793 
G01 X-32.0893 Y5.5114 
G01 X-32.1780 Y5.4747 
G01 X-33.7820 Y5.4747 
G01 X-33.8707 Y5.5114 
G01 X-33.9386 Y5.5793 
G01 X-33.9753 Y5.6680 
G01 X-33.9753 Y5.8223 
G01 X-39.5548 Y5.8223 
G01 X-39.6081 Y5.7177 
G01 X-39.7197 Y5.5640 
G01 X-39.8540 Y5.4297 
G01 X-40.0077 Y5.3181 
G01 X-40.1769 Y5.2319 
G01 X-40.3575 Y5.1732 
G01 X-40.5450 Y5.1435 
G01 X-40.7350 Y5.1435 
G01 X-40.9225 Y5.1732 
G01 X-41.1031 Y5.2319 
G01 X-41.2723 Y5.3181 
G01 X-41.4260 Y5.4297 
G01 X-41.5603 Y5.5640 
G01 X-41.6719 Y5.7177 
G01 X-41.7581 Y5.8869 
G01 X-41.8168 Y6.0675 
G01 X-41.8465 Y6.2550 
G00 X-21.4103 Y60.2910 
G01 Z0.0000 F254000.00 
G01 X-21.2760 Y60.4253 F3000.00 
G01 X-21.1223 Y60.5369 
G01 X-20.9531 Y60.6231 
G01 X-20.7725 Y60.6818 
G01 X-20.5850 Y60.7115 
G01 X-20.3950 Y60.7115 
G01 X-20.2075 Y60.6818 
G01 X-20.0269 Y60.6231 
G01 X-19.8577 Y60.5369 
G01 X-19.7040 Y60.4253 
G01 X-19.5697 Y60.2910 
G01 X-19.4581 Y60.1373 
G01 X-19.3719 Y59.9681 
G01 X-19.3132 Y59.7875 
G01 X-19.2835 Y59.6000 
G01 X-19.2835 Y59.4100 
G01 X-19.3132 Y59.2225 
G01 X-19.3719 Y59.0419 
G01 X-19.4581 Y58.8727 
G01 X-19.5697 Y58.7190 
G01 X-19.7040 Y58.5847 
G01 X-19.8577 Y58.4731 
G01 X-20.0269 Y58.3869 
G01 X-20.2075 Y58.3282 
G01 X-20.3950 Y58.2985 
G01 X-20.5850 Y58.2985 
G01 X-20.7725 Y58.3282 
G01 X-20.9531 Y58.3869 
G01 X-21.1223 Y58.4731 
G01 X-21.2760 Y58.5847 
G01 X-21.4103 Y58.7190 
G01 X-21.5122 Y58.8594 
G01 X-26.9847 Y58.8704 
G01 X-26.9847 Y58.7680 
G01 X-27.0214 Y58.6793 
G01 X-27.0893 Y58.6114 
G01 X-27.1780 Y58.5747 
G01 X-28.7820 Y58.5747 
G01 X-28.8707 Y58.6114 
G01 X-28.9386 Y58.6793 
G01 X-28.9753 Y58.7680 
G01 X-28.9753 Y60.3720 
G01 X-28.9386 Y60.4607 
G01 X-28.8707 Y60.5286 
G01 X-28.7820 Y60.5653 
G01 X-27.1780 Y60.5653 
G01 X-27.0893 Y60.5286 
G01 X-27.0214 Y60.4607 
G01 X-26.9847 Y60.3720 
G01 X-26.9847 Y60.1658 
G01 X-21.5092 Y60.1547 
G01 X-21.4103 Y60.2910 
G00 X-58.3565 Y15.7800 
G01 Z0.0000 F254000.00 
G01 X-58.3565 Y15.9700 F3000.00 
G01 X-58.3268 Y16.1575 
G01 X-58.2681 Y16.3381 
G01 X-58.1819 Y16.5073 
G01 X-58.0703 Y16.6610 
G01 X-57.9360 Y16.7953 
G01 X-57.8912 Y16.8278 
G01 X-57.7824 Y29.5247 
G01 X-57.8320 Y29.5247 
G01 X-57.9207 Y29.5614 
G01 X-57.9886 Y29.6293 
G01 X-58.0253 Y29.7180 
G01 X-58.0253 Y31.3220 
G01 X-57.9886 Y31.4107 
G01 X-57.9207 Y31.4786 
G01 X-57.8320 Y31.5153 
G01 X-56.2280 Y31.5153 
G01 X-56.1393 Y31.4786 
G01 X-56.0714 Y31.4107 
G01 X-56.0347 Y31.3220 
G01 X-56.0347 Y29.7180 
G01 X-56.0714 Y29.6293 
G01 X-56.1393 Y29.5614 
G01 X-56.2280 Y29.5247 
G01 X-56.2838 Y29.5247 
G01 X-56.3926 Y16.8160 
G01 X-56.3640 Y16.7953 
G01 X-56.2297 Y16.6610 
G01 X-56.1181 Y16.5073 
G01 X-56.0319 Y16.3381 
G01 X-55.9732 Y16.1575 
G01 X-55.9435 Y15.9700 
G01 X-55.9435 Y15.7800 
G01 X-55.9732 Y15.5925 
G01 X-56.0319 Y15.4119 
G01 X-56.1181 Y15.2427 
G01 X-56.2297 Y15.0890 
G01 X-56.3640 Y14.9547 
G01 X-56.5177 Y14.8431 
G01 X-56.6869 Y14.7569 
G01 X-56.8675 Y14.6982 
G01 X-57.0550 Y14.6685 
G01 X-57.2450 Y14.6685 
G01 X-57.4325 Y14.6982 
G01 X-57.6131 Y14.7569 
G01 X-57.7823 Y14.8431 
G01 X-57.9360 Y14.9547 
G01 X-58.0703 Y15.0890 
G01 X-58.1819 Y15.2427 
G01 X-58.2681 Y15.4119 
G01 X-58.3268 Y15.5925 
G01 X-58.3565 Y15.7800 
G00 X-31.9847 Y60.3720 
G01 Z0.0000 F254000.00 
G01 X-31.9847 Y58.7680 F3000.00 
G01 X-32.0214 Y58.6793 
G01 X-32.0893 Y58.6114 
G01 X-32.1780 Y58.5747 
G01 X-33.7820 Y58.5747 
G01 X-33.8707 Y58.6114 
G01 X-33.9386 Y58.6793 
G01 X-33.9753 Y58.7680 
G01 X-33.9753 Y58.8288 
G01 X-46.6837 Y58.9330 
G01 X-46.7047 Y58.9040 
G01 X-46.8390 Y58.7697 
G01 X-46.9927 Y58.6581 
G01 X-47.1619 Y58.5719 
G01 X-47.3425 Y58.5132 
G01 X-47.5300 Y58.4835 
G01 X-47.7200 Y58.4835 
G01 X-47.9075 Y58.5132 
G01 X-48.0881 Y58.5719 
G01 X-48.2573 Y58.6581 
G01 X-48.4110 Y58.7697 
G01 X-48.5453 Y58.9040 
G01 X-48.6569 Y59.0577 
G01 X-48.7431 Y59.2269 
G01 X-48.8018 Y59.4075 
G01 X-48.8315 Y59.5950 
G01 X-48.8315 Y59.7850 
G01 X-48.8018 Y59.9725 
G01 X-48.7431 Y60.1531 
G01 X-48.6569 Y60.3223 
G01 X-48.5453 Y60.4760 
G01 X-48.4110 Y60.6103 
G01 X-48.2573 Y60.7219 
G01 X-48.0881 Y60.8081 
G01 X-47.9075 Y60.8668 
G01 X-47.7200 Y60.8965 
G01 X-47.5300 Y60.8965 
G01 X-47.3425 Y60.8668 
G01 X-47.1619 Y60.8081 
G01 X-46.9927 Y60.7219 
G01 X-46.8390 Y60.6103 
G01 X-46.7047 Y60.4760 
G01 X-46.6724 Y60.4315 
G01 X-33.9753 Y60.3275 
G01 X-33.9753 Y60.3720 
G01 X-33.9386 Y60.4607 
G01 X-33.8707 Y60.5286 
G01 X-33.7820 Y60.5653 
G01 X-32.1780 Y60.5653 
G01 X-32.0893 Y60.5286 
G01 X-32.0214 Y60.4607 
G01 X-31.9847 Y60.3720 
G00 X-29.4847 Y60.3720 
G01 Z0.0000 F254000.00 
G01 X-29.4847 Y58.7680 F3000.00 
G01 X-29.5214 Y58.6793 
G01 X-29.5893 Y58.6114 
G01 X-29.6780 Y58.5747 
G01 X-31.2820 Y58.5747 
G01 X-31.3707 Y58.6114 
G01 X-31.4386 Y58.6793 
G01 X-31.4753 Y58.7680 
G01 X-31.4753 Y60.3720 
G01 X-31.4386 Y60.4607 
G01 X-31.3707 Y60.5286 
G01 X-31.2820 Y60.5653 
G01 X-29.6780 Y60.5653 
G01 X-29.5893 Y60.5286 
G01 X-29.5214 Y60.4607 
G01 X-29.4847 Y60.3720 
G00 X-57.8320 Y34.0153 
G01 Z0.0000 F254000.00 
G01 X-56.2280 Y34.0153 F3000.00 
G01 X-56.1393 Y33.9786 
G01 X-56.0714 Y33.9107 
G01 X-56.0347 Y33.8220 
G01 X-56.0347 Y32.2180 
G01 X-56.0714 Y32.1293 
G01 X-56.1393 Y32.0614 
G01 X-56.2280 Y32.0247 
G01 X-57.8320 Y32.0247 
G01 X-57.9207 Y32.0614 
G01 X-57.9886 Y32.1293 
G01 X-58.0253 Y32.2180 
G01 X-58.0253 Y33.8220 
G01 X-57.9886 Y33.9107 
G01 X-57.9207 Y33.9786 
G01 X-57.8320 Y34.0153 
G00 X-56.2280 Y36.5153 
G01 Z0.0000 F254000.00 
G01 X-56.1393 Y36.4786 F3000.00 
G01 X-56.0714 Y36.4107 
G01 X-56.0347 Y36.3220 
G01 X-56.0347 Y34.7180 
G01 X-56.0714 Y34.6293 
G01 X-56.1393 Y34.5614 
G01 X-56.2280 Y34.5247 
G01 X-57.8320 Y34.5247 
G01 X-57.9207 Y34.5614 
G01 X-57.9886 Y34.6293 
G01 X-58.0253 Y34.7180 
G01 X-58.0253 Y36.3220 
G01 X-57.9886 Y36.4107 
G01 X-57.9207 Y36.4786 
G01 X-57.8993 Y36.4874 
G01 X-57.8993 Y42.2331 
G01 X-57.9360 Y42.2597 
G01 X-58.0703 Y42.3940 
G01 X-58.1819 Y42.5477 
G01 X-58.2681 Y42.7169 
G01 X-58.3268 Y42.8975 
G01 X-58.3565 Y43.0850 
G01 X-58.3565 Y43.2750 
G01 X-58.3268 Y43.4625 
G01 X-58.2681 Y43.6431 
G01 X-58.1819 Y43.8123 
G01 X-58.0703 Y43.9660 
G01 X-57.9360 Y44.1003 
G01 X-57.7823 Y44.2119 
G01 X-57.6131 Y44.2981 
G01 X-57.4325 Y44.3568 
G01 X-57.2450 Y44.3865 
G01 X-57.0550 Y44.3865 
G01 X-56.8675 Y44.3568 
G01 X-56.6869 Y44.2981 
G01 X-56.5177 Y44.2119 
G01 X-56.3640 Y44.1003 
G01 X-56.2297 Y43.9660 
G01 X-56.1181 Y43.8123 
G01 X-56.0319 Y43.6431 
G01 X-55.9732 Y43.4625 
G01 X-55.9435 Y43.2750 
G01 X-55.9435 Y43.0850 
G01 X-55.9732 Y42.8975 
G01 X-56.0319 Y42.7169 
G01 X-56.1181 Y42.5477 
G01 X-56.2297 Y42.3940 
G01 X-56.3640 Y42.2597 
G01 X-56.4007 Y42.2331 
G01 X-56.4007 Y36.5153 
G01 X-56.2280 Y36.5153 
G00 Z0.0000 
G00 X-41.5891 Y46.2153 
G01 Z0.0000 F254000.00 
G01 X-43.6753 Y44.1291 F3000.00 
G01 X-43.6753 Y21.9109 
G01 X-41.5891 Y19.8247 
G01 X-19.3709 Y19.8247 
G01 X-17.2847 Y21.9109 
G01 X-17.2847 Y44.5263 
G01 X-17.2549 Y44.6760 
G01 X-17.1965 Y44.8170 
G01 X-17.1117 Y44.9438 
G01 X-17.2213 Y44.9453 
G01 X-17.3710 Y44.9751 
G01 X-17.5120 Y45.0335 
G01 X-17.6388 Y45.1183 
G01 X-17.7467 Y45.2262 
G01 X-18.7359 Y46.2153 
G01 X-41.5891 Y46.2153 
G00 X-29.1023 Y20.1675 
G01 Z0.0000 F254000.00 
G01 X-29.1023 Y21.7725 F3000.00 
G01 X-29.0772 Y21.8662 
G01 X-29.0287 Y21.9501 
G01 X-28.9601 Y22.0187 
G01 X-28.8762 Y22.0672 
G01 X-28.7825 Y22.0923 
G01 X-27.1775 Y22.0923 
G01 X-27.0838 Y22.0672 
G01 X-26.9999 Y22.0187 
G01 X-26.9313 Y21.9501 
G01 X-26.8828 Y21.8662 
G01 X-26.8577 Y21.7725 
G01 X-26.8577 Y20.1675 
G01 X-26.8828 Y20.0738 
G01 X-26.9313 Y19.9899 
G01 X-26.9999 Y19.9213 
G01 X-27.0838 Y19.8728 
G01 X-27.1775 Y19.8477 
G01 X-28.7825 Y19.8477 
G01 X-28.8762 Y19.8728 
G01 X-28.9601 Y19.9213 
G01 X-29.0287 Y19.9899 
G01 X-29.0772 Y20.0738 
G01 X-29.1023 Y20.1675 
G00 X-17.6275 Y34.3977 
G01 Z0.0000 F254000.00 
G01 X-19.2325 Y34.3977 F3000.00 
G01 X-19.3262 Y34.4228 
G01 X-19.4101 Y34.4713 
G01 X-19.4787 Y34.5399 
G01 X-19.5272 Y34.6238 
G01 X-19.5523 Y34.7175 
G01 X-19.5523 Y36.3225 
G01 X-19.5272 Y36.4162 
G01 X-19.4787 Y36.5001 
G01 X-19.4101 Y36.5687 
G01 X-19.3262 Y36.6172 
G01 X-19.2325 Y36.6423 
G01 X-17.6275 Y36.6423 
G01 X-17.5338 Y36.6172 
G01 X-17.4499 Y36.5687 
G01 X-17.3813 Y36.5001 
G01 X-17.3328 Y36.4162 
G01 X-17.3077 Y36.3225 
G01 X-17.3077 Y34.7175 
G01 X-17.3328 Y34.6238 
G01 X-17.3813 Y34.5399 
G01 X-17.4499 Y34.4713 
G01 X-17.5338 Y34.4228 
G01 X-17.6275 Y34.3977 
G00 X-29.5783 Y41.8615 
G01 Z0.0000 F254000.00 
G01 X-29.5783 Y45.7685 F3000.00 
G01 X-29.5532 Y45.8622 
G01 X-29.5047 Y45.9461 
G01 X-29.4361 Y46.0147 
G01 X-29.3522 Y46.0632 
G01 X-29.2585 Y46.0883 
G01 X-28.9906 Y46.0883 
G01 X-28.9601 Y46.1187 
G01 X-28.8762 Y46.1672 
G01 X-28.7825 Y46.1923 
G01 X-27.1775 Y46.1923 
G01 X-27.0838 Y46.1672 
G01 X-26.9999 Y46.1187 
G01 X-26.9694 Y46.0883 
G01 X-26.6215 Y46.0883 
G01 X-26.5278 Y46.0632 
G01 X-26.4439 Y46.0147 
G01 X-26.3753 Y45.9461 
G01 X-26.3268 Y45.8622 
G01 X-26.3017 Y45.7685 
G01 X-26.3017 Y41.8615 
G01 X-26.3268 Y41.7678 
G01 X-26.3753 Y41.6839 
G01 X-26.4439 Y41.6153 
G01 X-26.5278 Y41.5668 
G01 X-26.6215 Y41.5417 
G01 X-27.1830 Y41.5417 
G01 X-27.2411 Y41.4995 
G01 X-27.4281 Y41.4042 
G01 X-27.6277 Y41.3393 
G01 X-27.8350 Y41.3065 
G01 X-28.0450 Y41.3065 
G01 X-28.2523 Y41.3393 
G01 X-28.4519 Y41.4042 
G01 X-28.6389 Y41.4995 
G01 X-28.6970 Y41.5417 
G01 X-29.2585 Y41.5417 
G01 X-29.3522 Y41.5668 
G01 X-29.4361 Y41.6153 
G01 X-29.5047 Y41.6839 
G01 X-29.5532 Y41.7678 
G01 X-29.5783 Y41.8615 
G00 X-43.5483 Y34.2415 
G01 Z0.0000 F254000.00 
G01 X-43.5483 Y34.5094 F3000.00 
G01 X-43.5787 Y34.5399 
G01 X-43.6272 Y34.6238 
G01 X-43.6523 Y34.7175 
G01 X-43.6523 Y36.3225 
G01 X-43.6272 Y36.4162 
G01 X-43.5787 Y36.5001 
G01 X-43.5483 Y36.5306 
G01 X-43.5483 Y36.8785 
G01 X-43.5232 Y36.9722 
G01 X-43.4747 Y37.0561 
G01 X-43.4061 Y37.1247 
G01 X-43.3222 Y37.1732 
G01 X-43.2285 Y37.1983 
G01 X-39.3215 Y37.1983 
G01 X-39.2278 Y37.1732 
G01 X-39.1439 Y37.1247 
G01 X-39.0753 Y37.0561 
G01 X-39.0268 Y36.9722 
G01 X-39.0017 Y36.8785 
G01 X-39.0017 Y35.5995 
G01 X-38.9993 Y35.5923 
G01 X-38.9665 Y35.3850 
G01 X-38.9665 Y35.1750 
G01 X-38.9993 Y34.9677 
G01 X-39.0017 Y34.9605 
G01 X-39.0017 Y34.2415 
G01 X-39.0268 Y34.1478 
G01 X-39.0753 Y34.0639 
G01 X-39.1439 Y33.9953 
G01 X-39.2278 Y33.9468 
G01 X-39.3215 Y33.9217 
G01 X-43.2285 Y33.9217 
G01 X-43.3222 Y33.9468 
G01 X-43.4061 Y33.9953 
G01 X-43.4747 Y34.0639 
G01 X-43.5232 Y34.1478 
G01 X-43.5483 Y34.2415 
G00 X-21.9583 Y29.1615 
G01 Z0.0000 F254000.00 
G01 X-21.9583 Y29.5024 F3000.00 
G01 X-22.0671 Y29.6113 
G01 X-22.1905 Y29.7811 
G01 X-22.2858 Y29.9681 
G01 X-22.3507 Y30.1677 
G01 X-22.3835 Y30.3750 
G01 X-22.3835 Y30.5850 
G01 X-22.3507 Y30.7923 
G01 X-22.2858 Y30.9919 
G01 X-22.1905 Y31.1789 
G01 X-22.0671 Y31.3487 
G01 X-21.9583 Y31.4576 
G01 X-21.9583 Y31.7985 
G01 X-21.9332 Y31.8922 
G01 X-21.8847 Y31.9761 
G01 X-21.8161 Y32.0447 
G01 X-21.7322 Y32.0932 
G01 X-21.6385 Y32.1183 
G01 X-17.7315 Y32.1183 
G01 X-17.6378 Y32.0932 
G01 X-17.5539 Y32.0447 
G01 X-17.4853 Y31.9761 
G01 X-17.4368 Y31.8922 
G01 X-17.4117 Y31.7985 
G01 X-17.4117 Y31.5306 
G01 X-17.3813 Y31.5001 
G01 X-17.3328 Y31.4162 
G01 X-17.3077 Y31.3225 
G01 X-17.3077 Y29.7175 
G01 X-17.3328 Y29.6238 
G01 X-17.3813 Y29.5399 
G01 X-17.4117 Y29.5094 
G01 X-17.4117 Y29.1615 
G01 X-17.4368 Y29.0678 
G01 X-17.4853 Y28.9839 
G01 X-17.5539 Y28.9153 
G01 X-17.6378 Y28.8668 
G01 X-17.7315 Y28.8417 
G01 X-21.6385 Y28.8417 
G01 X-21.7322 Y28.8668 
G01 X-21.8161 Y28.9153 
G01 X-21.8847 Y28.9839 
G01 X-21.9332 Y29.0678 
G01 X-21.9583 Y29.1615 
G00 X-34.6583 Y20.2715 
G01 Z0.0000 F254000.00 
G01 X-34.6583 Y24.1785 F3000.00 
G01 X-34.6332 Y24.2722 
G01 X-34.5847 Y24.3561 
G01 X-34.5161 Y24.4247 
G01 X-34.4322 Y24.4732 
G01 X-34.3385 Y24.4983 
G01 X-33.6447 Y24.4983 
G01 X-33.5319 Y24.5558 
G01 X-33.3323 Y24.6207 
G01 X-33.1249 Y24.6535 
G01 X-32.9150 Y24.6535 
G01 X-32.7077 Y24.6207 
G01 X-32.5081 Y24.5558 
G01 X-32.3953 Y24.4983 
G01 X-31.7015 Y24.4983 
G01 X-31.6078 Y24.4732 
G01 X-31.5239 Y24.4247 
G01 X-31.4553 Y24.3561 
G01 X-31.4068 Y24.2722 
G01 X-31.3817 Y24.1785 
G01 X-31.3817 Y20.2715 
G01 X-31.4068 Y20.1778 
G01 X-31.4553 Y20.0939 
G01 X-31.5239 Y20.0253 
G01 X-31.6078 Y19.9768 
G01 X-31.7015 Y19.9517 
G01 X-31.9694 Y19.9517 
G01 X-31.9999 Y19.9213 
G01 X-32.0838 Y19.8728 
G01 X-32.1775 Y19.8477 
G01 X-33.7825 Y19.8477 
G01 X-33.8762 Y19.8728 
G01 X-33.9601 Y19.9213 
G01 X-33.9906 Y19.9517 
G01 X-34.3385 Y19.9517 
G01 X-34.4322 Y19.9768 
G01 X-34.5161 Y20.0253 
G01 X-34.5847 Y20.0939 
G01 X-34.6332 Y20.1778 
G01 X-34.6583 Y20.2715 
G00 X-31.8577 Y45.8725 
G01 Z0.0000 F254000.00 
G01 X-31.8577 Y44.2675 F3000.00 
G01 X-31.8828 Y44.1738 
G01 X-31.9313 Y44.0899 
G01 X-31.9999 Y44.0213 
G01 X-32.0838 Y43.9728 
G01 X-32.1775 Y43.9477 
G01 X-33.7825 Y43.9477 
G01 X-33.8762 Y43.9728 
G01 X-33.9601 Y44.0213 
G01 X-34.0287 Y44.0899 
G01 X-34.0772 Y44.1738 
G01 X-34.1023 Y44.2675 
G01 X-34.1023 Y45.8725 
G01 X-34.0772 Y45.9662 
G01 X-34.0287 Y46.0501 
G01 X-33.9601 Y46.1187 
G01 X-33.8762 Y46.1672 
G01 X-33.7825 Y46.1923 
G01 X-32.1775 Y46.1923 
G01 X-32.0838 Y46.1672 
G01 X-31.9999 Y46.1187 
G01 X-31.9313 Y46.0501 
G01 X-31.8828 Y45.9662 
G01 X-31.8577 Y45.8725 
G00 X-43.3325 Y31.6423 
G01 Z0.0000 F254000.00 
G01 X-41.7275 Y31.6423 F3000.00 
G01 X-41.6338 Y31.6172 
G01 X-41.5499 Y31.5687 
G01 X-41.4813 Y31.5001 
G01 X-41.4328 Y31.4162 
G01 X-41.4077 Y31.3225 
G01 X-41.4077 Y29.7175 
G01 X-41.4328 Y29.6238 
G01 X-41.4813 Y29.5399 
G01 X-41.5499 Y29.4713 
G01 X-41.6338 Y29.4228 
G01 X-41.7275 Y29.3977 
G01 X-43.3325 Y29.3977 
G01 X-43.4262 Y29.4228 
G01 X-43.5101 Y29.4713 
G01 X-43.5787 Y29.5399 
G01 X-43.6272 Y29.6238 
G01 X-43.6523 Y29.7175 
G01 X-43.6523 Y31.3225 
G01 X-43.6272 Y31.4162 
G01 X-43.5787 Y31.5001 
G01 X-43.5101 Y31.5687 
G01 X-43.4262 Y31.6172 
G01 X-43.3325 Y31.6423 
G00 X-36.3347 Y38.1763 
G01 Z0.0000 F254000.00 
G01 X-36.3049 Y38.3260 F3000.00 
G01 X-36.2465 Y38.4670 
G01 X-36.1617 Y38.5938 
G01 X-36.0538 Y38.7017 
G01 X-35.9270 Y38.7865 
G01 X-35.7860 Y38.8449 
G01 X-35.6363 Y38.8747 
G01 X-25.3237 Y38.8747 
G01 X-25.1740 Y38.8449 
G01 X-25.0330 Y38.7865 
G01 X-24.9062 Y38.7017 
G01 X-24.7982 Y38.5938 
G01 X-24.7135 Y38.4670 
G01 X-24.6551 Y38.3260 
G01 X-24.6253 Y38.1763 
G01 X-24.6253 Y27.8637 
G01 X-24.6551 Y27.7140 
G01 X-24.7135 Y27.5730 
G01 X-24.7982 Y27.4462 
G01 X-24.9062 Y27.3383 
G01 X-25.0330 Y27.2535 
G01 X-25.1740 Y27.1951 
G01 X-25.3237 Y27.1653 
G01 X-35.6363 Y27.1653 
G01 X-35.7860 Y27.1951 
G01 X-35.9270 Y27.2535 
G01 X-36.0538 Y27.3383 
G01 X-36.1617 Y27.4462 
G01 X-36.2465 Y27.5730 
G01 X-36.3049 Y27.7140 
G01 X-36.3347 Y27.8637 
G01 X-36.3347 Y28.0163 
G01 X-36.3347 Y38.1763 
G00 X-46.4781 Y17.1108 
G01 Z0.0000 F254000.00 
G01 X-46.2911 Y17.0155 F3000.00 
G01 X-46.1213 Y16.8921 
G01 X-45.9729 Y16.7437 
G01 X-45.8495 Y16.5739 
G01 X-45.7542 Y16.3869 
G01 X-45.7128 Y16.2593 
G01 X-45.6673 Y16.2748 
G01 X-45.6203 Y16.2942 
G01 X-45.5953 Y16.2992 
G01 X-45.5711 Y16.3074 
G01 X-45.5206 Y16.3141 
G01 X-45.4706 Y16.3240 
G01 X-45.4451 Y16.3240 
G01 X-45.4198 Y16.3273 
G01 X-45.3690 Y16.3240 
G01 X-45.3180 Y16.3240 
G01 X-45.2930 Y16.3190 
G01 X-45.2675 Y16.3174 
G01 X-45.2183 Y16.3042 
G01 X-45.1683 Y16.2942 
G01 X-45.1448 Y16.2845 
G01 X-45.1201 Y16.2779 
G01 X-45.0744 Y16.2553 
G01 X-45.0274 Y16.2358 
G01 X-45.0061 Y16.2217 
G01 X-44.9833 Y16.2104 
G01 X-44.9428 Y16.1794 
G01 X-44.9005 Y16.1511 
G01 X-44.8824 Y16.1330 
G01 X-44.8622 Y16.1175 
G01 X-44.8286 Y16.0792 
G01 X-40.3191 Y11.5697 
G01 X-20.6409 Y11.5697 
G01 X-15.4964 Y16.7142 
G01 X-15.4628 Y16.7525 
G01 X-15.4426 Y16.7680 
G01 X-15.4245 Y16.7861 
G01 X-15.3822 Y16.8144 
G01 X-15.3417 Y16.8454 
G01 X-15.3189 Y16.8567 
G01 X-15.2976 Y16.8709 
G01 X-15.2506 Y16.8903 
G01 X-15.2049 Y16.9129 
G01 X-15.1802 Y16.9195 
G01 X-15.1566 Y16.9292 
G01 X-15.1067 Y16.9392 
G01 X-15.0575 Y16.9524 
G01 X-15.0320 Y16.9540 
G01 X-15.0070 Y16.9590 
G01 X-14.9560 Y16.9590 
G01 X-14.9052 Y16.9624 
G01 X-14.8799 Y16.9590 
G01 X-14.8544 Y16.9590 
G01 X-14.8044 Y16.9491 
G01 X-14.7539 Y16.9424 
G01 X-14.7297 Y16.9342 
G01 X-14.7047 Y16.9292 
G01 X-14.6576 Y16.9098 
G01 X-14.6122 Y16.8943 
G01 X-14.5708 Y17.0219 
G01 X-14.4755 Y17.2089 
G01 X-14.3521 Y17.3787 
G01 X-14.2037 Y17.5271 
G01 X-14.0339 Y17.6505 
G01 X-13.8469 Y17.7458 
G01 X-13.7193 Y17.7872 
G01 X-13.7348 Y17.8327 
G01 X-13.7542 Y17.8797 
G01 X-13.7592 Y17.9047 
G01 X-13.7674 Y17.9289 
G01 X-13.7741 Y17.9794 
G01 X-13.7840 Y18.0294 
G01 X-13.7840 Y18.0549 
G01 X-13.7873 Y18.0802 
G01 X-13.7840 Y18.1310 
G01 X-13.7840 Y18.1820 
G01 X-13.7790 Y18.2070 
G01 X-13.7774 Y18.2325 
G01 X-13.7642 Y18.2817 
G01 X-13.7542 Y18.3316 
G01 X-13.7445 Y18.3552 
G01 X-13.7379 Y18.3799 
G01 X-13.7153 Y18.4256 
G01 X-13.6959 Y18.4726 
G01 X-13.6817 Y18.4939 
G01 X-13.6704 Y18.5167 
G01 X-13.6394 Y18.5572 
G01 X-13.6111 Y18.5995 
G01 X-13.5930 Y18.6176 
G01 X-13.5775 Y18.6378 
G01 X-13.5392 Y18.6714 
G01 X-9.0297 Y23.1809 
G01 X-9.0297 Y45.7963 
G01 X-8.9999 Y45.9460 
G01 X-8.9415 Y46.0870 
G01 X-8.8567 Y46.2138 
G01 X-12.1413 Y46.2153 
G01 X-12.2910 Y46.2451 
G01 X-12.4320 Y46.3035 
G01 X-12.5588 Y46.3882 
G01 X-12.6667 Y46.4962 
G01 X-14.1742 Y48.0036 
G01 X-14.2125 Y48.0372 
G01 X-14.2280 Y48.0574 
G01 X-14.2461 Y48.0755 
G01 X-14.2744 Y48.1178 
G01 X-14.3054 Y48.1583 
G01 X-14.3167 Y48.1811 
G01 X-14.3308 Y48.2024 
G01 X-14.3503 Y48.2494 
G01 X-14.3729 Y48.2951 
G01 X-14.3795 Y48.3198 
G01 X-14.3892 Y48.3433 
G01 X-14.3992 Y48.3933 
G01 X-14.4124 Y48.4425 
G01 X-14.4140 Y48.4680 
G01 X-14.4190 Y48.4930 
G01 X-14.4190 Y48.5440 
G01 X-14.4224 Y48.5948 
G01 X-14.4190 Y48.6201 
G01 X-14.4190 Y48.6456 
G01 X-14.4091 Y48.6956 
G01 X-14.4024 Y48.7461 
G01 X-14.3942 Y48.7703 
G01 X-14.3892 Y48.7953 
G01 X-14.3698 Y48.8423 
G01 X-14.3543 Y48.8878 
G01 X-14.4819 Y48.9292 
G01 X-14.6689 Y49.0245 
G01 X-14.8387 Y49.1479 
G01 X-14.9871 Y49.2963 
G01 X-15.1105 Y49.4661 
G01 X-15.2058 Y49.6531 
G01 X-15.2472 Y49.7807 
G01 X-15.2927 Y49.7652 
G01 X-15.3397 Y49.7457 
G01 X-15.3647 Y49.7408 
G01 X-15.3889 Y49.7326 
G01 X-15.4394 Y49.7259 
G01 X-15.4894 Y49.7160 
G01 X-15.5149 Y49.7160 
G01 X-15.5402 Y49.7126 
G01 X-15.5910 Y49.7160 
G01 X-15.6420 Y49.7160 
G01 X-15.6670 Y49.7210 
G01 X-15.6925 Y49.7226 
G01 X-15.7417 Y49.7358 
G01 X-15.7916 Y49.7457 
G01 X-15.8152 Y49.7555 
G01 X-15.8399 Y49.7621 
G01 X-15.8856 Y49.7846 
G01 X-15.9326 Y49.8041 
G01 X-15.9539 Y49.8183 
G01 X-15.9767 Y49.8296 
G01 X-16.0172 Y49.8606 
G01 X-16.0595 Y49.8889 
G01 X-16.0776 Y49.9070 
G01 X-16.0978 Y49.9225 
G01 X-16.1314 Y49.9608 
G01 X-20.6409 Y54.4703 
G01 X-40.3191 Y54.4703 
G01 X-45.4636 Y49.3258 
G01 X-45.4972 Y49.2875 
G01 X-45.5174 Y49.2720 
G01 X-45.5355 Y49.2539 
G01 X-45.5778 Y49.2256 
G01 X-45.6183 Y49.1946 
G01 X-45.6411 Y49.1833 
G01 X-45.6624 Y49.1691 
G01 X-45.7094 Y49.1496 
G01 X-45.7551 Y49.1271 
G01 X-45.7798 Y49.1205 
G01 X-45.8033 Y49.1107 
G01 X-45.8533 Y49.1008 
G01 X-45.9025 Y49.0876 
G01 X-45.9280 Y49.0860 
G01 X-45.9530 Y49.0810 
G01 X-46.0040 Y49.0810 
G01 X-46.0548 Y49.0776 
G01 X-46.0801 Y49.0810 
G01 X-46.1056 Y49.0810 
G01 X-46.1556 Y49.0909 
G01 X-46.2061 Y49.0976 
G01 X-46.2303 Y49.1058 
G01 X-46.2553 Y49.1107 
G01 X-46.3023 Y49.1302 
G01 X-46.3478 Y49.1457 
G01 X-46.3892 Y49.0181 
G01 X-46.4845 Y48.8311 
G01 X-46.6079 Y48.6613 
G01 X-46.7563 Y48.5129 
G01 X-46.9261 Y48.3895 
G01 X-47.1131 Y48.2942 
G01 X-47.2407 Y48.2528 
G01 X-47.2252 Y48.2073 
G01 X-47.2057 Y48.1603 
G01 X-47.2008 Y48.1353 
G01 X-47.1926 Y48.1111 
G01 X-47.1859 Y48.0606 
G01 X-47.1760 Y48.0106 
G01 X-47.1760 Y47.9851 
G01 X-47.1726 Y47.9598 
G01 X-47.1760 Y47.9090 
G01 X-47.1760 Y47.8580 
G01 X-47.1810 Y47.8330 
G01 X-47.1826 Y47.8075 
G01 X-47.1958 Y47.7583 
G01 X-47.2057 Y47.7083 
G01 X-47.2155 Y47.6848 
G01 X-47.2221 Y47.6601 
G01 X-47.2447 Y47.6144 
G01 X-47.2641 Y47.5674 
G01 X-47.2783 Y47.5461 
G01 X-47.2896 Y47.5233 
G01 X-47.3206 Y47.4828 
G01 X-47.3489 Y47.4405 
G01 X-47.3670 Y47.4224 
G01 X-47.3825 Y47.4022 
G01 X-47.4208 Y47.3686 
G01 X-51.9303 Y42.8591 
G01 X-51.9303 Y23.1809 
G01 X-46.7858 Y18.0364 
G01 X-46.7475 Y18.0028 
G01 X-46.7320 Y17.9826 
G01 X-46.7139 Y17.9645 
G01 X-46.6856 Y17.9222 
G01 X-46.6546 Y17.8817 
G01 X-46.6433 Y17.8589 
G01 X-46.6291 Y17.8376 
G01 X-46.6097 Y17.7906 
G01 X-46.5871 Y17.7449 
G01 X-46.5805 Y17.7202 
G01 X-46.5707 Y17.6966 
G01 X-46.5608 Y17.6467 
G01 X-46.5476 Y17.5975 
G01 X-46.5460 Y17.5720 
G01 X-46.5410 Y17.5470 
G01 X-46.5410 Y17.4960 
G01 X-46.5376 Y17.4452 
G01 X-46.5410 Y17.4199 
G01 X-46.5410 Y17.3944 
G01 X-46.5509 Y17.3444 
G01 X-46.5576 Y17.2939 
G01 X-46.5658 Y17.2697 
G01 X-46.5707 Y17.2447 
G01 X-46.5902 Y17.1976 
G01 X-46.6057 Y17.1522 
G01 X-46.4781 Y17.1108 
G00 X-34.6037 Y53.7265 
G01 Z0.0000 F254000.00 
G01 X-34.6037 Y50.4135 F3000.00 
G01 X-34.6288 Y50.3198 
G01 X-34.6375 Y50.3047 
G01 X-26.3225 Y50.3047 
G01 X-26.3312 Y50.3198 
G01 X-26.3563 Y50.4135 
G01 X-26.3563 Y53.7265 
G01 X-26.3312 Y53.8202 
G01 X-26.2827 Y53.9041 
G01 X-26.2141 Y53.9727 
G01 X-26.1302 Y54.0212 
G01 X-26.0365 Y54.0463 
G01 X-22.7235 Y54.0463 
G01 X-22.6298 Y54.0212 
G01 X-22.5459 Y53.9727 
G01 X-22.4773 Y53.9041 
G01 X-22.4288 Y53.8202 
G01 X-22.4037 Y53.7265 
G01 X-22.4037 Y50.4135 
G01 X-22.4288 Y50.3198 
G01 X-22.4375 Y50.3047 
G01 X-22.1306 Y50.3047 
G01 X-22.0798 Y50.3080 
G01 X-22.0545 Y50.3047 
G01 X-22.0290 Y50.3047 
G01 X-21.9790 Y50.2948 
G01 X-21.9285 Y50.2881 
G01 X-21.9043 Y50.2799 
G01 X-21.8793 Y50.2749 
G01 X-21.8322 Y50.2554 
G01 X-21.7840 Y50.2390 
G01 X-21.7619 Y50.2263 
G01 X-21.7383 Y50.2165 
G01 X-21.6959 Y50.1882 
G01 X-21.6518 Y50.1627 
G01 X-21.6326 Y50.1459 
G01 X-21.6114 Y50.1317 
G01 X-21.5994 Y50.1197 
G01 X-21.5754 Y50.1197 
G01 X-21.5071 Y50.2137 
G01 X-21.3587 Y50.3621 
G01 X-21.1889 Y50.4855 
G01 X-21.0019 Y50.5808 
G01 X-20.8023 Y50.6457 
G01 X-20.5950 Y50.6785 
G01 X-20.3850 Y50.6785 
G01 X-20.1777 Y50.6457 
G01 X-19.9781 Y50.5808 
G01 X-19.7911 Y50.4855 
G01 X-19.6213 Y50.3621 
G01 X-19.4729 Y50.2137 
G01 X-19.4046 Y50.1197 
G01 X-19.3806 Y50.1197 
G01 X-19.3686 Y50.1317 
G01 X-19.3473 Y50.1459 
G01 X-19.3282 Y50.1627 
G01 X-19.2841 Y50.1882 
G01 X-19.2417 Y50.2165 
G01 X-19.2181 Y50.2263 
G01 X-19.1960 Y50.2390 
G01 X-19.1478 Y50.2554 
G01 X-19.1007 Y50.2749 
G01 X-19.0757 Y50.2799 
G01 X-19.0515 Y50.2881 
G01 X-19.0010 Y50.2948 
G01 X-18.9510 Y50.3047 
G01 X-18.9255 Y50.3047 
G01 X-18.9002 Y50.3080 
G01 X-18.8494 Y50.3047 
G01 X-17.7037 Y50.3047 
G01 X-17.5540 Y50.2749 
G01 X-17.4130 Y50.2165 
G01 X-17.2862 Y50.1317 
G01 X-17.1783 Y50.0238 
G01 X-13.3683 Y46.2138 
G01 X-13.2835 Y46.0870 
G01 X-13.2251 Y45.9460 
G01 X-13.1953 Y45.7963 
G01 X-13.1953 Y45.6437 
G01 X-13.2251 Y45.4940 
G01 X-13.2835 Y45.3530 
G01 X-13.3683 Y45.2262 
G01 X-13.4762 Y45.1183 
G01 X-13.5259 Y45.0850 
G01 X-13.4762 Y45.0517 
G01 X-13.3683 Y44.9438 
G01 X-13.2835 Y44.8170 
G01 X-13.2251 Y44.6760 
G01 X-13.1953 Y44.5263 
G01 X-13.1953 Y41.0625 
G01 X-13.1802 Y41.0712 
G01 X-13.0865 Y41.0963 
G01 X-9.7735 Y41.0963 
G01 X-9.6798 Y41.0712 
G01 X-9.5959 Y41.0227 
G01 X-9.5273 Y40.9541 
G01 X-9.4788 Y40.8702 
G01 X-9.4537 Y40.7765 
G01 X-9.4537 Y37.4635 
G01 X-9.4788 Y37.3698 
G01 X-9.5273 Y37.2859 
G01 X-9.5959 Y37.2173 
G01 X-9.6798 Y37.1688 
G01 X-9.7735 Y37.1437 
G01 X-13.0865 Y37.1437 
G01 X-13.1802 Y37.1688 
G01 X-13.1953 Y37.1775 
G01 X-13.1953 Y28.8625 
G01 X-13.1802 Y28.8712 
G01 X-13.0865 Y28.8963 
G01 X-9.7735 Y28.8963 
G01 X-9.6798 Y28.8712 
G01 X-9.5959 Y28.8227 
G01 X-9.5273 Y28.7541 
G01 X-9.4788 Y28.6702 
G01 X-9.4537 Y28.5765 
G01 X-9.4537 Y25.2635 
G01 X-9.4788 Y25.1698 
G01 X-9.5273 Y25.0859 
G01 X-9.5959 Y25.0173 
G01 X-9.6798 Y24.9688 
G01 X-9.7735 Y24.9437 
G01 X-13.0865 Y24.9437 
G01 X-13.1802 Y24.9688 
G01 X-13.1953 Y24.9775 
G01 X-13.1953 Y23.9454 
G01 X-13.1013 Y23.8771 
G01 X-12.9529 Y23.7287 
G01 X-12.8295 Y23.5589 
G01 X-12.7342 Y23.3719 
G01 X-12.6693 Y23.1723 
G01 X-12.6365 Y22.9650 
G01 X-12.6365 Y22.7550 
G01 X-12.6693 Y22.5477 
G01 X-12.7342 Y22.3481 
G01 X-12.8295 Y22.1611 
G01 X-12.9529 Y21.9913 
G01 X-13.1013 Y21.8429 
G01 X-13.1953 Y21.7746 
G01 X-13.1953 Y20.2437 
G01 X-13.2251 Y20.0940 
G01 X-13.2835 Y19.9530 
G01 X-13.3683 Y19.8262 
G01 X-13.4762 Y19.7183 
G01 X-17.2862 Y15.9083 
G01 X-17.4130 Y15.8235 
G01 X-17.5540 Y15.7651 
G01 X-17.7037 Y15.7353 
G01 X-22.4375 Y15.7353 
G01 X-22.4288 Y15.7202 
G01 X-22.4037 Y15.6265 
G01 X-22.4037 Y12.3135 
G01 X-22.4288 Y12.2198 
G01 X-22.4773 Y12.1359 
G01 X-22.5459 Y12.0673 
G01 X-22.6298 Y12.0188 
G01 X-22.7235 Y11.9937 
G01 X-26.0365 Y11.9937 
G01 X-26.1302 Y12.0188 
G01 X-26.2141 Y12.0673 
G01 X-26.2827 Y12.1359 
G01 X-26.3312 Y12.2198 
G01 X-26.3563 Y12.3135 
G01 X-26.3563 Y15.6265 
G01 X-26.3312 Y15.7202 
G01 X-26.3224 Y15.7353 
G01 X-34.6375 Y15.7353 
G01 X-34.6288 Y15.7202 
G01 X-34.6037 Y15.6265 
G01 X-34.6037 Y12.3135 
G01 X-34.6288 Y12.2198 
G01 X-34.6773 Y12.1359 
G01 X-34.7459 Y12.0673 
G01 X-34.8298 Y12.0188 
G01 X-34.9235 Y11.9937 
G01 X-38.2365 Y11.9937 
G01 X-38.3302 Y12.0188 
G01 X-38.4141 Y12.0673 
G01 X-38.4827 Y12.1359 
G01 X-38.5312 Y12.2198 
G01 X-38.5563 Y12.3135 
G01 X-38.5563 Y15.6265 
G01 X-38.5312 Y15.7202 
G01 X-38.5224 Y15.7353 
G01 X-39.5546 Y15.7353 
G01 X-39.6229 Y15.6413 
G01 X-39.7713 Y15.4929 
G01 X-39.9411 Y15.3695 
G01 X-40.1281 Y15.2742 
G01 X-40.3277 Y15.2093 
G01 X-40.5350 Y15.1765 
G01 X-40.7450 Y15.1765 
G01 X-40.9523 Y15.2093 
G01 X-41.1519 Y15.2742 
G01 X-41.3389 Y15.3695 
G01 X-41.5087 Y15.4929 
G01 X-41.6571 Y15.6413 
G01 X-41.7254 Y15.7353 
G01 X-43.2563 Y15.7353 
G01 X-43.4060 Y15.7651 
G01 X-43.5470 Y15.8235 
G01 X-43.6738 Y15.9083 
G01 X-43.7817 Y16.0162 
G01 X-47.5917 Y19.8262 
G01 X-47.6765 Y19.9530 
G01 X-47.7349 Y20.0940 
G01 X-47.7647 Y20.2437 
G01 X-47.7647 Y24.9775 
G01 X-47.7798 Y24.9688 
G01 X-47.8735 Y24.9437 
G01 X-51.1865 Y24.9437 
G01 X-51.2802 Y24.9688 
G01 X-51.3641 Y25.0173 
G01 X-51.4327 Y25.0859 
G01 X-51.4812 Y25.1698 
G01 X-51.5063 Y25.2635 
G01 X-51.5063 Y28.5765 
G01 X-51.4812 Y28.6702 
G01 X-51.4327 Y28.7541 
G01 X-51.3641 Y28.8227 
G01 X-51.2802 Y28.8712 
G01 X-51.1865 Y28.8963 
G01 X-47.8735 Y28.8963 
G01 X-47.7798 Y28.8712 
G01 X-47.7647 Y28.8625 
G01 X-47.7647 Y37.1775 
G01 X-47.7798 Y37.1688 
G01 X-47.8735 Y37.1437 
G01 X-51.1865 Y37.1437 
G01 X-51.2802 Y37.1688 
G01 X-51.3641 Y37.2173 
G01 X-51.4327 Y37.2859 
G01 X-51.4812 Y37.3698 
G01 X-51.5063 Y37.4635 
G01 X-51.5063 Y40.7765 
G01 X-51.4812 Y40.8702 
G01 X-51.4327 Y40.9541 
G01 X-51.3641 Y41.0227 
G01 X-51.2802 Y41.0712 
G01 X-51.1865 Y41.0963 
G01 X-47.8735 Y41.0963 
G01 X-47.7798 Y41.0712 
G01 X-47.7647 Y41.0625 
G01 X-47.7647 Y42.0946 
G01 X-47.8587 Y42.1629 
G01 X-48.0071 Y42.3113 
G01 X-48.1305 Y42.4811 
G01 X-48.2258 Y42.6681 
G01 X-48.2907 Y42.8677 
G01 X-48.3235 Y43.0750 
G01 X-48.3235 Y43.2850 
G01 X-48.2907 Y43.4923 
G01 X-48.2258 Y43.6919 
G01 X-48.1305 Y43.8789 
G01 X-48.0071 Y44.0487 
G01 X-47.8587 Y44.1971 
G01 X-47.7647 Y44.2654 
G01 X-47.7647 Y45.7963 
G01 X-47.7349 Y45.9460 
G01 X-47.6765 Y46.0870 
G01 X-47.5917 Y46.2138 
G01 X-47.4838 Y46.3217 
G01 X-43.6738 Y50.1317 
G01 X-43.5470 Y50.2165 
G01 X-43.4060 Y50.2749 
G01 X-43.2563 Y50.3047 
G01 X-38.5225 Y50.3047 
G01 X-38.5312 Y50.3198 
G01 X-38.5563 Y50.4135 
G01 X-38.5563 Y53.7265 
G01 X-38.5312 Y53.8202 
G01 X-38.4827 Y53.9041 
G01 X-38.4141 Y53.9727 
G01 X-38.3302 Y54.0212 
G01 X-38.2365 Y54.0463 
G01 X-34.9235 Y54.0463 
G01 X-34.8298 Y54.0212 
G01 X-34.7459 Y53.9727 
G01 X-34.6773 Y53.9041 
G01 X-34.6288 Y53.8202 
G01 X-34.6037 Y53.7265 
G00 X-21.5071 Y58.6363 
G01 Z0.0000 F254000.00 
G01 X-21.5770 Y58.7325 F3000.00 
G01 X-26.8642 Y58.7431 
G01 X-26.8828 Y58.6738 
G01 X-26.9313 Y58.5899 
G01 X-26.9615 Y58.5597 
G01 X-21.4305 Y58.5597 
G01 X-21.5071 Y58.6363 
G00 X-56.1329 Y42.3113 
G01 Z0.0000 F254000.00 
G01 X-56.2737 Y42.1704 F3000.00 
G01 X-56.2737 Y36.6423 
G01 X-56.2275 Y36.6423 
G01 X-56.1338 Y36.6172 
G01 X-56.0499 Y36.5687 
G01 X-56.0197 Y36.5385 
G01 X-56.0197 Y42.4670 
G01 X-56.1329 Y42.3113 
