(.../pcb-gcode-3_6_0_4/pcb-gcode.ulp)
(Copyright 2005 - 2012 by John Johnson)
(See readme.txt for licensing terms.)
(This file generated from the board:)
(.../midi_pad/midi_pad_laser_optimized.brd)
(Current profile is .../pcb-gcode-3_6_0_4/profiles/generic.pp  )
(This file generated 24.08.22 00:27)
(Settings from pcb-machine.h)
(  Tool Size)
(0.1778 )
(Z Axis Settings)
(  High     Up        Down     Drill)
(12.0000 	10.0000 	2.0000 	1.0000 )
(spindle on time = 3.0000)
(milling depth = 1.0000)
(text depth = 1.0000)
(tool change at 12.7000 15.2400 25.4000 )
(feed rate xy = F3000.00 )
(feed rate z  = F9000.00 )
(Settings from pcb-defaults.h)
(isolate min = 0.0254)
(isolate max = 0.1270)
(isolate step = 0.0635)
(Generated top outlines, top drill, )
(Unit of measure: mm)
( Tool|       Size       |  Min Sub |  Max Sub |   Count )
( T01  0.350mm 0.0138in 0.0000in 0.0000in )
( T02  3.500mm 0.1378in 0.0000in 0.0000in )
( T03  4.000mm 0.1575in 0.0000in 0.0000in )
( T04  0.900mm 0.0354in 0.0000in 0.0000in )
( T05  1.000mm 0.0394in 0.0000in 0.0000in )
( T06  1.118mm 0.0440in 0.0000in 0.0000in )
( T07  1.500mm 0.0591in 0.0000in 0.0000in )
( T08  2.200mm 0.0866in 0.0000in 0.0000in )
( T09  2.286mm 0.0900in 0.0000in 0.0000in )
(Metric Mode)
G21
(Absolute Coordinates)
G90
M05
G00 Z25.4000 
G00 X12.7000 Y15.2400 
M06 T01  ; 0.3500 
G01 Z0.0000 F9000.00 
M06 T01  ; 0.3500 
G00 Z10.0000 
M03
G04 P3.000000
G00 Z10.000000
G00 X5.0800 Y5.0800 
G01 Z1.0000 F9000.00 
G01 Z10.000000
(R10.0000  P0.000000)
(G00 Z10.000000)
G00 X63.5000 Y106.6800 
G01 Z1.000000
G01 Z10.000000
(G00 Z10.000000)
G00 X63.5000 Y116.8400 
G01 Z1.000000
G01 Z10.000000
(G00 Z10.000000)
G00 X66.0400 Y106.6800 
G01 Z1.000000
G01 Z10.000000
(G00 Z10.000000)
G00 X66.0400 Y116.8400 
G01 Z1.000000
G01 Z10.000000
(G00 Z10.000000)
G00 X73.6600 Y63.5000 
G01 Z1.000000
G01 Z10.000000
(G00 Z10.000000)
G00 X81.2800 Y60.9600 
G01 Z1.000000
G01 Z10.000000
(G00 Z10.000000)
G00 X83.8200 Y73.6600 
G01 Z1.000000
G01 Z10.000000
(G00 Z10.000000)
G00 X86.3600 Y66.0400 
G01 Z1.000000
G01 Z10.000000
(G00 Z10.000000)
G00 X98.4250 Y8.2550 
G01 Z1.000000
G01 Z10.000000
(G00 Z10.000000)
G00 X109.2200 Y8.2550 
G01 Z1.000000
G01 Z10.000000
(G00 Z10.000000)
G00 X134.6200 Y124.4600 
G01 Z1.000000
G01 Z10.000000
M05
G00 Z25.4000 
M06 T02  ; 3.5000 
G01 Z0.0000 F9000.00 
M06 T02  ; 3.5000 
G00 Z10.0000 
M03
G04 P3.000000
G00 Z10.000000
G00 X96.6140 Y90.7380 
G01 Z1.0000 F9000.00 
G01 Z10.000000
(R10.0000  P0.000000)
(G00 Z10.000000)
G00 X112.1600 Y106.7920 
G01 Z1.000000
G01 Z10.000000
(G00 Z10.000000)
G00 X112.6680 Y90.7380 
G01 Z1.000000
G01 Z10.000000
M05
G00 Z25.4000 
M06 T03  ; 4.0000 
G01 Z0.0000 F9000.00 
M06 T03  ; 4.0000 
G00 Z10.0000 
M03
G04 P3.000000
G00 Z10.000000
G00 X35.5600 Y34.2900 
G01 Z1.0000 F9000.00 
G01 Z10.000000
(R10.0000  P0.000000)
(G00 Z10.000000)
G00 X35.5600 Y53.3400 
G01 Z1.000000
G01 Z10.000000
(G00 Z10.000000)
G00 X35.5600 Y72.3900 
G01 Z1.000000
G01 Z10.000000
(G00 Z10.000000)
G00 X35.5600 Y15.2400 
G01 Z1.000000
G01 Z10.000000
(G00 Z10.000000)
G00 X54.6100 Y34.2900 
G01 Z1.000000
G01 Z10.000000
(G00 Z10.000000)
G00 X54.6100 Y53.3400 
G01 Z1.000000
G01 Z10.000000
(G00 Z10.000000)
G00 X54.6100 Y72.3900 
G01 Z1.000000
G01 Z10.000000
(G00 Z10.000000)
G00 X54.6100 Y15.2400 
G01 Z1.000000
G01 Z10.000000
(G00 Z10.000000)
G00 X96.3600 Y106.7920 
G01 Z1.000000
G01 Z10.000000
(G00 Z10.000000)
G00 X16.5100 Y34.2900 
G01 Z1.000000
G01 Z10.000000
(G00 Z10.000000)
G00 X16.5100 Y53.3400 
G01 Z1.000000
G01 Z10.000000
(G00 Z10.000000)
G00 X16.5100 Y72.3900 
G01 Z1.000000
G01 Z10.000000
(G00 Z10.000000)
G00 X16.5100 Y15.2400 
G01 Z1.000000
G01 Z10.000000
M05
G00 Z25.4000 
M06 T04  ; 0.9000 
G01 Z0.0000 F9000.00 
M06 T04  ; 0.9000 
G00 Z10.0000 
M03
G04 P3.000000
G00 Z10.000000
G00 X31.7500 Y110.4900 
G01 Z1.0000 F9000.00 
G01 Z10.000000
(R10.0000  P0.000000)
(G00 Z10.000000)
G00 X34.2900 Y110.4900 
G01 Z1.000000
G01 Z10.000000
(G00 Z10.000000)
G00 X36.8300 Y110.4900 
G01 Z1.000000
G01 Z10.000000
(G00 Z10.000000)
G00 X39.3700 Y110.4900 
G01 Z1.000000
G01 Z10.000000
(G00 Z10.000000)
G00 X12.7400 Y124.4600 
G01 Z1.000000
G01 Z10.000000
(G00 Z10.000000)
G00 X15.2400 Y124.4600 
G01 Z1.000000
G01 Z10.000000
(G00 Z10.000000)
G00 X17.7400 Y124.4600 
G01 Z1.000000
G01 Z10.000000
(G00 Z10.000000)
G00 X25.4400 Y124.4600 
G01 Z1.000000
G01 Z10.000000
(G00 Z10.000000)
G00 X27.9400 Y124.4600 
G01 Z1.000000
G01 Z10.000000
(G00 Z10.000000)
G00 X30.4400 Y124.4600 
G01 Z1.000000
G01 Z10.000000
M05
G00 Z25.4000 
M06 T05  ; 1.0000 
G01 Z0.0000 F9000.00 
M06 T05  ; 1.0000 
G00 Z10.0000 
M03
G04 P3.000000
G00 Z10.000000
G00 X31.7500 Y48.2600 
G01 Z1.0000 F9000.00 
G01 Z10.000000
(R10.0000  P0.000000)
(G00 Z10.000000)
G00 X31.7500 Y67.3100 
G01 Z1.000000
G01 Z10.000000
(G00 Z10.000000)
G00 X31.7500 Y10.1600 
G01 Z1.000000
G01 Z10.000000
(G00 Z10.000000)
G00 X31.7500 Y29.2100 
G01 Z1.000000
G01 Z10.000000
(G00 Z10.000000)
G00 X33.0200 Y93.9800 
G01 Z1.000000
G01 Z10.000000
(G00 Z10.000000)
G00 X33.0200 Y116.8400 
G01 Z1.000000
G01 Z10.000000
(G00 Z10.000000)
G00 X35.5600 Y93.9800 
G01 Z1.000000
G01 Z10.000000
(G00 Z10.000000)
G00 X35.5600 Y116.8400 
G01 Z1.000000
G01 Z10.000000
(G00 Z10.000000)
G00 X38.1000 Y93.9800 
G01 Z1.000000
G01 Z10.000000
(G00 Z10.000000)
G00 X38.1000 Y116.8400 
G01 Z1.000000
G01 Z10.000000
(G00 Z10.000000)
G00 X39.3700 Y48.2600 
G01 Z1.000000
G01 Z10.000000
(G00 Z10.000000)
G00 X39.3700 Y67.3100 
G01 Z1.000000
G01 Z10.000000
(G00 Z10.000000)
G00 X39.3700 Y10.1600 
G01 Z1.000000
G01 Z10.000000
(G00 Z10.000000)
G00 X39.3700 Y29.2100 
G01 Z1.000000
G01 Z10.000000
(G00 Z10.000000)
G00 X40.6400 Y93.9800 
G01 Z1.000000
G01 Z10.000000
(G00 Z10.000000)
G00 X40.6400 Y116.8400 
G01 Z1.000000
G01 Z10.000000
(G00 Z10.000000)
G00 X43.1800 Y93.9800 
G01 Z1.000000
G01 Z10.000000
(G00 Z10.000000)
G00 X43.1800 Y116.8400 
G01 Z1.000000
G01 Z10.000000
(G00 Z10.000000)
G00 X45.7200 Y93.9800 
G01 Z1.000000
G01 Z10.000000
(G00 Z10.000000)
G00 X45.7200 Y116.8400 
G01 Z1.000000
G01 Z10.000000
(G00 Z10.000000)
G00 X50.8000 Y48.2600 
G01 Z1.000000
G01 Z10.000000
(G00 Z10.000000)
G00 X50.8000 Y67.3100 
G01 Z1.000000
G01 Z10.000000
(G00 Z10.000000)
G00 X50.8000 Y10.1600 
G01 Z1.000000
G01 Z10.000000
(G00 Z10.000000)
G00 X50.8000 Y29.2100 
G01 Z1.000000
G01 Z10.000000
(G00 Z10.000000)
G00 X58.4200 Y48.2600 
G01 Z1.000000
G01 Z10.000000
(G00 Z10.000000)
G00 X58.4200 Y67.3100 
G01 Z1.000000
G01 Z10.000000
(G00 Z10.000000)
G00 X58.4200 Y10.1600 
G01 Z1.000000
G01 Z10.000000
(G00 Z10.000000)
G00 X58.4200 Y29.2100 
G01 Z1.000000
G01 Z10.000000
(G00 Z10.000000)
G00 X77.5900 Y35.6000 
G01 Z1.000000
G01 Z10.000000
(G00 Z10.000000)
G00 X77.5900 Y38.1000 
G01 Z1.000000
G01 Z10.000000
(G00 Z10.000000)
G00 X77.5900 Y40.6000 
G01 Z1.000000
G01 Z10.000000
(G00 Z10.000000)
G00 X92.0900 Y35.6000 
G01 Z1.000000
G01 Z10.000000
(G00 Z10.000000)
G00 X92.0900 Y40.6000 
G01 Z1.000000
G01 Z10.000000
(G00 Z10.000000)
G00 X97.7632 Y95.5794 
G01 Z1.000000
G01 Z10.000000
(G00 Z10.000000)
G00 X97.7632 Y98.1194 
G01 Z1.000000
G01 Z10.000000
(G00 Z10.000000)
G00 X97.7632 Y100.6594 
G01 Z1.000000
G01 Z10.000000
(G00 Z10.000000)
G00 X97.7632 Y103.1994 
G01 Z1.000000
G01 Z10.000000
(G00 Z10.000000)
G00 X101.6400 Y50.1500 
G01 Z1.000000
G01 Z10.000000
(G00 Z10.000000)
G00 X101.6400 Y64.6500 
G01 Z1.000000
G01 Z10.000000
(G00 Z10.000000)
G00 X101.6400 Y11.5500 
G01 Z1.000000
G01 Z10.000000
(G00 Z10.000000)
G00 X101.6400 Y26.0500 
G01 Z1.000000
G01 Z10.000000
(G00 Z10.000000)
G00 X104.1400 Y64.6500 
G01 Z1.000000
G01 Z10.000000
(G00 Z10.000000)
G00 X104.1400 Y11.5500 
G01 Z1.000000
G01 Z10.000000
(G00 Z10.000000)
G00 X106.6400 Y50.1500 
G01 Z1.000000
G01 Z10.000000
(G00 Z10.000000)
G00 X106.6400 Y64.6500 
G01 Z1.000000
G01 Z10.000000
(G00 Z10.000000)
G00 X106.6400 Y11.5500 
G01 Z1.000000
G01 Z10.000000
(G00 Z10.000000)
G00 X106.6400 Y26.0500 
G01 Z1.000000
G01 Z10.000000
(G00 Z10.000000)
G00 X110.8378 Y96.4464 
G01 Z1.000000
G01 Z10.000000
(G00 Z10.000000)
G00 X110.8378 Y98.9864 
G01 Z1.000000
G01 Z10.000000
(G00 Z10.000000)
G00 X110.8378 Y101.5264 
G01 Z1.000000
G01 Z10.000000
(G00 Z10.000000)
G00 X116.1900 Y35.6000 
G01 Z1.000000
G01 Z10.000000
(G00 Z10.000000)
G00 X116.1900 Y40.6000 
G01 Z1.000000
G01 Z10.000000
(G00 Z10.000000)
G00 X12.7000 Y48.2600 
G01 Z1.000000
G01 Z10.000000
(G00 Z10.000000)
G00 X12.7000 Y67.3100 
G01 Z1.000000
G01 Z10.000000
(G00 Z10.000000)
G00 X12.7000 Y10.1600 
G01 Z1.000000
G01 Z10.000000
(G00 Z10.000000)
G00 X12.7000 Y29.2100 
G01 Z1.000000
G01 Z10.000000
(G00 Z10.000000)
G00 X130.6900 Y35.6000 
G01 Z1.000000
G01 Z10.000000
(G00 Z10.000000)
G00 X130.6900 Y38.1000 
G01 Z1.000000
G01 Z10.000000
(G00 Z10.000000)
G00 X130.6900 Y40.6000 
G01 Z1.000000
G01 Z10.000000
(G00 Z10.000000)
G00 X15.2400 Y93.9800 
G01 Z1.000000
G01 Z10.000000
(G00 Z10.000000)
G00 X15.2400 Y116.8400 
G01 Z1.000000
G01 Z10.000000
(G00 Z10.000000)
G00 X17.7800 Y93.9800 
G01 Z1.000000
G01 Z10.000000
(G00 Z10.000000)
G00 X17.7800 Y116.8400 
G01 Z1.000000
G01 Z10.000000
(G00 Z10.000000)
G00 X20.3200 Y48.2600 
G01 Z1.000000
G01 Z10.000000
(G00 Z10.000000)
G00 X20.3200 Y67.3100 
G01 Z1.000000
G01 Z10.000000
(G00 Z10.000000)
G00 X20.3200 Y93.9800 
G01 Z1.000000
G01 Z10.000000
(G00 Z10.000000)
G00 X20.3200 Y10.1600 
G01 Z1.000000
G01 Z10.000000
(G00 Z10.000000)
G00 X20.3200 Y116.8400 
G01 Z1.000000
G01 Z10.000000
(G00 Z10.000000)
G00 X20.3200 Y29.2100 
G01 Z1.000000
G01 Z10.000000
(G00 Z10.000000)
G00 X22.8600 Y93.9800 
G01 Z1.000000
G01 Z10.000000
(G00 Z10.000000)
G00 X22.8600 Y116.8400 
G01 Z1.000000
G01 Z10.000000
(G00 Z10.000000)
G00 X25.4000 Y93.9800 
G01 Z1.000000
G01 Z10.000000
(G00 Z10.000000)
G00 X25.4000 Y116.8400 
G01 Z1.000000
G01 Z10.000000
(G00 Z10.000000)
G00 X27.9400 Y93.9800 
G01 Z1.000000
G01 Z10.000000
(G00 Z10.000000)
G00 X27.9400 Y116.8400 
G01 Z1.000000
G01 Z10.000000
(G00 Z10.000000)
G00 X30.4800 Y93.9800 
G01 Z1.000000
G01 Z10.000000
(G00 Z10.000000)
G00 X30.4800 Y116.8400 
G01 Z1.000000
G01 Z10.000000
M05
G00 Z25.4000 
M06 T06  ; 1.1176 
G01 Z0.0000 F9000.00 
M06 T06  ; 1.1176 
G00 Z10.0000 
M03
G04 P3.000000
G00 Z10.000000
G00 X77.4700 Y55.2450 
G01 Z1.0000 F9000.00 
G01 Z10.000000
(R10.0000  P0.000000)
(G00 Z10.000000)
G00 X77.4700 Y27.9400 
G01 Z1.000000
G01 Z10.000000
(G00 Z10.000000)
G00 X86.9950 Y11.4300 
G01 Z1.000000
G01 Z10.000000
(G00 Z10.000000)
G00 X86.9950 Y21.5900 
G01 Z1.000000
G01 Z10.000000
(G00 Z10.000000)
G00 X87.6300 Y55.2450 
G01 Z1.000000
G01 Z10.000000
(G00 Z10.000000)
G00 X87.6300 Y27.9400 
G01 Z1.000000
G01 Z10.000000
(G00 Z10.000000)
G00 X94.1500 Y54.4250 
G01 Z1.000000
G01 Z10.000000
(G00 Z10.000000)
G00 X94.1500 Y64.5850 
G01 Z1.000000
G01 Z10.000000
(G00 Z10.000000)
G00 X94.7100 Y35.5600 
G01 Z1.000000
G01 Z10.000000
(G00 Z10.000000)
G00 X101.6000 Y37.5600 
G01 Z1.000000
G01 Z10.000000
(G00 Z10.000000)
G00 X101.6000 Y47.7200 
G01 Z1.000000
G01 Z10.000000
(G00 Z10.000000)
G00 X103.8000 Y40.3600 
G01 Z1.000000
G01 Z10.000000
(G00 Z10.000000)
G00 X104.8700 Y35.5600 
G01 Z1.000000
G01 Z10.000000
(G00 Z10.000000)
G00 X106.6800 Y38.5600 
G01 Z1.000000
G01 Z10.000000
(G00 Z10.000000)
G00 X106.6800 Y28.4000 
G01 Z1.000000
G01 Z10.000000
(G00 Z10.000000)
G00 X113.9600 Y40.3600 
G01 Z1.000000
G01 Z10.000000
(G00 Z10.000000)
G00 X114.3000 Y11.4300 
G01 Z1.000000
G01 Z10.000000
(G00 Z10.000000)
G00 X114.3000 Y21.5900 
G01 Z1.000000
G01 Z10.000000
(G00 Z10.000000)
G00 X120.6500 Y48.2600 
G01 Z1.000000
G01 Z10.000000
(G00 Z10.000000)
G00 X120.6500 Y20.9550 
G01 Z1.000000
G01 Z10.000000
(G00 Z10.000000)
G00 X121.2850 Y54.6100 
G01 Z1.000000
G01 Z10.000000
(G00 Z10.000000)
G00 X121.2850 Y64.7700 
G01 Z1.000000
G01 Z10.000000
(G00 Z10.000000)
G00 X130.8100 Y48.2600 
G01 Z1.000000
G01 Z10.000000
(G00 Z10.000000)
G00 X130.8100 Y20.9550 
G01 Z1.000000
G01 Z10.000000
M05
G00 Z25.4000 
M06 T07  ; 1.5000 
G01 Z0.0000 F9000.00 
M06 T07  ; 1.5000 
G00 Z10.0000 
M03
G04 P3.000000
G00 Z10.000000
G00 X31.7500 Y36.8300 
G01 Z1.0000 F9000.00 
G01 Z10.000000
(R10.0000  P0.000000)
(G00 Z10.000000)
G00 X31.7500 Y55.8800 
G01 Z1.000000
G01 Z10.000000
(G00 Z10.000000)
G00 X31.7500 Y74.9300 
G01 Z1.000000
G01 Z10.000000
(G00 Z10.000000)
G00 X31.7500 Y17.7800 
G01 Z1.000000
G01 Z10.000000
(G00 Z10.000000)
G00 X38.1000 Y39.3700 
G01 Z1.000000
G01 Z10.000000
(G00 Z10.000000)
G00 X38.1000 Y58.4200 
G01 Z1.000000
G01 Z10.000000
(G00 Z10.000000)
G00 X38.1000 Y77.4700 
G01 Z1.000000
G01 Z10.000000
(G00 Z10.000000)
G00 X38.1000 Y20.3200 
G01 Z1.000000
G01 Z10.000000
(G00 Z10.000000)
G00 X50.8000 Y36.8300 
G01 Z1.000000
G01 Z10.000000
(G00 Z10.000000)
G00 X50.8000 Y55.8800 
G01 Z1.000000
G01 Z10.000000
(G00 Z10.000000)
G00 X50.8000 Y74.9300 
G01 Z1.000000
G01 Z10.000000
(G00 Z10.000000)
G00 X50.8000 Y17.7800 
G01 Z1.000000
G01 Z10.000000
(G00 Z10.000000)
G00 X57.1500 Y39.3700 
G01 Z1.000000
G01 Z10.000000
(G00 Z10.000000)
G00 X57.1500 Y58.4200 
G01 Z1.000000
G01 Z10.000000
(G00 Z10.000000)
G00 X57.1500 Y77.4700 
G01 Z1.000000
G01 Z10.000000
(G00 Z10.000000)
G00 X57.1500 Y20.3200 
G01 Z1.000000
G01 Z10.000000
(G00 Z10.000000)
G00 X12.7000 Y36.8300 
G01 Z1.000000
G01 Z10.000000
(G00 Z10.000000)
G00 X12.7000 Y55.8800 
G01 Z1.000000
G01 Z10.000000
(G00 Z10.000000)
G00 X12.7000 Y74.9300 
G01 Z1.000000
G01 Z10.000000
(G00 Z10.000000)
G00 X12.7000 Y17.7800 
G01 Z1.000000
G01 Z10.000000
(G00 Z10.000000)
G00 X19.0500 Y39.3700 
G01 Z1.000000
G01 Z10.000000
(G00 Z10.000000)
G00 X19.0500 Y58.4200 
G01 Z1.000000
G01 Z10.000000
(G00 Z10.000000)
G00 X19.0500 Y77.4700 
G01 Z1.000000
G01 Z10.000000
(G00 Z10.000000)
G00 X19.0500 Y20.3200 
G01 Z1.000000
G01 Z10.000000
M05
G00 Z25.4000 
M06 T08  ; 2.2000 
G01 Z0.0000 F9000.00 
M06 T08  ; 2.2000 
G00 Z10.0000 
M03
G04 P3.000000
G00 Z10.000000
G00 X85.0900 Y32.0000 
G01 Z1.0000 F9000.00 
G01 Z10.000000
(R10.0000  P0.000000)
(G00 Z10.000000)
G00 X85.0900 Y44.2000 
G01 Z1.000000
G01 Z10.000000
(G00 Z10.000000)
G00 X98.0400 Y57.1500 
G01 Z1.000000
G01 Z10.000000
(G00 Z10.000000)
G00 X98.0400 Y19.0500 
G01 Z1.000000
G01 Z10.000000
(G00 Z10.000000)
G00 X110.2400 Y57.1500 
G01 Z1.000000
G01 Z10.000000
(G00 Z10.000000)
G00 X110.2400 Y19.0500 
G01 Z1.000000
G01 Z10.000000
(G00 Z10.000000)
G00 X123.1900 Y32.0000 
G01 Z1.000000
G01 Z10.000000
(G00 Z10.000000)
G00 X123.1900 Y44.2000 
G01 Z1.000000
G01 Z10.000000
M05
G00 Z25.4000 
M06 T09  ; 2.2860 
G01 Z0.0000 F9000.00 
M06 T09  ; 2.2860 
G00 Z10.0000 
M03
G04 P3.000000
G00 Z10.000000
G00 X48.2600 Y94.7420 
G01 Z1.0000 F9000.00 
G01 Z10.000000
(R10.0000  P0.000000)
(G00 Z10.000000)
G00 X10.1600 Y115.6970 
G01 Z1.000000
G01 Z10.000000
T01 
G00 Z12.0000 
M05
M02
