(.../pcb-gcode-3_6_0_4/pcb-gcode.ulp)
(Copyright 2005 - 2012 by John Johnson)
(See readme.txt for licensing terms.)
(This file generated from the board:)
(.../EAGLE/midi_pad_laser_optimized2.brd)
(Current profile is .../pcb-gcode-3_6_0_4/profiles/generic.pp  )
(This file generated 07.09.22 23:40)
(Settings from pcb-machine.h)
(  Tool Size)
(0.1000 )
(Z Axis Settings)
(  High     Up        Down     Drill)
(5.0000 	4.0000 	0.0000 	2.0000 )
(spindle on time = 3.0000)
(milling depth = 1.0000)
(text depth = 1.0000)
(tool change at 12.7000 15.2400 25.4000 )
(feed rate xy = F3000.00 )
(feed rate z  = F9000.00 )
(Settings from pcb-defaults.h)
(isolate min = 0.0254)
(isolate max = 0.4000)
(isolate step = 0.0635)
(Generated bottom outlines, )
(Unit of measure: mm)
(Metric Mode)
G21
(Absolute Coordinates)
G90
G00 X0.0000 Y0.0000 
M03
G04 P3.000000
G00 Z4.0000 
G00 X10.1600 Y7.6200 
G01 Z1.0000 F9000.00 
G01 X15.2400 Y7.6200 F3000.00 
G00 Z4.0000 
G00 X12.7000 Y10.1600 
G01 Z1.0000 F9000.00 
G01 X12.7000 Y5.0800 F3000.00 
G00 Z4.0000 
G00 X147.3200 Y132.0800 
G01 Z1.0000 F9000.00 
G01 X152.4000 Y132.0800 F3000.00 
G00 Z4.0000 
G00 X149.8600 Y134.6200 
G01 Z1.0000 F9000.00 
G01 X149.8600 Y129.5400 F3000.00 
G00 Z4.0000 
G00 X8.8900 Y3.8100 
G01 Z1.0000 F9000.00 
G01 X17.7800 Y3.8100 F3000.00 
G00 Z4.0000 
G01 Z1.0000 F9000.00 
G01 X8.8900 Y12.7000 F3000.00 
G00 Z4.0000 
G00 X153.6700 Y135.8900 
G01 Z1.0000 F9000.00 
G01 X153.6700 Y124.4600 F3000.00 
G00 Z4.0000 
G01 Z1.0000 F9000.00 
G01 X142.2400 Y135.8900 F3000.00 
G00 Z4.0000 
G00 X149.8600 Y10.1600 
G01 Z1.0000 F9000.00 
G01 X149.8600 Y15.2400 F3000.00 
G00 Z4.0000 
G00 X147.3200 Y12.7000 
G01 Z1.0000 F9000.00 
G01 X152.4000 Y12.7000 F3000.00 
G00 Z4.0000 
G00 X153.6700 Y8.8900 
G01 Z1.0000 F9000.00 
G01 X153.6700 Y17.7800 F3000.00 
G00 Z4.0000 
G01 Z1.0000 F9000.00 
G01 X144.7800 Y8.8900 F3000.00 
G00 Z4.0000 
G00 X20.3200 Y129.5400 
G01 Z1.0000 F9000.00 
G01 X20.3200 Y134.6200 F3000.00 
G00 Z4.0000 
G00 X17.7800 Y132.0800 
G01 Z1.0000 F9000.00 
G01 X22.8600 Y132.0800 F3000.00 
G00 Z4.0000 
G00 X16.5100 Y135.8900 
G01 Z1.0000 F9000.00 
G01 X27.9400 Y135.8900 F3000.00 
G00 Z4.0000 
G01 Z1.0000 F9000.00 
G01 X16.5100 Y124.4600 F3000.00 
G00 Z5.0000 
M05
M02
