(.../pcb-gcode-3_6_0_4/pcb-gcode.ulp)
(Copyright 2005 - 2012 by John Johnson)
(See readme.txt for licensing terms.)
(This file generated from the board:)
(.../projects/midi_pad/midi_pad.brd)
(Current profile is .../pcb-gcode-3_6_0_4/profiles/generic.pp  )
(This file generated 19.08.22 19:31)
(Settings from pcb-machine.h)
(  Tool Size)
(0.1778 )
(Z Axis Settings)
(  High     Up        Down     Drill)
(12.7000 	2.5400 	-0.1778 	-0.8128 )
(spindle on time = 3.0000)
(milling depth = -0.2540)
(text depth = -0.1270)
(tool change at 12.7000 15.2400 25.4000 )
(feed rate xy = F3000.00 )
(feed rate z  = F2540.00 )
(Settings from pcb-defaults.h)
(isolate min = 0.0254)
(isolate max = 0.5080)
(isolate step = 0.1270)
(Generated top outlines, top drill, bottom outlines, bottom drill, )
(Unit of measure: mm)
(Metric Mode)
G21
(Absolute Coordinates)
G90
G00 X0.0000 Y0.0000 
M03
G04 P3.000000
G00 Z2.5400 
G00 X35.4581 Y28.7318 
G01 Z-0.1778 F2540.00 
G01 X34.7002 Y28.4179 S1000 F3000.00 
G01 X33.8798 Y28.4179 
G01 X33.1219 Y28.7318 
G01 X32.5418 Y29.3119 
G01 X32.2279 Y30.0698 
G01 X32.2279 Y30.8902 
G01 X32.5418 Y31.6481 
G01 X33.1219 Y32.2282 
G01 X33.8798 Y32.5421 
G01 X34.7002 Y32.5421 
G01 X35.4581 Y32.2282 
G01 X36.0382 Y31.6481 
G01 X36.3521 Y30.8902 
G01 X36.3521 Y30.0698 
G01 X36.0382 Y29.3119 
G01 X35.4581 Y28.7318 
G00 Z2.5400 
G00 X35.1583 Y30.3945 
G01 Z-0.1778 F2540.00 
G01 X35.1583 Y30.5655 F3000.00 
G01 X35.1249 Y30.7333 
G01 X35.0595 Y30.8913 
G01 X34.9644 Y31.0335 
G01 X34.8435 Y31.1545 
G01 X34.7013 Y31.2495 
G01 X34.5433 Y31.3149 
G01 X34.3755 Y31.3483 
G01 X34.2045 Y31.3483 
G01 X34.0367 Y31.3149 
G01 X33.8787 Y31.2495 
G01 X33.7365 Y31.1545 
G01 X33.6155 Y31.0335 
G01 X33.5205 Y30.8913 
G01 X33.4551 Y30.7333 
G01 X33.4217 Y30.5655 
G01 X33.4217 Y30.3945 
G01 X33.4551 Y30.2267 
G01 X33.5205 Y30.0687 
G01 X33.6155 Y29.9265 
G01 X33.7365 Y29.8055 
G01 X33.8787 Y29.7105 
G01 X34.0367 Y29.6451 
G01 X34.2045 Y29.6117 
G01 X34.3755 Y29.6117 
G01 X34.5433 Y29.6451 
G01 X34.7013 Y29.7105 
G01 X34.8435 Y29.8055 
G01 X34.9644 Y29.9265 
G01 X35.0595 Y30.0687 
G01 X35.1249 Y30.2267 
G01 X35.1583 Y30.3945 
G00 Z2.5400 
G00 X42.4851 Y39.0442 
G01 Z-0.1778 F2540.00 
G01 X42.4561 Y38.9742 F3000.00 
G01 X42.4561 Y38.7970 
G01 X42.4851 Y38.7269 
G01 X42.4877 Y38.7244 
G01 X42.5991 Y38.6129 
G01 X42.6502 Y38.5619 
G01 X42.6527 Y38.5593 
G01 X43.1636 Y38.0484 
G01 X43.4401 Y37.3809 
G01 X43.4401 Y31.9072 
G01 X43.4691 Y31.8371 
G01 X43.5227 Y31.7836 
G01 X43.6582 Y31.6481 
G01 X43.9721 Y30.8902 
G01 X43.9721 Y30.0698 
G01 X43.6582 Y29.3119 
G01 X43.0781 Y28.7318 
G01 X42.3202 Y28.4179 
G01 X41.4998 Y28.4179 
G01 X40.7419 Y28.7318 
G01 X40.1618 Y29.3119 
G01 X39.8479 Y30.0698 
G01 X39.8479 Y30.3082 
G01 X39.8341 Y30.3415 
G01 X39.8189 Y30.3782 
G01 X39.8079 Y30.4047 
G01 X39.8079 Y32.3712 
G01 X39.8112 Y32.3835 
G01 X39.8079 Y32.4087 
G01 X39.8079 Y32.4341 
G01 X39.8030 Y32.4460 
G01 X39.8013 Y32.4587 
G01 X39.7886 Y32.4807 
G01 X39.7789 Y32.5041 
G01 X39.7698 Y32.5132 
G01 X39.7634 Y32.5243 
G01 X39.7433 Y32.5398 
G01 X39.7253 Y32.5577 
G01 X39.7135 Y32.5626 
G01 X39.7033 Y32.5704 
G01 X39.6788 Y32.5770 
G01 X39.6553 Y32.5867 
G01 X39.6425 Y32.5867 
G01 X39.6301 Y32.5901 
G01 X39.6049 Y32.5867 
G01 X39.5795 Y32.5867 
G01 X39.5677 Y32.5818 
G01 X39.5550 Y32.5802 
G01 X39.5330 Y32.5675 
G01 X39.5095 Y32.5577 
G01 X39.5004 Y32.5487 
G01 X39.3769 Y32.4773 
G01 X38.5355 Y32.2519 
G01 X37.6645 Y32.2519 
G01 X36.8231 Y32.4773 
G01 X36.0688 Y32.9129 
G01 X35.4529 Y33.5288 
G01 X35.0173 Y34.2831 
G01 X34.7919 Y35.1245 
G01 X34.7919 Y35.5143 
G01 X34.7629 Y35.5843 
G01 X34.7093 Y35.6379 
G01 X34.6393 Y35.6669 
G01 X33.9697 Y35.6669 
G01 X33.3509 Y35.8327 
G01 X32.7960 Y36.1530 
G01 X32.3430 Y36.6060 
G01 X32.0227 Y37.1609 
G01 X31.8569 Y37.7797 
G01 X31.8569 Y38.4203 
G01 X32.0227 Y39.0391 
G01 X32.3430 Y39.5940 
G01 X32.4449 Y39.6958 
G01 X32.4739 Y39.7658 
G01 X32.4739 Y47.8910 
G01 X32.5685 Y48.1194 
G01 X32.5864 Y48.1625 
G01 X32.5975 Y48.1894 
G01 X32.5975 Y48.2269 
G01 X32.5975 Y48.2652 
G01 X32.5788 Y48.3104 
G01 X32.5685 Y48.3352 
G01 X32.5418 Y48.3619 
G01 X32.2279 Y49.1198 
G01 X32.2279 Y49.9402 
G01 X32.5418 Y50.6981 
G01 X32.5685 Y50.7248 
G01 X32.5781 Y50.7480 
G01 X32.5975 Y50.7948 
G01 X32.5975 Y50.8323 
G01 X32.5975 Y50.8706 
G01 X32.5868 Y50.8965 
G01 X32.5685 Y50.9406 
G01 X32.4739 Y51.1690 
G01 X32.4739 Y55.4842 
G01 X32.4449 Y55.5542 
G01 X32.3913 Y55.6078 
G01 X32.3430 Y55.6560 
G01 X32.0227 Y56.2109 
G01 X31.8569 Y56.8297 
G01 X31.8569 Y57.4703 
G01 X32.0227 Y58.0891 
G01 X32.3430 Y58.6440 
G01 X32.3913 Y58.6922 
G01 X32.4426 Y58.7436 
G01 X32.4567 Y58.7742 
G01 X32.4739 Y58.8158 
G01 X32.4739 Y66.9410 
G01 X32.5685 Y67.1694 
G01 X32.5864 Y67.2125 
G01 X32.5975 Y67.2394 
G01 X32.5975 Y67.2769 
G01 X32.5975 Y67.3152 
G01 X32.5788 Y67.3604 
G01 X32.5685 Y67.3852 
G01 X32.5418 Y67.4119 
G01 X32.2279 Y68.1698 
G01 X32.2279 Y68.9902 
G01 X32.5418 Y69.7481 
G01 X32.5685 Y69.7748 
G01 X32.5781 Y69.7980 
G01 X32.5975 Y69.8448 
G01 X32.5975 Y69.8823 
G01 X32.5975 Y69.9206 
G01 X32.5868 Y69.9465 
G01 X32.5685 Y69.9906 
G01 X32.4739 Y70.2190 
G01 X32.4739 Y74.5342 
G01 X32.4571 Y74.5746 
G01 X32.4449 Y74.6042 
G01 X32.3913 Y74.6578 
G01 X32.3430 Y74.7060 
G01 X32.0227 Y75.2609 
G01 X31.8569 Y75.8797 
G01 X31.8569 Y76.5203 
G01 X32.0227 Y77.1391 
G01 X32.3430 Y77.6940 
G01 X32.3913 Y77.7422 
G01 X32.4426 Y77.7936 
G01 X32.4567 Y77.8242 
G01 X32.4739 Y77.8658 
G01 X32.4739 Y85.9910 
G01 X32.5685 Y86.2194 
G01 X32.5864 Y86.2625 
G01 X32.5975 Y86.2894 
G01 X32.5975 Y86.3269 
G01 X32.5975 Y86.3652 
G01 X32.5788 Y86.4104 
G01 X32.5685 Y86.4352 
G01 X32.5418 Y86.4619 
G01 X32.2279 Y87.2198 
G01 X32.2279 Y88.0402 
G01 X32.5418 Y88.7981 
G01 X32.5685 Y88.8248 
G01 X32.5781 Y88.8480 
G01 X32.5975 Y88.8948 
G01 X32.5975 Y88.9323 
G01 X32.5975 Y88.9706 
G01 X32.5868 Y88.9965 
G01 X32.5685 Y89.0406 
G01 X32.4739 Y89.2690 
G01 X32.4739 Y93.5842 
G01 X32.4449 Y93.6542 
G01 X32.3430 Y93.7560 
G01 X32.0227 Y94.3109 
G01 X31.8569 Y94.9297 
G01 X31.8569 Y95.5703 
G01 X32.0227 Y96.1891 
G01 X32.3430 Y96.7440 
G01 X32.4449 Y96.8458 
G01 X32.4739 Y96.9158 
G01 X32.4739 Y109.5812 
G01 X32.7504 Y110.2487 
G01 X33.2613 Y110.7596 
G01 X33.9288 Y111.0361 
G01 X34.6512 Y111.0361 
G01 X35.3187 Y110.7596 
G01 X35.8296 Y110.2487 
G01 X36.1061 Y109.5812 
G01 X36.1061 Y96.9158 
G01 X36.1351 Y96.8458 
G01 X36.1887 Y96.7922 
G01 X36.2370 Y96.7440 
G01 X36.5573 Y96.1891 
G01 X36.6347 Y95.9002 
G01 X36.6809 Y95.8400 
G01 X36.7465 Y95.8021 
G01 X36.8216 Y95.7923 
G01 X36.8948 Y95.8119 
G01 X37.6645 Y96.0181 
G01 X38.4985 Y96.0181 
G01 X38.5108 Y96.0148 
G01 X38.5360 Y96.0181 
G01 X38.5614 Y96.0181 
G01 X38.5733 Y96.0230 
G01 X38.5860 Y96.0247 
G01 X38.6080 Y96.0374 
G01 X38.6315 Y96.0471 
G01 X38.6405 Y96.0562 
G01 X38.6516 Y96.0626 
G01 X38.6671 Y96.0827 
G01 X38.6851 Y96.1007 
G01 X38.6900 Y96.1125 
G01 X38.6978 Y96.1227 
G01 X38.7043 Y96.1472 
G01 X38.7141 Y96.1707 
G01 X38.7141 Y96.1835 
G01 X38.7174 Y96.1959 
G01 X38.7141 Y96.2211 
G01 X38.7141 Y96.2465 
G01 X38.7091 Y96.2583 
G01 X38.7075 Y96.2710 
G01 X38.6948 Y96.2930 
G01 X38.6851 Y96.3165 
G01 X38.6760 Y96.3256 
G01 X38.3727 Y96.8509 
G01 X38.2069 Y97.4697 
G01 X38.2069 Y98.1103 
G01 X38.3727 Y98.7291 
G01 X38.6930 Y99.2840 
G01 X39.1460 Y99.7370 
G01 X39.7009 Y100.0573 
G01 X40.3197 Y100.2231 
G01 X40.9603 Y100.2231 
G01 X41.5791 Y100.0573 
G01 X42.1340 Y99.7370 
G01 X42.5870 Y99.2840 
G01 X42.9073 Y98.7291 
G01 X43.0731 Y98.1103 
G01 X43.0731 Y97.4697 
G01 X42.9073 Y96.8509 
G01 X42.5870 Y96.2960 
G01 X42.4851 Y96.1942 
G01 X42.4561 Y96.1242 
G01 X42.4561 Y95.9470 
G01 X42.4851 Y95.8769 
G01 X42.5387 Y95.8234 
G01 X42.6527 Y95.7093 
G01 X43.1636 Y95.1984 
G01 X43.4401 Y94.5309 
G01 X43.4401 Y89.0572 
G01 X43.4691 Y88.9871 
G01 X43.5227 Y88.9336 
G01 X43.6582 Y88.7981 
G01 X43.9721 Y88.0402 
G01 X43.9721 Y87.2198 
G01 X43.6582 Y86.4619 
G01 X43.0781 Y85.8818 
G01 X42.3202 Y85.5679 
G01 X41.4998 Y85.5679 
G01 X40.7419 Y85.8818 
G01 X40.1618 Y86.4619 
G01 X39.8479 Y87.2198 
G01 X39.8479 Y87.4582 
G01 X39.8341 Y87.4915 
G01 X39.8189 Y87.5282 
G01 X39.8079 Y87.5547 
G01 X39.8079 Y89.5212 
G01 X39.8112 Y89.5335 
G01 X39.8079 Y89.5587 
G01 X39.8079 Y89.5841 
G01 X39.8030 Y89.5960 
G01 X39.8013 Y89.6087 
G01 X39.7886 Y89.6307 
G01 X39.7789 Y89.6541 
G01 X39.7698 Y89.6632 
G01 X39.7634 Y89.6743 
G01 X39.7433 Y89.6898 
G01 X39.7253 Y89.7077 
G01 X39.7135 Y89.7126 
G01 X39.7033 Y89.7204 
G01 X39.6788 Y89.7270 
G01 X39.6553 Y89.7367 
G01 X39.6425 Y89.7367 
G01 X39.6301 Y89.7401 
G01 X39.6049 Y89.7367 
G01 X39.5795 Y89.7367 
G01 X39.5677 Y89.7318 
G01 X39.5550 Y89.7302 
G01 X39.5330 Y89.7175 
G01 X39.5095 Y89.7077 
G01 X39.5004 Y89.6987 
G01 X39.3769 Y89.6273 
G01 X38.5355 Y89.4019 
G01 X37.6645 Y89.4019 
G01 X37.5034 Y89.4451 
G01 X37.4799 Y89.4548 
G01 X37.4671 Y89.4548 
G01 X37.4548 Y89.4581 
G01 X37.4296 Y89.4548 
G01 X37.4042 Y89.4548 
G01 X37.3923 Y89.4499 
G01 X37.3796 Y89.4482 
G01 X37.3576 Y89.4355 
G01 X37.3341 Y89.4258 
G01 X37.3251 Y89.4167 
G01 X37.3140 Y89.4103 
G01 X37.2985 Y89.3902 
G01 X37.2806 Y89.3722 
G01 X37.2757 Y89.3603 
G01 X37.2679 Y89.3502 
G01 X37.2613 Y89.3256 
G01 X37.2516 Y89.3022 
G01 X37.2516 Y89.2894 
G01 X37.2482 Y89.2770 
G01 X37.2516 Y89.2518 
G01 X37.2516 Y89.2264 
G01 X37.2565 Y89.2145 
G01 X37.2581 Y89.2018 
G01 X37.2708 Y89.1798 
G01 X37.5205 Y88.5771 
G01 X37.5205 Y86.6829 
G01 X37.2440 Y86.0154 
G01 X36.1351 Y84.9065 
G01 X36.1061 Y84.8365 
G01 X36.1061 Y77.8658 
G01 X36.1228 Y77.8254 
G01 X36.1351 Y77.7958 
G01 X36.1887 Y77.7422 
G01 X36.2370 Y77.6940 
G01 X36.5573 Y77.1391 
G01 X36.6205 Y76.9031 
G01 X36.6347 Y76.8502 
G01 X36.6544 Y76.8245 
G01 X36.6808 Y76.7900 
G01 X36.7465 Y76.7521 
G01 X36.8216 Y76.7423 
G01 X36.8490 Y76.7496 
G01 X36.8948 Y76.7619 
G01 X37.6645 Y76.9681 
G01 X38.4985 Y76.9681 
G01 X38.5108 Y76.9648 
G01 X38.5360 Y76.9681 
G01 X38.5614 Y76.9681 
G01 X38.5733 Y76.9730 
G01 X38.5860 Y76.9747 
G01 X38.6080 Y76.9874 
G01 X38.6315 Y76.9971 
G01 X38.6405 Y77.0062 
G01 X38.6516 Y77.0126 
G01 X38.6671 Y77.0327 
G01 X38.6851 Y77.0507 
G01 X38.6900 Y77.0625 
G01 X38.6978 Y77.0727 
G01 X38.7043 Y77.0972 
G01 X38.7141 Y77.1207 
G01 X38.7141 Y77.1335 
G01 X38.7174 Y77.1459 
G01 X38.7141 Y77.1711 
G01 X38.7141 Y77.1965 
G01 X38.7091 Y77.2083 
G01 X38.7075 Y77.2210 
G01 X38.6948 Y77.2430 
G01 X38.6851 Y77.2665 
G01 X38.6760 Y77.2756 
G01 X38.3727 Y77.8008 
G01 X38.2069 Y78.4197 
G01 X38.2069 Y79.0603 
G01 X38.3727 Y79.6791 
G01 X38.6930 Y80.2340 
G01 X39.1460 Y80.6870 
G01 X39.7009 Y81.0073 
G01 X40.3197 Y81.1731 
G01 X40.9603 Y81.1731 
G01 X41.5791 Y81.0073 
G01 X42.1340 Y80.6870 
G01 X42.5870 Y80.2340 
G01 X42.9073 Y79.6791 
G01 X43.0731 Y79.0603 
G01 X43.0731 Y78.4197 
G01 X42.9073 Y77.8009 
G01 X42.5870 Y77.2460 
G01 X42.5387 Y77.1978 
G01 X42.4874 Y77.1464 
G01 X42.4733 Y77.1158 
G01 X42.4561 Y77.0742 
G01 X42.4561 Y76.8970 
G01 X42.4851 Y76.8269 
G01 X42.5387 Y76.7734 
G01 X42.6527 Y76.6593 
G01 X43.1636 Y76.1484 
G01 X43.4401 Y75.4809 
G01 X43.4401 Y70.0072 
G01 X43.4518 Y69.9790 
G01 X43.4691 Y69.9371 
G01 X43.5227 Y69.8836 
G01 X43.6582 Y69.7481 
G01 X43.9721 Y68.9902 
G01 X43.9721 Y68.1698 
G01 X43.6582 Y67.4119 
G01 X43.0781 Y66.8318 
G01 X42.3202 Y66.5179 
G01 X41.4998 Y66.5179 
G01 X40.7419 Y66.8318 
G01 X40.1618 Y67.4119 
G01 X39.8479 Y68.1698 
G01 X39.8479 Y68.4082 
G01 X39.8189 Y68.4782 
G01 X39.8079 Y68.5048 
G01 X39.8079 Y70.4712 
G01 X39.8112 Y70.4835 
G01 X39.8079 Y70.5087 
G01 X39.8079 Y70.5341 
G01 X39.8030 Y70.5460 
G01 X39.8013 Y70.5587 
G01 X39.7886 Y70.5807 
G01 X39.7789 Y70.6041 
G01 X39.7698 Y70.6132 
G01 X39.7634 Y70.6243 
G01 X39.7433 Y70.6398 
G01 X39.7253 Y70.6577 
G01 X39.7135 Y70.6626 
G01 X39.7033 Y70.6704 
G01 X39.6788 Y70.6770 
G01 X39.6553 Y70.6867 
G01 X39.6425 Y70.6867 
G01 X39.6301 Y70.6901 
G01 X39.6049 Y70.6867 
G01 X39.5795 Y70.6867 
G01 X39.5677 Y70.6818 
G01 X39.5550 Y70.6802 
G01 X39.5330 Y70.6675 
G01 X39.5095 Y70.6577 
G01 X39.5004 Y70.6487 
G01 X39.3769 Y70.5773 
G01 X38.5355 Y70.3519 
G01 X37.6645 Y70.3519 
G01 X37.5034 Y70.3950 
G01 X37.4799 Y70.4048 
G01 X37.4671 Y70.4048 
G01 X37.4548 Y70.4081 
G01 X37.4296 Y70.4048 
G01 X37.4042 Y70.4048 
G01 X37.3923 Y70.3999 
G01 X37.3796 Y70.3982 
G01 X37.3576 Y70.3855 
G01 X37.3341 Y70.3758 
G01 X37.3251 Y70.3667 
G01 X37.3140 Y70.3603 
G01 X37.2985 Y70.3402 
G01 X37.2806 Y70.3222 
G01 X37.2757 Y70.3103 
G01 X37.2679 Y70.3002 
G01 X37.2613 Y70.2756 
G01 X37.2516 Y70.2522 
G01 X37.2516 Y70.2394 
G01 X37.2482 Y70.2270 
G01 X37.2516 Y70.2018 
G01 X37.2516 Y70.1764 
G01 X37.2565 Y70.1645 
G01 X37.2581 Y70.1518 
G01 X37.2708 Y70.1298 
G01 X37.5205 Y69.5271 
G01 X37.5205 Y67.6329 
G01 X37.2440 Y66.9654 
G01 X36.7331 Y66.4545 
G01 X36.6795 Y66.4009 
G01 X36.1351 Y65.8565 
G01 X36.1061 Y65.7865 
G01 X36.1061 Y58.8158 
G01 X36.1228 Y58.7754 
G01 X36.1351 Y58.7458 
G01 X36.1887 Y58.6922 
G01 X36.2370 Y58.6440 
G01 X36.5573 Y58.0891 
G01 X36.6205 Y57.8531 
G01 X36.6347 Y57.8002 
G01 X36.6544 Y57.7745 
G01 X36.6808 Y57.7400 
G01 X36.7465 Y57.7021 
G01 X36.8216 Y57.6923 
G01 X36.8490 Y57.6996 
G01 X36.8948 Y57.7119 
G01 X37.6645 Y57.9181 
G01 X38.4985 Y57.9181 
G01 X38.5108 Y57.9148 
G01 X38.5360 Y57.9181 
G01 X38.5614 Y57.9181 
G01 X38.5733 Y57.9230 
G01 X38.5860 Y57.9247 
G01 X38.6080 Y57.9374 
G01 X38.6315 Y57.9471 
G01 X38.6405 Y57.9562 
G01 X38.6516 Y57.9626 
G01 X38.6671 Y57.9827 
G01 X38.6851 Y58.0007 
G01 X38.6900 Y58.0125 
G01 X38.6978 Y58.0227 
G01 X38.7043 Y58.0472 
G01 X38.7141 Y58.0707 
G01 X38.7141 Y58.0835 
G01 X38.7174 Y58.0959 
G01 X38.7141 Y58.1211 
G01 X38.7141 Y58.1465 
G01 X38.7091 Y58.1583 
G01 X38.7075 Y58.1710 
G01 X38.6948 Y58.1930 
G01 X38.6851 Y58.2165 
G01 X38.6760 Y58.2256 
G01 X38.3727 Y58.7509 
G01 X38.2069 Y59.3697 
G01 X38.2069 Y60.0103 
G01 X38.3727 Y60.6291 
G01 X38.6930 Y61.1840 
G01 X39.1460 Y61.6370 
G01 X39.7009 Y61.9573 
G01 X40.3197 Y62.1231 
G01 X40.9603 Y62.1231 
G01 X41.5791 Y61.9573 
G01 X42.1340 Y61.6370 
G01 X42.5870 Y61.1840 
G01 X42.9073 Y60.6291 
G01 X43.0731 Y60.0103 
G01 X43.0731 Y59.3697 
G01 X42.9073 Y58.7509 
G01 X42.5870 Y58.1960 
G01 X42.5387 Y58.1478 
G01 X42.4874 Y58.0964 
G01 X42.4733 Y58.0658 
G01 X42.4561 Y58.0242 
G01 X42.4561 Y57.8470 
G01 X42.4851 Y57.7769 
G01 X42.5387 Y57.7234 
G01 X42.6527 Y57.6093 
G01 X43.1636 Y57.0984 
G01 X43.4401 Y56.4309 
G01 X43.4401 Y50.9572 
G01 X43.4518 Y50.9290 
G01 X43.4691 Y50.8871 
G01 X43.5227 Y50.8336 
G01 X43.6582 Y50.6981 
G01 X43.9721 Y49.9402 
G01 X43.9721 Y49.1198 
G01 X43.6582 Y48.3619 
G01 X43.0781 Y47.7818 
G01 X42.3202 Y47.4679 
G01 X41.4998 Y47.4679 
G01 X40.7419 Y47.7818 
G01 X40.1618 Y48.3619 
G01 X39.8479 Y49.1198 
G01 X39.8479 Y49.3582 
G01 X39.8189 Y49.4282 
G01 X39.8079 Y49.4548 
G01 X39.8079 Y51.4212 
G01 X39.8112 Y51.4335 
G01 X39.8079 Y51.4587 
G01 X39.8079 Y51.4841 
G01 X39.8030 Y51.4960 
G01 X39.8013 Y51.5087 
G01 X39.7886 Y51.5307 
G01 X39.7789 Y51.5541 
G01 X39.7698 Y51.5632 
G01 X39.7634 Y51.5743 
G01 X39.7433 Y51.5898 
G01 X39.7253 Y51.6077 
G01 X39.7135 Y51.6126 
G01 X39.7033 Y51.6204 
G01 X39.6788 Y51.6270 
G01 X39.6553 Y51.6367 
G01 X39.6425 Y51.6367 
G01 X39.6301 Y51.6401 
G01 X39.6049 Y51.6367 
G01 X39.5795 Y51.6367 
G01 X39.5677 Y51.6318 
G01 X39.5550 Y51.6302 
G01 X39.5330 Y51.6175 
G01 X39.5095 Y51.6077 
G01 X39.5004 Y51.5987 
G01 X39.3769 Y51.5273 
G01 X38.5355 Y51.3019 
G01 X37.6645 Y51.3019 
G01 X37.5034 Y51.3451 
G01 X37.4799 Y51.3548 
G01 X37.4671 Y51.3548 
G01 X37.4548 Y51.3581 
G01 X37.4296 Y51.3548 
G01 X37.4042 Y51.3548 
G01 X37.3923 Y51.3499 
G01 X37.3796 Y51.3482 
G01 X37.3576 Y51.3355 
G01 X37.3341 Y51.3258 
G01 X37.3251 Y51.3167 
G01 X37.3140 Y51.3103 
G01 X37.2985 Y51.2902 
G01 X37.2806 Y51.2722 
G01 X37.2757 Y51.2603 
G01 X37.2679 Y51.2502 
G01 X37.2613 Y51.2256 
G01 X37.2516 Y51.2022 
G01 X37.2516 Y51.1894 
G01 X37.2482 Y51.1770 
G01 X37.2516 Y51.1518 
G01 X37.2516 Y51.1264 
G01 X37.2565 Y51.1145 
G01 X37.2581 Y51.1018 
G01 X37.2708 Y51.0798 
G01 X37.5205 Y50.4771 
G01 X37.5205 Y48.5829 
G01 X37.2440 Y47.9154 
G01 X36.1351 Y46.8065 
G01 X36.1061 Y46.7365 
G01 X36.1061 Y39.7658 
G01 X36.1351 Y39.6958 
G01 X36.1887 Y39.6422 
G01 X36.2370 Y39.5940 
G01 X36.5573 Y39.0391 
G01 X36.6347 Y38.7502 
G01 X36.6809 Y38.6900 
G01 X36.7465 Y38.6521 
G01 X36.8216 Y38.6423 
G01 X36.8948 Y38.6619 
G01 X37.6645 Y38.8681 
G01 X38.4985 Y38.8681 
G01 X38.5108 Y38.8648 
G01 X38.5360 Y38.8681 
G01 X38.5614 Y38.8681 
G01 X38.5733 Y38.8730 
G01 X38.5860 Y38.8747 
G01 X38.6080 Y38.8874 
G01 X38.6315 Y38.8971 
G01 X38.6405 Y38.9062 
G01 X38.6516 Y38.9126 
G01 X38.6671 Y38.9327 
G01 X38.6851 Y38.9507 
G01 X38.6900 Y38.9625 
G01 X38.6978 Y38.9727 
G01 X38.7043 Y38.9972 
G01 X38.7141 Y39.0207 
G01 X38.7141 Y39.0335 
G01 X38.7174 Y39.0459 
G01 X38.7141 Y39.0711 
G01 X38.7141 Y39.0965 
G01 X38.7091 Y39.1083 
G01 X38.7075 Y39.1210 
G01 X38.6948 Y39.1430 
G01 X38.6851 Y39.1665 
G01 X38.6760 Y39.1756 
G01 X38.3727 Y39.7009 
G01 X38.2069 Y40.3197 
G01 X38.2069 Y40.9603 
G01 X38.3727 Y41.5791 
G01 X38.6930 Y42.1340 
G01 X39.1460 Y42.5870 
G01 X39.7009 Y42.9073 
G01 X40.3197 Y43.0731 
G01 X40.9603 Y43.0731 
G01 X41.5791 Y42.9073 
G01 X42.1340 Y42.5870 
G01 X42.5870 Y42.1340 
G01 X42.9073 Y41.5791 
G01 X43.0731 Y40.9603 
G01 X43.0731 Y40.3197 
G01 X42.9073 Y39.7009 
G01 X42.5870 Y39.1460 
G01 X42.4851 Y39.0442 
G00 Z2.5400 
G00 X41.8793 Y78.6425 
G01 Z-0.1778 F2540.00 
G01 X41.8793 Y78.8375 F3000.00 
G01 X41.8488 Y79.0302 
G01 X41.7885 Y79.2157 
G01 X41.6999 Y79.3895 
G01 X41.5853 Y79.5473 
G01 X41.4473 Y79.6853 
G01 X41.2895 Y79.7999 
G01 X41.1157 Y79.8885 
G01 X40.9302 Y79.9488 
G01 X40.7375 Y79.9793 
G01 X40.5425 Y79.9793 
G01 X40.3498 Y79.9488 
G01 X40.1643 Y79.8885 
G01 X39.9905 Y79.7999 
G01 X39.8327 Y79.6853 
G01 X39.6947 Y79.5473 
G01 X39.5801 Y79.3895 
G01 X39.4915 Y79.2157 
G01 X39.4312 Y79.0302 
G01 X39.4007 Y78.8375 
G01 X39.4007 Y78.6425 
G01 X39.4312 Y78.4498 
G01 X39.4915 Y78.2643 
G01 X39.5801 Y78.0905 
G01 X39.6947 Y77.9327 
G01 X39.8327 Y77.7947 
G01 X39.9905 Y77.6801 
G01 X40.0177 Y77.6662 
G01 X40.0177 Y76.0424 
G01 X40.0416 Y75.9222 
G01 X40.0885 Y75.8089 
G01 X40.1566 Y75.7070 
G01 X41.0017 Y74.8619 
G01 X41.0017 Y68.8047 
G01 X41.0256 Y68.6845 
G01 X41.0417 Y68.6456 
G01 X41.0417 Y68.4945 
G01 X41.0751 Y68.3267 
G01 X41.1405 Y68.1687 
G01 X41.2355 Y68.0265 
G01 X41.3565 Y67.9055 
G01 X41.4987 Y67.8105 
G01 X41.6567 Y67.7451 
G01 X41.8245 Y67.7117 
G01 X41.9955 Y67.7117 
G01 X42.1633 Y67.7451 
G01 X42.3213 Y67.8105 
G01 X42.4635 Y67.9055 
G01 X42.5845 Y68.0265 
G01 X42.6795 Y68.1687 
G01 X42.7449 Y68.3267 
G01 X42.7783 Y68.4945 
G01 X42.7783 Y68.6655 
G01 X42.7449 Y68.8333 
G01 X42.6795 Y68.9913 
G01 X42.5845 Y69.1335 
G01 X42.4635 Y69.2545 
G01 X42.3213 Y69.3495 
G01 X42.2463 Y69.3805 
G01 X42.2463 Y75.1810 
G01 X42.2224 Y75.3012 
G01 X42.1755 Y75.4145 
G01 X42.1074 Y75.5164 
G01 X41.2623 Y76.3615 
G01 X41.2623 Y77.6662 
G01 X41.2895 Y77.6801 
G01 X41.4473 Y77.7947 
G01 X41.5853 Y77.9327 
G01 X41.6999 Y78.0905 
G01 X41.7885 Y78.2643 
G01 X41.8488 Y78.4498 
G01 X41.8793 Y78.6425 
G00 Z2.5400 
G00 X41.8793 Y97.6925 
G01 Z-0.1778 F2540.00 
G01 X41.8793 Y97.8875 F3000.00 
G01 X41.8488 Y98.0802 
G01 X41.7885 Y98.2657 
G01 X41.6999 Y98.4395 
G01 X41.5853 Y98.5973 
G01 X41.4473 Y98.7353 
G01 X41.2895 Y98.8499 
G01 X41.1157 Y98.9385 
G01 X40.9302 Y98.9988 
G01 X40.7375 Y99.0293 
G01 X40.5425 Y99.0293 
G01 X40.3498 Y98.9988 
G01 X40.1643 Y98.9385 
G01 X39.9905 Y98.8499 
G01 X39.8327 Y98.7353 
G01 X39.6947 Y98.5973 
G01 X39.5801 Y98.4395 
G01 X39.4915 Y98.2657 
G01 X39.4312 Y98.0802 
G01 X39.4007 Y97.8875 
G01 X39.4007 Y97.6925 
G01 X39.4312 Y97.4998 
G01 X39.4915 Y97.3143 
G01 X39.5801 Y97.1405 
G01 X39.6947 Y96.9827 
G01 X39.8327 Y96.8447 
G01 X39.9905 Y96.7301 
G01 X40.0177 Y96.7162 
G01 X40.0177 Y95.0924 
G01 X40.0416 Y94.9722 
G01 X40.0885 Y94.8589 
G01 X40.1566 Y94.7570 
G01 X40.2433 Y94.6703 
G01 X41.0017 Y93.9119 
G01 X41.0017 Y87.8547 
G01 X41.0256 Y87.7345 
G01 X41.0417 Y87.6956 
G01 X41.0417 Y87.5445 
G01 X41.0751 Y87.3767 
G01 X41.1405 Y87.2187 
G01 X41.2355 Y87.0765 
G01 X41.3565 Y86.9555 
G01 X41.4987 Y86.8605 
G01 X41.6567 Y86.7951 
G01 X41.8245 Y86.7617 
G01 X41.9955 Y86.7617 
G01 X42.1633 Y86.7951 
G01 X42.3213 Y86.8605 
G01 X42.4635 Y86.9555 
G01 X42.5845 Y87.0765 
G01 X42.6795 Y87.2187 
G01 X42.7449 Y87.3767 
G01 X42.7783 Y87.5445 
G01 X42.7783 Y87.7155 
G01 X42.7449 Y87.8833 
G01 X42.6795 Y88.0413 
G01 X42.5845 Y88.1835 
G01 X42.4635 Y88.3045 
G01 X42.3213 Y88.3995 
G01 X42.2463 Y88.4305 
G01 X42.2463 Y94.2310 
G01 X42.2224 Y94.3512 
G01 X42.1755 Y94.4645 
G01 X42.1074 Y94.5664 
G01 X42.0207 Y94.6531 
G01 X41.2623 Y95.4115 
G01 X41.2623 Y96.7162 
G01 X41.2895 Y96.7301 
G01 X41.4473 Y96.8447 
G01 X41.5853 Y96.9827 
G01 X41.6999 Y97.1405 
G01 X41.7885 Y97.3143 
G01 X41.8488 Y97.4998 
G01 X41.8793 Y97.6925 
G00 Z2.5400 
G00 X41.8793 Y40.5425 
G01 Z-0.1778 F2540.00 
G01 X41.8793 Y40.7375 F3000.00 
G01 X41.8488 Y40.9302 
G01 X41.7885 Y41.1157 
G01 X41.6999 Y41.2895 
G01 X41.5853 Y41.4473 
G01 X41.4473 Y41.5853 
G01 X41.2895 Y41.6999 
G01 X41.1157 Y41.7885 
G01 X40.9302 Y41.8488 
G01 X40.7375 Y41.8793 
G01 X40.5425 Y41.8793 
G01 X40.3498 Y41.8488 
G01 X40.1643 Y41.7885 
G01 X39.9905 Y41.6999 
G01 X39.8327 Y41.5853 
G01 X39.6947 Y41.4473 
G01 X39.5801 Y41.2895 
G01 X39.4915 Y41.1157 
G01 X39.4312 Y40.9302 
G01 X39.4007 Y40.7375 
G01 X39.4007 Y40.5425 
G01 X39.4312 Y40.3498 
G01 X39.4915 Y40.1643 
G01 X39.5801 Y39.9905 
G01 X39.6947 Y39.8327 
G01 X39.8327 Y39.6947 
G01 X39.9905 Y39.5801 
G01 X40.0177 Y39.5662 
G01 X40.0177 Y37.9424 
G01 X40.0416 Y37.8222 
G01 X40.0885 Y37.7089 
G01 X40.1566 Y37.6070 
G01 X41.0017 Y36.7619 
G01 X41.0017 Y30.7047 
G01 X41.0256 Y30.5845 
G01 X41.0417 Y30.5456 
G01 X41.0417 Y30.3945 
G01 X41.0751 Y30.2267 
G01 X41.1405 Y30.0687 
G01 X41.2355 Y29.9265 
G01 X41.3565 Y29.8055 
G01 X41.4987 Y29.7105 
G01 X41.6567 Y29.6451 
G01 X41.8245 Y29.6117 
G01 X41.9955 Y29.6117 
G01 X42.1633 Y29.6451 
G01 X42.3213 Y29.7105 
G01 X42.4635 Y29.8055 
G01 X42.5845 Y29.9265 
G01 X42.6795 Y30.0687 
G01 X42.7449 Y30.2267 
G01 X42.7783 Y30.3945 
G01 X42.7783 Y30.5655 
G01 X42.7449 Y30.7333 
G01 X42.6795 Y30.8913 
G01 X42.5845 Y31.0335 
G01 X42.4635 Y31.1545 
G01 X42.3213 Y31.2495 
G01 X42.2463 Y31.2805 
G01 X42.2463 Y37.0810 
G01 X42.2224 Y37.2012 
G01 X42.1755 Y37.3145 
G01 X42.1074 Y37.4164 
G01 X42.0207 Y37.5031 
G01 X41.2623 Y38.2615 
G01 X41.2623 Y39.5662 
G01 X41.2895 Y39.5801 
G01 X41.4473 Y39.6947 
G01 X41.5853 Y39.8327 
G01 X41.6999 Y39.9905 
G01 X41.7885 Y40.1643 
G01 X41.8488 Y40.3498 
G01 X41.8793 Y40.5425 
G00 Z2.5400 
G00 X35.5293 Y38.0025 
G01 Z-0.1778 F2540.00 
G01 X35.5293 Y38.1975 F3000.00 
G01 X35.4988 Y38.3902 
G01 X35.4385 Y38.5757 
G01 X35.3499 Y38.7495 
G01 X35.2353 Y38.9073 
G01 X35.0973 Y39.0453 
G01 X34.9395 Y39.1599 
G01 X34.9123 Y39.1738 
G01 X34.9123 Y47.2720 
G01 X36.1878 Y48.5474 
G01 X36.2559 Y48.6494 
G01 X36.3028 Y48.7626 
G01 X36.3267 Y48.8828 
G01 X36.3267 Y50.1772 
G01 X36.3028 Y50.2974 
G01 X36.2559 Y50.4106 
G01 X36.1878 Y50.5126 
G01 X34.9123 Y51.7880 
G01 X34.9123 Y56.0762 
G01 X34.9395 Y56.0901 
G01 X35.0973 Y56.2047 
G01 X35.2353 Y56.3427 
G01 X35.3499 Y56.5005 
G01 X35.4385 Y56.6743 
G01 X35.4988 Y56.8598 
G01 X35.5293 Y57.0525 
G01 X35.5293 Y57.2475 
G01 X35.4988 Y57.4402 
G01 X35.4385 Y57.6257 
G01 X35.3499 Y57.7995 
G01 X35.2353 Y57.9573 
G01 X35.0973 Y58.0953 
G01 X34.9395 Y58.2099 
G01 X34.9123 Y58.2238 
G01 X34.9123 Y66.3220 
G01 X36.1878 Y67.5974 
G01 X36.2559 Y67.6994 
G01 X36.3028 Y67.8126 
G01 X36.3267 Y67.9328 
G01 X36.3267 Y69.2272 
G01 X36.3028 Y69.3474 
G01 X36.2559 Y69.4606 
G01 X36.1878 Y69.5626 
G01 X34.9123 Y70.8380 
G01 X34.9123 Y75.1262 
G01 X34.9395 Y75.1401 
G01 X35.0973 Y75.2547 
G01 X35.2353 Y75.3927 
G01 X35.3499 Y75.5505 
G01 X35.4385 Y75.7243 
G01 X35.4988 Y75.9098 
G01 X35.5293 Y76.1025 
G01 X35.5293 Y76.2975 
G01 X35.4988 Y76.4902 
G01 X35.4385 Y76.6757 
G01 X35.3499 Y76.8495 
G01 X35.2353 Y77.0073 
G01 X35.0973 Y77.1453 
G01 X34.9395 Y77.2599 
G01 X34.9123 Y77.2738 
G01 X34.9123 Y85.3720 
G01 X36.1878 Y86.6474 
G01 X36.2559 Y86.7494 
G01 X36.3028 Y86.8626 
G01 X36.3267 Y86.9828 
G01 X36.3267 Y88.2772 
G01 X36.3028 Y88.3974 
G01 X36.2559 Y88.5106 
G01 X36.1878 Y88.6126 
G01 X34.9123 Y89.8880 
G01 X34.9123 Y94.1762 
G01 X34.9395 Y94.1901 
G01 X35.0973 Y94.3047 
G01 X35.2353 Y94.4427 
G01 X35.3499 Y94.6005 
G01 X35.4385 Y94.7743 
G01 X35.4988 Y94.9598 
G01 X35.5293 Y95.1525 
G01 X35.5293 Y95.3475 
G01 X35.4988 Y95.5402 
G01 X35.4385 Y95.7257 
G01 X35.3499 Y95.8995 
G01 X35.2353 Y96.0573 
G01 X35.0973 Y96.1953 
G01 X34.9395 Y96.3099 
G01 X34.9123 Y96.3238 
G01 X34.9123 Y109.2813 
G01 X34.8884 Y109.4015 
G01 X34.8415 Y109.5148 
G01 X34.7734 Y109.6167 
G01 X34.6867 Y109.7034 
G01 X34.5848 Y109.7715 
G01 X34.4715 Y109.8184 
G01 X34.3513 Y109.8423 
G01 X34.2287 Y109.8423 
G01 X34.1085 Y109.8184 
G01 X33.9952 Y109.7715 
G01 X33.8933 Y109.7034 
G01 X33.8066 Y109.6167 
G01 X33.7385 Y109.5148 
G01 X33.6916 Y109.4015 
G01 X33.6677 Y109.2813 
G01 X33.6677 Y96.3238 
G01 X33.6405 Y96.3099 
G01 X33.4826 Y96.1953 
G01 X33.3447 Y96.0573 
G01 X33.2301 Y95.8995 
G01 X33.1415 Y95.7257 
G01 X33.0812 Y95.5402 
G01 X33.0507 Y95.3475 
G01 X33.0507 Y95.1525 
G01 X33.0812 Y94.9598 
G01 X33.1415 Y94.7743 
G01 X33.2301 Y94.6005 
G01 X33.3447 Y94.4427 
G01 X33.4826 Y94.3047 
G01 X33.6405 Y94.1901 
G01 X33.6677 Y94.1762 
G01 X33.6677 Y89.5690 
G01 X33.6916 Y89.4487 
G01 X33.7385 Y89.3355 
G01 X33.8066 Y89.2336 
G01 X34.5979 Y88.4423 
G01 X34.5433 Y88.4649 
G01 X34.3755 Y88.4983 
G01 X34.2045 Y88.4983 
G01 X34.0367 Y88.4649 
G01 X33.8787 Y88.3995 
G01 X33.7365 Y88.3045 
G01 X33.6155 Y88.1835 
G01 X33.5205 Y88.0413 
G01 X33.4551 Y87.8833 
G01 X33.4217 Y87.7155 
G01 X33.4217 Y87.5445 
G01 X33.4551 Y87.3767 
G01 X33.5205 Y87.2187 
G01 X33.6155 Y87.0765 
G01 X33.7365 Y86.9555 
G01 X33.8787 Y86.8605 
G01 X34.0367 Y86.7951 
G01 X34.2045 Y86.7617 
G01 X34.3755 Y86.7617 
G01 X34.5433 Y86.7951 
G01 X34.5979 Y86.8177 
G01 X33.8066 Y86.0264 
G01 X33.7385 Y85.9245 
G01 X33.6916 Y85.8113 
G01 X33.6677 Y85.6910 
G01 X33.6677 Y77.2738 
G01 X33.6405 Y77.2599 
G01 X33.4826 Y77.1453 
G01 X33.3447 Y77.0073 
G01 X33.2301 Y76.8495 
G01 X33.1415 Y76.6757 
G01 X33.0812 Y76.4902 
G01 X33.0507 Y76.2975 
G01 X33.0507 Y76.1025 
G01 X33.0812 Y75.9098 
G01 X33.1415 Y75.7243 
G01 X33.2301 Y75.5505 
G01 X33.3447 Y75.3927 
G01 X33.4826 Y75.2547 
G01 X33.6405 Y75.1401 
G01 X33.6677 Y75.1262 
G01 X33.6677 Y70.5190 
G01 X33.6916 Y70.3987 
G01 X33.7385 Y70.2855 
G01 X33.8066 Y70.1836 
G01 X34.5979 Y69.3923 
G01 X34.5433 Y69.4149 
G01 X34.3755 Y69.4483 
G01 X34.2045 Y69.4483 
G01 X34.0367 Y69.4149 
G01 X33.8787 Y69.3495 
G01 X33.7365 Y69.2545 
G01 X33.6155 Y69.1335 
G01 X33.5205 Y68.9913 
G01 X33.4551 Y68.8333 
G01 X33.4217 Y68.6655 
G01 X33.4217 Y68.4945 
G01 X33.4551 Y68.3267 
G01 X33.5205 Y68.1687 
G01 X33.6155 Y68.0265 
G01 X33.7365 Y67.9055 
G01 X33.8787 Y67.8105 
G01 X34.0367 Y67.7451 
G01 X34.2045 Y67.7117 
G01 X34.3755 Y67.7117 
G01 X34.5433 Y67.7451 
G01 X34.5979 Y67.7677 
G01 X33.8066 Y66.9764 
G01 X33.7385 Y66.8745 
G01 X33.6916 Y66.7613 
G01 X33.6677 Y66.6410 
G01 X33.6677 Y58.2238 
G01 X33.6405 Y58.2099 
G01 X33.4826 Y58.0953 
G01 X33.3447 Y57.9573 
G01 X33.2301 Y57.7995 
G01 X33.1415 Y57.6257 
G01 X33.0812 Y57.4402 
G01 X33.0507 Y57.2475 
G01 X33.0507 Y57.0525 
G01 X33.0812 Y56.8598 
G01 X33.1415 Y56.6743 
G01 X33.2301 Y56.5005 
G01 X33.3447 Y56.3427 
G01 X33.4826 Y56.2047 
G01 X33.6405 Y56.0901 
G01 X33.6677 Y56.0762 
G01 X33.6677 Y51.4690 
G01 X33.6916 Y51.3487 
G01 X33.7385 Y51.2355 
G01 X33.8066 Y51.1336 
G01 X34.5979 Y50.3423 
G01 X34.5433 Y50.3649 
G01 X34.3755 Y50.3983 
G01 X34.2045 Y50.3983 
G01 X34.0367 Y50.3649 
G01 X33.8787 Y50.2995 
G01 X33.7365 Y50.2045 
G01 X33.6155 Y50.0835 
G01 X33.5205 Y49.9413 
G01 X33.4551 Y49.7833 
G01 X33.4217 Y49.6155 
G01 X33.4217 Y49.4445 
G01 X33.4551 Y49.2767 
G01 X33.5205 Y49.1187 
G01 X33.6155 Y48.9765 
G01 X33.7365 Y48.8555 
G01 X33.8787 Y48.7605 
G01 X34.0367 Y48.6951 
G01 X34.2045 Y48.6617 
G01 X34.3755 Y48.6617 
G01 X34.5433 Y48.6951 
G01 X34.5979 Y48.7177 
G01 X33.8066 Y47.9264 
G01 X33.7385 Y47.8245 
G01 X33.6916 Y47.7112 
G01 X33.6677 Y47.5910 
G01 X33.6677 Y39.1738 
G01 X33.6405 Y39.1599 
G01 X33.4826 Y39.0453 
G01 X33.3447 Y38.9073 
G01 X33.2301 Y38.7495 
G01 X33.1415 Y38.5757 
G01 X33.0812 Y38.3902 
G01 X33.0507 Y38.1975 
G01 X33.0507 Y38.0025 
G01 X33.0812 Y37.8098 
G01 X33.1415 Y37.6243 
G01 X33.2301 Y37.4505 
G01 X33.3447 Y37.2927 
G01 X33.4826 Y37.1547 
G01 X33.6405 Y37.0401 
G01 X33.8143 Y36.9515 
G01 X33.9998 Y36.8912 
G01 X34.1925 Y36.8607 
G01 X34.3875 Y36.8607 
G01 X34.5802 Y36.8912 
G01 X34.7657 Y36.9515 
G01 X34.9395 Y37.0401 
G01 X35.0973 Y37.1547 
G01 X35.2353 Y37.2927 
G01 X35.3499 Y37.4505 
G01 X35.4385 Y37.6243 
G01 X35.4988 Y37.8098 
G01 X35.5293 Y38.0025 
G00 Z2.5400 
G00 X41.8793 Y59.5925 
G01 Z-0.1778 F2540.00 
G01 X41.8793 Y59.7875 F3000.00 
G01 X41.8488 Y59.9802 
G01 X41.7885 Y60.1657 
G01 X41.6999 Y60.3395 
G01 X41.5853 Y60.4973 
G01 X41.4473 Y60.6353 
G01 X41.2895 Y60.7499 
G01 X41.1157 Y60.8385 
G01 X40.9302 Y60.8988 
G01 X40.7375 Y60.9293 
G01 X40.5425 Y60.9293 
G01 X40.3498 Y60.8988 
G01 X40.1643 Y60.8385 
G01 X39.9905 Y60.7499 
G01 X39.8327 Y60.6353 
G01 X39.6947 Y60.4973 
G01 X39.5801 Y60.3395 
G01 X39.4915 Y60.1657 
G01 X39.4312 Y59.9802 
G01 X39.4007 Y59.7875 
G01 X39.4007 Y59.5925 
G01 X39.4312 Y59.3998 
G01 X39.4915 Y59.2143 
G01 X39.5801 Y59.0405 
G01 X39.6947 Y58.8827 
G01 X39.8327 Y58.7447 
G01 X39.9905 Y58.6301 
G01 X40.0177 Y58.6162 
G01 X40.0177 Y56.9924 
G01 X40.0416 Y56.8722 
G01 X40.0885 Y56.7589 
G01 X40.1566 Y56.6570 
G01 X41.0017 Y55.8119 
G01 X41.0017 Y49.7547 
G01 X41.0256 Y49.6345 
G01 X41.0417 Y49.5956 
G01 X41.0417 Y49.4445 
G01 X41.0751 Y49.2767 
G01 X41.1405 Y49.1187 
G01 X41.2355 Y48.9765 
G01 X41.3565 Y48.8555 
G01 X41.4987 Y48.7605 
G01 X41.6567 Y48.6951 
G01 X41.8245 Y48.6617 
G01 X41.9955 Y48.6617 
G01 X42.1633 Y48.6951 
G01 X42.3213 Y48.7605 
G01 X42.4635 Y48.8555 
G01 X42.5845 Y48.9765 
G01 X42.6795 Y49.1187 
G01 X42.7449 Y49.2767 
G01 X42.7783 Y49.4445 
G01 X42.7783 Y49.6155 
G01 X42.7449 Y49.7833 
G01 X42.6795 Y49.9413 
G01 X42.5845 Y50.0835 
G01 X42.4635 Y50.2045 
G01 X42.3213 Y50.2995 
G01 X42.2463 Y50.3305 
G01 X42.2463 Y56.1310 
G01 X42.2224 Y56.2512 
G01 X42.1755 Y56.3645 
G01 X42.1074 Y56.4664 
G01 X42.0207 Y56.5531 
G01 X41.2623 Y57.3115 
G01 X41.2623 Y58.6162 
G01 X41.2895 Y58.6301 
G01 X41.4473 Y58.7447 
G01 X41.5853 Y58.8827 
G01 X41.6999 Y59.0405 
G01 X41.7885 Y59.2143 
G01 X41.8488 Y59.3998 
G01 X41.8793 Y59.5925 
G00 Z2.5400 
G00 X61.7027 Y38.5593 
G01 Z-0.1778 F2540.00 
G01 X62.2136 Y38.0484 F3000.00 
G01 X62.4901 Y37.3809 
G01 X62.4901 Y31.9072 
G01 X62.5191 Y31.8371 
G01 X62.5727 Y31.7836 
G01 X62.7082 Y31.6481 
G01 X63.0221 Y30.8902 
G01 X63.0221 Y30.0698 
G01 X62.7082 Y29.3119 
G01 X62.1281 Y28.7318 
G01 X61.3702 Y28.4179 
G01 X60.5498 Y28.4179 
G01 X59.7919 Y28.7318 
G01 X59.2118 Y29.3119 
G01 X58.8979 Y30.0698 
G01 X58.8979 Y30.3082 
G01 X58.8841 Y30.3415 
G01 X58.8689 Y30.3782 
G01 X58.8579 Y30.4047 
G01 X58.8579 Y32.3712 
G01 X58.8612 Y32.3835 
G01 X58.8579 Y32.4087 
G01 X58.8579 Y32.4341 
G01 X58.8530 Y32.4460 
G01 X58.8513 Y32.4587 
G01 X58.8386 Y32.4807 
G01 X58.8289 Y32.5041 
G01 X58.8198 Y32.5132 
G01 X58.8134 Y32.5243 
G01 X58.7933 Y32.5398 
G01 X58.7753 Y32.5577 
G01 X58.7635 Y32.5626 
G01 X58.7533 Y32.5704 
G01 X58.7288 Y32.5770 
G01 X58.7053 Y32.5867 
G01 X58.6925 Y32.5867 
G01 X58.6801 Y32.5901 
G01 X58.6549 Y32.5867 
G01 X58.6295 Y32.5867 
G01 X58.6177 Y32.5818 
G01 X58.6050 Y32.5802 
G01 X58.5830 Y32.5675 
G01 X58.5595 Y32.5577 
G01 X58.5504 Y32.5487 
G01 X58.4269 Y32.4773 
G01 X57.5855 Y32.2519 
G01 X56.7145 Y32.2519 
G01 X55.8731 Y32.4773 
G01 X55.1188 Y32.9129 
G01 X54.5029 Y33.5288 
G01 X54.0673 Y34.2831 
G01 X53.8419 Y35.1245 
G01 X53.8419 Y35.5143 
G01 X53.8129 Y35.5843 
G01 X53.7593 Y35.6379 
G01 X53.6893 Y35.6669 
G01 X53.0197 Y35.6669 
G01 X52.4009 Y35.8327 
G01 X51.8460 Y36.1530 
G01 X51.3930 Y36.6060 
G01 X51.0727 Y37.1609 
G01 X50.9069 Y37.7797 
G01 X50.9069 Y38.4203 
G01 X51.0727 Y39.0391 
G01 X51.3930 Y39.5940 
G01 X51.4949 Y39.6958 
G01 X51.5239 Y39.7658 
G01 X51.5239 Y47.8910 
G01 X51.6185 Y48.1194 
G01 X51.6364 Y48.1625 
G01 X51.6475 Y48.1894 
G01 X51.6475 Y48.2269 
G01 X51.6475 Y48.2652 
G01 X51.6288 Y48.3104 
G01 X51.6185 Y48.3352 
G01 X51.5918 Y48.3619 
G01 X51.2779 Y49.1198 
G01 X51.2779 Y49.9402 
G01 X51.5918 Y50.6981 
G01 X51.6185 Y50.7248 
G01 X51.6281 Y50.7480 
G01 X51.6475 Y50.7948 
G01 X51.6475 Y50.8323 
G01 X51.6475 Y50.8706 
G01 X51.6368 Y50.8965 
G01 X51.6185 Y50.9406 
G01 X51.5239 Y51.1690 
G01 X51.5239 Y55.4842 
G01 X51.5072 Y55.5246 
G01 X51.4949 Y55.5542 
G01 X51.4413 Y55.6078 
G01 X51.3930 Y55.6560 
G01 X51.0727 Y56.2109 
G01 X50.9069 Y56.8297 
G01 X50.9069 Y57.4703 
G01 X51.0727 Y58.0891 
G01 X51.3930 Y58.6440 
G01 X51.4949 Y58.7458 
G01 X51.5239 Y58.8158 
G01 X51.5239 Y66.9410 
G01 X51.6185 Y67.1694 
G01 X51.6364 Y67.2125 
G01 X51.6475 Y67.2394 
G01 X51.6475 Y67.2769 
G01 X51.6475 Y67.3152 
G01 X51.6288 Y67.3604 
G01 X51.6185 Y67.3852 
G01 X51.5918 Y67.4119 
G01 X51.2779 Y68.1698 
G01 X51.2779 Y68.9902 
G01 X51.5918 Y69.7481 
G01 X51.6185 Y69.7748 
G01 X51.6281 Y69.7980 
G01 X51.6475 Y69.8448 
G01 X51.6475 Y69.8823 
G01 X51.6475 Y69.9206 
G01 X51.6368 Y69.9465 
G01 X51.6185 Y69.9906 
G01 X51.5239 Y70.2190 
G01 X51.5239 Y74.5342 
G01 X51.4949 Y74.6042 
G01 X51.4413 Y74.6578 
G01 X51.3930 Y74.7060 
G01 X51.0727 Y75.2609 
G01 X50.9069 Y75.8797 
G01 X50.9069 Y76.5203 
G01 X51.0727 Y77.1391 
G01 X51.3930 Y77.6940 
G01 X51.4949 Y77.7958 
G01 X51.5239 Y77.8658 
G01 X51.5239 Y85.9910 
G01 X51.6185 Y86.2194 
G01 X51.6364 Y86.2625 
G01 X51.6475 Y86.2894 
G01 X51.6475 Y86.3269 
G01 X51.6475 Y86.3652 
G01 X51.6288 Y86.4104 
G01 X51.6185 Y86.4352 
G01 X51.5918 Y86.4619 
G01 X51.2779 Y87.2198 
G01 X51.2779 Y88.0402 
G01 X51.5918 Y88.7981 
G01 X51.6185 Y88.8248 
G01 X51.6281 Y88.8480 
G01 X51.6475 Y88.8948 
G01 X51.6475 Y88.9323 
G01 X51.6475 Y88.9706 
G01 X51.6368 Y88.9965 
G01 X51.6185 Y89.0406 
G01 X51.5239 Y89.2690 
G01 X51.5239 Y93.5842 
G01 X51.5072 Y93.6246 
G01 X51.4949 Y93.6542 
G01 X51.4413 Y93.7078 
G01 X51.3930 Y93.7560 
G01 X51.0727 Y94.3109 
G01 X50.9069 Y94.9297 
G01 X50.9069 Y95.5703 
G01 X51.0727 Y96.1891 
G01 X51.3930 Y96.7440 
G01 X51.4413 Y96.7922 
G01 X51.4926 Y96.8436 
G01 X51.5067 Y96.8742 
G01 X51.5239 Y96.9158 
G01 X51.5239 Y109.5812 
G01 X51.8004 Y110.2487 
G01 X52.3113 Y110.7596 
G01 X52.9788 Y111.0361 
G01 X53.7012 Y111.0361 
G01 X54.3687 Y110.7596 
G01 X54.8796 Y110.2487 
G01 X55.1561 Y109.5812 
G01 X55.1561 Y96.9158 
G01 X55.1728 Y96.8754 
G01 X55.1851 Y96.8458 
G01 X55.2387 Y96.7922 
G01 X55.2870 Y96.7440 
G01 X55.6073 Y96.1891 
G01 X55.6651 Y95.9734 
G01 X55.6847 Y95.9002 
G01 X55.7173 Y95.8577 
G01 X55.7308 Y95.8400 
G01 X55.7965 Y95.8021 
G01 X55.8716 Y95.7923 
G01 X55.9422 Y95.8112 
G01 X55.9448 Y95.8119 
G01 X56.7145 Y96.0181 
G01 X57.5485 Y96.0181 
G01 X57.5608 Y96.0148 
G01 X57.5860 Y96.0181 
G01 X57.6114 Y96.0181 
G01 X57.6233 Y96.0230 
G01 X57.6360 Y96.0247 
G01 X57.6580 Y96.0374 
G01 X57.6815 Y96.0471 
G01 X57.6905 Y96.0562 
G01 X57.7016 Y96.0626 
G01 X57.7171 Y96.0827 
G01 X57.7351 Y96.1007 
G01 X57.7400 Y96.1125 
G01 X57.7478 Y96.1227 
G01 X57.7543 Y96.1472 
G01 X57.7641 Y96.1707 
G01 X57.7641 Y96.1835 
G01 X57.7674 Y96.1959 
G01 X57.7641 Y96.2211 
G01 X57.7641 Y96.2465 
G01 X57.7591 Y96.2583 
G01 X57.7575 Y96.2710 
G01 X57.7448 Y96.2930 
G01 X57.7351 Y96.3165 
G01 X57.7260 Y96.3256 
G01 X57.4227 Y96.8509 
G01 X57.2569 Y97.4697 
G01 X57.2569 Y98.1103 
G01 X57.4227 Y98.7291 
G01 X57.7430 Y99.2840 
G01 X58.1960 Y99.7370 
G01 X58.7509 Y100.0573 
G01 X59.3697 Y100.2231 
G01 X60.0103 Y100.2231 
G01 X60.6291 Y100.0573 
G01 X61.1840 Y99.7370 
G01 X61.6370 Y99.2840 
G01 X61.9573 Y98.7291 
G01 X62.1231 Y98.1103 
G01 X62.1231 Y97.4697 
G01 X61.9573 Y96.8509 
G01 X61.6370 Y96.2960 
G01 X61.5887 Y96.2478 
G01 X61.5374 Y96.1964 
G01 X61.5233 Y96.1658 
G01 X61.5061 Y96.1242 
G01 X61.5061 Y95.9470 
G01 X61.5351 Y95.8769 
G01 X61.5887 Y95.8234 
G01 X61.7027 Y95.7093 
G01 X62.2136 Y95.1984 
G01 X62.4901 Y94.5309 
G01 X62.4901 Y89.0572 
G01 X62.5018 Y89.0290 
G01 X62.5191 Y88.9871 
G01 X62.5727 Y88.9336 
G01 X62.7082 Y88.7981 
G01 X63.0221 Y88.0402 
G01 X63.0221 Y87.2198 
G01 X62.7082 Y86.4619 
G01 X62.1281 Y85.8818 
G01 X61.3702 Y85.5679 
G01 X60.5498 Y85.5679 
G01 X59.7919 Y85.8818 
G01 X59.2118 Y86.4619 
G01 X58.8979 Y87.2198 
G01 X58.8979 Y87.4582 
G01 X58.8579 Y87.5547 
G01 X58.8579 Y89.5212 
G01 X58.8612 Y89.5335 
G01 X58.8579 Y89.5587 
G01 X58.8579 Y89.5841 
G01 X58.8530 Y89.5960 
G01 X58.8513 Y89.6087 
G01 X58.8386 Y89.6307 
G01 X58.8289 Y89.6541 
G01 X58.8198 Y89.6632 
G01 X58.8134 Y89.6743 
G01 X58.7933 Y89.6898 
G01 X58.7753 Y89.7077 
G01 X58.7635 Y89.7126 
G01 X58.7533 Y89.7204 
G01 X58.7288 Y89.7270 
G01 X58.7053 Y89.7367 
G01 X58.6925 Y89.7367 
G01 X58.6801 Y89.7401 
G01 X58.6549 Y89.7367 
G01 X58.6295 Y89.7367 
G01 X58.6177 Y89.7318 
G01 X58.6050 Y89.7302 
G01 X58.5830 Y89.7175 
G01 X58.5595 Y89.7077 
G01 X58.5504 Y89.6987 
G01 X58.4269 Y89.6273 
G01 X57.5855 Y89.4019 
G01 X56.7145 Y89.4019 
G01 X56.5534 Y89.4451 
G01 X56.5299 Y89.4548 
G01 X56.5171 Y89.4548 
G01 X56.5048 Y89.4581 
G01 X56.4796 Y89.4548 
G01 X56.4542 Y89.4548 
G01 X56.4423 Y89.4499 
G01 X56.4296 Y89.4482 
G01 X56.4076 Y89.4355 
G01 X56.3841 Y89.4258 
G01 X56.3751 Y89.4167 
G01 X56.3640 Y89.4103 
G01 X56.3485 Y89.3902 
G01 X56.3306 Y89.3722 
G01 X56.3257 Y89.3603 
G01 X56.3179 Y89.3502 
G01 X56.3113 Y89.3256 
G01 X56.3016 Y89.3022 
G01 X56.3016 Y89.2894 
G01 X56.2982 Y89.2770 
G01 X56.3016 Y89.2518 
G01 X56.3016 Y89.2264 
G01 X56.3065 Y89.2145 
G01 X56.3081 Y89.2018 
G01 X56.3208 Y89.1798 
G01 X56.5705 Y88.5771 
G01 X56.5705 Y86.6829 
G01 X56.2940 Y86.0154 
G01 X55.1851 Y84.9065 
G01 X55.1561 Y84.8365 
G01 X55.1561 Y77.8658 
G01 X55.1851 Y77.7958 
G01 X55.2387 Y77.7422 
G01 X55.2870 Y77.6940 
G01 X55.6073 Y77.1391 
G01 X55.6847 Y76.8502 
G01 X55.7309 Y76.7900 
G01 X55.7965 Y76.7521 
G01 X55.8716 Y76.7423 
G01 X55.9448 Y76.7619 
G01 X56.7145 Y76.9681 
G01 X57.5485 Y76.9681 
G01 X57.5608 Y76.9648 
G01 X57.5860 Y76.9681 
G01 X57.6114 Y76.9681 
G01 X57.6233 Y76.9730 
G01 X57.6360 Y76.9747 
G01 X57.6580 Y76.9874 
G01 X57.6815 Y76.9971 
G01 X57.6905 Y77.0062 
G01 X57.7016 Y77.0126 
G01 X57.7171 Y77.0327 
G01 X57.7351 Y77.0507 
G01 X57.7400 Y77.0625 
G01 X57.7478 Y77.0727 
G01 X57.7543 Y77.0972 
G01 X57.7641 Y77.1207 
G01 X57.7641 Y77.1335 
G01 X57.7674 Y77.1459 
G01 X57.7641 Y77.1711 
G01 X57.7641 Y77.1965 
G01 X57.7591 Y77.2083 
G01 X57.7575 Y77.2210 
G01 X57.7448 Y77.2430 
G01 X57.7351 Y77.2665 
G01 X57.7260 Y77.2756 
G01 X57.4227 Y77.8009 
G01 X57.2569 Y78.4197 
G01 X57.2569 Y79.0603 
G01 X57.4227 Y79.6791 
G01 X57.7430 Y80.2340 
G01 X58.1960 Y80.6870 
G01 X58.7509 Y81.0073 
G01 X59.3697 Y81.1731 
G01 X60.0103 Y81.1731 
G01 X60.6291 Y81.0073 
G01 X61.1840 Y80.6870 
G01 X61.6370 Y80.2340 
G01 X61.9573 Y79.6791 
G01 X62.1231 Y79.0603 
G01 X62.1231 Y78.4197 
G01 X61.9573 Y77.8009 
G01 X61.6370 Y77.2460 
G01 X61.5351 Y77.1442 
G01 X61.5061 Y77.0742 
G01 X61.5061 Y76.8970 
G01 X61.5351 Y76.8269 
G01 X61.5887 Y76.7734 
G01 X61.6491 Y76.7129 
G01 X62.2136 Y76.1484 
G01 X62.4901 Y75.4809 
G01 X62.4901 Y70.0072 
G01 X62.5018 Y69.9790 
G01 X62.5191 Y69.9371 
G01 X62.5727 Y69.8836 
G01 X62.7082 Y69.7481 
G01 X63.0221 Y68.9902 
G01 X63.0221 Y68.1698 
G01 X62.7082 Y67.4119 
G01 X62.1281 Y66.8318 
G01 X61.3702 Y66.5179 
G01 X60.5498 Y66.5179 
G01 X59.7919 Y66.8318 
G01 X59.2118 Y67.4119 
G01 X58.8979 Y68.1698 
G01 X58.8979 Y68.4082 
G01 X58.8689 Y68.4782 
G01 X58.8579 Y68.5048 
G01 X58.8579 Y70.4712 
G01 X58.8612 Y70.4835 
G01 X58.8579 Y70.5087 
G01 X58.8579 Y70.5341 
G01 X58.8530 Y70.5460 
G01 X58.8513 Y70.5587 
G01 X58.8386 Y70.5807 
G01 X58.8289 Y70.6041 
G01 X58.8198 Y70.6132 
G01 X58.8134 Y70.6243 
G01 X58.7933 Y70.6398 
G01 X58.7753 Y70.6577 
G01 X58.7635 Y70.6626 
G01 X58.7533 Y70.6704 
G01 X58.7288 Y70.6770 
G01 X58.7053 Y70.6867 
G01 X58.6925 Y70.6867 
G01 X58.6801 Y70.6900 
G01 X58.6549 Y70.6867 
G01 X58.6295 Y70.6867 
G01 X58.6177 Y70.6818 
G01 X58.6050 Y70.6802 
G01 X58.5830 Y70.6675 
G01 X58.5595 Y70.6577 
G01 X58.5504 Y70.6487 
G01 X58.4269 Y70.5773 
G01 X57.5855 Y70.3519 
G01 X56.7145 Y70.3519 
G01 X56.5534 Y70.3950 
G01 X56.5299 Y70.4048 
G01 X56.5171 Y70.4048 
G01 X56.5048 Y70.4081 
G01 X56.4796 Y70.4048 
G01 X56.4542 Y70.4048 
G01 X56.4423 Y70.3999 
G01 X56.4296 Y70.3982 
G01 X56.4076 Y70.3855 
G01 X56.3841 Y70.3758 
G01 X56.3751 Y70.3667 
G01 X56.3640 Y70.3603 
G01 X56.3485 Y70.3402 
G01 X56.3306 Y70.3222 
G01 X56.3257 Y70.3103 
G01 X56.3179 Y70.3002 
G01 X56.3113 Y70.2756 
G01 X56.3016 Y70.2522 
G01 X56.3016 Y70.2394 
G01 X56.2982 Y70.2270 
G01 X56.3016 Y70.2018 
G01 X56.3016 Y70.1764 
G01 X56.3065 Y70.1645 
G01 X56.3081 Y70.1518 
G01 X56.3208 Y70.1298 
G01 X56.5705 Y69.5271 
G01 X56.5705 Y67.6329 
G01 X56.2940 Y66.9654 
G01 X55.1851 Y65.8565 
G01 X55.1561 Y65.7865 
G01 X55.1561 Y58.8158 
G01 X55.1851 Y58.7458 
G01 X55.2387 Y58.6922 
G01 X55.2870 Y58.6440 
G01 X55.6073 Y58.0891 
G01 X55.6847 Y57.8002 
G01 X55.7309 Y57.7400 
G01 X55.7965 Y57.7021 
G01 X55.8716 Y57.6923 
G01 X55.9448 Y57.7119 
G01 X56.7145 Y57.9181 
G01 X57.5485 Y57.9181 
G01 X57.5608 Y57.9148 
G01 X57.5860 Y57.9181 
G01 X57.6114 Y57.9181 
G01 X57.6233 Y57.9230 
G01 X57.6360 Y57.9247 
G01 X57.6580 Y57.9374 
G01 X57.6815 Y57.9471 
G01 X57.6905 Y57.9562 
G01 X57.7016 Y57.9626 
G01 X57.7171 Y57.9827 
G01 X57.7351 Y58.0007 
G01 X57.7400 Y58.0125 
G01 X57.7478 Y58.0227 
G01 X57.7543 Y58.0472 
G01 X57.7641 Y58.0707 
G01 X57.7641 Y58.0835 
G01 X57.7674 Y58.0959 
G01 X57.7641 Y58.1211 
G01 X57.7641 Y58.1465 
G01 X57.7591 Y58.1583 
G01 X57.7575 Y58.1710 
G01 X57.7448 Y58.1930 
G01 X57.7351 Y58.2165 
G01 X57.7260 Y58.2256 
G01 X57.4227 Y58.7509 
G01 X57.2569 Y59.3697 
G01 X57.2569 Y60.0103 
G01 X57.4227 Y60.6291 
G01 X57.7430 Y61.1840 
G01 X58.1960 Y61.6370 
G01 X58.7509 Y61.9573 
G01 X59.3697 Y62.1231 
G01 X60.0103 Y62.1231 
G01 X60.6291 Y61.9573 
G01 X61.1840 Y61.6370 
G01 X61.6370 Y61.1840 
G01 X61.9573 Y60.6291 
G01 X62.1231 Y60.0103 
G01 X62.1231 Y59.3697 
G01 X61.9573 Y58.7509 
G01 X61.6370 Y58.1960 
G01 X61.5887 Y58.1478 
G01 X61.5374 Y58.0964 
G01 X61.5233 Y58.0658 
G01 X61.5061 Y58.0242 
G01 X61.5061 Y57.8470 
G01 X61.5351 Y57.7769 
G01 X61.5887 Y57.7234 
G01 X61.7027 Y57.6093 
G01 X62.2136 Y57.0984 
G01 X62.4901 Y56.4309 
G01 X62.4901 Y50.9572 
G01 X62.5018 Y50.9290 
G01 X62.5191 Y50.8871 
G01 X62.5727 Y50.8336 
G01 X62.7082 Y50.6981 
G01 X63.0221 Y49.9402 
G01 X63.0221 Y49.1198 
G01 X62.7082 Y48.3619 
G01 X62.1281 Y47.7818 
G01 X61.3702 Y47.4679 
G01 X60.5498 Y47.4679 
G01 X59.7919 Y47.7818 
G01 X59.2118 Y48.3619 
G01 X58.8979 Y49.1198 
G01 X58.8979 Y49.3582 
G01 X58.8689 Y49.4282 
G01 X58.8579 Y49.4548 
G01 X58.8579 Y51.4212 
G01 X58.8612 Y51.4335 
G01 X58.8579 Y51.4587 
G01 X58.8579 Y51.4841 
G01 X58.8530 Y51.4960 
G01 X58.8513 Y51.5087 
G01 X58.8386 Y51.5307 
G01 X58.8289 Y51.5541 
G01 X58.8198 Y51.5632 
G01 X58.8134 Y51.5743 
G01 X58.7933 Y51.5898 
G01 X58.7753 Y51.6077 
G01 X58.7635 Y51.6126 
G01 X58.7533 Y51.6204 
G01 X58.7288 Y51.6270 
G01 X58.7053 Y51.6367 
G01 X58.6925 Y51.6367 
G01 X58.6801 Y51.6401 
G01 X58.6549 Y51.6367 
G01 X58.6295 Y51.6367 
G01 X58.6177 Y51.6318 
G01 X58.6050 Y51.6302 
G01 X58.5830 Y51.6175 
G01 X58.5595 Y51.6077 
G01 X58.5504 Y51.5987 
G01 X58.4269 Y51.5273 
G01 X57.5855 Y51.3019 
G01 X56.7145 Y51.3019 
G01 X56.5534 Y51.3451 
G01 X56.5299 Y51.3548 
G01 X56.5171 Y51.3548 
G01 X56.5048 Y51.3581 
G01 X56.4796 Y51.3548 
G01 X56.4542 Y51.3548 
G01 X56.4423 Y51.3499 
G01 X56.4296 Y51.3482 
G01 X56.4076 Y51.3355 
G01 X56.3841 Y51.3258 
G01 X56.3751 Y51.3167 
G01 X56.3640 Y51.3103 
G01 X56.3485 Y51.2902 
G01 X56.3306 Y51.2722 
G01 X56.3257 Y51.2603 
G01 X56.3179 Y51.2502 
G01 X56.3113 Y51.2256 
G01 X56.3016 Y51.2022 
G01 X56.3016 Y51.1894 
G01 X56.2982 Y51.1770 
G01 X56.3016 Y51.1518 
G01 X56.3016 Y51.1264 
G01 X56.3065 Y51.1145 
G01 X56.3081 Y51.1018 
G01 X56.3208 Y51.0798 
G01 X56.5705 Y50.4771 
G01 X56.5705 Y48.5829 
G01 X56.2940 Y47.9154 
G01 X55.1851 Y46.8065 
G01 X55.1561 Y46.7365 
G01 X55.1561 Y39.7658 
G01 X55.1851 Y39.6958 
G01 X55.2387 Y39.6422 
G01 X55.2870 Y39.5940 
G01 X55.6073 Y39.0391 
G01 X55.6847 Y38.7502 
G01 X55.7309 Y38.6900 
G01 X55.7965 Y38.6521 
G01 X55.8716 Y38.6423 
G01 X55.9448 Y38.6619 
G01 X56.7145 Y38.8681 
G01 X57.5485 Y38.8681 
G01 X57.5608 Y38.8648 
G01 X57.5860 Y38.8681 
G01 X57.6114 Y38.8681 
G01 X57.6233 Y38.8730 
G01 X57.6360 Y38.8747 
G01 X57.6580 Y38.8874 
G01 X57.6815 Y38.8971 
G01 X57.6905 Y38.9062 
G01 X57.7016 Y38.9126 
G01 X57.7171 Y38.9327 
G01 X57.7351 Y38.9507 
G01 X57.7400 Y38.9625 
G01 X57.7478 Y38.9727 
G01 X57.7543 Y38.9972 
G01 X57.7641 Y39.0207 
G01 X57.7641 Y39.0335 
G01 X57.7674 Y39.0459 
G01 X57.7641 Y39.0711 
G01 X57.7641 Y39.0965 
G01 X57.7591 Y39.1083 
G01 X57.7575 Y39.1210 
G01 X57.7448 Y39.1430 
G01 X57.7351 Y39.1665 
G01 X57.7260 Y39.1756 
G01 X57.4227 Y39.7009 
G01 X57.2569 Y40.3197 
G01 X57.2569 Y40.9603 
G01 X57.4227 Y41.5791 
G01 X57.7430 Y42.1340 
G01 X58.1960 Y42.5870 
G01 X58.7509 Y42.9073 
G01 X59.3697 Y43.0731 
G01 X60.0103 Y43.0731 
G01 X60.6291 Y42.9073 
G01 X61.1840 Y42.5870 
G01 X61.6370 Y42.1340 
G01 X61.9573 Y41.5791 
G01 X62.1231 Y40.9603 
G01 X62.1231 Y40.3197 
G01 X61.9573 Y39.7009 
G01 X61.6370 Y39.1460 
G01 X61.5887 Y39.0978 
G01 X61.5351 Y39.0442 
G01 X61.5061 Y38.9742 
G01 X61.5061 Y38.7970 
G01 X61.5351 Y38.7269 
G01 X61.5887 Y38.6734 
G01 X61.7027 Y38.5593 
G00 Z2.5400 
G00 X60.9293 Y97.6925 
G01 Z-0.1778 F2540.00 
G01 X60.9293 Y97.8875 F3000.00 
G01 X60.8988 Y98.0802 
G01 X60.8385 Y98.2657 
G01 X60.7499 Y98.4395 
G01 X60.6353 Y98.5973 
G01 X60.4973 Y98.7353 
G01 X60.3395 Y98.8499 
G01 X60.1657 Y98.9385 
G01 X59.9802 Y98.9988 
G01 X59.7875 Y99.0293 
G01 X59.5925 Y99.0293 
G01 X59.3998 Y98.9988 
G01 X59.2143 Y98.9385 
G01 X59.0405 Y98.8499 
G01 X58.8827 Y98.7353 
G01 X58.7447 Y98.5973 
G01 X58.6301 Y98.4395 
G01 X58.5415 Y98.2657 
G01 X58.4812 Y98.0802 
G01 X58.4507 Y97.8875 
G01 X58.4507 Y97.6925 
G01 X58.4812 Y97.4998 
G01 X58.5415 Y97.3143 
G01 X58.6301 Y97.1405 
G01 X58.7447 Y96.9827 
G01 X58.8827 Y96.8447 
G01 X59.0405 Y96.7301 
G01 X59.0677 Y96.7162 
G01 X59.0677 Y95.0924 
G01 X59.0916 Y94.9722 
G01 X59.1385 Y94.8589 
G01 X59.2066 Y94.7570 
G01 X60.0517 Y93.9119 
G01 X60.0517 Y87.8547 
G01 X60.0756 Y87.7345 
G01 X60.0917 Y87.6956 
G01 X60.0917 Y87.5445 
G01 X60.1251 Y87.3767 
G01 X60.1905 Y87.2187 
G01 X60.2855 Y87.0765 
G01 X60.4065 Y86.9555 
G01 X60.5487 Y86.8605 
G01 X60.7067 Y86.7951 
G01 X60.8745 Y86.7617 
G01 X61.0455 Y86.7617 
G01 X61.2133 Y86.7951 
G01 X61.3713 Y86.8605 
G01 X61.5135 Y86.9555 
G01 X61.6345 Y87.0765 
G01 X61.7295 Y87.2187 
G01 X61.7949 Y87.3767 
G01 X61.8283 Y87.5445 
G01 X61.8283 Y87.7155 
G01 X61.7949 Y87.8833 
G01 X61.7295 Y88.0413 
G01 X61.6345 Y88.1835 
G01 X61.5135 Y88.3045 
G01 X61.3713 Y88.3995 
G01 X61.2963 Y88.4305 
G01 X61.2963 Y94.2310 
G01 X61.2724 Y94.3512 
G01 X61.2255 Y94.4645 
G01 X61.1574 Y94.5664 
G01 X61.0707 Y94.6531 
G01 X60.3123 Y95.4115 
G01 X60.3123 Y96.7162 
G01 X60.3395 Y96.7301 
G01 X60.4973 Y96.8447 
G01 X60.6353 Y96.9827 
G01 X60.7499 Y97.1405 
G01 X60.8385 Y97.3143 
G01 X60.8988 Y97.4998 
G01 X60.9293 Y97.6925 
G00 Z2.5400 
G00 X60.9293 Y40.5425 
G01 Z-0.1778 F2540.00 
G01 X60.9293 Y40.7375 F3000.00 
G01 X60.8988 Y40.9302 
G01 X60.8385 Y41.1157 
G01 X60.7499 Y41.2895 
G01 X60.6353 Y41.4473 
G01 X60.4973 Y41.5853 
G01 X60.3395 Y41.6999 
G01 X60.1657 Y41.7885 
G01 X59.9802 Y41.8488 
G01 X59.7875 Y41.8793 
G01 X59.5925 Y41.8793 
G01 X59.3998 Y41.8488 
G01 X59.2143 Y41.7885 
G01 X59.0405 Y41.6999 
G01 X58.8827 Y41.5853 
G01 X58.7447 Y41.4473 
G01 X58.6301 Y41.2895 
G01 X58.5415 Y41.1157 
G01 X58.4812 Y40.9302 
G01 X58.4507 Y40.7375 
G01 X58.4507 Y40.5425 
G01 X58.4812 Y40.3498 
G01 X58.5415 Y40.1643 
G01 X58.6301 Y39.9905 
G01 X58.7447 Y39.8327 
G01 X58.8827 Y39.6947 
G01 X59.0405 Y39.5801 
G01 X59.0677 Y39.5662 
G01 X59.0677 Y37.9424 
G01 X59.0916 Y37.8222 
G01 X59.1385 Y37.7089 
G01 X59.2066 Y37.6070 
G01 X60.0517 Y36.7619 
G01 X60.0517 Y30.7047 
G01 X60.0756 Y30.5845 
G01 X60.0917 Y30.5456 
G01 X60.0917 Y30.3945 
G01 X60.1251 Y30.2267 
G01 X60.1905 Y30.0687 
G01 X60.2855 Y29.9265 
G01 X60.4065 Y29.8055 
G01 X60.5487 Y29.7105 
G01 X60.7067 Y29.6451 
G01 X60.8745 Y29.6117 
G01 X61.0455 Y29.6117 
G01 X61.2133 Y29.6451 
G01 X61.3713 Y29.7105 
G01 X61.5135 Y29.8055 
G01 X61.6345 Y29.9265 
G01 X61.7295 Y30.0687 
G01 X61.7949 Y30.2267 
G01 X61.8283 Y30.3945 
G01 X61.8283 Y30.5655 
G01 X61.7949 Y30.7333 
G01 X61.7295 Y30.8913 
G01 X61.6345 Y31.0335 
G01 X61.5135 Y31.1545 
G01 X61.3713 Y31.2495 
G01 X61.2963 Y31.2805 
G01 X61.2963 Y37.0810 
G01 X61.2724 Y37.2012 
G01 X61.2255 Y37.3145 
G01 X61.1574 Y37.4164 
G01 X61.0707 Y37.5031 
G01 X60.3123 Y38.2615 
G01 X60.3123 Y39.5662 
G01 X60.3395 Y39.5801 
G01 X60.4973 Y39.6947 
G01 X60.6353 Y39.8327 
G01 X60.7499 Y39.9905 
G01 X60.8385 Y40.1643 
G01 X60.8988 Y40.3498 
G01 X60.9293 Y40.5425 
G00 Z2.5400 
G00 X54.5793 Y38.0025 
G01 Z-0.1778 F2540.00 
G01 X54.5793 Y38.1975 F3000.00 
G01 X54.5488 Y38.3902 
G01 X54.4885 Y38.5757 
G01 X54.3999 Y38.7495 
G01 X54.2853 Y38.9073 
G01 X54.1473 Y39.0453 
G01 X53.9895 Y39.1599 
G01 X53.9623 Y39.1738 
G01 X53.9623 Y47.2720 
G01 X55.1511 Y48.4608 
G01 X55.2378 Y48.5474 
G01 X55.3059 Y48.6494 
G01 X55.3528 Y48.7626 
G01 X55.3767 Y48.8828 
G01 X55.3767 Y50.1772 
G01 X55.3528 Y50.2974 
G01 X55.3059 Y50.4106 
G01 X55.2378 Y50.5126 
G01 X55.1511 Y50.5992 
G01 X53.9623 Y51.7880 
G01 X53.9623 Y56.0762 
G01 X53.9895 Y56.0901 
G01 X54.1473 Y56.2047 
G01 X54.2853 Y56.3427 
G01 X54.3999 Y56.5005 
G01 X54.4885 Y56.6743 
G01 X54.5488 Y56.8598 
G01 X54.5793 Y57.0525 
G01 X54.5793 Y57.2475 
G01 X54.5488 Y57.4402 
G01 X54.4885 Y57.6257 
G01 X54.3999 Y57.7995 
G01 X54.2853 Y57.9573 
G01 X54.1473 Y58.0953 
G01 X53.9895 Y58.2099 
G01 X53.9623 Y58.2238 
G01 X53.9623 Y66.3220 
G01 X55.2378 Y67.5974 
G01 X55.3059 Y67.6994 
G01 X55.3528 Y67.8126 
G01 X55.3767 Y67.9328 
G01 X55.3767 Y69.2272 
G01 X55.3528 Y69.3474 
G01 X55.3059 Y69.4606 
G01 X55.2378 Y69.5626 
G01 X53.9623 Y70.8380 
G01 X53.9623 Y75.1262 
G01 X53.9895 Y75.1401 
G01 X54.1473 Y75.2547 
G01 X54.2853 Y75.3927 
G01 X54.3999 Y75.5505 
G01 X54.4885 Y75.7243 
G01 X54.5488 Y75.9098 
G01 X54.5793 Y76.1025 
G01 X54.5793 Y76.2975 
G01 X54.5488 Y76.4902 
G01 X54.4885 Y76.6757 
G01 X54.3999 Y76.8495 
G01 X54.2853 Y77.0073 
G01 X54.1473 Y77.1453 
G01 X53.9895 Y77.2599 
G01 X53.9623 Y77.2738 
G01 X53.9623 Y85.3720 
G01 X55.2378 Y86.6474 
G01 X55.3059 Y86.7494 
G01 X55.3528 Y86.8626 
G01 X55.3767 Y86.9828 
G01 X55.3767 Y88.2772 
G01 X55.3528 Y88.3974 
G01 X55.3059 Y88.5106 
G01 X55.2378 Y88.6126 
G01 X53.9623 Y89.8880 
G01 X53.9623 Y94.1762 
G01 X53.9895 Y94.1901 
G01 X54.1473 Y94.3047 
G01 X54.2853 Y94.4427 
G01 X54.3999 Y94.6005 
G01 X54.4885 Y94.7743 
G01 X54.5488 Y94.9598 
G01 X54.5793 Y95.1525 
G01 X54.5793 Y95.3475 
G01 X54.5488 Y95.5402 
G01 X54.4885 Y95.7257 
G01 X54.3999 Y95.8995 
G01 X54.2853 Y96.0573 
G01 X54.1473 Y96.1953 
G01 X53.9895 Y96.3099 
G01 X53.9623 Y96.3238 
G01 X53.9623 Y109.2813 
G01 X53.9384 Y109.4015 
G01 X53.8915 Y109.5148 
G01 X53.8234 Y109.6167 
G01 X53.7367 Y109.7034 
G01 X53.6348 Y109.7715 
G01 X53.5215 Y109.8184 
G01 X53.4013 Y109.8423 
G01 X53.2787 Y109.8423 
G01 X53.1585 Y109.8184 
G01 X53.0452 Y109.7715 
G01 X52.9433 Y109.7034 
G01 X52.8566 Y109.6167 
G01 X52.7885 Y109.5148 
G01 X52.7416 Y109.4015 
G01 X52.7177 Y109.2813 
G01 X52.7177 Y96.3238 
G01 X52.6905 Y96.3099 
G01 X52.5327 Y96.1953 
G01 X52.3947 Y96.0573 
G01 X52.2801 Y95.8995 
G01 X52.1915 Y95.7257 
G01 X52.1312 Y95.5402 
G01 X52.1007 Y95.3475 
G01 X52.1007 Y95.1525 
G01 X52.1312 Y94.9598 
G01 X52.1915 Y94.7743 
G01 X52.2801 Y94.6005 
G01 X52.3947 Y94.4427 
G01 X52.5327 Y94.3047 
G01 X52.6905 Y94.1901 
G01 X52.7177 Y94.1762 
G01 X52.7177 Y89.5690 
G01 X52.7416 Y89.4487 
G01 X52.7885 Y89.3355 
G01 X52.8566 Y89.2336 
G01 X53.6479 Y88.4423 
G01 X53.5933 Y88.4649 
G01 X53.4255 Y88.4983 
G01 X53.2545 Y88.4983 
G01 X53.0867 Y88.4649 
G01 X52.9287 Y88.3995 
G01 X52.7865 Y88.3045 
G01 X52.6655 Y88.1835 
G01 X52.5705 Y88.0413 
G01 X52.5051 Y87.8833 
G01 X52.4717 Y87.7155 
G01 X52.4717 Y87.5445 
G01 X52.5051 Y87.3767 
G01 X52.5705 Y87.2187 
G01 X52.6655 Y87.0765 
G01 X52.7865 Y86.9555 
G01 X52.9287 Y86.8605 
G01 X53.0867 Y86.7951 
G01 X53.2545 Y86.7617 
G01 X53.4255 Y86.7617 
G01 X53.5933 Y86.7951 
G01 X53.6479 Y86.8177 
G01 X52.8566 Y86.0264 
G01 X52.7885 Y85.9245 
G01 X52.7416 Y85.8113 
G01 X52.7177 Y85.6910 
G01 X52.7177 Y77.2738 
G01 X52.6905 Y77.2599 
G01 X52.5327 Y77.1453 
G01 X52.3947 Y77.0073 
G01 X52.2801 Y76.8495 
G01 X52.1915 Y76.6757 
G01 X52.1312 Y76.4902 
G01 X52.1007 Y76.2975 
G01 X52.1007 Y76.1025 
G01 X52.1312 Y75.9098 
G01 X52.1915 Y75.7243 
G01 X52.2801 Y75.5505 
G01 X52.3947 Y75.3927 
G01 X52.5327 Y75.2547 
G01 X52.6905 Y75.1401 
G01 X52.7177 Y75.1262 
G01 X52.7177 Y70.5190 
G01 X52.7416 Y70.3987 
G01 X52.7885 Y70.2855 
G01 X52.8566 Y70.1836 
G01 X53.6479 Y69.3923 
G01 X53.5933 Y69.4149 
G01 X53.4255 Y69.4483 
G01 X53.2545 Y69.4483 
G01 X53.0867 Y69.4149 
G01 X52.9287 Y69.3495 
G01 X52.7865 Y69.2545 
G01 X52.6655 Y69.1335 
G01 X52.5705 Y68.9913 
G01 X52.5051 Y68.8333 
G01 X52.4717 Y68.6655 
G01 X52.4717 Y68.4945 
G01 X52.5051 Y68.3267 
G01 X52.5705 Y68.1687 
G01 X52.6655 Y68.0265 
G01 X52.7865 Y67.9055 
G01 X52.9287 Y67.8105 
G01 X53.0867 Y67.7451 
G01 X53.2545 Y67.7117 
G01 X53.4255 Y67.7117 
G01 X53.5933 Y67.7451 
G01 X53.6479 Y67.7677 
G01 X52.8566 Y66.9764 
G01 X52.7885 Y66.8745 
G01 X52.7416 Y66.7613 
G01 X52.7177 Y66.6410 
G01 X52.7177 Y58.2238 
G01 X52.6905 Y58.2099 
G01 X52.5327 Y58.0953 
G01 X52.3947 Y57.9573 
G01 X52.2801 Y57.7995 
G01 X52.1915 Y57.6257 
G01 X52.1312 Y57.4402 
G01 X52.1007 Y57.2475 
G01 X52.1007 Y57.0525 
G01 X52.1312 Y56.8598 
G01 X52.1915 Y56.6743 
G01 X52.2801 Y56.5005 
G01 X52.3947 Y56.3427 
G01 X52.5327 Y56.2047 
G01 X52.6905 Y56.0901 
G01 X52.7177 Y56.0762 
G01 X52.7177 Y51.4690 
G01 X52.7416 Y51.3487 
G01 X52.7885 Y51.2355 
G01 X52.8566 Y51.1336 
G01 X53.6479 Y50.3423 
G01 X53.5933 Y50.3649 
G01 X53.4255 Y50.3983 
G01 X53.2545 Y50.3983 
G01 X53.0867 Y50.3649 
G01 X52.9287 Y50.2995 
G01 X52.7865 Y50.2045 
G01 X52.6655 Y50.0835 
G01 X52.5705 Y49.9413 
G01 X52.5051 Y49.7833 
G01 X52.4717 Y49.6155 
G01 X52.4717 Y49.4445 
G01 X52.5051 Y49.2767 
G01 X52.5705 Y49.1187 
G01 X52.6655 Y48.9765 
G01 X52.7865 Y48.8555 
G01 X52.9287 Y48.7605 
G01 X53.0867 Y48.6951 
G01 X53.2545 Y48.6617 
G01 X53.4255 Y48.6617 
G01 X53.5933 Y48.6951 
G01 X53.6479 Y48.7177 
G01 X52.8566 Y47.9264 
G01 X52.7885 Y47.8245 
G01 X52.7416 Y47.7112 
G01 X52.7177 Y47.5910 
G01 X52.7177 Y39.1738 
G01 X52.6905 Y39.1599 
G01 X52.5327 Y39.0453 
G01 X52.3947 Y38.9073 
G01 X52.2801 Y38.7495 
G01 X52.1915 Y38.5757 
G01 X52.1312 Y38.3902 
G01 X52.1007 Y38.1975 
G01 X52.1007 Y38.0025 
G01 X52.1312 Y37.8098 
G01 X52.1915 Y37.6243 
G01 X52.2801 Y37.4505 
G01 X52.3947 Y37.2927 
G01 X52.5327 Y37.1547 
G01 X52.6905 Y37.0401 
G01 X52.8643 Y36.9515 
G01 X53.0498 Y36.8912 
G01 X53.2425 Y36.8607 
G01 X53.4375 Y36.8607 
G01 X53.6302 Y36.8912 
G01 X53.8157 Y36.9515 
G01 X53.9895 Y37.0401 
G01 X54.1473 Y37.1547 
G01 X54.2853 Y37.2927 
G01 X54.3999 Y37.4505 
G01 X54.4885 Y37.6243 
G01 X54.5488 Y37.8098 
G01 X54.5793 Y38.0025 
G00 Z2.5400 
G00 X60.9293 Y59.5925 
G01 Z-0.1778 F2540.00 
G01 X60.9293 Y59.7875 F3000.00 
G01 X60.8988 Y59.9802 
G01 X60.8385 Y60.1657 
G01 X60.7499 Y60.3395 
G01 X60.6353 Y60.4973 
G01 X60.4973 Y60.6353 
G01 X60.3395 Y60.7499 
G01 X60.1657 Y60.8385 
G01 X59.9802 Y60.8988 
G01 X59.7875 Y60.9293 
G01 X59.5925 Y60.9293 
G01 X59.3998 Y60.8988 
G01 X59.2143 Y60.8385 
G01 X59.0405 Y60.7499 
G01 X58.8827 Y60.6353 
G01 X58.7447 Y60.4973 
G01 X58.6301 Y60.3395 
G01 X58.5415 Y60.1657 
G01 X58.4812 Y59.9802 
G01 X58.4507 Y59.7875 
G01 X58.4507 Y59.5925 
G01 X58.4812 Y59.3998 
G01 X58.5415 Y59.2143 
G01 X58.6301 Y59.0405 
G01 X58.7447 Y58.8827 
G01 X58.8827 Y58.7447 
G01 X59.0405 Y58.6301 
G01 X59.0677 Y58.6162 
G01 X59.0677 Y56.9924 
G01 X59.0916 Y56.8722 
G01 X59.1385 Y56.7589 
G01 X59.2066 Y56.6570 
G01 X60.0517 Y55.8119 
G01 X60.0517 Y49.7547 
G01 X60.0756 Y49.6345 
G01 X60.0917 Y49.5956 
G01 X60.0917 Y49.4445 
G01 X60.1251 Y49.2767 
G01 X60.1905 Y49.1187 
G01 X60.2855 Y48.9765 
G01 X60.4065 Y48.8555 
G01 X60.5487 Y48.7605 
G01 X60.7067 Y48.6951 
G01 X60.8745 Y48.6617 
G01 X61.0455 Y48.6617 
G01 X61.2133 Y48.6951 
G01 X61.3713 Y48.7605 
G01 X61.5135 Y48.8555 
G01 X61.6345 Y48.9765 
G01 X61.7295 Y49.1187 
G01 X61.7949 Y49.2767 
G01 X61.8283 Y49.4445 
G01 X61.8283 Y49.6155 
G01 X61.7949 Y49.7833 
G01 X61.7295 Y49.9413 
G01 X61.6345 Y50.0835 
G01 X61.5135 Y50.2045 
G01 X61.3713 Y50.2995 
G01 X61.2963 Y50.3305 
G01 X61.2963 Y56.1310 
G01 X61.2724 Y56.2512 
G01 X61.2255 Y56.3645 
G01 X61.1574 Y56.4664 
G01 X61.0707 Y56.5531 
G01 X60.3123 Y57.3115 
G01 X60.3123 Y58.6162 
G01 X60.3395 Y58.6301 
G01 X60.4973 Y58.7447 
G01 X60.6353 Y58.8827 
G01 X60.7499 Y59.0405 
G01 X60.8385 Y59.2143 
G01 X60.8988 Y59.3998 
G01 X60.9293 Y59.5925 
G00 Z2.5400 
G00 X60.9293 Y78.6425 
G01 Z-0.1778 F2540.00 
G01 X60.9293 Y78.8375 F3000.00 
G01 X60.8988 Y79.0302 
G01 X60.8385 Y79.2157 
G01 X60.7499 Y79.3895 
G01 X60.6353 Y79.5473 
G01 X60.4973 Y79.6853 
G01 X60.3395 Y79.7999 
G01 X60.1657 Y79.8885 
G01 X59.9802 Y79.9488 
G01 X59.7875 Y79.9793 
G01 X59.5925 Y79.9793 
G01 X59.3998 Y79.9488 
G01 X59.2143 Y79.8885 
G01 X59.0405 Y79.7999 
G01 X58.8827 Y79.6853 
G01 X58.7447 Y79.5473 
G01 X58.6301 Y79.3895 
G01 X58.5415 Y79.2157 
G01 X58.4812 Y79.0302 
G01 X58.4507 Y78.8375 
G01 X58.4507 Y78.6425 
G01 X58.4812 Y78.4498 
G01 X58.5415 Y78.2643 
G01 X58.6301 Y78.0905 
G01 X58.7447 Y77.9327 
G01 X58.8827 Y77.7947 
G01 X59.0405 Y77.6801 
G01 X59.0677 Y77.6662 
G01 X59.0677 Y76.0424 
G01 X59.0916 Y75.9222 
G01 X59.1385 Y75.8089 
G01 X59.2066 Y75.7070 
G01 X60.0517 Y74.8619 
G01 X60.0517 Y68.8047 
G01 X60.0756 Y68.6845 
G01 X60.0917 Y68.6457 
G01 X60.0917 Y68.4945 
G01 X60.1251 Y68.3267 
G01 X60.1905 Y68.1687 
G01 X60.2855 Y68.0265 
G01 X60.4065 Y67.9055 
G01 X60.5487 Y67.8105 
G01 X60.7067 Y67.7451 
G01 X60.8745 Y67.7117 
G01 X61.0455 Y67.7117 
G01 X61.2133 Y67.7451 
G01 X61.3713 Y67.8105 
G01 X61.5135 Y67.9055 
G01 X61.6345 Y68.0265 
G01 X61.7295 Y68.1687 
G01 X61.7949 Y68.3267 
G01 X61.8283 Y68.4945 
G01 X61.8283 Y68.6655 
G01 X61.7949 Y68.8333 
G01 X61.7295 Y68.9913 
G01 X61.6345 Y69.1335 
G01 X61.5135 Y69.2545 
G01 X61.3713 Y69.3495 
G01 X61.2963 Y69.3805 
G01 X61.2963 Y75.1810 
G01 X61.2724 Y75.3012 
G01 X61.2255 Y75.4145 
G01 X61.1574 Y75.5164 
G01 X61.0707 Y75.6031 
G01 X60.3123 Y76.3615 
G01 X60.3123 Y77.6662 
G01 X60.3395 Y77.6801 
G01 X60.4973 Y77.7947 
G01 X60.6353 Y77.9327 
G01 X60.7499 Y78.0905 
G01 X60.8385 Y78.2643 
G01 X60.8988 Y78.4498 
G01 X60.9293 Y78.6425 
G00 Z2.5400 
G00 X121.0781 Y37.2198 
G01 Z-0.1778 F2540.00 
G01 X121.0936 Y37.1996 F3000.00 
G01 X121.1047 Y37.1932 
G01 X121.1138 Y37.1842 
G01 X121.1372 Y37.1744 
G01 X121.1592 Y37.1617 
G01 X121.1719 Y37.1601 
G01 X121.1838 Y37.1552 
G01 X121.2092 Y37.1552 
G01 X121.2344 Y37.1519 
G01 X121.2467 Y37.1552 
G01 X121.2596 Y37.1552 
G01 X121.2830 Y37.1649 
G01 X121.5973 Y37.2491 
G01 X122.2427 Y37.2491 
G01 X122.8661 Y37.0821 
G01 X123.4250 Y36.7594 
G01 X123.8814 Y36.3030 
G01 X124.2041 Y35.7441 
G01 X124.3711 Y35.1207 
G01 X124.3711 Y34.4753 
G01 X124.2041 Y33.8519 
G01 X123.8814 Y33.2930 
G01 X123.4250 Y32.8366 
G01 X122.8661 Y32.5139 
G01 X122.2427 Y32.3469 
G01 X121.5973 Y32.3469 
G01 X120.9739 Y32.5139 
G01 X120.4150 Y32.8366 
G01 X119.9586 Y33.2930 
G01 X119.9016 Y33.3918 
G01 X119.8918 Y33.4153 
G01 X119.8828 Y33.4244 
G01 X119.8764 Y33.4355 
G01 X119.8562 Y33.4509 
G01 X119.8382 Y33.4689 
G01 X119.8264 Y33.4738 
G01 X119.8162 Y33.4816 
G01 X119.7917 Y33.4882 
G01 X119.7682 Y33.4979 
G01 X119.7554 Y33.4979 
G01 X119.7430 Y33.5012 
G01 X119.7179 Y33.4979 
G01 X118.3658 Y33.4979 
G01 X118.2179 Y33.5592 
G01 X118.1850 Y33.5728 
G01 X118.1479 Y33.5882 
G01 X118.0721 Y33.5882 
G01 X118.0320 Y33.5716 
G01 X118.0021 Y33.5592 
G01 X117.8542 Y33.4979 
G01 X115.8258 Y33.4979 
G01 X115.6779 Y33.5592 
G01 X115.6450 Y33.5728 
G01 X115.6079 Y33.5882 
G01 X115.5321 Y33.5882 
G01 X115.4920 Y33.5716 
G01 X115.4621 Y33.5592 
G01 X115.3142 Y33.4979 
G01 X113.2858 Y33.4979 
G01 X113.1379 Y33.5592 
G01 X113.1050 Y33.5728 
G01 X113.0679 Y33.5882 
G01 X112.9921 Y33.5882 
G01 X112.9520 Y33.5716 
G01 X112.9221 Y33.5592 
G01 X112.7742 Y33.4979 
G01 X110.7458 Y33.4979 
G01 X110.5979 Y33.5592 
G01 X110.5650 Y33.5728 
G01 X110.5279 Y33.5882 
G01 X110.4521 Y33.5882 
G01 X110.4120 Y33.5716 
G01 X110.3821 Y33.5592 
G01 X110.2342 Y33.4979 
G01 X108.2058 Y33.4979 
G01 X108.0579 Y33.5592 
G01 X108.0250 Y33.5728 
G01 X107.9879 Y33.5882 
G01 X107.9121 Y33.5882 
G01 X107.8720 Y33.5716 
G01 X107.8421 Y33.5592 
G01 X107.6942 Y33.4979 
G01 X105.6658 Y33.4979 
G01 X105.5179 Y33.5592 
G01 X105.4850 Y33.5728 
G01 X105.4479 Y33.5882 
G01 X105.3721 Y33.5882 
G01 X105.3320 Y33.5716 
G01 X105.3021 Y33.5592 
G01 X105.1542 Y33.4979 
G01 X103.1258 Y33.4979 
G01 X102.9779 Y33.5592 
G01 X102.9450 Y33.5728 
G01 X102.9079 Y33.5882 
G01 X102.8321 Y33.5882 
G01 X102.7920 Y33.5716 
G01 X102.7621 Y33.5592 
G01 X102.6142 Y33.4979 
G01 X100.5858 Y33.4979 
G01 X100.4379 Y33.5592 
G01 X100.4050 Y33.5728 
G01 X100.3679 Y33.5882 
G01 X100.2921 Y33.5882 
G01 X100.2520 Y33.5716 
G01 X100.2221 Y33.5592 
G01 X100.0742 Y33.4979 
G01 X98.0458 Y33.4979 
G01 X97.8979 Y33.5592 
G01 X97.8280 Y33.5881 
G01 X97.7521 Y33.5882 
G01 X97.5342 Y33.4979 
G01 X95.5058 Y33.4979 
G01 X95.3579 Y33.5592 
G01 X95.3250 Y33.5728 
G01 X95.2879 Y33.5882 
G01 X95.2121 Y33.5882 
G01 X95.1720 Y33.5716 
G01 X95.1421 Y33.5592 
G01 X94.9942 Y33.4979 
G01 X92.9658 Y33.4979 
G01 X92.8179 Y33.5592 
G01 X92.7850 Y33.5728 
G01 X92.7479 Y33.5882 
G01 X92.6721 Y33.5882 
G01 X92.6320 Y33.5716 
G01 X92.6021 Y33.5592 
G01 X92.4542 Y33.4979 
G01 X90.4258 Y33.4979 
G01 X90.2779 Y33.5592 
G01 X90.2503 Y33.5706 
G01 X90.2079 Y33.5882 
G01 X90.1321 Y33.5882 
G01 X90.0970 Y33.5736 
G01 X90.0621 Y33.5592 
G01 X89.9142 Y33.4979 
G01 X87.8858 Y33.4979 
G01 X87.4050 Y33.6970 
G01 X87.0370 Y34.0650 
G01 X86.8379 Y34.5458 
G01 X86.8379 Y36.5742 
G01 X87.0370 Y37.0550 
G01 X87.4050 Y37.4230 
G01 X87.8858 Y37.6221 
G01 X89.9142 Y37.6221 
G01 X90.0621 Y37.5608 
G01 X90.0950 Y37.5472 
G01 X90.1321 Y37.5318 
G01 X90.2079 Y37.5318 
G01 X90.2480 Y37.5484 
G01 X90.2779 Y37.5608 
G01 X90.4258 Y37.6221 
G01 X92.4542 Y37.6221 
G01 X92.6021 Y37.5608 
G01 X92.6297 Y37.5494 
G01 X92.6721 Y37.5318 
G01 X92.7479 Y37.5318 
G01 X92.7830 Y37.5464 
G01 X92.8179 Y37.5608 
G01 X92.9658 Y37.6221 
G01 X94.9942 Y37.6221 
G01 X95.1421 Y37.5608 
G01 X95.1697 Y37.5494 
G01 X95.2121 Y37.5318 
G01 X95.2879 Y37.5318 
G01 X95.3230 Y37.5464 
G01 X95.3579 Y37.5608 
G01 X95.5058 Y37.6221 
G01 X97.5342 Y37.6221 
G01 X97.6821 Y37.5608 
G01 X97.7097 Y37.5494 
G01 X97.7521 Y37.5318 
G01 X97.8279 Y37.5318 
G01 X97.8630 Y37.5464 
G01 X97.8979 Y37.5608 
G01 X98.0458 Y37.6221 
G01 X100.0742 Y37.6221 
G01 X100.2221 Y37.5608 
G01 X100.2497 Y37.5494 
G01 X100.2921 Y37.5318 
G01 X100.3679 Y37.5318 
G01 X100.4030 Y37.5464 
G01 X100.4379 Y37.5608 
G01 X100.5858 Y37.6221 
G01 X102.6142 Y37.6221 
G01 X102.7621 Y37.5608 
G01 X102.7897 Y37.5494 
G01 X102.8321 Y37.5318 
G01 X102.9079 Y37.5318 
G01 X102.9430 Y37.5464 
G01 X102.9779 Y37.5608 
G01 X103.1258 Y37.6221 
G01 X105.1542 Y37.6221 
G01 X105.3021 Y37.5608 
G01 X105.3297 Y37.5494 
G01 X105.3721 Y37.5318 
G01 X105.4479 Y37.5318 
G01 X105.4830 Y37.5464 
G01 X105.5179 Y37.5608 
G01 X105.6658 Y37.6221 
G01 X107.6942 Y37.6221 
G01 X107.8421 Y37.5608 
G01 X107.8697 Y37.5494 
G01 X107.9121 Y37.5318 
G01 X107.9879 Y37.5318 
G01 X108.0230 Y37.5464 
G01 X108.0579 Y37.5608 
G01 X108.2058 Y37.6221 
G01 X110.2342 Y37.6221 
G01 X110.3821 Y37.5608 
G01 X110.4097 Y37.5494 
G01 X110.4521 Y37.5318 
G01 X110.5279 Y37.5318 
G01 X110.5630 Y37.5464 
G01 X110.5979 Y37.5608 
G01 X110.7458 Y37.6221 
G01 X112.7742 Y37.6221 
G01 X112.9221 Y37.5608 
G01 X112.9497 Y37.5494 
G01 X112.9921 Y37.5318 
G01 X113.0679 Y37.5318 
G01 X113.1030 Y37.5464 
G01 X113.1379 Y37.5608 
G01 X113.2858 Y37.6221 
G01 X115.3142 Y37.6221 
G01 X115.4621 Y37.5608 
G01 X115.4897 Y37.5494 
G01 X115.5321 Y37.5318 
G01 X115.6079 Y37.5318 
G01 X115.6430 Y37.5464 
G01 X115.6779 Y37.5608 
G01 X115.8258 Y37.6221 
G01 X117.8542 Y37.6221 
G01 X118.0021 Y37.5608 
G01 X118.0297 Y37.5494 
G01 X118.0721 Y37.5318 
G01 X118.1479 Y37.5318 
G01 X118.1830 Y37.5464 
G01 X118.2179 Y37.5608 
G01 X118.3658 Y37.6221 
G01 X120.3942 Y37.6221 
G01 X120.8750 Y37.4230 
G01 X121.0781 Y37.2198 
G00 Z2.5400 
G00 X92.2167 Y36.4283 
G01 Z-0.1778 F2540.00 
G01 X90.6633 Y36.4283 F3000.00 
G01 X90.6213 Y36.4109 
G01 X90.5891 Y36.3787 
G01 X90.5717 Y36.3367 
G01 X90.5717 Y34.7833 
G01 X90.5891 Y34.7413 
G01 X90.6213 Y34.7091 
G01 X90.6633 Y34.6917 
G01 X92.2167 Y34.6917 
G01 X92.2587 Y34.7091 
G01 X92.2909 Y34.7413 
G01 X92.3083 Y34.7833 
G01 X92.3083 Y36.3367 
G01 X92.2909 Y36.3787 
G01 X92.2587 Y36.4109 
G01 X92.2167 Y36.4283 
G00 Z2.5400 
G00 X94.7567 Y36.4283 
G01 Z-0.1778 F2540.00 
G01 X93.2033 Y36.4283 F3000.00 
G01 X93.1613 Y36.4109 
G01 X93.1291 Y36.3787 
G01 X93.1117 Y36.3367 
G01 X93.1117 Y34.7833 
G01 X93.1291 Y34.7413 
G01 X93.1613 Y34.7091 
G01 X93.2033 Y34.6917 
G01 X94.7567 Y34.6917 
G01 X94.7987 Y34.7091 
G01 X94.8309 Y34.7413 
G01 X94.8483 Y34.7833 
G01 X94.8483 Y36.3367 
G01 X94.8309 Y36.3787 
G01 X94.7987 Y36.4109 
G01 X94.7567 Y36.4283 
G00 Z2.5400 
G00 X97.2967 Y36.4283 
G01 Z-0.1778 F2540.00 
G01 X95.7433 Y36.4283 F3000.00 
G01 X95.7013 Y36.4109 
G01 X95.6691 Y36.3787 
G01 X95.6517 Y36.3367 
G01 X95.6517 Y34.7833 
G01 X95.6691 Y34.7413 
G01 X95.7013 Y34.7091 
G01 X95.7433 Y34.6917 
G01 X97.2967 Y34.6917 
G01 X97.3387 Y34.7091 
G01 X97.3709 Y34.7413 
G01 X97.3883 Y34.7833 
G01 X97.3883 Y36.3367 
G01 X97.3709 Y36.3787 
G01 X97.3387 Y36.4109 
G01 X97.2967 Y36.4283 
G00 Z2.5400 
G00 X99.8367 Y36.4283 
G01 Z-0.1778 F2540.00 
G01 X98.2833 Y36.4283 F3000.00 
G01 X98.2413 Y36.4109 
G01 X98.2091 Y36.3787 
G01 X98.1917 Y36.3367 
G01 X98.1917 Y34.7833 
G01 X98.2091 Y34.7413 
G01 X98.2413 Y34.7091 
G01 X98.2833 Y34.6917 
G01 X99.8367 Y34.6917 
G01 X99.8787 Y34.7091 
G01 X99.9109 Y34.7413 
G01 X99.9283 Y34.7833 
G01 X99.9283 Y36.3367 
G01 X99.9109 Y36.3787 
G01 X99.8787 Y36.4109 
G01 X99.8367 Y36.4283 
G00 Z2.5400 
G00 X102.3767 Y36.4283 
G01 Z-0.1778 F2540.00 
G01 X100.8233 Y36.4283 F3000.00 
G01 X100.7813 Y36.4109 
G01 X100.7491 Y36.3787 
G01 X100.7317 Y36.3367 
G01 X100.7317 Y34.7833 
G01 X100.7491 Y34.7413 
G01 X100.7813 Y34.7091 
G01 X100.8233 Y34.6917 
G01 X102.3767 Y34.6917 
G01 X102.4187 Y34.7091 
G01 X102.4509 Y34.7413 
G01 X102.4683 Y34.7833 
G01 X102.4683 Y36.3367 
G01 X102.4509 Y36.3787 
G01 X102.4187 Y36.4109 
G01 X102.3767 Y36.4283 
G00 Z2.5400 
G00 X104.9167 Y36.4283 
G01 Z-0.1778 F2540.00 
G01 X103.3633 Y36.4283 F3000.00 
G01 X103.3213 Y36.4109 
G01 X103.2891 Y36.3787 
G01 X103.2717 Y36.3367 
G01 X103.2717 Y34.7833 
G01 X103.2891 Y34.7413 
G01 X103.3213 Y34.7091 
G01 X103.3633 Y34.6917 
G01 X104.9167 Y34.6917 
G01 X104.9587 Y34.7091 
G01 X104.9909 Y34.7413 
G01 X105.0083 Y34.7833 
G01 X105.0083 Y36.3367 
G01 X104.9909 Y36.3787 
G01 X104.9587 Y36.4109 
G01 X104.9167 Y36.4283 
G00 Z2.5400 
G00 X107.4567 Y36.4283 
G01 Z-0.1778 F2540.00 
G01 X105.9033 Y36.4283 F3000.00 
G01 X105.8613 Y36.4109 
G01 X105.8291 Y36.3787 
G01 X105.8117 Y36.3367 
G01 X105.8117 Y34.7833 
G01 X105.8291 Y34.7413 
G01 X105.8613 Y34.7091 
G01 X105.9033 Y34.6917 
G01 X107.4567 Y34.6917 
G01 X107.4987 Y34.7091 
G01 X107.5309 Y34.7413 
G01 X107.5483 Y34.7833 
G01 X107.5483 Y36.3367 
G01 X107.5309 Y36.3787 
G01 X107.4987 Y36.4109 
G01 X107.4567 Y36.4283 
G00 Z2.5400 
G00 X109.9967 Y36.4283 
G01 Z-0.1778 F2540.00 
G01 X108.4433 Y36.4283 F3000.00 
G01 X108.4013 Y36.4109 
G01 X108.3691 Y36.3787 
G01 X108.3517 Y36.3367 
G01 X108.3517 Y34.7833 
G01 X108.3691 Y34.7413 
G01 X108.4013 Y34.7091 
G01 X108.4433 Y34.6917 
G01 X109.9967 Y34.6917 
G01 X110.0387 Y34.7091 
G01 X110.0709 Y34.7413 
G01 X110.0883 Y34.7833 
G01 X110.0883 Y36.3367 
G01 X110.0709 Y36.3787 
G01 X110.0387 Y36.4109 
G01 X109.9967 Y36.4283 
G00 Z2.5400 
G00 X112.5367 Y36.4283 
G01 Z-0.1778 F2540.00 
G01 X110.9833 Y36.4283 F3000.00 
G01 X110.9413 Y36.4109 
G01 X110.9091 Y36.3787 
G01 X110.8917 Y36.3367 
G01 X110.8917 Y34.7833 
G01 X110.9091 Y34.7413 
G01 X110.9413 Y34.7091 
G01 X110.9833 Y34.6917 
G01 X112.5367 Y34.6917 
G01 X112.5787 Y34.7091 
G01 X112.6109 Y34.7413 
G01 X112.6283 Y34.7833 
G01 X112.6283 Y36.3367 
G01 X112.6109 Y36.3787 
G01 X112.5787 Y36.4109 
G01 X112.5367 Y36.4283 
G00 Z2.5400 
G00 X115.0767 Y36.4283 
G01 Z-0.1778 F2540.00 
G01 X113.5233 Y36.4283 F3000.00 
G01 X113.4813 Y36.4109 
G01 X113.4491 Y36.3787 
G01 X113.4317 Y36.3367 
G01 X113.4317 Y34.7833 
G01 X113.4491 Y34.7413 
G01 X113.4813 Y34.7091 
G01 X113.5233 Y34.6917 
G01 X115.0767 Y34.6917 
G01 X115.1187 Y34.7091 
G01 X115.1509 Y34.7413 
G01 X115.1683 Y34.7833 
G01 X115.1683 Y36.3367 
G01 X115.1509 Y36.3787 
G01 X115.1187 Y36.4109 
G01 X115.0767 Y36.4283 
G00 Z2.5400 
G00 X117.6167 Y36.4283 
G01 Z-0.1778 F2540.00 
G01 X116.0633 Y36.4283 F3000.00 
G01 X116.0213 Y36.4109 
G01 X115.9891 Y36.3787 
G01 X115.9717 Y36.3367 
G01 X115.9717 Y34.7833 
G01 X115.9891 Y34.7413 
G01 X116.0213 Y34.7091 
G01 X116.0633 Y34.6917 
G01 X117.6167 Y34.6917 
G01 X117.6587 Y34.7091 
G01 X117.6909 Y34.7413 
G01 X117.7083 Y34.7833 
G01 X117.7083 Y36.3367 
G01 X117.6909 Y36.3787 
G01 X117.6587 Y36.4109 
G01 X117.6167 Y36.4283 
G00 Z2.5400 
G00 X120.1567 Y36.4283 
G01 Z-0.1778 F2540.00 
G01 X118.6033 Y36.4283 F3000.00 
G01 X118.5613 Y36.4109 
G01 X118.5291 Y36.3787 
G01 X118.5117 Y36.3367 
G01 X118.5117 Y34.7833 
G01 X118.5291 Y34.7413 
G01 X118.5613 Y34.7091 
G01 X118.6033 Y34.6917 
G01 X120.1567 Y34.6917 
G01 X120.1987 Y34.7091 
G01 X120.2309 Y34.7413 
G01 X120.2483 Y34.7833 
G01 X120.2483 Y36.3367 
G01 X120.2309 Y36.3787 
G01 X120.1987 Y36.4109 
G01 X120.1567 Y36.4283 
G00 Z2.5400 
G00 X89.6767 Y36.4283 
G01 Z-0.1778 F2540.00 
G01 X88.1233 Y36.4283 F3000.00 
G01 X88.0813 Y36.4109 
G01 X88.0491 Y36.3787 
G01 X88.0317 Y36.3367 
G01 X88.0317 Y34.7833 
G01 X88.0491 Y34.7413 
G01 X88.0813 Y34.7091 
G01 X88.1233 Y34.6917 
G01 X89.6767 Y34.6917 
G01 X89.7187 Y34.7091 
G01 X89.7509 Y34.7413 
G01 X89.7683 Y34.7833 
G01 X89.7683 Y36.3367 
G01 X89.7509 Y36.3787 
G01 X89.7187 Y36.4109 
G01 X89.6767 Y36.4283 
G00 Z2.5400 
G00 X114.0450 Y77.3805 
G01 Z-0.1778 F2540.00 
G01 X114.2128 Y77.4071 F3000.00 
G01 X114.3744 Y77.4596 
G01 X114.3811 Y77.4630 
G01 X115.7605 Y76.6008 
G01 X115.7605 Y76.5750 
G01 X115.7871 Y76.4072 
G01 X115.8396 Y76.2456 
G01 X115.8504 Y76.2244 
G01 X114.9545 Y74.7395 
G01 X114.9450 Y74.7395 
G01 X114.7772 Y74.7129 
G01 X114.6156 Y74.6604 
G01 X114.6000 Y74.6525 
G01 X112.8395 Y75.7292 
G01 X112.8395 Y75.7450 
G01 X112.8129 Y75.9128 
G01 X112.7945 Y75.9694 
G01 X113.9032 Y77.3805 
G01 X114.0450 Y77.3805 
G00 Z2.5400 
G00 X118.1277 Y74.7328 
G01 Z-0.1778 F2540.00 
G01 X117.7596 Y74.5803 F3000.00 
G01 X117.7368 Y74.5747 
G01 X117.7249 Y74.5660 
G01 X117.7114 Y74.5603 
G01 X117.6947 Y74.5437 
G01 X117.6758 Y74.5297 
G01 X117.6682 Y74.5171 
G01 X117.6578 Y74.5067 
G01 X117.6488 Y74.4850 
G01 X117.3427 Y73.9776 
G01 X117.3323 Y73.9673 
G01 X117.3233 Y73.9455 
G01 X117.3111 Y73.9253 
G01 X117.3089 Y73.9108 
G01 X117.3033 Y73.8972 
G01 X117.3033 Y73.8737 
G01 X117.2998 Y73.8504 
G01 X117.3033 Y73.8361 
G01 X117.3033 Y73.2078 
G01 X116.9572 Y72.3723 
G01 X116.3177 Y71.7328 
G01 X115.4822 Y71.3867 
G01 X114.5778 Y71.3867 
G01 X113.7423 Y71.7328 
G01 X113.1028 Y72.3723 
G01 X112.9449 Y72.7534 
G01 X112.9396 Y72.7757 
G01 X112.9306 Y72.7881 
G01 X112.9247 Y72.8021 
G01 X112.9085 Y72.8184 
G01 X112.8950 Y72.8370 
G01 X112.8819 Y72.8449 
G01 X112.8711 Y72.8557 
G01 X112.8499 Y72.8645 
G01 X112.0612 Y73.3469 
G01 X112.0504 Y73.3577 
G01 X112.0292 Y73.3665 
G01 X112.0096 Y73.3785 
G01 X111.9945 Y73.3809 
G01 X111.9804 Y73.3867 
G01 X111.9574 Y73.3867 
G01 X111.9347 Y73.3903 
G01 X111.9199 Y73.3867 
G01 X111.3078 Y73.3867 
G01 X110.4723 Y73.7328 
G01 X109.8328 Y74.3723 
G01 X109.4867 Y75.2078 
G01 X109.4867 Y76.1122 
G01 X109.8328 Y76.9477 
G01 X110.4723 Y77.5872 
G01 X111.1319 Y77.8604 
G01 X111.1435 Y77.8618 
G01 X111.1666 Y77.8748 
G01 X111.1911 Y77.8849 
G01 X111.1994 Y77.8932 
G01 X111.2096 Y77.8990 
G01 X111.2259 Y77.9198 
G01 X111.2447 Y77.9385 
G01 X111.2491 Y77.9493 
G01 X111.6390 Y78.4455 
G01 X111.6577 Y78.4642 
G01 X111.6622 Y78.4750 
G01 X111.6694 Y78.4842 
G01 X111.6766 Y78.5097 
G01 X111.6867 Y78.5342 
G01 X111.6867 Y78.5459 
G01 X111.6899 Y78.5572 
G01 X111.6867 Y78.5835 
G01 X111.6867 Y78.9122 
G01 X112.0328 Y79.7477 
G01 X112.6723 Y80.3872 
G01 X113.5078 Y80.7333 
G01 X114.4122 Y80.7333 
G01 X115.2477 Y80.3872 
G01 X115.8872 Y79.7477 
G01 X116.0538 Y79.3456 
G01 X116.0587 Y79.3241 
G01 X116.0681 Y79.3109 
G01 X116.0743 Y79.2960 
G01 X116.0899 Y79.2804 
G01 X116.1027 Y79.2624 
G01 X116.1165 Y79.2538 
G01 X116.1279 Y79.2424 
G01 X116.1483 Y79.2340 
G01 X116.5646 Y78.9737 
G01 X116.5761 Y78.9623 
G01 X116.5964 Y78.9539 
G01 X116.6151 Y78.9422 
G01 X116.6311 Y78.9395 
G01 X116.6461 Y78.9333 
G01 X116.6681 Y78.9333 
G01 X116.6899 Y78.9297 
G01 X116.7057 Y78.9333 
G01 X117.2922 Y78.9333 
G01 X118.1277 Y78.5872 
G01 X118.7672 Y77.9477 
G01 X119.1133 Y77.1122 
G01 X119.1133 Y76.2078 
G01 X118.7672 Y75.3723 
G01 X118.1277 Y74.7328 
G00 Z2.5400 
G00 X115.0395 Y78.5450 
G01 Z-0.1778 F2540.00 
G01 X115.0129 Y78.7128 F3000.00 
G01 X114.9604 Y78.8744 
G01 X114.8833 Y79.0258 
G01 X114.7834 Y79.1632 
G01 X114.6632 Y79.2834 
G01 X114.5258 Y79.3833 
G01 X114.3744 Y79.4604 
G01 X114.2128 Y79.5129 
G01 X114.0450 Y79.5395 
G01 X113.8750 Y79.5395 
G01 X113.7072 Y79.5129 
G01 X113.5456 Y79.4604 
G01 X113.3942 Y79.3833 
G01 X113.2568 Y79.2834 
G01 X113.1366 Y79.1632 
G01 X113.0367 Y79.0258 
G01 X112.9596 Y78.8744 
G01 X112.9071 Y78.7128 
G01 X112.8805 Y78.5450 
G01 X112.8805 Y78.3750 
G01 X112.9071 Y78.2072 
G01 X112.9255 Y78.1506 
G01 X111.8168 Y76.7395 
G01 X111.6750 Y76.7395 
G01 X111.5072 Y76.7129 
G01 X111.3456 Y76.6604 
G01 X111.1942 Y76.5833 
G01 X111.0568 Y76.4834 
G01 X110.9366 Y76.3632 
G01 X110.8367 Y76.2258 
G01 X110.7596 Y76.0744 
G01 X110.7071 Y75.9128 
G01 X110.6805 Y75.7450 
G01 X110.6805 Y75.5750 
G01 X110.7071 Y75.4072 
G01 X110.7596 Y75.2456 
G01 X110.8367 Y75.0942 
G01 X110.9366 Y74.9568 
G01 X111.0568 Y74.8366 
G01 X111.1942 Y74.7367 
G01 X111.3456 Y74.6596 
G01 X111.5072 Y74.6071 
G01 X111.6750 Y74.5805 
G01 X111.8450 Y74.5805 
G01 X112.0128 Y74.6071 
G01 X112.1744 Y74.6596 
G01 X112.1900 Y74.6675 
G01 X113.9505 Y73.5908 
G01 X113.9505 Y73.5750 
G01 X113.9771 Y73.4072 
G01 X114.0296 Y73.2456 
G01 X114.1067 Y73.0942 
G01 X114.2066 Y72.9568 
G01 X114.3268 Y72.8366 
G01 X114.4642 Y72.7367 
G01 X114.6156 Y72.6596 
G01 X114.7772 Y72.6071 
G01 X114.9450 Y72.5805 
G01 X115.1150 Y72.5805 
G01 X115.2828 Y72.6071 
G01 X115.4444 Y72.6596 
G01 X115.5958 Y72.7367 
G01 X115.7332 Y72.8366 
G01 X115.8534 Y72.9568 
G01 X115.9533 Y73.0942 
G01 X116.0304 Y73.2456 
G01 X116.0829 Y73.4072 
G01 X116.1095 Y73.5750 
G01 X116.1095 Y73.7450 
G01 X116.0829 Y73.9128 
G01 X116.0304 Y74.0744 
G01 X116.0196 Y74.0956 
G01 X116.9155 Y75.5805 
G01 X116.9250 Y75.5805 
G01 X117.0928 Y75.6071 
G01 X117.2544 Y75.6596 
G01 X117.4058 Y75.7367 
G01 X117.5432 Y75.8366 
G01 X117.6634 Y75.9568 
G01 X117.7633 Y76.0942 
G01 X117.8404 Y76.2456 
G01 X117.8929 Y76.4072 
G01 X117.9195 Y76.5750 
G01 X117.9195 Y76.7450 
G01 X117.8929 Y76.9128 
G01 X117.8404 Y77.0744 
G01 X117.7633 Y77.2258 
G01 X117.6634 Y77.3632 
G01 X117.5432 Y77.4834 
G01 X117.4058 Y77.5833 
G01 X117.2544 Y77.6604 
G01 X117.0928 Y77.7129 
G01 X116.9250 Y77.7395 
G01 X116.7550 Y77.7395 
G01 X116.5872 Y77.7129 
G01 X116.4256 Y77.6604 
G01 X116.4189 Y77.6570 
G01 X115.0395 Y78.5192 
G01 X115.0395 Y78.5450 
G00 Z2.5400 
G00 X128.2018 Y60.5134 
G01 Z-0.1778 F2540.00 
G01 X128.0816 Y60.3932 F3000.00 
G01 X128.0358 Y60.3302 
G01 X98.6854 Y60.9292 
G01 X98.6134 Y61.0282 
G01 X98.4932 Y61.1484 
G01 X98.4342 Y61.1913 
G01 X99.1950 Y91.6266 
G01 X99.2982 Y91.7016 
G01 X99.4184 Y91.8218 
G01 X99.4683 Y91.8904 
G01 X129.9188 Y91.4651 
G01 X129.9866 Y91.3718 
G01 X130.1068 Y91.2516 
G01 X130.1369 Y91.2297 
G01 X128.3358 Y60.6108 
G01 X128.2018 Y60.5134 
G00 Z2.5400 
G00 X127.7919 Y75.5829 
G01 Z-0.1778 F2540.00 
G01 X127.7976 Y75.5826 F3000.00 
G01 X127.8030 Y75.5804 
G01 X127.8353 Y75.5804 
G01 X127.8675 Y75.5785 
G01 X127.8730 Y75.5804 
G01 X127.8788 Y75.5804 
G01 X127.9086 Y75.5927 
G01 X127.9391 Y75.6033 
G01 X127.9434 Y75.6071 
G01 X127.9488 Y75.6094 
G01 X127.9716 Y75.6322 
G01 X127.9957 Y75.6536 
G01 X127.9983 Y75.6588 
G01 X128.0024 Y75.6629 
G01 X128.0147 Y75.6928 
G01 X128.0288 Y75.7218 
G01 X128.0291 Y75.7276 
G01 X128.0314 Y75.7330 
G01 X128.0314 Y75.7652 
G01 X128.0809 Y76.6073 
G01 X128.0831 Y76.6127 
G01 X128.0831 Y76.6450 
G01 X128.0850 Y76.6772 
G01 X128.0831 Y76.6827 
G01 X128.0831 Y76.6885 
G01 X128.0707 Y76.7183 
G01 X128.0602 Y76.7488 
G01 X128.0563 Y76.7531 
G01 X128.0541 Y76.7585 
G01 X128.0313 Y76.7813 
G01 X128.0098 Y76.8055 
G01 X128.0046 Y76.8080 
G01 X128.0005 Y76.8121 
G01 X127.9707 Y76.8244 
G01 X127.9416 Y76.8385 
G01 X127.9358 Y76.8389 
G01 X127.9305 Y76.8411 
G01 X127.8982 Y76.8411 
G01 X127.8660 Y76.8430 
G01 X127.8605 Y76.8411 
G01 X127.8547 Y76.8411 
G01 X127.8249 Y76.8287 
G01 X127.7944 Y76.8181 
G01 X127.7901 Y76.8143 
G01 X127.3642 Y76.6379 
G01 X125.5538 Y76.6379 
G01 X125.4838 Y76.6089 
G01 X125.4302 Y76.5553 
G01 X125.4077 Y76.5328 
G01 X124.5722 Y76.1867 
G01 X123.6678 Y76.1867 
G01 X122.8323 Y76.5328 
G01 X122.1928 Y77.1723 
G01 X121.8467 Y78.0078 
G01 X121.8467 Y78.9122 
G01 X122.1928 Y79.7477 
G01 X122.8323 Y80.3872 
G01 X123.6678 Y80.7333 
G01 X124.5722 Y80.7333 
G01 X124.8113 Y80.6342 
G01 X124.8376 Y80.6234 
G01 X124.8813 Y80.6052 
G01 X124.9571 Y80.6052 
G01 X124.9991 Y80.6226 
G01 X125.0271 Y80.6342 
G01 X125.3358 Y80.7621 
G01 X127.3642 Y80.7621 
G01 X127.8450 Y80.5630 
G01 X127.9836 Y80.4243 
G01 X128.0051 Y80.4002 
G01 X128.0103 Y80.3976 
G01 X128.0144 Y80.3936 
G01 X128.0442 Y80.3812 
G01 X128.0733 Y80.3671 
G01 X128.0790 Y80.3668 
G01 X128.0844 Y80.3645 
G01 X128.1167 Y80.3645 
G01 X128.1489 Y80.3627 
G01 X128.1544 Y80.3645 
G01 X128.1602 Y80.3645 
G01 X128.1900 Y80.3769 
G01 X128.2205 Y80.3875 
G01 X128.2248 Y80.3913 
G01 X128.2302 Y80.3935 
G01 X128.2530 Y80.4164 
G01 X128.2772 Y80.4378 
G01 X128.2797 Y80.4430 
G01 X128.2838 Y80.4471 
G01 X128.2961 Y80.4770 
G01 X128.3102 Y80.5060 
G01 X128.3106 Y80.5118 
G01 X128.3128 Y80.5172 
G01 X128.3128 Y80.5494 
G01 X128.8718 Y90.0533 
G01 X128.8736 Y90.0574 
G01 X128.8741 Y90.0910 
G01 X128.8760 Y90.1245 
G01 X128.8746 Y90.1287 
G01 X128.8746 Y90.1331 
G01 X128.8622 Y90.1644 
G01 X128.8512 Y90.1961 
G01 X128.8483 Y90.1994 
G01 X128.8466 Y90.2036 
G01 X128.8232 Y90.2276 
G01 X128.8008 Y90.2528 
G01 X128.7969 Y90.2547 
G01 X128.7938 Y90.2579 
G01 X128.7629 Y90.2712 
G01 X128.7326 Y90.2859 
G01 X128.7282 Y90.2861 
G01 X128.7242 Y90.2879 
G01 X128.6906 Y90.2883 
G01 X128.6570 Y90.2903 
G01 X128.6528 Y90.2889 
G01 X118.4755 Y90.4310 
G01 X118.4375 Y90.4315 
G01 X118.4011 Y90.4321 
G01 X118.3984 Y90.4315 
G01 X118.3646 Y90.4176 
G01 X118.3306 Y90.4040 
G01 X118.3025 Y90.3767 
G01 X118.2763 Y90.3512 
G01 X118.2608 Y90.3152 
G01 X118.2463 Y90.2816 
G01 X118.2458 Y90.2789 
G01 X118.2458 Y90.2424 
G01 X118.2453 Y90.2058 
G01 X118.2458 Y90.2032 
G01 X118.2598 Y90.1694 
G01 X118.2733 Y90.1354 
G01 X118.3006 Y90.1073 
G01 X118.3261 Y90.0811 
G01 X118.6630 Y89.7450 
G01 X118.8621 Y89.2642 
G01 X118.8621 Y87.2358 
G01 X118.6630 Y86.7550 
G01 X118.2950 Y86.3870 
G01 X117.8142 Y86.1879 
G01 X115.7858 Y86.1879 
G01 X115.3050 Y86.3870 
G01 X114.9370 Y86.7550 
G01 X114.7379 Y87.2358 
G01 X114.7379 Y89.2642 
G01 X114.9370 Y89.7450 
G01 X115.3048 Y90.1127 
G01 X115.3304 Y90.1229 
G01 X115.3585 Y90.1503 
G01 X115.3848 Y90.1758 
G01 X115.4003 Y90.2118 
G01 X115.4147 Y90.2454 
G01 X115.4153 Y90.2480 
G01 X115.4153 Y90.2846 
G01 X115.4158 Y90.3211 
G01 X115.4153 Y90.3238 
G01 X115.4013 Y90.3575 
G01 X115.3878 Y90.3916 
G01 X115.3604 Y90.4197 
G01 X115.3349 Y90.4459 
G01 X115.2989 Y90.4614 
G01 X115.2653 Y90.4759 
G01 X115.2627 Y90.4764 
G01 X115.2262 Y90.4764 
G01 X113.3498 Y90.5026 
G01 X113.3119 Y90.5031 
G01 X113.2754 Y90.5037 
G01 X113.2728 Y90.5031 
G01 X113.2389 Y90.4891 
G01 X113.2050 Y90.4756 
G01 X113.1769 Y90.4483 
G01 X113.1507 Y90.4228 
G01 X113.1352 Y90.3868 
G01 X113.1207 Y90.3532 
G01 X113.1202 Y90.3505 
G01 X113.1202 Y90.3140 
G01 X113.1197 Y90.2774 
G01 X113.1202 Y90.2747 
G01 X113.1342 Y90.2409 
G01 X113.1477 Y90.2070 
G01 X113.1750 Y90.1789 
G01 X113.2005 Y90.1527 
G01 X113.2365 Y90.1372 
G01 X113.2701 Y90.1227 
G01 X113.2950 Y90.1129 
G01 X113.6630 Y89.7450 
G01 X113.8621 Y89.2642 
G01 X113.8621 Y87.2358 
G01 X113.7928 Y87.0686 
G01 X113.7788 Y87.0347 
G01 X113.7638 Y86.9985 
G01 X113.7638 Y86.9228 
G01 X113.7838 Y86.8745 
G01 X113.7928 Y86.8527 
G01 X114.0333 Y86.2722 
G01 X114.0333 Y85.3678 
G01 X113.6872 Y84.5323 
G01 X113.0477 Y83.8928 
G01 X112.2122 Y83.5467 
G01 X111.3078 Y83.5467 
G01 X110.4723 Y83.8928 
G01 X109.8328 Y84.5323 
G01 X109.4867 Y85.3678 
G01 X109.4867 Y86.2722 
G01 X109.7962 Y87.0193 
G01 X109.7962 Y87.0951 
G01 X109.7726 Y87.1521 
G01 X109.7672 Y87.1651 
G01 X109.7379 Y87.2358 
G01 X109.7379 Y89.2642 
G01 X109.9370 Y89.7450 
G01 X110.3050 Y90.1129 
G01 X110.4596 Y90.1770 
G01 X110.4935 Y90.1905 
G01 X110.5217 Y90.2178 
G01 X110.5479 Y90.2433 
G01 X110.5634 Y90.2793 
G01 X110.5779 Y90.3129 
G01 X110.5784 Y90.3156 
G01 X110.5784 Y90.3522 
G01 X110.5789 Y90.3887 
G01 X110.5784 Y90.3914 
G01 X110.5644 Y90.4252 
G01 X110.5509 Y90.4591 
G01 X110.5235 Y90.4872 
G01 X110.4981 Y90.5134 
G01 X110.4621 Y90.5289 
G01 X110.4285 Y90.5434 
G01 X110.4258 Y90.5440 
G01 X110.3893 Y90.5440 
G01 X100.5552 Y90.6813 
G01 X100.5183 Y90.6823 
G01 X100.4819 Y90.6683 
G01 X100.4475 Y90.6550 
G01 X100.4192 Y90.6281 
G01 X100.3926 Y90.6028 
G01 X100.3768 Y90.5671 
G01 X100.3619 Y90.5335 
G01 X100.3609 Y90.4946 
G01 X100.1089 Y80.4160 
G01 X100.1080 Y80.3782 
G01 X100.1071 Y80.3427 
G01 X100.1080 Y80.3379 
G01 X100.1216 Y80.3051 
G01 X100.1343 Y80.2720 
G01 X100.1370 Y80.2679 
G01 X100.1621 Y80.2428 
G01 X100.1866 Y80.2171 
G01 X100.1906 Y80.2143 
G01 X100.2234 Y80.2007 
G01 X100.2559 Y80.1863 
G01 X100.2606 Y80.1853 
G01 X100.2961 Y80.1853 
G01 X100.3316 Y80.1844 
G01 X100.3364 Y80.1853 
G01 X100.3692 Y80.1989 
G01 X100.4023 Y80.2117 
G01 X100.4064 Y80.2143 
G01 X100.4315 Y80.2395 
G01 X100.4572 Y80.2639 
G01 X100.7550 Y80.5630 
G01 X101.2358 Y80.7621 
G01 X103.2642 Y80.7621 
G01 X103.7450 Y80.5630 
G01 X104.1130 Y80.1950 
G01 X104.3121 Y79.7142 
G01 X104.3121 Y77.6858 
G01 X104.1130 Y77.2050 
G01 X103.7450 Y76.8370 
G01 X103.2642 Y76.6379 
G01 X101.2358 Y76.6379 
G01 X100.7550 Y76.8370 
G01 X100.3878 Y77.2042 
G01 X100.3812 Y77.2215 
G01 X100.3786 Y77.2255 
G01 X100.3534 Y77.2507 
G01 X100.3290 Y77.2764 
G01 X100.3250 Y77.2791 
G01 X100.2921 Y77.2927 
G01 X100.2597 Y77.3071 
G01 X100.2550 Y77.3081 
G01 X100.2194 Y77.3081 
G01 X100.1839 Y77.3090 
G01 X100.1792 Y77.3082 
G01 X100.1463 Y77.2945 
G01 X100.1132 Y77.2818 
G01 X100.1091 Y77.2792 
G01 X100.0840 Y77.2540 
G01 X100.0583 Y77.2296 
G01 X100.0556 Y77.2256 
G01 X100.0420 Y77.1928 
G01 X100.0275 Y77.1603 
G01 X100.0265 Y77.1556 
G01 X100.0265 Y77.1201 
G01 X99.9787 Y75.2046 
G01 X99.9777 Y75.1668 
G01 X99.9768 Y75.1313 
G01 X99.9777 Y75.1266 
G01 X99.9913 Y75.0937 
G01 X100.0041 Y75.0606 
G01 X100.0067 Y75.0565 
G01 X100.0319 Y75.0314 
G01 X100.0563 Y75.0057 
G01 X100.0603 Y75.0030 
G01 X100.0931 Y74.9894 
G01 X100.1256 Y74.9750 
G01 X100.1303 Y74.9740 
G01 X100.1658 Y74.9740 
G01 X100.2013 Y74.9731 
G01 X100.2061 Y74.9740 
G01 X100.2389 Y74.9876 
G01 X100.2720 Y75.0003 
G01 X100.2761 Y75.0030 
G01 X100.3013 Y75.0281 
G01 X100.3270 Y75.0525 
G01 X100.3297 Y75.0566 
G01 X100.3433 Y75.0894 
G01 X100.3577 Y75.1218 
G01 X100.3870 Y75.1950 
G01 X100.7550 Y75.5630 
G01 X101.2358 Y75.7621 
G01 X103.2642 Y75.7621 
G01 X103.5264 Y75.6535 
G01 X103.5551 Y75.6416 
G01 X103.5965 Y75.6245 
G01 X103.6722 Y75.6245 
G01 X103.7225 Y75.6453 
G01 X103.7423 Y75.6535 
G01 X104.4178 Y75.9333 
G01 X105.3222 Y75.9333 
G01 X106.1577 Y75.5872 
G01 X106.7972 Y74.9477 
G01 X107.1433 Y74.1122 
G01 X107.1433 Y73.2078 
G01 X106.7972 Y72.3723 
G01 X106.1577 Y71.7328 
G01 X105.3222 Y71.3867 
G01 X104.4178 Y71.3867 
G01 X103.6457 Y71.7065 
G01 X103.6302 Y71.7129 
G01 X103.5757 Y71.7355 
G01 X103.4999 Y71.7355 
G01 X103.4652 Y71.7211 
G01 X103.4299 Y71.7065 
G01 X103.2642 Y71.6379 
G01 X101.2358 Y71.6379 
G01 X100.7550 Y71.8370 
G01 X100.3870 Y72.2050 
G01 X100.2760 Y72.4730 
G01 X100.2633 Y72.5061 
G01 X100.2606 Y72.5102 
G01 X100.2355 Y72.5353 
G01 X100.2111 Y72.5610 
G01 X100.2071 Y72.5637 
G01 X100.1742 Y72.5773 
G01 X100.1418 Y72.5917 
G01 X100.1370 Y72.5928 
G01 X100.1015 Y72.5928 
G01 X100.0660 Y72.5936 
G01 X100.0613 Y72.5928 
G01 X100.0284 Y72.5791 
G01 X99.9953 Y72.5664 
G01 X99.9912 Y72.5637 
G01 X99.9661 Y72.5386 
G01 X99.9404 Y72.5142 
G01 X99.9377 Y72.5102 
G01 X99.9241 Y72.4773 
G01 X99.9097 Y72.4449 
G01 X99.9087 Y72.4401 
G01 X99.9087 Y72.4046 
G01 X99.6568 Y62.3322 
G01 X99.6559 Y62.2942 
G01 X99.6550 Y62.2569 
G01 X99.6688 Y62.2210 
G01 X99.6822 Y62.1862 
G01 X99.7088 Y62.1583 
G01 X99.7344 Y62.1313 
G01 X99.7696 Y62.1157 
G01 X99.8037 Y62.1006 
G01 X99.8421 Y62.0996 
G01 X99.8795 Y62.0987 
G01 X110.2761 Y61.8867 
G01 X110.3138 Y61.8859 
G01 X110.3498 Y61.8852 
G01 X110.3537 Y61.8859 
G01 X110.3869 Y61.8996 
G01 X110.4204 Y61.9127 
G01 X110.4237 Y61.9149 
G01 X110.4491 Y61.9403 
G01 X110.4751 Y61.9652 
G01 X110.4773 Y61.9685 
G01 X110.4911 Y62.0017 
G01 X110.5055 Y62.0346 
G01 X110.5063 Y62.0385 
G01 X110.5063 Y62.0744 
G01 X110.5070 Y62.1104 
G01 X110.5063 Y62.1143 
G01 X110.4925 Y62.1475 
G01 X110.4795 Y62.1810 
G01 X110.4773 Y62.1843 
G01 X110.4519 Y62.2097 
G01 X110.4270 Y62.2356 
G01 X110.4237 Y62.2379 
G01 X110.3905 Y62.2516 
G01 X110.3576 Y62.2661 
G01 X110.3050 Y62.2870 
G01 X109.9370 Y62.6550 
G01 X109.7379 Y63.1358 
G01 X109.7379 Y65.1642 
G01 X109.9370 Y65.6450 
G01 X110.3050 Y66.0130 
G01 X110.7858 Y66.2121 
G01 X112.8142 Y66.2121 
G01 X113.2950 Y66.0130 
G01 X113.6630 Y65.6450 
G01 X113.8621 Y65.1642 
G01 X113.8621 Y63.1358 
G01 X113.6630 Y62.6550 
G01 X113.2950 Y62.2870 
G01 X113.0737 Y62.1954 
G01 X113.0402 Y62.1823 
G01 X113.0369 Y62.1801 
G01 X113.0115 Y62.1547 
G01 X112.9855 Y62.1298 
G01 X112.9833 Y62.1266 
G01 X112.9696 Y62.0934 
G01 X112.9551 Y62.0604 
G01 X112.9543 Y62.0565 
G01 X112.9543 Y62.0206 
G01 X112.9536 Y61.9847 
G01 X112.9543 Y61.9808 
G01 X112.9681 Y61.9475 
G01 X112.9811 Y61.9141 
G01 X112.9833 Y61.9107 
G01 X113.0087 Y61.8853 
G01 X113.0336 Y61.8594 
G01 X113.0369 Y61.8572 
G01 X113.0701 Y61.8434 
G01 X113.1030 Y61.8290 
G01 X113.1069 Y61.8282 
G01 X113.1429 Y61.8282 
G01 X115.5352 Y61.7793 
G01 X115.5729 Y61.7786 
G01 X115.6089 Y61.7778 
G01 X115.6128 Y61.7786 
G01 X115.6460 Y61.7923 
G01 X115.6795 Y61.8054 
G01 X115.6828 Y61.8076 
G01 X115.7082 Y61.8330 
G01 X115.7342 Y61.8579 
G01 X115.7364 Y61.8611 
G01 X115.7502 Y61.8944 
G01 X115.7646 Y61.9273 
G01 X115.7654 Y61.9312 
G01 X115.7654 Y61.9671 
G01 X115.7661 Y62.0031 
G01 X115.7654 Y62.0070 
G01 X115.7517 Y62.0402 
G01 X115.7386 Y62.0736 
G01 X115.7364 Y62.0770 
G01 X115.7110 Y62.1024 
G01 X115.6861 Y62.1283 
G01 X115.6828 Y62.1306 
G01 X115.6496 Y62.1443 
G01 X115.6167 Y62.1587 
G01 X115.3050 Y62.2870 
G01 X114.9370 Y62.6550 
G01 X114.7379 Y63.1358 
G01 X114.7379 Y65.1642 
G01 X114.7906 Y65.2914 
G01 X114.8032 Y65.3219 
G01 X114.8196 Y65.3615 
G01 X114.8196 Y65.4372 
G01 X114.8010 Y65.4822 
G01 X114.7906 Y65.5073 
G01 X114.5667 Y66.0478 
G01 X114.5667 Y66.9522 
G01 X114.9128 Y67.7877 
G01 X115.5523 Y68.4272 
G01 X116.3878 Y68.7733 
G01 X117.2922 Y68.7733 
G01 X118.1277 Y68.4272 
G01 X118.7672 Y67.7877 
G01 X119.1133 Y66.9522 
G01 X119.1133 Y66.0478 
G01 X118.8494 Y65.4107 
G01 X118.8443 Y65.3985 
G01 X118.8204 Y65.3407 
G01 X118.8204 Y65.2649 
G01 X118.8418 Y65.2131 
G01 X118.8494 Y65.1949 
G01 X118.8621 Y65.1642 
G01 X118.8621 Y63.1358 
G01 X118.6630 Y62.6550 
G01 X118.2950 Y62.2870 
G01 X117.8389 Y62.0981 
G01 X117.8054 Y62.0851 
G01 X117.8021 Y62.0829 
G01 X117.7767 Y62.0575 
G01 X117.7508 Y62.0326 
G01 X117.7485 Y62.0293 
G01 X117.7348 Y61.9961 
G01 X117.7203 Y61.9632 
G01 X117.7195 Y61.9593 
G01 X117.7195 Y61.9234 
G01 X117.7188 Y61.8874 
G01 X117.7195 Y61.8835 
G01 X117.7333 Y61.8503 
G01 X117.7464 Y61.8168 
G01 X117.7485 Y61.8135 
G01 X117.7740 Y61.7881 
G01 X117.7988 Y61.7621 
G01 X117.8021 Y61.7599 
G01 X117.8353 Y61.7462 
G01 X117.8683 Y61.7317 
G01 X117.8721 Y61.7309 
G01 X117.9081 Y61.7309 
G01 X127.0077 Y61.5452 
G01 X127.0419 Y61.5432 
G01 X127.0455 Y61.5444 
G01 X127.0493 Y61.5443 
G01 X127.0812 Y61.5568 
G01 X127.1135 Y61.5680 
G01 X127.1163 Y61.5705 
G01 X127.1198 Y61.5719 
G01 X127.1445 Y61.5956 
G01 X127.1701 Y61.6184 
G01 X127.1718 Y61.6218 
G01 X127.1745 Y61.6244 
G01 X127.1883 Y61.6557 
G01 X127.2032 Y61.6866 
G01 X127.2034 Y61.6903 
G01 X127.2049 Y61.6938 
G01 X127.2056 Y61.7280 
G01 X127.7794 Y71.4825 
G01 X127.7816 Y71.4878 
G01 X127.7816 Y71.5201 
G01 X127.7835 Y71.5524 
G01 X127.7816 Y71.5578 
G01 X127.7816 Y71.5636 
G01 X127.7693 Y71.5934 
G01 X127.7587 Y71.6240 
G01 X127.7549 Y71.6283 
G01 X127.7526 Y71.6336 
G01 X127.7298 Y71.6564 
G01 X127.7084 Y71.6806 
G01 X127.7031 Y71.6831 
G01 X127.6991 Y71.6872 
G01 X127.6692 Y71.6996 
G01 X127.6402 Y71.7137 
G01 X127.6344 Y71.7140 
G01 X127.6290 Y71.7162 
G01 X127.5968 Y71.7162 
G01 X127.5645 Y71.7181 
G01 X127.5590 Y71.7162 
G01 X127.5533 Y71.7162 
G01 X127.5234 Y71.7039 
G01 X127.4929 Y71.6933 
G01 X127.4886 Y71.6894 
G01 X127.3642 Y71.6379 
G01 X125.3358 Y71.6379 
G01 X124.8550 Y71.8370 
G01 X124.4870 Y72.2050 
G01 X124.2879 Y72.6858 
G01 X124.2879 Y74.7142 
G01 X124.4870 Y75.1950 
G01 X124.8550 Y75.5630 
G01 X125.3358 Y75.7621 
G01 X127.3642 Y75.7621 
G01 X127.7628 Y75.5970 
G01 X127.7919 Y75.5829 
G00 Z2.5400 
G00 X112.6683 Y63.3733 
G01 Z-0.1778 F2540.00 
G01 X112.6683 Y64.9267 F3000.00 
G01 X112.6509 Y64.9687 
G01 X112.6187 Y65.0009 
G01 X112.5767 Y65.0183 
G01 X111.0233 Y65.0183 
G01 X110.9813 Y65.0009 
G01 X110.9491 Y64.9687 
G01 X110.9317 Y64.9267 
G01 X110.9317 Y63.3733 
G01 X110.9491 Y63.3313 
G01 X110.9813 Y63.2991 
G01 X111.0233 Y63.2817 
G01 X112.5767 Y63.2817 
G01 X112.6187 Y63.2991 
G01 X112.6509 Y63.3313 
G01 X112.6683 Y63.3733 
G00 Z2.5400 
G00 X127.1267 Y79.5683 
G01 Z-0.1778 F2540.00 
G01 X125.5733 Y79.5683 F3000.00 
G01 X125.5313 Y79.5509 
G01 X125.4991 Y79.5187 
G01 X125.4817 Y79.4767 
G01 X125.4817 Y79.2324 
G01 X124.9332 Y79.1734 
G01 X124.8232 Y79.2834 
G01 X124.6858 Y79.3833 
G01 X124.5344 Y79.4604 
G01 X124.3728 Y79.5129 
G01 X124.2050 Y79.5395 
G01 X124.0350 Y79.5395 
G01 X123.8672 Y79.5129 
G01 X123.7056 Y79.4604 
G01 X123.5542 Y79.3833 
G01 X123.4168 Y79.2834 
G01 X123.2966 Y79.1632 
G01 X123.1967 Y79.0258 
G01 X123.1196 Y78.8744 
G01 X123.0671 Y78.7128 
G01 X123.0405 Y78.5450 
G01 X123.0405 Y78.3750 
G01 X123.0671 Y78.2072 
G01 X123.1196 Y78.0456 
G01 X123.1967 Y77.8942 
G01 X123.2966 Y77.7568 
G01 X123.4168 Y77.6366 
G01 X123.5542 Y77.5367 
G01 X123.7056 Y77.4596 
G01 X123.8672 Y77.4071 
G01 X124.0350 Y77.3805 
G01 X124.2050 Y77.3805 
G01 X124.3728 Y77.4071 
G01 X124.5344 Y77.4596 
G01 X124.6858 Y77.5367 
G01 X124.8232 Y77.6366 
G01 X124.9434 Y77.7568 
G01 X125.0433 Y77.8942 
G01 X125.0644 Y77.9357 
G01 X125.4817 Y77.9807 
G01 X125.4817 Y77.9233 
G01 X125.4991 Y77.8813 
G01 X125.5313 Y77.8491 
G01 X125.5733 Y77.8317 
G01 X127.1267 Y77.8317 
G01 X127.1687 Y77.8491 
G01 X127.2009 Y77.8813 
G01 X127.2183 Y77.9233 
G01 X127.2183 Y79.4767 
G01 X127.2009 Y79.5187 
G01 X127.1687 Y79.5509 
G01 X127.1267 Y79.5683 
G00 Z2.5400 
G00 X127.1267 Y74.5683 
G01 Z-0.1778 F2540.00 
G01 X125.5733 Y74.5683 F3000.00 
G01 X125.5313 Y74.5509 
G01 X125.4991 Y74.5187 
G01 X125.4817 Y74.4767 
G01 X125.4817 Y72.9233 
G01 X125.4991 Y72.8813 
G01 X125.5313 Y72.8491 
G01 X125.5733 Y72.8317 
G01 X127.1267 Y72.8317 
G01 X127.1687 Y72.8491 
G01 X127.2009 Y72.8813 
G01 X127.2183 Y72.9233 
G01 X127.2183 Y74.4767 
G01 X127.2009 Y74.5187 
G01 X127.1687 Y74.5509 
G01 X127.1267 Y74.5683 
G00 Z2.5400 
G00 X101.4733 Y77.8317 
G01 Z-0.1778 F2540.00 
G01 X103.0267 Y77.8317 F3000.00 
G01 X103.0687 Y77.8491 
G01 X103.1009 Y77.8813 
G01 X103.1183 Y77.9233 
G01 X103.1183 Y79.4767 
G01 X103.1009 Y79.5187 
G01 X103.0687 Y79.5509 
G01 X103.0267 Y79.5683 
G01 X101.4733 Y79.5683 
G01 X101.4313 Y79.5509 
G01 X101.3991 Y79.5187 
G01 X101.3817 Y79.4767 
G01 X101.3817 Y77.9233 
G01 X101.3991 Y77.8813 
G01 X101.4313 Y77.8491 
G01 X101.4733 Y77.8317 
G00 Z2.5400 
G00 X110.9317 Y89.0267 
G01 Z-0.1778 F2540.00 
G01 X110.9317 Y87.4733 F3000.00 
G01 X110.9491 Y87.4313 
G01 X110.9813 Y87.3991 
G01 X111.0233 Y87.3817 
G01 X111.1633 Y87.3817 
G01 X111.1523 Y86.7128 
G01 X111.0568 Y86.6434 
G01 X110.9366 Y86.5232 
G01 X110.8367 Y86.3858 
G01 X110.7596 Y86.2344 
G01 X110.7071 Y86.0728 
G01 X110.6805 Y85.9050 
G01 X110.6805 Y85.7350 
G01 X110.7071 Y85.5672 
G01 X110.7596 Y85.4056 
G01 X110.8367 Y85.2542 
G01 X110.9366 Y85.1168 
G01 X111.0568 Y84.9966 
G01 X111.1942 Y84.8967 
G01 X111.3456 Y84.8196 
G01 X111.5072 Y84.7671 
G01 X111.6750 Y84.7405 
G01 X111.8450 Y84.7405 
G01 X112.0128 Y84.7671 
G01 X112.1744 Y84.8196 
G01 X112.3258 Y84.8967 
G01 X112.4632 Y84.9966 
G01 X112.5834 Y85.1168 
G01 X112.6833 Y85.2542 
G01 X112.7604 Y85.4056 
G01 X112.8129 Y85.5672 
G01 X112.8395 Y85.7350 
G01 X112.8395 Y85.9050 
G01 X112.8129 Y86.0728 
G01 X112.7604 Y86.2344 
G01 X112.6833 Y86.3858 
G01 X112.5834 Y86.5232 
G01 X112.4632 Y86.6434 
G01 X112.3967 Y86.6917 
G01 X112.4081 Y87.3817 
G01 X112.5767 Y87.3817 
G01 X112.6187 Y87.3991 
G01 X112.6509 Y87.4313 
G01 X112.6683 Y87.4733 
G01 X112.6683 Y89.0267 
G01 X112.6509 Y89.0687 
G01 X112.6187 Y89.1009 
G01 X112.5767 Y89.1183 
G01 X111.0233 Y89.1183 
G01 X110.9813 Y89.1009 
G01 X110.9491 Y89.0687 
G01 X110.9317 Y89.0267 
G00 Z2.5400 
G00 X115.9317 Y89.0267 
G01 Z-0.1778 F2540.00 
G01 X115.9317 Y87.4733 F3000.00 
G01 X115.9491 Y87.4313 
G01 X115.9813 Y87.3991 
G01 X116.0233 Y87.3817 
G01 X117.5767 Y87.3817 
G01 X117.6187 Y87.3991 
G01 X117.6509 Y87.4313 
G01 X117.6683 Y87.4733 
G01 X117.6683 Y89.0267 
G01 X117.6509 Y89.0687 
G01 X117.6187 Y89.1009 
G01 X117.5767 Y89.1183 
G01 X116.0233 Y89.1183 
G01 X115.9813 Y89.1009 
G01 X115.9491 Y89.0687 
G01 X115.9317 Y89.0267 
G00 Z2.5400 
G00 X105.9495 Y73.5750 
G01 Z-0.1778 F2540.00 
G01 X105.9495 Y73.7450 F3000.00 
G01 X105.9229 Y73.9128 
G01 X105.8704 Y74.0744 
G01 X105.7933 Y74.2258 
G01 X105.6934 Y74.3632 
G01 X105.5732 Y74.4834 
G01 X105.4358 Y74.5833 
G01 X105.2844 Y74.6604 
G01 X105.1228 Y74.7129 
G01 X104.9550 Y74.7395 
G01 X104.7850 Y74.7395 
G01 X104.6172 Y74.7129 
G01 X104.4556 Y74.6604 
G01 X104.3042 Y74.5833 
G01 X104.1668 Y74.4834 
G01 X104.0466 Y74.3632 
G01 X103.9975 Y74.2957 
G01 X103.1183 Y74.3091 
G01 X103.1183 Y74.4767 
G01 X103.1009 Y74.5187 
G01 X103.0687 Y74.5509 
G01 X103.0267 Y74.5683 
G01 X101.4733 Y74.5683 
G01 X101.4313 Y74.5509 
G01 X101.3991 Y74.5187 
G01 X101.3817 Y74.4767 
G01 X101.3817 Y72.9233 
G01 X101.3991 Y72.8813 
G01 X101.4313 Y72.8491 
G01 X101.4733 Y72.8317 
G01 X103.0267 Y72.8317 
G01 X103.0687 Y72.8491 
G01 X103.1009 Y72.8813 
G01 X103.1183 Y72.9233 
G01 X103.1183 Y73.0644 
G01 X103.9780 Y73.0513 
G01 X104.0466 Y72.9568 
G01 X104.1668 Y72.8366 
G01 X104.3042 Y72.7367 
G01 X104.4556 Y72.6596 
G01 X104.6172 Y72.6071 
G01 X104.7850 Y72.5805 
G01 X104.9550 Y72.5805 
G01 X105.1228 Y72.6071 
G01 X105.2844 Y72.6596 
G01 X105.4358 Y72.7367 
G01 X105.5732 Y72.8366 
G01 X105.6934 Y72.9568 
G01 X105.7933 Y73.0942 
G01 X105.8704 Y73.2456 
G01 X105.9229 Y73.4072 
G01 X105.9495 Y73.5750 
G00 Z2.5400 
G00 X117.9195 Y66.4150 
G01 Z-0.1778 F2540.00 
G01 X117.9195 Y66.5850 F3000.00 
G01 X117.8929 Y66.7528 
G01 X117.8404 Y66.9144 
G01 X117.7633 Y67.0658 
G01 X117.6634 Y67.2032 
G01 X117.5432 Y67.3234 
G01 X117.4058 Y67.4233 
G01 X117.2544 Y67.5004 
G01 X117.0928 Y67.5529 
G01 X116.9250 Y67.5795 
G01 X116.7550 Y67.5795 
G01 X116.5872 Y67.5529 
G01 X116.4256 Y67.5004 
G01 X116.2742 Y67.4233 
G01 X116.1368 Y67.3234 
G01 X116.0166 Y67.2032 
G01 X115.9167 Y67.0658 
G01 X115.8396 Y66.9144 
G01 X115.7871 Y66.7528 
G01 X115.7605 Y66.5850 
G01 X115.7605 Y66.4150 
G01 X115.7871 Y66.2472 
G01 X115.8396 Y66.0856 
G01 X115.9167 Y65.9342 
G01 X116.0166 Y65.7968 
G01 X116.1368 Y65.6766 
G01 X116.2028 Y65.6286 
G01 X116.1924 Y65.0183 
G01 X116.0233 Y65.0183 
G01 X115.9813 Y65.0009 
G01 X115.9491 Y64.9687 
G01 X115.9317 Y64.9267 
G01 X115.9317 Y63.3733 
G01 X115.9491 Y63.3313 
G01 X115.9813 Y63.2991 
G01 X116.0233 Y63.2817 
G01 X117.5767 Y63.2817 
G01 X117.6187 Y63.2991 
G01 X117.6509 Y63.3313 
G01 X117.6683 Y63.3733 
G01 X117.6683 Y64.9267 
G01 X117.6509 Y64.9687 
G01 X117.6187 Y65.0009 
G01 X117.5767 Y65.0183 
G01 X117.4372 Y65.0183 
G01 X117.4472 Y65.6068 
G01 X117.5432 Y65.6766 
G01 X117.6634 Y65.7968 
G01 X117.7633 Y65.9342 
G01 X117.8404 Y66.0856 
G01 X117.8929 Y66.2472 
G01 X117.9195 Y66.4150 
G00 Z2.5400 
G00 X132.5730 Y90.6258 
G01 Z-0.1778 F2540.00 
G01 X132.5705 Y90.6206 F3000.00 
G01 X132.5664 Y90.6165 
G01 X132.5541 Y90.5867 
G01 X132.5400 Y90.5576 
G01 X132.5396 Y90.5518 
G01 X132.5374 Y90.5465 
G01 X132.5374 Y90.5142 
G01 X132.2395 Y85.4498 
G01 X132.2373 Y85.4445 
G01 X132.2373 Y85.4122 
G01 X132.2354 Y85.3800 
G01 X132.2373 Y85.3745 
G01 X132.2373 Y85.3687 
G01 X132.2497 Y85.3389 
G01 X132.2603 Y85.3084 
G01 X132.2641 Y85.3040 
G01 X132.2663 Y85.2987 
G01 X132.2891 Y85.2759 
G01 X132.3106 Y85.2517 
G01 X132.3158 Y85.2492 
G01 X132.3199 Y85.2451 
G01 X132.3497 Y85.2327 
G01 X132.3788 Y85.2187 
G01 X132.3846 Y85.2183 
G01 X132.3899 Y85.2161 
G01 X132.4222 Y85.2161 
G01 X132.4544 Y85.2142 
G01 X132.4599 Y85.2161 
G01 X135.2182 Y85.2161 
G01 X135.6990 Y85.0170 
G01 X136.0670 Y84.6490 
G01 X136.2661 Y84.1682 
G01 X136.2661 Y80.4318 
G01 X136.0670 Y79.9510 
G01 X135.6990 Y79.5830 
G01 X135.2182 Y79.3839 
G01 X132.0679 Y79.3839 
G01 X132.0357 Y79.3858 
G01 X132.0302 Y79.3839 
G01 X132.0244 Y79.3839 
G01 X131.9946 Y79.3715 
G01 X131.9641 Y79.3610 
G01 X131.9598 Y79.3571 
G01 X131.9544 Y79.3549 
G01 X131.9316 Y79.3321 
G01 X131.9074 Y79.3106 
G01 X131.9049 Y79.3054 
G01 X131.9008 Y79.3013 
G01 X131.8885 Y79.2715 
G01 X131.8744 Y79.2424 
G01 X131.8740 Y79.2366 
G01 X131.8718 Y79.2313 
G01 X131.8718 Y79.1990 
G01 X131.5219 Y73.2498 
G01 X131.5197 Y73.2445 
G01 X131.5197 Y73.2122 
G01 X131.5178 Y73.1800 
G01 X131.5197 Y73.1745 
G01 X131.5197 Y73.1687 
G01 X131.5320 Y73.1389 
G01 X131.5426 Y73.1084 
G01 X131.5464 Y73.1040 
G01 X131.5487 Y73.0987 
G01 X131.5715 Y73.0759 
G01 X131.5930 Y73.0517 
G01 X131.5982 Y73.0492 
G01 X131.6022 Y73.0451 
G01 X131.6321 Y73.0327 
G01 X131.6611 Y73.0187 
G01 X131.6669 Y73.0183 
G01 X131.6723 Y73.0161 
G01 X131.7046 Y73.0161 
G01 X131.7368 Y73.0142 
G01 X131.7423 Y73.0161 
G01 X135.2182 Y73.0161 
G01 X135.6990 Y72.8170 
G01 X136.0670 Y72.4490 
G01 X136.2661 Y71.9682 
G01 X136.2661 Y68.2318 
G01 X136.0670 Y67.7510 
G01 X135.6990 Y67.3830 
G01 X135.2182 Y67.1839 
G01 X131.4818 Y67.1839 
G01 X131.4251 Y67.2074 
G01 X131.3961 Y67.2215 
G01 X131.3903 Y67.2218 
G01 X131.3849 Y67.2240 
G01 X131.3526 Y67.2240 
G01 X131.3204 Y67.2259 
G01 X131.3149 Y67.2240 
G01 X131.3091 Y67.2240 
G01 X131.2793 Y67.2117 
G01 X131.2488 Y67.2011 
G01 X131.2445 Y67.1972 
G01 X131.2391 Y67.1950 
G01 X131.2163 Y67.1722 
G01 X131.1922 Y67.1507 
G01 X131.1896 Y67.1455 
G01 X131.1855 Y67.1414 
G01 X131.1732 Y67.1116 
G01 X131.1591 Y67.0825 
G01 X131.1588 Y67.0768 
G01 X131.1565 Y67.0714 
G01 X131.1565 Y67.0391 
G01 X130.8084 Y61.1216 
G01 X130.8062 Y61.1162 
G01 X130.8062 Y61.0839 
G01 X130.8043 Y61.0517 
G01 X130.8062 Y61.0462 
G01 X130.8062 Y61.0404 
G01 X130.8186 Y61.0106 
G01 X130.8292 Y60.9801 
G01 X130.8330 Y60.9758 
G01 X131.1783 Y60.1422 
G01 X131.1783 Y59.2378 
G01 X130.8322 Y58.4023 
G01 X130.1927 Y57.7628 
G01 X129.3572 Y57.4167 
G01 X128.4528 Y57.4167 
G01 X127.6173 Y57.7628 
