(/home/lu/EAGLE/ulps/pcb-gcode.ulp)
(Copyright 2005 - 2012 by John Johnson)
(See readme.txt for licensing terms.)
(This file generated from the board:)
(.../midi_pad/midi_pad_laser_test.brd)
(Current profile is .../pcb-gcode-3_6_0_4/profiles/generic.pp  )
(This file generated 20.08.22 03:24)
(Settings from pcb-machine.h)
(  Tool Size)
(0.1778 )
(Z Axis Settings)
(  High     Up        Down     Drill)
(0.0000 	0.0000 	0.0000 	0.0000 )
(spindle on time = 3.0000)
(milling depth = 0.0000)
(text depth = 0.0000)
(tool change at 12.7000 15.2400 25.4000 )
(feed rate xy = F3000.00 )
(feed rate z  = F254000.00 )
(Settings from pcb-defaults.h)
(isolate min = 0.0127)
(isolate max = 0.2540)
(isolate step = 0.0635)
(Generated bottom outlines, )
(Unit of measure: mm)
(Metric Mode)
G21
(Absolute Coordinates)
G90
G00 X0.0000 Y0.0000 
M03
G04 P3.000000
G00 Z0.0000 
G00 X-46.3678 Y42.2488 
G01 Z0.0000 F254000.00 
G01 X-46.2515 Y42.3379 F3000.00 
G01 X-46.1479 Y42.4415 
G01 X-46.0588 Y42.5578 
G01 X-45.9928 Y42.6720 
G01 X-46.0515 Y42.6720 
G01 X-46.0776 Y42.6209 
G01 X-46.1763 Y42.4850 
G01 X-46.2950 Y42.3663 
G01 X-46.4309 Y42.2676 
G01 X-46.4820 Y42.2416 
G01 X-46.4820 Y42.1828 
G01 X-46.3678 Y42.2488 
G00 X-41.2622 Y17.4412 
G01 Z0.0000 F254000.00 
G01 X-41.3785 Y17.3521 F3000.00 
G01 X-41.4821 Y17.2485 
G01 X-41.5712 Y17.1322 
G01 X-41.6372 Y17.0180 
G01 X-41.5785 Y17.0180 
G01 X-41.5524 Y17.0691 
G01 X-41.4537 Y17.2050 
G01 X-41.3350 Y17.3237 
G01 X-41.1991 Y17.4224 
G01 X-41.1480 Y17.4485 
G01 X-41.1480 Y17.5072 
G01 X-41.2622 Y17.4412 
G00 X-39.7088 Y17.1322 
G01 Z0.0000 F254000.00 
G01 X-39.7979 Y17.2485 F3000.00 
G01 X-39.9015 Y17.3521 
G01 X-40.0178 Y17.4412 
G01 X-40.1320 Y17.5072 
G01 X-40.1320 Y17.4484 
G01 X-40.0809 Y17.4224 
G01 X-39.9450 Y17.3237 
G01 X-39.8263 Y17.2050 
G01 X-39.7276 Y17.0691 
G01 X-39.7015 Y17.0180 
G01 X-39.6428 Y17.0180 
G01 X-39.7088 Y17.1322 
G00 X-12.7128 Y15.5788 
G01 Z0.0000 F254000.00 
G01 X-12.5965 Y15.6679 F3000.00 
G01 X-12.4929 Y15.7715 
G01 X-12.4038 Y15.8878 
G01 X-12.3378 Y16.0020 
G01 X-12.3966 Y16.0020 
G01 X-12.4226 Y15.9509 
G01 X-12.5213 Y15.8150 
G01 X-12.6400 Y15.6963 
G01 X-12.7759 Y15.5976 
G01 X-12.8270 Y15.5716 
G01 X-12.8270 Y15.5128 
G01 X-12.7128 Y15.5788 
G00 X-47.9212 Y15.2528 
G01 Z0.0000 F254000.00 
G01 X-47.8321 Y15.1365 F3000.00 
G01 X-47.7285 Y15.0329 
G01 X-47.6122 Y14.9438 
G01 X-47.4980 Y14.8778 
G01 X-47.4980 Y14.9365 
G01 X-47.5491 Y14.9626 
G01 X-47.6850 Y15.0613 
G01 X-47.8037 Y15.1800 
G01 X-47.9024 Y15.3159 
G01 X-47.9284 Y15.3670 
G01 X-47.9872 Y15.3670 
G01 X-47.9212 Y15.2528 
G00 X-48.2472 Y50.4612 
G01 Z0.0000 F254000.00 
G01 X-48.3635 Y50.3721 F3000.00 
G01 X-48.4671 Y50.2685 
G01 X-48.5562 Y50.1522 
G01 X-48.6222 Y50.0380 
G01 X-48.5635 Y50.0380 
G01 X-48.5374 Y50.0891 
G01 X-48.4387 Y50.2250 
G01 X-48.3200 Y50.3437 
G01 X-48.1841 Y50.4424 
G01 X-48.1330 Y50.4685 
G01 X-48.1330 Y50.5272 
G01 X-48.2472 Y50.4612 
G00 X-13.4109 Y51.0774 
G01 Z0.0000 F254000.00 
G01 X-13.2750 Y50.9787 F3000.00 
G01 X-13.1563 Y50.8600 
G01 X-13.0576 Y50.7241 
G01 X-13.0315 Y50.6730 
G01 X-12.9728 Y50.6730 
G01 X-13.0388 Y50.7872 
G01 X-13.1279 Y50.9035 
G01 X-13.2315 Y51.0071 
G01 X-13.3478 Y51.0962 
G01 X-13.4620 Y51.1622 
G01 X-13.4620 Y51.1034 
G01 X-13.4109 Y51.0774 
G00 X-29.2088 Y35.9022 
G01 Z0.0000 F254000.00 
G01 X-29.2979 Y36.0185 F3000.00 
G01 X-29.4015 Y36.1221 
G01 X-29.5178 Y36.2112 
G01 X-29.6320 Y36.2772 
G01 X-29.6320 Y36.2184 
G01 X-29.5809 Y36.1924 
G01 X-29.4450 Y36.0937 
G01 X-29.3263 Y35.9750 
G01 X-29.2276 Y35.8391 
G01 X-29.2015 Y35.7880 
G01 X-29.1428 Y35.7880 
G01 X-29.2088 Y35.9022 
G00 X-30.9821 Y36.0185 
G01 Z0.0000 F254000.00 
G01 X-31.0712 Y35.9022 F3000.00 
G01 X-31.1372 Y35.7880 
G01 X-31.0785 Y35.7880 
G01 X-31.0524 Y35.8391 
G01 X-30.9537 Y35.9750 
G01 X-30.8350 Y36.0937 
G01 X-30.6991 Y36.1924 
G01 X-30.6480 Y36.2185 
G01 X-30.6480 Y36.2772 
G01 X-30.7622 Y36.2112 
G01 X-30.8785 Y36.1221 
G01 X-30.9821 Y36.0185 
G00 X-21.4212 Y48.7228 
G01 Z0.0000 F254000.00 
G01 X-21.3321 Y48.6065 F3000.00 
G01 X-21.2285 Y48.5029 
G01 X-21.1122 Y48.4138 
G01 X-20.9980 Y48.3478 
G01 X-20.9980 Y48.4065 
G01 X-21.0491 Y48.4326 
G01 X-21.1850 Y48.5313 
G01 X-21.3037 Y48.6500 
G01 X-21.4024 Y48.7859 
G01 X-21.4284 Y48.8370 
G01 X-21.4872 Y48.8370 
G01 X-21.4212 Y48.7228 
G00 X-46.4309 Y44.0924 
G01 Z0.0000 F254000.00 
G01 X-46.2950 Y43.9937 F3000.00 
G01 X-46.1763 Y43.8750 
G01 X-46.0776 Y43.7391 
G01 X-46.0515 Y43.6880 
G01 X-45.9928 Y43.6880 
G01 X-46.0588 Y43.8022 
G01 X-46.1479 Y43.9185 
G01 X-46.2515 Y44.0221 
G01 X-46.3678 Y44.1112 
G01 X-46.4820 Y44.1772 
G01 X-46.4820 Y44.1184 
G01 X-46.4309 Y44.0924 
G00 X-19.8678 Y48.4138 
G01 Z0.0000 F254000.00 
G01 X-19.7515 Y48.5029 F3000.00 
G01 X-19.6479 Y48.6065 
G01 X-19.5587 Y48.7228 
G01 X-19.4928 Y48.8370 
G01 X-19.5516 Y48.8370 
G01 X-19.5776 Y48.7859 
G01 X-19.6763 Y48.6500 
G01 X-19.7950 Y48.5313 
G01 X-19.9309 Y48.4326 
G01 X-19.9820 Y48.4066 
G01 X-19.9820 Y48.3478 
G01 X-19.8678 Y48.4138 
G00 X-14.8824 Y23.4191 
G01 Z0.0000 F254000.00 
G01 X-14.7837 Y23.5550 F3000.00 
G01 X-14.6650 Y23.6737 
G01 X-14.5291 Y23.7724 
G01 X-14.4780 Y23.7985 
G01 X-14.4780 Y23.8572 
G01 X-14.5922 Y23.7912 
G01 X-14.7085 Y23.7021 
G01 X-14.8121 Y23.5985 
G01 X-14.9012 Y23.4822 
G01 X-14.9672 Y23.3680 
G01 X-14.9085 Y23.3680 
G01 X-14.8824 Y23.4191 
G00 X-14.9012 Y22.2378 
G01 Z0.0000 F254000.00 
G01 X-14.8121 Y22.1215 F3000.00 
G01 X-14.7085 Y22.0179 
G01 X-14.5922 Y21.9288 
G01 X-14.4780 Y21.8628 
G01 X-14.4780 Y21.9215 
G01 X-14.5291 Y21.9476 
G01 X-14.6650 Y22.0463 
G01 X-14.7837 Y22.1650 
G01 X-14.8824 Y22.3009 
G01 X-14.9084 Y22.3520 
G01 X-14.9672 Y22.3520 
G01 X-14.9012 Y22.2378 
G00 X-27.0088 Y33.1022 
G01 Z0.0000 F254000.00 
G01 X-27.0979 Y33.2185 F3000.00 
G01 X-27.2015 Y33.3221 
G01 X-27.3178 Y33.4112 
G01 X-27.4320 Y33.4772 
G01 X-27.4320 Y33.4184 
G01 X-27.3809 Y33.3924 
G01 X-27.2450 Y33.2937 
G01 X-27.1263 Y33.1750 
G01 X-27.0276 Y33.0391 
G01 X-27.0015 Y32.9880 
G01 X-26.9428 Y32.9880 
G01 X-27.0088 Y33.1022 
G00 X-33.9324 Y34.0391 
G01 Z0.0000 F254000.00 
G01 X-33.8337 Y34.1750 F3000.00 
G01 X-33.7150 Y34.2937 
G01 X-33.5791 Y34.3924 
G01 X-33.5280 Y34.4184 
G01 X-33.5280 Y34.4772 
G01 X-33.6422 Y34.4112 
G01 X-33.7585 Y34.3221 
G01 X-33.8621 Y34.2185 
G01 X-33.9512 Y34.1022 
G01 X-34.0172 Y33.9880 
G01 X-33.9584 Y33.9880 
G01 X-33.9324 Y34.0391 
G00 X-33.9512 Y32.8578 
G01 Z0.0000 F254000.00 
G01 X-33.8621 Y32.7415 F3000.00 
G01 X-33.7585 Y32.6379 
G01 X-33.6422 Y32.5487 
G01 X-33.5280 Y32.4828 
G01 X-33.5280 Y32.5415 
G01 X-33.5791 Y32.5676 
G01 X-33.7150 Y32.6663 
G01 X-33.8337 Y32.7850 
G01 X-33.9324 Y32.9209 
G01 X-33.9584 Y32.9720 
G01 X-34.0172 Y32.9720 
G01 X-33.9512 Y32.8578 
G00 X-30.5878 Y29.5488 
G01 Z0.0000 F254000.00 
G01 X-30.4715 Y29.6379 F3000.00 
G01 X-30.3679 Y29.7415 
G01 X-30.2788 Y29.8578 
G01 X-30.2128 Y29.9720 
G01 X-30.2716 Y29.9720 
G01 X-30.2976 Y29.9209 
G01 X-30.3963 Y29.7850 
G01 X-30.5150 Y29.6663 
G01 X-30.6509 Y29.5676 
G01 X-30.7020 Y29.5416 
G01 X-30.7020 Y29.4828 
G01 X-30.5878 Y29.5488 
G00 X-31.7691 Y29.5676 
G01 Z0.0000 F254000.00 
G01 X-31.9050 Y29.6663 F3000.00 
G01 X-32.0237 Y29.7850 
G01 X-32.1224 Y29.9209 
G01 X-32.1484 Y29.9720 
G01 X-32.2072 Y29.9720 
G01 X-32.1412 Y29.8578 
G01 X-32.0521 Y29.7415 
G01 X-31.9485 Y29.6379 
G01 X-31.8322 Y29.5488 
G01 X-31.7180 Y29.4828 
G01 X-31.7180 Y29.5415 
G01 X-31.7691 Y29.5676 
G00 X-27.0979 Y31.7415 
G01 Z0.0000 F254000.00 
G01 X-27.0088 Y31.8578 F3000.00 
G01 X-26.9428 Y31.9720 
G01 X-27.0016 Y31.9720 
G01 X-27.0276 Y31.9209 
G01 X-27.1263 Y31.7850 
G01 X-27.2450 Y31.6663 
G01 X-27.3809 Y31.5676 
G01 X-27.4320 Y31.5416 
G01 X-27.4320 Y31.4828 
G01 X-27.3178 Y31.5488 
G01 X-27.2015 Y31.6379 
G01 X-27.0979 Y31.7415 
G00 X-36.0680 Y38.1669 
G01 Z0.0000 F254000.00 
G01 X-36.0334 Y38.2961 F3000.00 
G01 X-35.9665 Y38.4119 
G01 X-35.8719 Y38.5065 
G01 X-35.7561 Y38.5734 
G01 X-35.6269 Y38.6080 
G01 X-25.3331 Y38.6080 
G01 X-25.2039 Y38.5734 
G01 X-25.0881 Y38.5065 
G01 X-24.9935 Y38.4119 
G01 X-24.9266 Y38.2961 
G01 X-24.8920 Y38.1669 
G01 X-24.8920 Y27.8731 
G01 X-24.9266 Y27.7439 
G01 X-24.9935 Y27.6281 
G01 X-25.0881 Y27.5335 
G01 X-25.2039 Y27.4666 
G01 X-25.3331 Y27.4320 
G01 X-35.6269 Y27.4320 
G01 X-35.7561 Y27.4666 
G01 X-35.8719 Y27.5335 
G01 X-35.9665 Y27.6281 
G01 X-36.0334 Y27.7439 
G01 X-36.0680 Y27.8731 
G01 X-36.0680 Y28.0069 
G01 X-36.0680 Y38.1669 
G00 X-28.8356 Y20.1958 
G01 Z0.0000 F254000.00 
G01 X-28.8356 Y21.7442 F3000.00 
G01 X-28.8201 Y21.7815 
G01 X-28.7916 Y21.8101 
G01 X-28.7542 Y21.8256 
G01 X-27.2058 Y21.8256 
G01 X-27.1684 Y21.8101 
G01 X-27.1399 Y21.7815 
G01 X-27.1244 Y21.7442 
G01 X-27.1244 Y20.1958 
G01 X-27.1399 Y20.1584 
G01 X-27.1684 Y20.1299 
G01 X-27.2058 Y20.1144 
G01 X-28.7542 Y20.1144 
G01 X-28.7916 Y20.1299 
G01 X-28.8201 Y20.1584 
G01 X-28.8356 Y20.1958 
G00 X-31.3356 Y5.6958 
G01 Z0.0000 F254000.00 
G01 X-31.3356 Y7.2442 F3000.00 
G01 X-31.3201 Y7.2816 
G01 X-31.2916 Y7.3101 
G01 X-31.2542 Y7.3256 
G01 X-29.7058 Y7.3256 
G01 X-29.6684 Y7.3101 
G01 X-29.6399 Y7.2816 
G01 X-29.6244 Y7.2442 
G01 X-29.6244 Y5.6958 
G01 X-29.6399 Y5.6584 
G01 X-29.6684 Y5.6299 
G01 X-29.7058 Y5.6144 
G01 X-31.2542 Y5.6144 
G01 X-31.2916 Y5.6299 
G01 X-31.3201 Y5.6584 
G01 X-31.3356 Y5.6958 
G00 X-28.8356 Y5.6958 
G01 Z0.0000 F254000.00 
G01 X-28.8356 Y7.2442 F3000.00 
G01 X-28.8201 Y7.2816 
G01 X-28.7916 Y7.3101 
G01 X-28.7542 Y7.3256 
G01 X-27.2058 Y7.3256 
G01 X-27.1684 Y7.3101 
G01 X-27.1399 Y7.2816 
G01 X-27.1244 Y7.2442 
G01 X-27.1244 Y7.0777 
G01 X-14.2053 Y6.9671 
G01 X-14.1487 Y7.0450 
G01 X-14.0300 Y7.1637 
G01 X-13.8941 Y7.2624 
G01 X-13.7445 Y7.3386 
G01 X-13.5848 Y7.3905 
G01 X-13.4190 Y7.4168 
G01 X-13.2510 Y7.4168 
G01 X-13.0852 Y7.3905 
G01 X-12.9255 Y7.3386 
G01 X-12.7759 Y7.2624 
G01 X-12.6400 Y7.1637 
G01 X-12.5213 Y7.0450 
G01 X-12.4226 Y6.9091 
G01 X-12.3464 Y6.7595 
G01 X-12.2945 Y6.5998 
G01 X-12.2682 Y6.4340 
G01 X-12.2682 Y6.2660 
G01 X-12.2945 Y6.1002 
G01 X-12.3464 Y5.9405 
G01 X-12.4226 Y5.7909 
G01 X-12.5213 Y5.6550 
G01 X-12.6400 Y5.5363 
G01 X-12.7759 Y5.4376 
G01 X-12.9255 Y5.3614 
G01 X-13.0852 Y5.3095 
G01 X-13.2510 Y5.2832 
G01 X-13.4190 Y5.2832 
G01 X-13.5848 Y5.3095 
G01 X-13.7445 Y5.3614 
G01 X-13.8941 Y5.4376 
G01 X-14.0300 Y5.5363 
G01 X-14.1487 Y5.6550 
G01 X-14.2162 Y5.7479 
G01 X-27.1244 Y5.8585 
G01 X-27.1244 Y5.6958 
G01 X-27.1399 Y5.6584 
G01 X-27.1684 Y5.6299 
G01 X-27.2058 Y5.6144 
G01 X-28.7542 Y5.6144 
G01 X-28.7916 Y5.6299 
G01 X-28.8201 Y5.6584 
G01 X-28.8356 Y5.6958 
G00 X-51.1582 Y40.8296 
G01 Z0.0000 F254000.00 
G01 X-47.9018 Y40.8296 F3000.00 
G01 X-47.8644 Y40.8141 
G01 X-47.8359 Y40.7856 
G01 X-47.8204 Y40.7482 
G01 X-47.8204 Y37.4918 
G01 X-47.8359 Y37.4544 
G01 X-47.8644 Y37.4259 
G01 X-47.9018 Y37.4104 
G01 X-51.1582 Y37.4104 
G01 X-51.1956 Y37.4259 
G01 X-51.2241 Y37.4544 
G01 X-51.2396 Y37.4918 
G01 X-51.2396 Y40.7482 
G01 X-51.2241 Y40.7856 
G01 X-51.1956 Y40.8141 
G01 X-51.1582 Y40.8296 
G00 X-51.1582 Y28.6296 
G01 Z0.0000 F254000.00 
G01 X-47.9018 Y28.6296 F3000.00 
G01 X-47.8644 Y28.6141 
G01 X-47.8359 Y28.5856 
G01 X-47.8204 Y28.5482 
G01 X-47.8204 Y25.2918 
G01 X-47.8359 Y25.2544 
G01 X-47.8644 Y25.2259 
G01 X-47.9018 Y25.2104 
G01 X-51.1582 Y25.2104 
G01 X-51.1956 Y25.2259 
G01 X-51.2241 Y25.2544 
G01 X-51.2396 Y25.2918 
G01 X-51.2396 Y28.5482 
G01 X-51.2241 Y28.5856 
G01 X-51.1956 Y28.6141 
G01 X-51.1582 Y28.6296 
G00 X-17.6558 Y34.6644 
G01 Z0.0000 F254000.00 
G01 X-19.2042 Y34.6644 F3000.00 
G01 X-19.2416 Y34.6799 
G01 X-19.2701 Y34.7084 
G01 X-19.2856 Y34.7458 
G01 X-19.2856 Y36.2942 
G01 X-19.2701 Y36.3316 
G01 X-19.2416 Y36.3601 
G01 X-19.2042 Y36.3756 
G01 X-17.6558 Y36.3756 
G01 X-17.6184 Y36.3601 
G01 X-17.5899 Y36.3316 
G01 X-17.5744 Y36.2942 
G01 X-17.5744 Y34.7458 
G01 X-17.5899 Y34.7084 
G01 X-17.6184 Y34.6799 
G01 X-17.6558 Y34.6644 
G00 X-3.1558 Y32.1644 
G01 Z0.0000 F254000.00 
G01 X-4.7042 Y32.1644 F3000.00 
G01 X-4.7416 Y32.1799 
G01 X-4.7701 Y32.2084 
G01 X-4.7856 Y32.2458 
G01 X-4.7856 Y33.7942 
G01 X-4.7701 Y33.8316 
G01 X-4.7416 Y33.8601 
G01 X-4.7042 Y33.8756 
G01 X-3.1558 Y33.8756 
G01 X-3.1184 Y33.8601 
G01 X-3.0899 Y33.8316 
G01 X-3.0744 Y33.7942 
G01 X-3.0744 Y32.2458 
G01 X-3.0899 Y32.2084 
G01 X-3.1184 Y32.1799 
G01 X-3.1558 Y32.1644 
G00 X-22.6704 Y53.6982 
G01 Z0.0000 F254000.00 
G01 X-22.6704 Y50.4418 F3000.00 
G01 X-22.6859 Y50.4044 
G01 X-22.7144 Y50.3759 
G01 X-22.7518 Y50.3604 
G01 X-26.0082 Y50.3604 
G01 X-26.0456 Y50.3759 
G01 X-26.0741 Y50.4044 
G01 X-26.0896 Y50.4418 
G01 X-26.0896 Y53.6982 
G01 X-26.0741 Y53.7356 
G01 X-26.0456 Y53.7641 
G01 X-26.0082 Y53.7796 
G01 X-22.7518 Y53.7796 
G01 X-22.7144 Y53.7641 
G01 X-22.6859 Y53.7356 
G01 X-22.6704 Y53.6982 
G00 X-34.8704 Y53.6982 
G01 Z0.0000 F254000.00 
G01 X-34.8704 Y50.4418 F3000.00 
G01 X-34.8859 Y50.4044 
G01 X-34.9144 Y50.3759 
G01 X-34.9518 Y50.3604 
G01 X-38.2082 Y50.3604 
G01 X-38.2456 Y50.3759 
G01 X-38.2741 Y50.4044 
G01 X-38.2896 Y50.4418 
G01 X-38.2896 Y53.6982 
G01 X-38.2741 Y53.7356 
G01 X-38.2456 Y53.7641 
G01 X-38.2082 Y53.7796 
G01 X-34.9518 Y53.7796 
G01 X-34.9144 Y53.7641 
G01 X-34.8859 Y53.7356 
G01 X-34.8704 Y53.6982 
G00 X-13.4109 Y23.7724 
G01 Z0.0000 F254000.00 
G01 X-13.2750 Y23.6737 F3000.00 
G01 X-13.1563 Y23.5550 
G01 X-13.0576 Y23.4191 
G01 X-12.9814 Y23.2695 
G01 X-12.9295 Y23.1098 
G01 X-12.9032 Y22.9440 
G01 X-12.9032 Y22.7760 
G01 X-12.9295 Y22.6102 
G01 X-12.9814 Y22.4505 
G01 X-13.0576 Y22.3009 
G01 X-13.1563 Y22.1650 
G01 X-13.2750 Y22.0463 
G01 X-13.4109 Y21.9476 
G01 X-13.4620 Y21.9215 
G01 X-13.4620 Y20.2531 
G01 X-13.4966 Y20.1239 
G01 X-13.5635 Y20.0081 
G01 X-13.6581 Y19.9135 
G01 X-17.4681 Y16.1035 
G01 X-17.5839 Y16.0366 
G01 X-17.7131 Y16.0020 
G01 X-22.5329 Y16.0020 
G01 X-22.5663 Y15.9976 
G01 X-22.5995 Y16.0020 
G01 X-22.6331 Y16.0020 
G01 X-22.6622 Y16.0098 
G01 X-26.0978 Y16.0098 
G01 X-26.1269 Y16.0020 
G01 X-26.1605 Y16.0020 
G01 X-26.1937 Y15.9976 
G01 X-26.2271 Y16.0020 
G01 X-34.7329 Y16.0020 
G01 X-34.7662 Y15.9976 
G01 X-34.7995 Y16.0020 
G01 X-34.8331 Y16.0020 
G01 X-34.8622 Y16.0098 
G01 X-38.2978 Y16.0098 
G01 X-38.3269 Y16.0020 
G01 X-38.3605 Y16.0020 
G01 X-38.3937 Y15.9976 
G01 X-38.4271 Y16.0020 
G01 X-39.7015 Y16.0020 
G01 X-39.7276 Y15.9509 
G01 X-39.8263 Y15.8150 
G01 X-39.9450 Y15.6963 
G01 X-40.0809 Y15.5976 
G01 X-40.2305 Y15.5214 
G01 X-40.3902 Y15.4695 
G01 X-40.5560 Y15.4432 
G01 X-40.7240 Y15.4432 
G01 X-40.8898 Y15.4695 
G01 X-41.0495 Y15.5214 
G01 X-41.1991 Y15.5976 
G01 X-41.3350 Y15.6963 
G01 X-41.4537 Y15.8150 
G01 X-41.5524 Y15.9509 
G01 X-41.5785 Y16.0020 
G01 X-43.2469 Y16.0020 
G01 X-43.3761 Y16.0366 
G01 X-43.4919 Y16.1035 
G01 X-43.5865 Y16.1981 
G01 X-47.3965 Y20.0081 
G01 X-47.4634 Y20.1239 
G01 X-47.4980 Y20.2531 
G01 X-47.4980 Y25.0730 
G01 X-47.5024 Y25.1063 
G01 X-47.4980 Y25.1396 
G01 X-47.4980 Y25.1731 
G01 X-47.4902 Y25.2022 
G01 X-47.4902 Y28.6378 
G01 X-47.4980 Y28.6669 
G01 X-47.4980 Y28.7004 
G01 X-47.5024 Y28.7337 
G01 X-47.4980 Y28.7670 
G01 X-47.4980 Y37.2730 
G01 X-47.5024 Y37.3063 
G01 X-47.4980 Y37.3396 
G01 X-47.4980 Y37.3731 
G01 X-47.4902 Y37.4022 
G01 X-47.4902 Y40.8378 
G01 X-47.4980 Y40.8669 
G01 X-47.4980 Y40.9004 
G01 X-47.5024 Y40.9337 
G01 X-47.4980 Y40.9670 
G01 X-47.4980 Y42.2415 
G01 X-47.5491 Y42.2676 
G01 X-47.6850 Y42.3663 
G01 X-47.8037 Y42.4850 
G01 X-47.9024 Y42.6209 
G01 X-47.9786 Y42.7705 
G01 X-48.0305 Y42.9302 
G01 X-48.0568 Y43.0960 
G01 X-48.0568 Y43.2640 
G01 X-48.0305 Y43.4298 
G01 X-47.9786 Y43.5895 
G01 X-47.9024 Y43.7391 
G01 X-47.8037 Y43.8750 
G01 X-47.6850 Y43.9937 
G01 X-47.5491 Y44.0924 
G01 X-47.4980 Y44.1185 
G01 X-47.4980 Y45.7869 
G01 X-47.4634 Y45.9161 
G01 X-47.3965 Y46.0319 
G01 X-47.3019 Y46.1265 
G01 X-43.4919 Y49.9365 
G01 X-43.3761 Y50.0034 
G01 X-43.2469 Y50.0380 
G01 X-38.4270 Y50.0380 
G01 X-38.3937 Y50.0424 
G01 X-38.3604 Y50.0380 
G01 X-38.3269 Y50.0380 
G01 X-38.2978 Y50.0302 
G01 X-34.8622 Y50.0302 
G01 X-34.8331 Y50.0380 
G01 X-34.7996 Y50.0380 
G01 X-34.7663 Y50.0424 
G01 X-34.7330 Y50.0380 
G01 X-26.2270 Y50.0380 
G01 X-26.1937 Y50.0424 
G01 X-26.1604 Y50.0380 
G01 X-26.1269 Y50.0380 
G01 X-26.0978 Y50.0302 
G01 X-22.6622 Y50.0302 
G01 X-22.6331 Y50.0380 
G01 X-22.5996 Y50.0380 
G01 X-22.5663 Y50.0424 
G01 X-22.5330 Y50.0380 
G01 X-22.1386 Y50.0380 
G01 X-22.1052 Y50.0424 
G01 X-22.0720 Y50.0380 
G01 X-22.0384 Y50.0380 
G01 X-22.0059 Y50.0293 
G01 X-21.9726 Y50.0249 
G01 X-21.9416 Y50.0121 
G01 X-21.9092 Y50.0034 
G01 X-21.8801 Y49.9866 
G01 X-21.8491 Y49.9737 
G01 X-21.8224 Y49.9533 
G01 X-21.7933 Y49.9365 
G01 X-21.7696 Y49.9127 
G01 X-21.7429 Y49.8923 
G01 X-21.7225 Y49.8657 
G01 X-21.7099 Y49.8530 
G01 X-21.4285 Y49.8530 
G01 X-21.4024 Y49.9041 
G01 X-21.3037 Y50.0400 
G01 X-21.1850 Y50.1587 
G01 X-21.0491 Y50.2574 
G01 X-20.8995 Y50.3336 
G01 X-20.7398 Y50.3855 
G01 X-20.5740 Y50.4118 
G01 X-20.4060 Y50.4118 
G01 X-20.2402 Y50.3855 
G01 X-20.0805 Y50.3336 
G01 X-19.9309 Y50.2574 
G01 X-19.7950 Y50.1587 
G01 X-19.6763 Y50.0400 
G01 X-19.5776 Y49.9041 
G01 X-19.5515 Y49.8530 
G01 X-19.2701 Y49.8530 
G01 X-19.2575 Y49.8657 
G01 X-19.2370 Y49.8923 
G01 X-19.2104 Y49.9127 
G01 X-19.1867 Y49.9365 
G01 X-19.1576 Y49.9533 
G01 X-19.1309 Y49.9737 
G01 X-19.0999 Y49.9866 
G01 X-19.0708 Y50.0034 
G01 X-19.0384 Y50.0121 
G01 X-19.0074 Y50.0249 
G01 X-18.9741 Y50.0293 
G01 X-18.9416 Y50.0380 
G01 X-18.9080 Y50.0380 
G01 X-18.8748 Y50.0424 
G01 X-18.8414 Y50.0380 
G01 X-17.7131 Y50.0380 
G01 X-17.5839 Y50.0034 
G01 X-17.4681 Y49.9365 
G01 X-17.3735 Y49.8419 
G01 X-13.5635 Y46.0319 
G01 X-13.4966 Y45.9161 
G01 X-13.4620 Y45.7869 
G01 X-13.4620 Y45.6531 
G01 X-13.4966 Y45.5239 
G01 X-13.5635 Y45.4081 
G01 X-13.6581 Y45.3135 
G01 X-13.7739 Y45.2466 
G01 X-13.9031 Y45.2120 
G01 X-17.2119 Y45.2120 
G01 X-17.3411 Y45.2466 
G01 X-17.4569 Y45.3135 
G01 X-17.5515 Y45.4081 
G01 X-18.6254 Y46.4820 
G01 X-41.6996 Y46.4820 
G01 X-43.9420 Y44.2396 
G01 X-43.9420 Y21.8004 
G01 X-41.6996 Y19.5580 
G01 X-19.2604 Y19.5580 
G01 X-17.0180 Y21.8004 
G01 X-17.0180 Y44.5169 
G01 X-16.9834 Y44.6461 
G01 X-16.9165 Y44.7619 
G01 X-16.8219 Y44.8565 
G01 X-16.7061 Y44.9234 
G01 X-16.5769 Y44.9580 
G01 X-13.9031 Y44.9580 
G01 X-13.7739 Y44.9234 
G01 X-13.6581 Y44.8565 
G01 X-13.5635 Y44.7619 
G01 X-13.4966 Y44.6461 
G01 X-13.4620 Y44.5169 
G01 X-13.4620 Y40.9671 
G01 X-13.4576 Y40.9338 
G01 X-13.4620 Y40.9005 
G01 X-13.4620 Y40.8669 
G01 X-13.4698 Y40.8378 
G01 X-13.4698 Y37.4022 
G01 X-13.4620 Y37.3731 
G01 X-13.4620 Y37.3395 
G01 X-13.4576 Y37.3062 
G01 X-13.4620 Y37.2729 
G01 X-13.4620 Y28.7671 
G01 X-13.4576 Y28.7338 
G01 X-13.4620 Y28.7005 
G01 X-13.4620 Y28.6669 
G01 X-13.4698 Y28.6378 
G01 X-13.4698 Y25.2022 
G01 X-13.4620 Y25.1731 
G01 X-13.4620 Y25.1395 
G01 X-13.4576 Y25.1062 
G01 X-13.4620 Y25.0729 
G01 X-13.4620 Y23.7985 
G01 X-13.4109 Y23.7724 
G00 X-4.8768 Y22.7760 
G01 Z0.0000 F254000.00 
G01 X-4.8768 Y22.9440 F3000.00 
G01 X-4.8505 Y23.1098 
G01 X-4.7986 Y23.2695 
G01 X-4.7224 Y23.4191 
G01 X-4.6237 Y23.5550 
G01 X-4.5050 Y23.6737 
G01 X-4.3691 Y23.7724 
G01 X-4.3599 Y23.7771 
G01 X-4.4350 Y25.4419 
G01 X-4.4380 Y25.4531 
G01 X-4.4380 Y25.5086 
G01 X-4.4405 Y25.5639 
G01 X-4.4380 Y25.5753 
G01 X-4.4380 Y29.6644 
G01 X-4.7042 Y29.6644 
G01 X-4.7416 Y29.6799 
G01 X-4.7701 Y29.7084 
G01 X-4.7856 Y29.7458 
G01 X-4.7856 Y31.2942 
G01 X-4.7701 Y31.3316 
G01 X-4.7416 Y31.3601 
G01 X-4.7042 Y31.3756 
G01 X-3.1558 Y31.3756 
G01 X-3.1184 Y31.3601 
G01 X-3.0899 Y31.3316 
G01 X-3.0744 Y31.2942 
G01 X-3.0744 Y29.7458 
G01 X-3.0899 Y29.7084 
G01 X-3.1184 Y29.6799 
G01 X-3.1558 Y29.6644 
G01 X-3.4220 Y29.6644 
G01 X-3.4220 Y25.5314 
G01 X-3.3448 Y23.8203 
G01 X-3.2509 Y23.7724 
G01 X-3.1150 Y23.6737 
G01 X-2.9963 Y23.5550 
G01 X-2.8976 Y23.4191 
G01 X-2.8214 Y23.2695 
G01 X-2.7695 Y23.1098 
G01 X-2.7432 Y22.9440 
G01 X-2.7432 Y22.7760 
G01 X-2.7695 Y22.6102 
G01 X-2.8214 Y22.4505 
G01 X-2.8976 Y22.3009 
G01 X-2.9963 Y22.1650 
G01 X-3.1150 Y22.0463 
G01 X-3.2509 Y21.9476 
G01 X-3.4005 Y21.8714 
G01 X-3.5602 Y21.8195 
G01 X-3.7260 Y21.7932 
G01 X-3.8940 Y21.7932 
G01 X-4.0598 Y21.8195 
G01 X-4.2195 Y21.8714 
G01 X-4.3691 Y21.9476 
G01 X-4.5050 Y22.0463 
G01 X-4.6237 Y22.1650 
G01 X-4.7224 Y22.3009 
G01 X-4.7986 Y22.4505 
G01 X-4.8505 Y22.6102 
G01 X-4.8768 Y22.7760 
G00 X-4.8768 Y50.0810 
G01 Z0.0000 F254000.00 
G01 X-4.8768 Y50.2490 F3000.00 
G01 X-4.8505 Y50.4148 
G01 X-4.7986 Y50.5745 
G01 X-4.7224 Y50.7241 
G01 X-4.6237 Y50.8600 
G01 X-4.5050 Y50.9787 
G01 X-4.3691 Y51.0774 
G01 X-4.2195 Y51.1536 
G01 X-4.0598 Y51.2055 
G01 X-3.8940 Y51.2318 
G01 X-3.7260 Y51.2318 
G01 X-3.5602 Y51.2055 
G01 X-3.4005 Y51.1536 
G01 X-3.2509 Y51.0774 
G01 X-3.1150 Y50.9787 
G01 X-2.9963 Y50.8600 
G01 X-2.8976 Y50.7241 
G01 X-2.8214 Y50.5745 
G01 X-2.7695 Y50.4148 
G01 X-2.7432 Y50.2490 
G01 X-2.7432 Y50.0810 
G01 X-2.7695 Y49.9152 
G01 X-2.8214 Y49.7555 
G01 X-2.8976 Y49.6059 
G01 X-2.9963 Y49.4700 
G01 X-3.1150 Y49.3513 
G01 X-3.2076 Y49.2840 
G01 X-3.3134 Y36.3756 
G01 X-3.1558 Y36.3756 
G01 X-3.1184 Y36.3601 
G01 X-3.0899 Y36.3316 
G01 X-3.0744 Y36.2942 
G01 X-3.0744 Y34.7458 
G01 X-3.0899 Y34.7084 
G01 X-3.1184 Y34.6799 
G01 X-3.1558 Y34.6644 
G01 X-4.7042 Y34.6644 
G01 X-4.7416 Y34.6799 
G01 X-4.7701 Y34.7084 
G01 X-4.7856 Y34.7458 
G01 X-4.7856 Y36.2942 
G01 X-4.7701 Y36.3316 
G01 X-4.7416 Y36.3601 
G01 X-4.7042 Y36.3756 
G01 X-4.5326 Y36.3756 
G01 X-4.4268 Y49.2945 
G01 X-4.5050 Y49.3513 
G01 X-4.6237 Y49.4700 
G01 X-4.7224 Y49.6059 
G01 X-4.7986 Y49.7555 
G01 X-4.8505 Y49.9152 
G01 X-4.8768 Y50.0810 
G00 X-29.3116 Y41.8898 
G01 Z0.0000 F254000.00 
G01 X-29.3116 Y45.7402 F3000.00 
G01 X-29.2961 Y45.7776 
G01 X-29.2675 Y45.8061 
G01 X-29.2302 Y45.8216 
G01 X-28.8356 Y45.8216 
G01 X-28.8356 Y45.8442 
G01 X-28.8201 Y45.8816 
G01 X-28.7916 Y45.9101 
G01 X-28.7542 Y45.9256 
G01 X-27.2058 Y45.9256 
G01 X-27.1684 Y45.9101 
G01 X-27.1399 Y45.8816 
G01 X-27.1244 Y45.8442 
G01 X-27.1244 Y45.8216 
G01 X-26.6498 Y45.8216 
G01 X-26.6124 Y45.8061 
G01 X-26.5839 Y45.7776 
G01 X-26.5684 Y45.7402 
G01 X-26.5684 Y41.8898 
G01 X-26.5839 Y41.8524 
G01 X-26.6124 Y41.8239 
G01 X-26.6498 Y41.8084 
G01 X-27.2697 Y41.8084 
G01 X-27.3809 Y41.7276 
G01 X-27.5305 Y41.6514 
G01 X-27.6902 Y41.5995 
G01 X-27.8560 Y41.5732 
G01 X-28.0240 Y41.5732 
G01 X-28.1898 Y41.5995 
G01 X-28.3495 Y41.6514 
G01 X-28.4991 Y41.7276 
G01 X-28.6103 Y41.8084 
G01 X-29.2302 Y41.8084 
G01 X-29.2675 Y41.8239 
G01 X-29.2961 Y41.8524 
G01 X-29.3116 Y41.8898 
G00 X-43.2816 Y34.2698 
G01 Z0.0000 F254000.00 
G01 X-43.2816 Y34.6644 F3000.00 
G01 X-43.3042 Y34.6644 
G01 X-43.3416 Y34.6799 
G01 X-43.3701 Y34.7084 
G01 X-43.3856 Y34.7458 
G01 X-43.3856 Y36.2942 
G01 X-43.3701 Y36.3316 
G01 X-43.3416 Y36.3601 
G01 X-43.3042 Y36.3756 
G01 X-43.2816 Y36.3756 
G01 X-43.2816 Y36.8502 
G01 X-43.2661 Y36.8876 
G01 X-43.2375 Y36.9161 
G01 X-43.2002 Y36.9316 
G01 X-39.3498 Y36.9316 
G01 X-39.3124 Y36.9161 
G01 X-39.2839 Y36.8876 
G01 X-39.2684 Y36.8502 
G01 X-39.2684 Y35.5573 
G01 X-39.2595 Y35.5298 
G01 X-39.2332 Y35.3640 
G01 X-39.2332 Y35.1960 
G01 X-39.2595 Y35.0302 
G01 X-39.2684 Y35.0027 
G01 X-39.2684 Y34.2698 
G01 X-39.2839 Y34.2324 
G01 X-39.3124 Y34.2039 
G01 X-39.3498 Y34.1884 
G01 X-43.2002 Y34.1884 
G01 X-43.2375 Y34.2039 
G01 X-43.2661 Y34.2324 
G01 X-43.2816 Y34.2698 
G00 X-21.6916 Y29.1898 
G01 Z0.0000 F254000.00 
G01 X-21.6916 Y29.6275 F3000.00 
G01 X-21.7450 Y29.6663 
G01 X-21.8637 Y29.7850 
G01 X-21.9624 Y29.9209 
G01 X-22.0386 Y30.0705 
G01 X-22.0905 Y30.2302 
G01 X-22.1168 Y30.3960 
G01 X-22.1168 Y30.5640 
G01 X-22.0905 Y30.7298 
G01 X-22.0386 Y30.8895 
G01 X-21.9624 Y31.0391 
G01 X-21.8637 Y31.1750 
G01 X-21.7450 Y31.2937 
G01 X-21.6916 Y31.3325 
G01 X-21.6916 Y31.7702 
G01 X-21.6761 Y31.8076 
G01 X-21.6476 Y31.8361 
G01 X-21.6102 Y31.8516 
G01 X-17.7598 Y31.8516 
G01 X-17.7224 Y31.8361 
G01 X-17.6939 Y31.8076 
G01 X-17.6784 Y31.7702 
G01 X-17.6784 Y31.3756 
G01 X-17.6558 Y31.3756 
G01 X-17.6184 Y31.3601 
G01 X-17.5899 Y31.3316 
G01 X-17.5744 Y31.2942 
G01 X-17.5744 Y29.7458 
G01 X-17.5899 Y29.7084 
G01 X-17.6184 Y29.6799 
G01 X-17.6558 Y29.6644 
G01 X-17.6784 Y29.6644 
G01 X-17.6784 Y29.1898 
G01 X-17.6939 Y29.1524 
G01 X-17.7224 Y29.1239 
G01 X-17.7598 Y29.1084 
G01 X-21.6102 Y29.1084 
G01 X-21.6476 Y29.1239 
G01 X-21.6761 Y29.1524 
G01 X-21.6916 Y29.1898 
G00 X-34.3916 Y20.2998 
G01 Z0.0000 F254000.00 
G01 X-34.3916 Y24.1502 F3000.00 
G01 X-34.3761 Y24.1876 
G01 X-34.3475 Y24.2161 
G01 X-34.3102 Y24.2316 
G01 X-33.5802 Y24.2316 
G01 X-33.4295 Y24.3086 
G01 X-33.2698 Y24.3605 
G01 X-33.1040 Y24.3868 
G01 X-32.9360 Y24.3868 
G01 X-32.7702 Y24.3605 
G01 X-32.6105 Y24.3086 
G01 X-32.4609 Y24.2324 
G01 X-31.7298 Y24.2316 
G01 X-31.6924 Y24.2161 
G01 X-31.6639 Y24.1876 
G01 X-31.6484 Y24.1502 
G01 X-31.6484 Y20.2998 
G01 X-31.6639 Y20.2624 
G01 X-31.6924 Y20.2339 
G01 X-31.7298 Y20.2184 
G01 X-32.1244 Y20.2184 
G01 X-32.1244 Y20.1958 
G01 X-32.1399 Y20.1584 
G01 X-32.1684 Y20.1299 
G01 X-32.2058 Y20.1144 
G01 X-33.7542 Y20.1144 
G01 X-33.7916 Y20.1299 
G01 X-33.8201 Y20.1584 
G01 X-33.8356 Y20.1958 
G01 X-33.8356 Y20.2184 
G01 X-34.3102 Y20.2184 
G01 X-34.3475 Y20.2339 
G01 X-34.3761 Y20.2624 
G01 X-34.3916 Y20.2998 
G00 X-14.4018 Y16.4260 
G01 Z0.0000 F254000.00 
G01 X-14.4018 Y16.5940 F3000.00 
G01 X-14.3755 Y16.7598 
G01 X-14.3236 Y16.9195 
G01 X-14.2474 Y17.0691 
G01 X-14.1487 Y17.2050 
G01 X-14.0300 Y17.3237 
G01 X-13.8941 Y17.4224 
G01 X-13.7445 Y17.4986 
G01 X-13.5848 Y17.5505 
G01 X-13.4190 Y17.5768 
G01 X-13.2510 Y17.5768 
G01 X-13.0852 Y17.5505 
G01 X-12.9255 Y17.4986 
G01 X-12.7759 Y17.4224 
G01 X-12.6400 Y17.3237 
G01 X-12.5213 Y17.2050 
G01 X-12.4226 Y17.0691 
G01 X-12.3965 Y17.0180 
G01 X-12.3378 Y17.0180 
G01 X-12.4038 Y17.1322 
G01 X-12.4929 Y17.2485 
G01 X-12.5965 Y17.3521 
G01 X-12.7127 Y17.4412 
G01 X-12.8396 Y17.5145 
G01 X-12.9750 Y17.5706 
G01 X-13.0762 Y17.5977 
G01 X-13.1981 Y17.6303 
G01 X-13.2054 Y17.6323 
G01 X-13.2080 Y17.6338 
G01 X-13.3212 Y17.6992 
G01 X-13.4158 Y17.7938 
G01 X-13.4577 Y17.8663 
G01 X-13.4827 Y17.9096 
G01 X-13.5173 Y18.0388 
G01 X-13.5173 Y18.1726 
G01 X-13.4842 Y18.2963 
G01 X-13.4827 Y18.3018 
G01 X-13.4812 Y18.3043 
G01 X-13.4158 Y18.4176 
G01 X-8.7630 Y23.0704 
G01 X-8.7630 Y45.7869 
G01 X-8.7284 Y45.9161 
G01 X-8.6615 Y46.0319 
G01 X-8.5669 Y46.1265 
G01 X-8.4511 Y46.1934 
G01 X-8.3219 Y46.2280 
G01 X-5.6481 Y46.2280 
G01 X-5.5189 Y46.1934 
G01 X-5.4031 Y46.1265 
G01 X-5.3085 Y46.0319 
G01 X-5.2416 Y45.9161 
G01 X-5.2070 Y45.7869 
G01 X-5.2070 Y20.2531 
G01 X-5.2416 Y20.1239 
G01 X-5.3085 Y20.0081 
G01 X-5.4031 Y19.9135 
G01 X-17.4681 Y7.8485 
G01 X-17.5839 Y7.7816 
G01 X-17.7131 Y7.7470 
G01 X-43.2469 Y7.7470 
G01 X-43.3761 Y7.7816 
G01 X-43.4919 Y7.8485 
G01 X-43.5865 Y7.9431 
G01 X-55.6515 Y20.0081 
G01 X-55.7184 Y20.1239 
G01 X-55.7530 Y20.2531 
G01 X-55.7530 Y45.7869 
G01 X-55.7184 Y45.9161 
G01 X-55.6515 Y46.0319 
G01 X-55.5569 Y46.1265 
G01 X-43.4919 Y58.1915 
G01 X-43.3761 Y58.2584 
G01 X-43.2469 Y58.2930 
G01 X-21.3488 Y58.2930 
G01 X-21.3155 Y58.2974 
G01 X-21.2822 Y58.2930 
G01 X-21.2487 Y58.2930 
G01 X-21.2162 Y58.2843 
G01 X-21.1829 Y58.2799 
G01 X-21.1519 Y58.2671 
G01 X-21.1195 Y58.2584 
G01 X-21.0904 Y58.2416 
G01 X-20.7679 Y58.1080 
G01 X-20.2121 Y58.1080 
G01 X-19.8896 Y58.2416 
G01 X-19.8605 Y58.2584 
G01 X-19.8281 Y58.2671 
G01 X-19.7971 Y58.2799 
G01 X-19.7638 Y58.2843 
G01 X-19.7313 Y58.2930 
G01 X-19.6977 Y58.2930 
G01 X-19.6645 Y58.2974 
G01 X-19.6311 Y58.2930 
G01 X-17.7131 Y58.2930 
G01 X-17.5839 Y58.2584 
G01 X-17.4681 Y58.1915 
G01 X-17.3735 Y58.0969 
G01 X-6.5785 Y47.3019 
G01 X-6.5116 Y47.1861 
G01 X-6.4770 Y47.0569 
G01 X-6.4770 Y46.9231 
G01 X-6.5116 Y46.7939 
G01 X-6.5785 Y46.6781 
G01 X-6.6731 Y46.5835 
G01 X-6.7889 Y46.5166 
G01 X-6.9181 Y46.4820 
G01 X-12.1319 Y46.4820 
G01 X-12.2611 Y46.5166 
G01 X-12.3769 Y46.5835 
G01 X-12.4715 Y46.6781 
G01 X-14.0508 Y48.2574 
G01 X-14.1177 Y48.3732 
G01 X-14.1523 Y48.5024 
G01 X-14.1523 Y48.6362 
G01 X-14.1177 Y48.7654 
G01 X-14.0938 Y48.8069 
G01 X-14.0508 Y48.8812 
G01 X-13.9562 Y48.9758 
G01 X-13.8404 Y49.0427 
G01 X-13.7112 Y49.0773 
G01 X-13.6100 Y49.1044 
G01 X-13.4746 Y49.1605 
G01 X-13.3478 Y49.2338 
G01 X-13.2315 Y49.3229 
G01 X-13.1279 Y49.4265 
G01 X-13.0388 Y49.5428 
G01 X-12.9728 Y49.6570 
G01 X-13.0316 Y49.6570 
G01 X-13.0576 Y49.6059 
G01 X-13.1563 Y49.4700 
G01 X-13.2750 Y49.3513 
G01 X-13.4109 Y49.2526 
G01 X-13.5605 Y49.1764 
G01 X-13.7202 Y49.1245 
G01 X-13.8860 Y49.0982 
G01 X-14.0540 Y49.0982 
G01 X-14.2198 Y49.1245 
G01 X-14.3795 Y49.1764 
G01 X-14.5291 Y49.2526 
G01 X-14.6650 Y49.3513 
G01 X-14.7837 Y49.4700 
G01 X-14.8824 Y49.6059 
G01 X-14.9586 Y49.7555 
G01 X-15.0105 Y49.9152 
G01 X-15.0368 Y50.0810 
G01 X-15.0368 Y50.2490 
G01 X-15.0105 Y50.4148 
G01 X-14.9586 Y50.5745 
G01 X-14.8824 Y50.7241 
G01 X-14.7837 Y50.8600 
G01 X-14.6650 Y50.9787 
G01 X-14.5291 Y51.0774 
G01 X-14.4780 Y51.1035 
G01 X-14.4780 Y51.1622 
G01 X-14.5922 Y51.0962 
G01 X-14.7085 Y51.0071 
G01 X-14.8121 Y50.9035 
G01 X-14.9012 Y50.7872 
G01 X-14.9745 Y50.6604 
G01 X-15.0306 Y50.5250 
G01 X-15.0577 Y50.4238 
G01 X-15.0903 Y50.3019 
G01 X-15.0923 Y50.2946 
G01 X-15.0938 Y50.2920 
G01 X-15.1592 Y50.1788 
G01 X-15.2538 Y50.0842 
G01 X-15.3263 Y50.0423 
G01 X-15.3696 Y50.0173 
G01 X-15.4988 Y49.9827 
G01 X-15.6326 Y49.9827 
G01 X-15.7563 Y50.0158 
G01 X-15.7618 Y50.0173 
G01 X-15.7643 Y50.0188 
G01 X-15.8776 Y50.0842 
G01 X-20.5304 Y54.7370 
G01 X-40.4296 Y54.7370 
G01 X-45.7174 Y49.4492 
G01 X-45.8332 Y49.3823 
G01 X-45.9624 Y49.3477 
G01 X-46.0962 Y49.3477 
G01 X-46.2254 Y49.3823 
G01 X-46.2669 Y49.4062 
G01 X-46.3412 Y49.4492 
G01 X-46.4358 Y49.5438 
G01 X-46.5027 Y49.6596 
G01 X-46.5373 Y49.7888 
G01 X-46.5644 Y49.8900 
G01 X-46.6205 Y50.0254 
G01 X-46.6938 Y50.1522 
G01 X-46.7829 Y50.2685 
G01 X-46.8865 Y50.3721 
G01 X-47.0028 Y50.4612 
G01 X-47.1170 Y50.5272 
G01 X-47.1170 Y50.4684 
G01 X-47.0659 Y50.4424 
G01 X-46.9300 Y50.3437 
G01 X-46.8113 Y50.2250 
G01 X-46.7126 Y50.0891 
G01 X-46.6364 Y49.9395 
G01 X-46.5845 Y49.7798 
G01 X-46.5582 Y49.6140 
G01 X-46.5582 Y49.4460 
G01 X-46.5845 Y49.2802 
G01 X-46.6364 Y49.1205 
G01 X-46.7126 Y48.9709 
G01 X-46.8113 Y48.8350 
G01 X-46.9300 Y48.7163 
G01 X-47.0659 Y48.6176 
G01 X-47.2155 Y48.5414 
G01 X-47.3752 Y48.4895 
G01 X-47.5410 Y48.4632 
G01 X-47.7090 Y48.4632 
G01 X-47.8748 Y48.4895 
G01 X-48.0345 Y48.5414 
G01 X-48.1841 Y48.6176 
G01 X-48.3200 Y48.7163 
G01 X-48.4387 Y48.8350 
G01 X-48.5374 Y48.9709 
G01 X-48.5634 Y49.0220 
G01 X-48.6222 Y49.0220 
G01 X-48.5562 Y48.9078 
G01 X-48.4671 Y48.7915 
G01 X-48.3635 Y48.6879 
G01 X-48.2472 Y48.5988 
G01 X-48.1204 Y48.5255 
G01 X-47.9850 Y48.4694 
G01 X-47.8838 Y48.4423 
G01 X-47.7619 Y48.4096 
G01 X-47.7546 Y48.4077 
G01 X-47.7520 Y48.4062 
G01 X-47.6388 Y48.3408 
G01 X-47.5442 Y48.2462 
G01 X-47.5023 Y48.1737 
G01 X-47.4773 Y48.1304 
G01 X-47.4427 Y48.0012 
G01 X-47.4427 Y47.8674 
G01 X-47.4758 Y47.7437 
G01 X-47.4773 Y47.7382 
G01 X-47.4788 Y47.7357 
G01 X-47.5442 Y47.6224 
G01 X-52.1970 Y42.9696 
G01 X-52.1970 Y23.0704 
G01 X-46.9092 Y17.7826 
G01 X-46.8423 Y17.6668 
G01 X-46.8077 Y17.5376 
G01 X-46.8077 Y17.4038 
G01 X-46.8423 Y17.2746 
G01 X-46.8662 Y17.2331 
G01 X-46.9092 Y17.1588 
G01 X-47.0038 Y17.0642 
G01 X-47.1196 Y16.9973 
G01 X-47.2488 Y16.9627 
G01 X-47.3500 Y16.9356 
G01 X-47.4854 Y16.8795 
G01 X-47.6122 Y16.8062 
G01 X-47.7285 Y16.7171 
G01 X-47.8321 Y16.6135 
G01 X-47.9212 Y16.4972 
G01 X-47.9872 Y16.3830 
G01 X-47.9285 Y16.3830 
G01 X-47.9024 Y16.4341 
G01 X-47.8037 Y16.5700 
G01 X-47.6850 Y16.6887 
G01 X-47.5491 Y16.7874 
G01 X-47.3995 Y16.8636 
G01 X-47.2398 Y16.9155 
G01 X-47.0740 Y16.9418 
G01 X-46.9060 Y16.9418 
G01 X-46.7402 Y16.9155 
G01 X-46.5805 Y16.8636 
G01 X-46.4309 Y16.7874 
G01 X-46.2950 Y16.6887 
G01 X-46.1763 Y16.5700 
G01 X-46.0776 Y16.4341 
G01 X-46.0014 Y16.2845 
G01 X-45.9495 Y16.1248 
G01 X-45.9232 Y15.9590 
G01 X-45.9232 Y15.7910 
G01 X-45.9495 Y15.6252 
G01 X-46.0014 Y15.4655 
G01 X-46.0776 Y15.3159 
G01 X-46.1763 Y15.1800 
G01 X-46.2950 Y15.0613 
G01 X-46.4309 Y14.9626 
G01 X-46.4820 Y14.9366 
G01 X-46.4820 Y14.8778 
G01 X-46.3678 Y14.9438 
G01 X-46.2515 Y15.0329 
G01 X-46.1479 Y15.1365 
G01 X-46.0588 Y15.2528 
G01 X-45.9855 Y15.3796 
G01 X-45.9294 Y15.5150 
G01 X-45.9023 Y15.6162 
G01 X-45.8696 Y15.7381 
G01 X-45.8677 Y15.7454 
G01 X-45.8662 Y15.7480 
G01 X-45.8008 Y15.8612 
G01 X-45.7062 Y15.9558 
G01 X-45.6337 Y15.9977 
G01 X-45.5904 Y16.0227 
G01 X-45.4612 Y16.0573 
G01 X-45.3274 Y16.0573 
G01 X-45.2037 Y16.0242 
G01 X-45.1982 Y16.0227 
G01 X-45.1957 Y16.0212 
G01 X-45.0824 Y15.9558 
G01 X-40.4296 Y11.3030 
G01 X-20.5304 Y11.3030 
G01 X-15.2426 Y16.5908 
G01 X-15.1268 Y16.6577 
G01 X-14.9976 Y16.6923 
G01 X-14.8638 Y16.6923 
G01 X-14.7346 Y16.6577 
G01 X-14.6931 Y16.6338 
G01 X-14.6188 Y16.5908 
G01 X-14.5242 Y16.4962 
G01 X-14.4573 Y16.3804 
G01 X-14.4227 Y16.2512 
G01 X-14.3956 Y16.1500 
G01 X-14.3395 Y16.0146 
G01 X-14.2662 Y15.8878 
G01 X-14.1771 Y15.7715 
G01 X-14.0735 Y15.6679 
G01 X-13.9572 Y15.5788 
G01 X-13.8430 Y15.5128 
G01 X-13.8430 Y15.5715 
G01 X-13.8941 Y15.5976 
G01 X-14.0300 Y15.6963 
G01 X-14.1487 Y15.8150 
G01 X-14.2474 Y15.9509 
G01 X-14.3236 Y16.1005 
G01 X-14.3755 Y16.2602 
G01 X-14.4018 Y16.4260 
G00 X-41.7068 Y6.2660 
G01 Z0.0000 F254000.00 
G01 X-41.7068 Y6.4340 F3000.00 
G01 X-41.6805 Y6.5998 
G01 X-41.6286 Y6.7595 
G01 X-41.5524 Y6.9091 
G01 X-41.4537 Y7.0450 
G01 X-41.3350 Y7.1637 
G01 X-41.1991 Y7.2624 
G01 X-41.0495 Y7.3386 
G01 X-40.8898 Y7.3905 
G01 X-40.7240 Y7.4168 
G01 X-40.5560 Y7.4168 
G01 X-40.3902 Y7.3905 
G01 X-40.2305 Y7.3386 
G01 X-40.0809 Y7.2624 
G01 X-39.9450 Y7.1637 
G01 X-39.8263 Y7.0450 
G01 X-39.7776 Y6.9780 
G01 X-33.8356 Y6.9780 
G01 X-33.8356 Y7.2442 
G01 X-33.8201 Y7.2816 
G01 X-33.7916 Y7.3101 
G01 X-33.7542 Y7.3256 
G01 X-32.2058 Y7.3256 
G01 X-32.1684 Y7.3101 
G01 X-32.1399 Y7.2816 
G01 X-32.1244 Y7.2442 
G01 X-32.1244 Y5.6958 
G01 X-32.1399 Y5.6584 
G01 X-32.1684 Y5.6299 
G01 X-32.2058 Y5.6144 
G01 X-33.7542 Y5.6144 
G01 X-33.7916 Y5.6299 
G01 X-33.8201 Y5.6584 
G01 X-33.8356 Y5.6958 
G01 X-33.8356 Y5.9620 
G01 X-39.6444 Y5.9620 
G01 X-39.6514 Y5.9405 
G01 X-39.7276 Y5.7909 
G01 X-39.8263 Y5.6550 
G01 X-39.9450 Y5.5363 
G01 X-40.0809 Y5.4376 
G01 X-40.2305 Y5.3614 
G01 X-40.3902 Y5.3095 
G01 X-40.5560 Y5.2832 
G01 X-40.7240 Y5.2832 
G01 X-40.8898 Y5.3095 
G01 X-41.0495 Y5.3614 
G01 X-41.1991 Y5.4376 
G01 X-41.3350 Y5.5363 
G01 X-41.4537 Y5.6550 
G01 X-41.5524 Y5.7909 
G01 X-41.6286 Y5.9405 
G01 X-41.6805 Y6.1002 
G01 X-41.7068 Y6.2660 
G00 X-21.4024 Y60.0641 
G01 Z0.0000 F254000.00 
G01 X-21.3037 Y60.2000 F3000.00 
G01 X-21.1850 Y60.3187 
G01 X-21.0491 Y60.4174 
G01 X-20.8995 Y60.4936 
G01 X-20.7398 Y60.5455 
G01 X-20.5740 Y60.5718 
G01 X-20.4060 Y60.5718 
G01 X-20.2402 Y60.5455 
G01 X-20.0805 Y60.4936 
G01 X-19.9309 Y60.4174 
G01 X-19.7950 Y60.3187 
G01 X-19.6763 Y60.2000 
G01 X-19.5776 Y60.0641 
G01 X-19.5014 Y59.9145 
G01 X-19.4495 Y59.7548 
G01 X-19.4232 Y59.5890 
G01 X-19.4232 Y59.4210 
G01 X-19.4495 Y59.2552 
G01 X-19.5014 Y59.0955 
G01 X-19.5776 Y58.9459 
G01 X-19.6763 Y58.8100 
G01 X-19.7950 Y58.6913 
G01 X-19.9309 Y58.5926 
G01 X-20.0805 Y58.5164 
G01 X-20.2402 Y58.4645 
G01 X-20.4060 Y58.4382 
G01 X-20.5740 Y58.4382 
G01 X-20.7398 Y58.4645 
G01 X-20.8995 Y58.5164 
G01 X-21.0491 Y58.5926 
G01 X-21.1850 Y58.6913 
G01 X-21.3037 Y58.8100 
G01 X-21.4024 Y58.9459 
G01 X-21.4294 Y58.9989 
G01 X-27.1244 Y59.0104 
G01 X-27.1244 Y58.7958 
G01 X-27.1399 Y58.7584 
G01 X-27.1684 Y58.7299 
G01 X-27.2058 Y58.7144 
G01 X-28.7542 Y58.7144 
G01 X-28.7916 Y58.7299 
G01 X-28.8201 Y58.7584 
G01 X-28.8356 Y58.7958 
G01 X-28.8356 Y60.3442 
G01 X-28.8201 Y60.3816 
G01 X-28.7916 Y60.4101 
G01 X-28.7542 Y60.4256 
G01 X-27.2058 Y60.4256 
G01 X-27.1684 Y60.4101 
G01 X-27.1399 Y60.3816 
G01 X-27.1244 Y60.3442 
G01 X-27.1244 Y60.0264 
G01 X-21.4275 Y60.0149 
G01 X-21.4024 Y60.0641 
G00 X-58.2168 Y15.7910 
G01 Z0.0000 F254000.00 
G01 X-58.2168 Y15.9590 F3000.00 
G01 X-58.1905 Y16.1248 
G01 X-58.1386 Y16.2845 
G01 X-58.0624 Y16.4341 
G01 X-57.9637 Y16.5700 
G01 X-57.8450 Y16.6887 
G01 X-57.7521 Y16.7562 
G01 X-57.6415 Y29.6644 
G01 X-57.8042 Y29.6644 
G01 X-57.8416 Y29.6799 
G01 X-57.8701 Y29.7084 
G01 X-57.8856 Y29.7458 
G01 X-57.8856 Y31.2942 
G01 X-57.8701 Y31.3316 
G01 X-57.8416 Y31.3601 
G01 X-57.8042 Y31.3756 
G01 X-56.2558 Y31.3756 
G01 X-56.2184 Y31.3601 
G01 X-56.1899 Y31.3316 
G01 X-56.1744 Y31.2942 
G01 X-56.1744 Y29.7458 
G01 X-56.1899 Y29.7084 
G01 X-56.2184 Y29.6799 
G01 X-56.2558 Y29.6644 
G01 X-56.4223 Y29.6644 
G01 X-56.5329 Y16.7453 
G01 X-56.4550 Y16.6887 
G01 X-56.3363 Y16.5700 
G01 X-56.2376 Y16.4341 
G01 X-56.1614 Y16.2845 
G01 X-56.1095 Y16.1248 
G01 X-56.0832 Y15.9590 
G01 X-56.0832 Y15.7910 
G01 X-56.1095 Y15.6252 
G01 X-56.1614 Y15.4655 
G01 X-56.2376 Y15.3159 
G01 X-56.3363 Y15.1800 
G01 X-56.4550 Y15.0613 
G01 X-56.5909 Y14.9626 
G01 X-56.7405 Y14.8864 
G01 X-56.9002 Y14.8345 
G01 X-57.0660 Y14.8082 
G01 X-57.2340 Y14.8082 
G01 X-57.3998 Y14.8345 
G01 X-57.5595 Y14.8864 
G01 X-57.7091 Y14.9626 
G01 X-57.8450 Y15.0613 
G01 X-57.9637 Y15.1800 
G01 X-58.0624 Y15.3159 
G01 X-58.1386 Y15.4655 
G01 X-58.1905 Y15.6252 
G01 X-58.2168 Y15.7910 
G00 X-32.1244 Y60.3442 
G01 Z0.0000 F254000.00 
G01 X-32.1244 Y58.7958 F3000.00 
G01 X-32.1399 Y58.7584 
G01 X-32.1684 Y58.7299 
G01 X-32.2058 Y58.7144 
G01 X-33.7542 Y58.7144 
G01 X-33.7916 Y58.7299 
G01 X-33.8201 Y58.7584 
G01 X-33.8356 Y58.7958 
G01 X-33.8356 Y58.9674 
G01 X-46.7545 Y59.0732 
G01 X-46.8113 Y58.9950 
G01 X-46.9300 Y58.8763 
G01 X-47.0659 Y58.7776 
G01 X-47.2155 Y58.7014 
G01 X-47.3752 Y58.6495 
G01 X-47.5410 Y58.6232 
G01 X-47.7090 Y58.6232 
G01 X-47.8748 Y58.6495 
G01 X-48.0345 Y58.7014 
G01 X-48.1841 Y58.7776 
G01 X-48.3200 Y58.8763 
G01 X-48.4387 Y58.9950 
G01 X-48.5374 Y59.1309 
G01 X-48.6136 Y59.2805 
G01 X-48.6655 Y59.4402 
G01 X-48.6918 Y59.6060 
G01 X-48.6918 Y59.7740 
G01 X-48.6655 Y59.9398 
G01 X-48.6136 Y60.0995 
G01 X-48.5374 Y60.2491 
G01 X-48.4387 Y60.3850 
G01 X-48.3200 Y60.5037 
G01 X-48.1841 Y60.6024 
G01 X-48.0345 Y60.6786 
G01 X-47.8748 Y60.7305 
G01 X-47.7090 Y60.7568 
G01 X-47.5410 Y60.7568 
G01 X-47.3752 Y60.7305 
G01 X-47.2155 Y60.6786 
G01 X-47.0659 Y60.6024 
G01 X-46.9300 Y60.5037 
G01 X-46.8113 Y60.3850 
G01 X-46.7440 Y60.2924 
G01 X-33.8356 Y60.1866 
G01 X-33.8356 Y60.3442 
G01 X-33.8201 Y60.3816 
G01 X-33.7916 Y60.4101 
G01 X-33.7542 Y60.4256 
G01 X-32.2058 Y60.4256 
G01 X-32.1684 Y60.4101 
G01 X-32.1399 Y60.3816 
G01 X-32.1244 Y60.3442 
G00 X-29.6244 Y60.3442 
G01 Z0.0000 F254000.00 
G01 X-29.6244 Y58.7958 F3000.00 
G01 X-29.6399 Y58.7584 
G01 X-29.6684 Y58.7299 
G01 X-29.7058 Y58.7144 
G01 X-31.2542 Y58.7144 
G01 X-31.2916 Y58.7299 
G01 X-31.3201 Y58.7584 
G01 X-31.3356 Y58.7958 
G01 X-31.3356 Y60.3442 
G01 X-31.3201 Y60.3816 
G01 X-31.2916 Y60.4101 
G01 X-31.2542 Y60.4256 
G01 X-29.7058 Y60.4256 
G01 X-29.6684 Y60.4101 
G01 X-29.6399 Y60.3816 
G01 X-29.6244 Y60.3442 
G00 X-32.1244 Y45.8442 
G01 Z0.0000 F254000.00 
G01 X-32.1244 Y44.2958 F3000.00 
G01 X-32.1399 Y44.2584 
G01 X-32.1684 Y44.2299 
G01 X-32.2058 Y44.2144 
G01 X-33.7542 Y44.2144 
G01 X-33.7916 Y44.2299 
G01 X-33.8201 Y44.2584 
G01 X-33.8356 Y44.2958 
G01 X-33.8356 Y45.8442 
G01 X-33.8201 Y45.8816 
G01 X-33.7916 Y45.9101 
G01 X-33.7542 Y45.9256 
G01 X-32.2058 Y45.9256 
G01 X-32.1684 Y45.9101 
G01 X-32.1399 Y45.8816 
G01 X-32.1244 Y45.8442 
G00 X-9.8018 Y37.4104 
G01 Z0.0000 F254000.00 
G01 X-13.0582 Y37.4104 F3000.00 
G01 X-13.0956 Y37.4259 
G01 X-13.1241 Y37.4544 
G01 X-13.1396 Y37.4918 
G01 X-13.1396 Y40.7482 
G01 X-13.1241 Y40.7856 
G01 X-13.0956 Y40.8141 
G01 X-13.0582 Y40.8296 
G01 X-9.8018 Y40.8296 
G01 X-9.7644 Y40.8141 
G01 X-9.7359 Y40.7856 
G01 X-9.7204 Y40.7482 
G01 X-9.7204 Y37.4918 
G01 X-9.7359 Y37.4544 
G01 X-9.7644 Y37.4259 
G01 X-9.8018 Y37.4104 
G00 X-9.8018 Y25.2104 
G01 Z0.0000 F254000.00 
G01 X-13.0582 Y25.2104 F3000.00 
G01 X-13.0956 Y25.2259 
G01 X-13.1241 Y25.2544 
G01 X-13.1396 Y25.2918 
G01 X-13.1396 Y28.5482 
G01 X-13.1241 Y28.5856 
G01 X-13.0956 Y28.6141 
G01 X-13.0582 Y28.6296 
G01 X-9.8018 Y28.6296 
G01 X-9.7644 Y28.6141 
G01 X-9.7359 Y28.5856 
G01 X-9.7204 Y28.5482 
G01 X-9.7204 Y25.2918 
G01 X-9.7359 Y25.2544 
G01 X-9.7644 Y25.2259 
G01 X-9.8018 Y25.2104 
G00 X-57.8042 Y33.8756 
G01 Z0.0000 F254000.00 
G01 X-56.2558 Y33.8756 F3000.00 
G01 X-56.2184 Y33.8601 
G01 X-56.1899 Y33.8316 
G01 X-56.1744 Y33.7942 
G01 X-56.1744 Y32.2458 
G01 X-56.1899 Y32.2084 
G01 X-56.2184 Y32.1799 
G01 X-56.2558 Y32.1644 
G01 X-57.8042 Y32.1644 
G01 X-57.8416 Y32.1799 
G01 X-57.8701 Y32.2084 
G01 X-57.8856 Y32.2458 
G01 X-57.8856 Y33.7942 
G01 X-57.8701 Y33.8316 
G01 X-57.8416 Y33.8601 
G01 X-57.8042 Y33.8756 
G00 X-57.8042 Y36.3756 
G01 Z0.0000 F254000.00 
G01 X-57.7596 Y36.3756 F3000.00 
G01 X-57.7596 Y42.3043 
G01 X-57.8450 Y42.3663 
G01 X-57.9637 Y42.4850 
G01 X-58.0624 Y42.6209 
G01 X-58.1386 Y42.7705 
G01 X-58.1905 Y42.9302 
G01 X-58.2168 Y43.0960 
G01 X-58.2168 Y43.2640 
G01 X-58.1905 Y43.4298 
G01 X-58.1386 Y43.5895 
G01 X-58.0624 Y43.7391 
G01 X-57.9637 Y43.8750 
G01 X-57.8450 Y43.9937 
G01 X-57.7091 Y44.0924 
G01 X-57.5595 Y44.1686 
G01 X-57.3998 Y44.2205 
G01 X-57.2340 Y44.2468 
G01 X-57.0660 Y44.2468 
G01 X-56.9002 Y44.2205 
G01 X-56.7405 Y44.1686 
G01 X-56.5909 Y44.0924 
G01 X-56.4550 Y43.9937 
G01 X-56.3363 Y43.8750 
G01 X-56.2376 Y43.7391 
G01 X-56.1614 Y43.5895 
G01 X-56.1095 Y43.4298 
G01 X-56.0832 Y43.2640 
G01 X-56.0832 Y43.0960 
G01 X-56.1095 Y42.9302 
G01 X-56.1614 Y42.7705 
G01 X-56.2376 Y42.6209 
G01 X-56.3363 Y42.4850 
G01 X-56.4550 Y42.3663 
G01 X-56.5404 Y42.3043 
G01 X-56.5404 Y36.3756 
G01 X-56.2558 Y36.3756 
G01 X-56.2184 Y36.3601 
G01 X-56.1899 Y36.3316 
G01 X-56.1744 Y36.2942 
G01 X-56.1744 Y34.7458 
G01 X-56.1899 Y34.7084 
G01 X-56.2184 Y34.6799 
G01 X-56.2558 Y34.6644 
G01 X-57.8042 Y34.6644 
G01 X-57.8416 Y34.6799 
G01 X-57.8701 Y34.7084 
G01 X-57.8856 Y34.7458 
G01 X-57.8856 Y36.2942 
G01 X-57.8701 Y36.3316 
G01 X-57.8416 Y36.3601 
G01 X-57.8042 Y36.3756 
G00 X-43.3042 Y31.3756 
G01 Z0.0000 F254000.00 
G01 X-41.7558 Y31.3756 F3000.00 
G01 X-41.7184 Y31.3601 
G01 X-41.6899 Y31.3316 
G01 X-41.6744 Y31.2942 
G01 X-41.6744 Y29.7458 
G01 X-41.6899 Y29.7084 
G01 X-41.7184 Y29.6799 
G01 X-41.7558 Y29.6644 
G01 X-43.3042 Y29.6644 
G01 X-43.3416 Y29.6799 
G01 X-43.3701 Y29.7084 
G01 X-43.3856 Y29.7458 
G01 X-43.3856 Y31.2942 
G01 X-43.3701 Y31.3316 
G01 X-43.3416 Y31.3601 
G01 X-43.3042 Y31.3756 
G00 X-26.0896 Y12.3418 
G01 Z0.0000 F254000.00 
G01 X-26.0896 Y15.5982 F3000.00 
G01 X-26.0741 Y15.6356 
G01 X-26.0456 Y15.6641 
G01 X-26.0082 Y15.6796 
G01 X-22.7518 Y15.6796 
G01 X-22.7144 Y15.6641 
G01 X-22.6859 Y15.6356 
G01 X-22.6704 Y15.5982 
G01 X-22.6704 Y12.3418 
G01 X-22.6859 Y12.3044 
G01 X-22.7144 Y12.2759 
G01 X-22.7518 Y12.2604 
G01 X-26.0082 Y12.2604 
G01 X-26.0456 Y12.2759 
G01 X-26.0741 Y12.3044 
G01 X-26.0896 Y12.3418 
G00 X-38.2896 Y12.3418 
G01 Z0.0000 F254000.00 
G01 X-38.2896 Y15.5982 F3000.00 
G01 X-38.2741 Y15.6356 
G01 X-38.2456 Y15.6641 
G01 X-38.2082 Y15.6796 
G01 X-34.9518 Y15.6796 
G01 X-34.9144 Y15.6641 
G01 X-34.8859 Y15.6356 
G01 X-34.8704 Y15.5982 
G01 X-34.8704 Y12.3418 
G01 X-34.8859 Y12.3044 
G01 X-34.9144 Y12.2759 
G01 X-34.9518 Y12.2604 
G01 X-38.2082 Y12.2604 
G01 X-38.2456 Y12.2759 
G01 X-38.2741 Y12.3044 
G01 X-38.2896 Y12.3418 
G00 Z0.0000 
G00 X-28.8991 Y20.1832 
G01 Z0.0000 F254000.00 
G01 X-28.8991 Y21.7568 F3000.00 
G01 X-28.8740 Y21.8175 
G01 X-28.8275 Y21.8640 
G01 X-28.7668 Y21.8891 
G01 X-27.1932 Y21.8891 
G01 X-27.1325 Y21.8640 
G01 X-27.0860 Y21.8175 
G01 X-27.0609 Y21.7568 
G01 X-27.0609 Y20.1832 
G01 X-27.0860 Y20.1225 
G01 X-27.1325 Y20.0760 
G01 X-27.1932 Y20.0509 
G01 X-28.7668 Y20.0509 
G01 X-28.8275 Y20.0760 
G01 X-28.8740 Y20.1225 
G01 X-28.8991 Y20.1832 
G00 X-31.3991 Y5.6832 
G01 Z0.0000 F254000.00 
G01 X-31.3991 Y7.2568 F3000.00 
G01 X-31.3740 Y7.3175 
G01 X-31.3275 Y7.3640 
G01 X-31.2668 Y7.3891 
G01 X-29.6932 Y7.3891 
G01 X-29.6325 Y7.3640 
G01 X-29.5860 Y7.3175 
G01 X-29.5609 Y7.2568 
G01 X-29.5609 Y5.6832 
G01 X-29.5860 Y5.6225 
G01 X-29.6325 Y5.5760 
G01 X-29.6932 Y5.5509 
G01 X-31.2668 Y5.5509 
G01 X-31.3275 Y5.5760 
G01 X-31.3740 Y5.6225 
G01 X-31.3991 Y5.6832 
G00 X-28.8991 Y5.6832 
G01 Z0.0000 F254000.00 
G01 X-28.8991 Y7.2568 F3000.00 
G01 X-28.8740 Y7.3175 
G01 X-28.8275 Y7.3640 
G01 X-28.7668 Y7.3891 
G01 X-27.1932 Y7.3891 
G01 X-27.1325 Y7.3640 
G01 X-27.0860 Y7.3175 
G01 X-27.0609 Y7.2568 
G01 X-27.0609 Y7.1407 
G01 X-14.2375 Y7.0309 
G01 X-14.1971 Y7.0863 
G01 X-14.0713 Y7.2121 
G01 X-13.9274 Y7.3167 
G01 X-13.7689 Y7.3975 
G01 X-13.5997 Y7.4525 
G01 X-13.4240 Y7.4803 
G01 X-13.2460 Y7.4803 
G01 X-13.0703 Y7.4525 
G01 X-12.9011 Y7.3975 
G01 X-12.7426 Y7.3167 
G01 X-12.5987 Y7.2121 
G01 X-12.4729 Y7.0863 
G01 X-12.3683 Y6.9424 
G01 X-12.2875 Y6.7839 
G01 X-12.2325 Y6.6147 
G01 X-12.2047 Y6.4390 
G01 X-12.2047 Y6.2610 
G01 X-12.2325 Y6.0853 
G01 X-12.2875 Y5.9161 
G01 X-12.3683 Y5.7576 
G01 X-12.4729 Y5.6137 
G01 X-12.5987 Y5.4879 
G01 X-12.7426 Y5.3833 
G01 X-12.9011 Y5.3025 
G01 X-13.0703 Y5.2475 
G01 X-13.2460 Y5.2197 
G01 X-13.4240 Y5.2197 
G01 X-13.5997 Y5.2475 
G01 X-13.7689 Y5.3025 
G01 X-13.9274 Y5.3833 
G01 X-14.0713 Y5.4879 
G01 X-14.1971 Y5.6137 
G01 X-14.2488 Y5.6847 
G01 X-27.0609 Y5.7944 
G01 X-27.0609 Y5.6832 
G01 X-27.0860 Y5.6225 
G01 X-27.1325 Y5.5760 
G01 X-27.1932 Y5.5509 
G01 X-28.7668 Y5.5509 
G01 X-28.8275 Y5.5760 
G01 X-28.8740 Y5.6225 
G01 X-28.8991 Y5.6832 
G00 X-51.1708 Y40.8931 
G01 Z0.0000 F254000.00 
G01 X-47.8892 Y40.8931 F3000.00 
G01 X-47.8285 Y40.8680 
G01 X-47.7820 Y40.8215 
G01 X-47.7569 Y40.7608 
G01 X-47.7569 Y37.4792 
G01 X-47.7820 Y37.4185 
G01 X-47.8285 Y37.3720 
G01 X-47.8892 Y37.3469 
G01 X-51.1708 Y37.3469 
G01 X-51.2315 Y37.3720 
G01 X-51.2780 Y37.4185 
G01 X-51.3031 Y37.4792 
G01 X-51.3031 Y40.7608 
G01 X-51.2780 Y40.8215 
G01 X-51.2315 Y40.8680 
G01 X-51.1708 Y40.8931 
G00 X-51.1708 Y28.6931 
G01 Z0.0000 F254000.00 
G01 X-47.8892 Y28.6931 F3000.00 
G01 X-47.8285 Y28.6680 
G01 X-47.7820 Y28.6215 
G01 X-47.7569 Y28.5608 
G01 X-47.7569 Y25.2792 
G01 X-47.7820 Y25.2185 
G01 X-47.8285 Y25.1720 
G01 X-47.8892 Y25.1469 
G01 X-51.1708 Y25.1469 
G01 X-51.2315 Y25.1720 
G01 X-51.2780 Y25.2185 
G01 X-51.3031 Y25.2792 
G01 X-51.3031 Y28.5608 
G01 X-51.2780 Y28.6215 
G01 X-51.2315 Y28.6680 
G01 X-51.1708 Y28.6931 
G00 X-17.6432 Y34.6009 
G01 Z0.0000 F254000.00 
G01 X-19.2168 Y34.6009 F3000.00 
G01 X-19.2775 Y34.6260 
G01 X-19.3240 Y34.6725 
G01 X-19.3491 Y34.7332 
G01 X-19.3491 Y36.3068 
G01 X-19.3240 Y36.3675 
G01 X-19.2775 Y36.4140 
G01 X-19.2168 Y36.4391 
G01 X-17.6432 Y36.4391 
G01 X-17.5825 Y36.4140 
G01 X-17.5360 Y36.3675 
G01 X-17.5109 Y36.3068 
G01 X-17.5109 Y34.7332 
G01 X-17.5360 Y34.6725 
G01 X-17.5825 Y34.6260 
G01 X-17.6432 Y34.6009 
G00 X-3.1432 Y32.1009 
G01 Z0.0000 F254000.00 
G01 X-4.7168 Y32.1009 F3000.00 
G01 X-4.7775 Y32.1260 
G01 X-4.8240 Y32.1725 
G01 X-4.8491 Y32.2332 
G01 X-4.8491 Y33.8068 
G01 X-4.8240 Y33.8675 
G01 X-4.7775 Y33.9140 
G01 X-4.7168 Y33.9391 
G01 X-3.1432 Y33.9391 
G01 X-3.0825 Y33.9140 
G01 X-3.0360 Y33.8675 
G01 X-3.0109 Y33.8068 
G01 X-3.0109 Y32.2332 
G01 X-3.0360 Y32.1725 
G01 X-3.0825 Y32.1260 
G01 X-3.1432 Y32.1009 
G00 X-22.6069 Y53.7108 
G01 Z0.0000 F254000.00 
G01 X-22.6069 Y50.4292 F3000.00 
G01 X-22.6320 Y50.3685 
G01 X-22.6785 Y50.3220 
G01 X-22.7392 Y50.2969 
G01 X-26.0208 Y50.2969 
G01 X-26.0815 Y50.3220 
G01 X-26.1280 Y50.3685 
G01 X-26.1531 Y50.4292 
G01 X-26.1531 Y53.7108 
G01 X-26.1280 Y53.7715 
G01 X-26.0815 Y53.8180 
G01 X-26.0208 Y53.8431 
G01 X-22.7392 Y53.8431 
G01 X-22.6785 Y53.8180 
G01 X-22.6320 Y53.7715 
G01 X-22.6069 Y53.7108 
G00 X-34.8069 Y53.7108 
G01 Z0.0000 F254000.00 
G01 X-34.8069 Y50.4292 F3000.00 
G01 X-34.8320 Y50.3685 
G01 X-34.8785 Y50.3220 
G01 X-34.9392 Y50.2969 
G01 X-38.2208 Y50.2969 
G01 X-38.2815 Y50.3220 
G01 X-38.3280 Y50.3685 
G01 X-38.3531 Y50.4292 
G01 X-38.3531 Y53.7108 
G01 X-38.3280 Y53.7715 
G01 X-38.2815 Y53.8180 
G01 X-38.2208 Y53.8431 
G01 X-34.9392 Y53.8431 
G01 X-34.8785 Y53.8180 
G01 X-34.8320 Y53.7715 
G01 X-34.8069 Y53.7108 
G00 X-4.9403 Y22.7710 
G01 Z0.0000 F254000.00 
G01 X-4.9403 Y22.9490 F3000.00 
G01 X-4.9125 Y23.1247 
G01 X-4.8575 Y23.2939 
G01 X-4.7767 Y23.4524 
G01 X-4.6721 Y23.5963 
G01 X-4.5463 Y23.7221 
G01 X-4.4249 Y23.8103 
G01 X-4.4981 Y25.4321 
G01 X-4.5015 Y25.4448 
G01 X-4.5015 Y25.5071 
G01 X-4.5043 Y25.5694 
G01 X-4.5015 Y25.5822 
G01 X-4.5015 Y29.6009 
G01 X-4.7168 Y29.6009 
G01 X-4.7775 Y29.6260 
G01 X-4.8240 Y29.6725 
G01 X-4.8491 Y29.7332 
G01 X-4.8491 Y31.3068 
G01 X-4.8240 Y31.3675 
G01 X-4.7775 Y31.4140 
G01 X-4.7168 Y31.4391 
G01 X-3.1432 Y31.4391 
G01 X-3.0825 Y31.4140 
G01 X-3.0360 Y31.3675 
G01 X-3.0109 Y31.3068 
G01 X-3.0109 Y29.7332 
G01 X-3.0360 Y29.6725 
G01 X-3.0825 Y29.6260 
G01 X-3.1432 Y29.6009 
G01 X-3.3585 Y29.6009 
G01 X-3.3585 Y25.5329 
G01 X-3.2830 Y23.8601 
G01 X-3.2176 Y23.8267 
G01 X-3.0737 Y23.7221 
G01 X-2.9479 Y23.5963 
G01 X-2.8433 Y23.4524 
G01 X-2.7625 Y23.2939 
G01 X-2.7075 Y23.1247 
G01 X-2.6797 Y22.9490 
G01 X-2.6797 Y22.7710 
G01 X-2.7075 Y22.5953 
G01 X-2.7625 Y22.4261 
G01 X-2.8433 Y22.2676 
G01 X-2.9479 Y22.1237 
G01 X-3.0737 Y21.9979 
G01 X-3.2176 Y21.8933 
G01 X-3.3761 Y21.8125 
G01 X-3.5453 Y21.7575 
G01 X-3.7210 Y21.7297 
G01 X-3.8990 Y21.7297 
G01 X-4.0747 Y21.7575 
G01 X-4.2439 Y21.8125 
G01 X-4.4024 Y21.8933 
G01 X-4.5463 Y21.9979 
G01 X-4.6721 Y22.1237 
G01 X-4.7767 Y22.2676 
G01 X-4.8575 Y22.4261 
G01 X-4.9125 Y22.5953 
G01 X-4.9403 Y22.7710 
G00 X-4.9403 Y50.0760 
G01 Z0.0000 F254000.00 
G01 X-4.9403 Y50.2540 F3000.00 
G01 X-4.9125 Y50.4297 
G01 X-4.8575 Y50.5989 
G01 X-4.7767 Y50.7574 
G01 X-4.6721 Y50.9013 
G01 X-4.5463 Y51.0271 
G01 X-4.4024 Y51.1317 
G01 X-4.2439 Y51.2125 
G01 X-4.0747 Y51.2675 
G01 X-3.8990 Y51.2953 
G01 X-3.7210 Y51.2953 
G01 X-3.5453 Y51.2675 
G01 X-3.3761 Y51.2125 
G01 X-3.2176 Y51.1317 
G01 X-3.0737 Y51.0271 
G01 X-2.9479 Y50.9013 
G01 X-2.8433 Y50.7574 
G01 X-2.7625 Y50.5989 
G01 X-2.7075 Y50.4297 
G01 X-2.6797 Y50.2540 
G01 X-2.6797 Y50.0760 
G01 X-2.7075 Y49.9003 
G01 X-2.7625 Y49.7311 
G01 X-2.8433 Y49.5726 
G01 X-2.9479 Y49.4287 
G01 X-3.0737 Y49.3029 
G01 X-3.1444 Y49.2515 
G01 X-3.2493 Y36.4391 
G01 X-3.1432 Y36.4391 
G01 X-3.0825 Y36.4140 
G01 X-3.0360 Y36.3675 
G01 X-3.0109 Y36.3068 
G01 X-3.0109 Y34.7332 
G01 X-3.0360 Y34.6725 
G01 X-3.0825 Y34.6260 
G01 X-3.1432 Y34.6009 
G01 X-4.7168 Y34.6009 
G01 X-4.7775 Y34.6260 
G01 X-4.8240 Y34.6725 
G01 X-4.8491 Y34.7332 
G01 X-4.8491 Y36.3068 
G01 X-4.8240 Y36.3675 
G01 X-4.7775 Y36.4140 
G01 X-4.7168 Y36.4391 
G01 X-4.5956 Y36.4391 
G01 X-4.4905 Y49.2623 
G01 X-4.5463 Y49.3029 
G01 X-4.6721 Y49.4287 
G01 X-4.7767 Y49.5726 
G01 X-4.8575 Y49.7311 
G01 X-4.9125 Y49.9003 
G01 X-4.9403 Y50.0760 
G00 X-29.3751 Y41.8772 
G01 Z0.0000 F254000.00 
G01 X-29.3751 Y45.7528 F3000.00 
G01 X-29.3500 Y45.8135 
G01 X-29.3035 Y45.8600 
G01 X-29.2428 Y45.8851 
G01 X-28.8874 Y45.8851 
G01 X-28.8740 Y45.9175 
G01 X-28.8275 Y45.9640 
G01 X-28.7668 Y45.9891 
G01 X-27.1932 Y45.9891 
G01 X-27.1325 Y45.9640 
G01 X-27.0860 Y45.9175 
G01 X-27.0726 Y45.8851 
G01 X-26.6372 Y45.8851 
G01 X-26.5765 Y45.8600 
G01 X-26.5300 Y45.8135 
G01 X-26.5049 Y45.7528 
G01 X-26.5049 Y41.8772 
G01 X-26.5300 Y41.8165 
G01 X-26.5765 Y41.7700 
G01 X-26.6372 Y41.7449 
G01 X-27.2490 Y41.7449 
G01 X-27.3476 Y41.6733 
G01 X-27.5061 Y41.5925 
G01 X-27.6753 Y41.5375 
G01 X-27.8510 Y41.5097 
G01 X-28.0290 Y41.5097 
G01 X-28.2047 Y41.5375 
G01 X-28.3739 Y41.5925 
G01 X-28.5324 Y41.6733 
G01 X-28.6310 Y41.7449 
G01 X-29.2428 Y41.7449 
G01 X-29.3035 Y41.7700 
G01 X-29.3500 Y41.8165 
G01 X-29.3751 Y41.8772 
G00 X-43.3451 Y34.2572 
G01 Z0.0000 F254000.00 
G01 X-43.3451 Y34.6126 F3000.00 
G01 X-43.3775 Y34.6260 
G01 X-43.4240 Y34.6725 
G01 X-43.4491 Y34.7332 
G01 X-43.4491 Y36.3068 
G01 X-43.4240 Y36.3675 
G01 X-43.3775 Y36.4140 
G01 X-43.3451 Y36.4274 
G01 X-43.3451 Y36.8628 
G01 X-43.3200 Y36.9235 
G01 X-43.2735 Y36.9700 
G01 X-43.2128 Y36.9951 
G01 X-39.3372 Y36.9951 
G01 X-39.2765 Y36.9700 
G01 X-39.2300 Y36.9235 
G01 X-39.2049 Y36.8628 
G01 X-39.2049 Y35.5674 
G01 X-39.1975 Y35.5447 
G01 X-39.1697 Y35.3690 
G01 X-39.1697 Y35.1910 
G01 X-39.1975 Y35.0153 
G01 X-39.2049 Y34.9926 
G01 X-39.2049 Y34.2572 
G01 X-39.2300 Y34.1965 
G01 X-39.2765 Y34.1500 
G01 X-39.3372 Y34.1249 
G01 X-43.2128 Y34.1249 
G01 X-43.2735 Y34.1500 
G01 X-43.3200 Y34.1965 
G01 X-43.3451 Y34.2572 
G00 X-21.7551 Y29.1772 
G01 Z0.0000 F254000.00 
G01 X-21.7551 Y29.5952 F3000.00 
G01 X-21.7863 Y29.6179 
G01 X-21.9121 Y29.7437 
G01 X-22.0167 Y29.8876 
G01 X-22.0975 Y30.0461 
G01 X-22.1525 Y30.2153 
G01 X-22.1803 Y30.3910 
G01 X-22.1803 Y30.5690 
G01 X-22.1525 Y30.7447 
G01 X-22.0975 Y30.9139 
G01 X-22.0167 Y31.0724 
G01 X-21.9121 Y31.2163 
G01 X-21.7863 Y31.3421 
G01 X-21.7551 Y31.3648 
G01 X-21.7551 Y31.7828 
G01 X-21.7300 Y31.8435 
G01 X-21.6835 Y31.8900 
G01 X-21.6228 Y31.9151 
G01 X-17.7472 Y31.9151 
G01 X-17.6865 Y31.8900 
G01 X-17.6400 Y31.8435 
G01 X-17.6149 Y31.7828 
G01 X-17.6149 Y31.4274 
G01 X-17.5825 Y31.4140 
G01 X-17.5360 Y31.3675 
G01 X-17.5109 Y31.3068 
G01 X-17.5109 Y29.7332 
G01 X-17.5360 Y29.6725 
G01 X-17.5825 Y29.6260 
G01 X-17.6149 Y29.6126 
G01 X-17.6149 Y29.1772 
G01 X-17.6400 Y29.1165 
G01 X-17.6865 Y29.0700 
G01 X-17.7472 Y29.0449 
G01 X-21.6228 Y29.0449 
G01 X-21.6835 Y29.0700 
G01 X-21.7300 Y29.1165 
G01 X-21.7551 Y29.1772 
G00 X-34.4551 Y20.2872 
G01 Z0.0000 F254000.00 
G01 X-34.4551 Y24.1628 F3000.00 
G01 X-34.4300 Y24.2235 
G01 X-34.3835 Y24.2700 
G01 X-34.3228 Y24.2951 
G01 X-33.5960 Y24.2951 
G01 X-33.4539 Y24.3675 
G01 X-33.2847 Y24.4225 
G01 X-33.1090 Y24.4503 
G01 X-32.9310 Y24.4503 
G01 X-32.7553 Y24.4225 
G01 X-32.5861 Y24.3675 
G01 X-32.4440 Y24.2951 
G01 X-31.7172 Y24.2951 
G01 X-31.6565 Y24.2700 
G01 X-31.6100 Y24.2235 
G01 X-31.5849 Y24.1628 
G01 X-31.5849 Y20.2872 
G01 X-31.6100 Y20.2265 
G01 X-31.6565 Y20.1800 
G01 X-31.7172 Y20.1549 
G01 X-32.0726 Y20.1549 
G01 X-32.0860 Y20.1225 
G01 X-32.1325 Y20.0760 
G01 X-32.1932 Y20.0509 
G01 X-33.7668 Y20.0509 
G01 X-33.8275 Y20.0760 
G01 X-33.8740 Y20.1225 
G01 X-33.8874 Y20.1549 
G01 X-34.3228 Y20.1549 
G01 X-34.3835 Y20.1800 
G01 X-34.4300 Y20.2265 
G01 X-34.4551 Y20.2872 
G00 X-41.7703 Y6.2610 
G01 Z0.0000 F254000.00 
G01 X-41.7703 Y6.4390 F3000.00 
G01 X-41.7425 Y6.6147 
G01 X-41.6875 Y6.7839 
G01 X-41.6067 Y6.9424 
G01 X-41.5021 Y7.0863 
G01 X-41.3763 Y7.2121 
G01 X-41.2324 Y7.3167 
G01 X-41.0739 Y7.3975 
G01 X-40.9047 Y7.4525 
G01 X-40.7290 Y7.4803 
G01 X-40.5510 Y7.4803 
G01 X-40.3753 Y7.4525 
G01 X-40.2061 Y7.3975 
G01 X-40.0476 Y7.3167 
G01 X-39.9037 Y7.2121 
G01 X-39.7779 Y7.0863 
G01 X-39.7453 Y7.0415 
G01 X-33.8991 Y7.0415 
G01 X-33.8991 Y7.2568 
G01 X-33.8740 Y7.3175 
G01 X-33.8275 Y7.3640 
G01 X-33.7668 Y7.3891 
G01 X-32.1932 Y7.3891 
G01 X-32.1325 Y7.3640 
G01 X-32.0860 Y7.3175 
G01 X-32.0609 Y7.2568 
G01 X-32.0609 Y5.6832 
G01 X-32.0860 Y5.6225 
G01 X-32.1325 Y5.5760 
G01 X-32.1932 Y5.5509 
G01 X-33.7668 Y5.5509 
G01 X-33.8275 Y5.5760 
G01 X-33.8740 Y5.6225 
G01 X-33.8991 Y5.6832 
G01 X-33.8991 Y5.8985 
G01 X-39.6015 Y5.8985 
G01 X-39.6733 Y5.7576 
G01 X-39.7779 Y5.6137 
G01 X-39.9037 Y5.4879 
G01 X-40.0476 Y5.3833 
G01 X-40.2061 Y5.3025 
G01 X-40.3753 Y5.2475 
G01 X-40.5510 Y5.2197 
G01 X-40.7290 Y5.2197 
G01 X-40.9047 Y5.2475 
G01 X-41.0739 Y5.3025 
G01 X-41.2324 Y5.3833 
G01 X-41.3763 Y5.4879 
G01 X-41.5021 Y5.6137 
G01 X-41.6067 Y5.7576 
G01 X-41.6875 Y5.9161 
G01 X-41.7425 Y6.0853 
G01 X-41.7703 Y6.2610 
G00 X-21.4567 Y60.0974 
G01 Z0.0000 F254000.00 
G01 X-21.3521 Y60.2413 F3000.00 
G01 X-21.2263 Y60.3671 
G01 X-21.0824 Y60.4717 
G01 X-20.9239 Y60.5525 
G01 X-20.7547 Y60.6075 
G01 X-20.5790 Y60.6353 
G01 X-20.4010 Y60.6353 
G01 X-20.2253 Y60.6075 
G01 X-20.0561 Y60.5525 
G01 X-19.8976 Y60.4717 
G01 X-19.7537 Y60.3671 
G01 X-19.6279 Y60.2413 
G01 X-19.5233 Y60.0974 
G01 X-19.4425 Y59.9389 
G01 X-19.3875 Y59.7697 
G01 X-19.3597 Y59.5940 
G01 X-19.3597 Y59.4160 
G01 X-19.3875 Y59.2403 
G01 X-19.4425 Y59.0711 
G01 X-19.5233 Y58.9126 
G01 X-19.6279 Y58.7687 
G01 X-19.7537 Y58.6429 
G01 X-19.8976 Y58.5383 
G01 X-20.0561 Y58.4575 
G01 X-20.2253 Y58.4025 
G01 X-20.4010 Y58.3747 
G01 X-20.5790 Y58.3747 
G01 X-20.7547 Y58.4025 
G01 X-20.9239 Y58.4575 
G01 X-21.0824 Y58.5383 
G01 X-21.2263 Y58.6429 
G01 X-21.3521 Y58.7687 
G01 X-21.4567 Y58.9126 
G01 X-21.4684 Y58.9355 
G01 X-27.0609 Y58.9467 
G01 X-27.0609 Y58.7832 
G01 X-27.0860 Y58.7225 
G01 X-27.1325 Y58.6760 
G01 X-27.1932 Y58.6509 
G01 X-28.7668 Y58.6509 
G01 X-28.8275 Y58.6760 
G01 X-28.8740 Y58.7225 
G01 X-28.8991 Y58.7832 
G01 X-28.8991 Y60.3568 
G01 X-28.8740 Y60.4175 
G01 X-28.8275 Y60.4640 
G01 X-28.7668 Y60.4891 
G01 X-27.1932 Y60.4891 
G01 X-27.1325 Y60.4640 
G01 X-27.0860 Y60.4175 
G01 X-27.0609 Y60.3568 
G01 X-27.0609 Y60.0897 
G01 X-21.4664 Y60.0785 
G01 X-21.4567 Y60.0974 
G00 X-21.4567 Y49.9374 
G01 Z0.0000 F254000.00 
G01 X-21.3521 Y50.0813 F3000.00 
G01 X-21.2263 Y50.2071 
G01 X-21.0824 Y50.3117 
G01 X-20.9239 Y50.3925 
G01 X-20.7547 Y50.4475 
G01 X-20.5790 Y50.4753 
G01 X-20.4010 Y50.4753 
G01 X-20.2253 Y50.4475 
G01 X-20.0561 Y50.3925 
G01 X-19.8976 Y50.3117 
G01 X-19.7537 Y50.2071 
G01 X-19.6279 Y50.0813 
G01 X-19.5233 Y49.9374 
G01 X-19.5126 Y49.9165 
G01 X-19.2985 Y49.9165 
G01 X-19.2823 Y49.9376 
G01 X-19.2524 Y49.9606 
G01 X-19.2256 Y49.9873 
G01 X-19.1929 Y50.0062 
G01 X-19.1630 Y50.0292 
G01 X-19.1281 Y50.0436 
G01 X-19.0953 Y50.0626 
G01 X-19.0588 Y50.0723 
G01 X-19.0239 Y50.0868 
G01 X-18.9865 Y50.0917 
G01 X-18.9500 Y50.1015 
G01 X-18.9122 Y50.1015 
G01 X-18.8748 Y50.1064 
G01 X-18.8373 Y50.1015 
G01 X-17.7048 Y50.1015 
G01 X-17.5594 Y50.0626 
G01 X-17.4291 Y49.9873 
G01 X-17.3227 Y49.8809 
G01 X-13.5127 Y46.0709 
G01 X-13.4374 Y45.9406 
G01 X-13.3985 Y45.7952 
G01 X-13.3985 Y45.6448 
G01 X-13.4374 Y45.4994 
G01 X-13.5127 Y45.3691 
G01 X-13.6191 Y45.2627 
G01 X-13.7494 Y45.1874 
G01 X-13.8948 Y45.1485 
G01 X-17.2202 Y45.1485 
G01 X-17.3656 Y45.1874 
G01 X-17.4959 Y45.2627 
G01 X-17.6023 Y45.3691 
G01 X-18.6517 Y46.4185 
G01 X-41.6733 Y46.4185 
G01 X-43.8785 Y44.2133 
G01 X-43.8785 Y21.8267 
G01 X-41.6733 Y19.6215 
G01 X-19.2867 Y19.6215 
G01 X-17.0815 Y21.8267 
G01 X-17.0815 Y44.5252 
G01 X-17.0426 Y44.6706 
G01 X-16.9673 Y44.8009 
G01 X-16.8609 Y44.9073 
G01 X-16.7306 Y44.9826 
G01 X-16.5852 Y45.0215 
G01 X-13.8948 Y45.0215 
G01 X-13.7494 Y44.9826 
G01 X-13.6191 Y44.9073 
G01 X-13.5127 Y44.8009 
G01 X-13.4374 Y44.6706 
G01 X-13.3985 Y44.5252 
G01 X-13.3985 Y40.9712 
G01 X-13.3936 Y40.9338 
G01 X-13.3985 Y40.8963 
G01 X-13.3985 Y40.8585 
G01 X-13.4063 Y40.8294 
G01 X-13.4063 Y37.4106 
G01 X-13.3985 Y37.3815 
G01 X-13.3985 Y37.3437 
G01 X-13.3936 Y37.3062 
G01 X-13.3985 Y37.2688 
G01 X-13.3985 Y28.7712 
G01 X-13.3936 Y28.7338 
G01 X-13.3985 Y28.6963 
G01 X-13.3985 Y28.6585 
G01 X-13.4063 Y28.6294 
G01 X-13.4063 Y25.2106 
G01 X-13.3985 Y25.1815 
G01 X-13.3985 Y25.1437 
G01 X-13.3936 Y25.1062 
G01 X-13.3985 Y25.0688 
G01 X-13.3985 Y23.8374 
G01 X-13.3776 Y23.8267 
G01 X-13.2337 Y23.7221 
G01 X-13.1079 Y23.5963 
G01 X-13.0033 Y23.4524 
G01 X-12.9225 Y23.2939 
G01 X-12.8675 Y23.1247 
G01 X-12.8397 Y22.9490 
G01 X-12.8397 Y22.7710 
G01 X-12.8675 Y22.5953 
G01 X-12.9225 Y22.4261 
G01 X-13.0033 Y22.2676 
G01 X-13.1079 Y22.1237 
G01 X-13.2337 Y21.9979 
G01 X-13.3776 Y21.8933 
G01 X-13.3985 Y21.8826 
G01 X-13.3985 Y20.2448 
G01 X-13.4374 Y20.0994 
G01 X-13.5127 Y19.9691 
G01 X-13.6191 Y19.8627 
G01 X-17.4291 Y16.0527 
G01 X-17.5594 Y15.9774 
G01 X-17.7048 Y15.9385 
G01 X-22.5288 Y15.9385 
G01 X-22.5663 Y15.9336 
G01 X-22.6037 Y15.9385 
G01 X-22.6415 Y15.9385 
G01 X-22.6706 Y15.9463 
G01 X-26.0894 Y15.9463 
G01 X-26.1185 Y15.9385 
G01 X-26.1563 Y15.9385 
G01 X-26.1937 Y15.9336 
G01 X-26.2312 Y15.9385 
G01 X-34.7288 Y15.9385 
G01 X-34.7663 Y15.9336 
G01 X-34.8037 Y15.9385 
G01 X-34.8415 Y15.9385 
G01 X-34.8706 Y15.9463 
G01 X-38.2894 Y15.9463 
G01 X-38.3185 Y15.9385 
G01 X-38.3563 Y15.9385 
G01 X-38.3937 Y15.9336 
G01 X-38.4312 Y15.9385 
G01 X-39.6626 Y15.9385 
G01 X-39.6733 Y15.9176 
G01 X-39.7779 Y15.7737 
G01 X-39.9037 Y15.6479 
G01 X-40.0476 Y15.5433 
G01 X-40.2061 Y15.4625 
G01 X-40.3753 Y15.4075 
G01 X-40.5510 Y15.3797 
G01 X-40.7290 Y15.3797 
G01 X-40.9047 Y15.4075 
G01 X-41.0739 Y15.4625 
G01 X-41.2324 Y15.5433 
G01 X-41.3763 Y15.6479 
G01 X-41.5021 Y15.7737 
G01 X-41.6067 Y15.9176 
G01 X-41.6174 Y15.9385 
G01 X-43.2552 Y15.9385 
G01 X-43.4006 Y15.9774 
G01 X-43.5309 Y16.0527 
G01 X-43.6373 Y16.1591 
G01 X-47.4473 Y19.9691 
G01 X-47.5226 Y20.0994 
G01 X-47.5615 Y20.2448 
G01 X-47.5615 Y25.0688 
G01 X-47.5664 Y25.1063 
G01 X-47.5615 Y25.1437 
G01 X-47.5615 Y25.1815 
G01 X-47.5537 Y25.2106 
G01 X-47.5537 Y28.6294 
G01 X-47.5615 Y28.6585 
G01 X-47.5615 Y28.6963 
G01 X-47.5664 Y28.7337 
G01 X-47.5615 Y28.7712 
G01 X-47.5615 Y37.2688 
G01 X-47.5664 Y37.3063 
G01 X-47.5615 Y37.3437 
G01 X-47.5615 Y37.3815 
G01 X-47.5537 Y37.4106 
G01 X-47.5537 Y40.8294 
G01 X-47.5615 Y40.8585 
G01 X-47.5615 Y40.8963 
G01 X-47.5664 Y40.9337 
G01 X-47.5615 Y40.9712 
G01 X-47.5615 Y42.2026 
G01 X-47.5824 Y42.2133 
G01 X-47.7263 Y42.3179 
G01 X-47.8521 Y42.4437 
G01 X-47.9567 Y42.5876 
G01 X-48.0375 Y42.7461 
G01 X-48.0925 Y42.9153 
G01 X-48.1203 Y43.0910 
G01 X-48.1203 Y43.2690 
G01 X-48.0925 Y43.4447 
G01 X-48.0375 Y43.6139 
G01 X-47.9567 Y43.7724 
G01 X-47.8521 Y43.9163 
G01 X-47.7263 Y44.0421 
G01 X-47.5824 Y44.1467 
G01 X-47.5615 Y44.1574 
G01 X-47.5615 Y45.7952 
G01 X-47.5226 Y45.9406 
G01 X-47.4473 Y46.0709 
G01 X-47.3409 Y46.1773 
G01 X-43.5309 Y49.9873 
G01 X-43.4006 Y50.0626 
G01 X-43.2552 Y50.1015 
G01 X-38.4312 Y50.1015 
G01 X-38.3937 Y50.1064 
G01 X-38.3563 Y50.1015 
G01 X-38.3185 Y50.1015 
G01 X-38.2894 Y50.0937 
G01 X-34.8706 Y50.0937 
G01 X-34.8415 Y50.1015 
G01 X-34.8037 Y50.1015 
G01 X-34.7663 Y50.1064 
G01 X-34.7288 Y50.1015 
G01 X-26.2312 Y50.1015 
G01 X-26.1937 Y50.1064 
G01 X-26.1563 Y50.1015 
G01 X-26.1185 Y50.1015 
G01 X-26.0894 Y50.0937 
G01 X-22.6706 Y50.0937 
G01 X-22.6415 Y50.1015 
G01 X-22.6037 Y50.1015 
G01 X-22.5663 Y50.1064 
G01 X-22.5288 Y50.1015 
G01 X-22.1427 Y50.1015 
G01 X-22.1052 Y50.1064 
G01 X-22.0678 Y50.1015 
G01 X-22.0300 Y50.1015 
G01 X-21.9935 Y50.0917 
G01 X-21.9561 Y50.0868 
G01 X-21.9212 Y50.0723 
G01 X-21.8847 Y50.0626 
G01 X-21.8519 Y50.0436 
G01 X-21.8170 Y50.0292 
G01 X-21.7871 Y50.0062 
G01 X-21.7544 Y49.9873 
G01 X-21.7276 Y49.9606 
G01 X-21.6977 Y49.9376 
G01 X-21.6815 Y49.9165 
G01 X-21.4674 Y49.9165 
G01 X-21.4567 Y49.9374 
G00 X-58.2803 Y15.7860 
G01 Z0.0000 F254000.00 
G01 X-58.2803 Y15.9640 F3000.00 
G01 X-58.2525 Y16.1397 
G01 X-58.1975 Y16.3089 
G01 X-58.1167 Y16.4674 
G01 X-58.0121 Y16.6113 
G01 X-57.8863 Y16.7371 
G01 X-57.8153 Y16.7888 
G01 X-57.7056 Y29.6009 
G01 X-57.8168 Y29.6009 
G01 X-57.8775 Y29.6260 
G01 X-57.9240 Y29.6725 
G01 X-57.9491 Y29.7332 
G01 X-57.9491 Y31.3068 
G01 X-57.9240 Y31.3675 
G01 X-57.8775 Y31.4140 
G01 X-57.8168 Y31.4391 
G01 X-56.2432 Y31.4391 
G01 X-56.1825 Y31.4140 
G01 X-56.1360 Y31.3675 
G01 X-56.1109 Y31.3068 
G01 X-56.1109 Y29.7332 
G01 X-56.1360 Y29.6725 
G01 X-56.1825 Y29.6260 
G01 X-56.2432 Y29.6009 
G01 X-56.3593 Y29.6009 
G01 X-56.4691 Y16.7775 
G01 X-56.4137 Y16.7371 
G01 X-56.2879 Y16.6113 
G01 X-56.1833 Y16.4674 
G01 X-56.1025 Y16.3089 
G01 X-56.0475 Y16.1397 
G01 X-56.0197 Y15.9640 
G01 X-56.0197 Y15.7860 
G01 X-56.0475 Y15.6103 
G01 X-56.1025 Y15.4411 
G01 X-56.1833 Y15.2826 
G01 X-56.2879 Y15.1387 
G01 X-56.4137 Y15.0129 
G01 X-56.5576 Y14.9083 
G01 X-56.7161 Y14.8275 
G01 X-56.8853 Y14.7725 
G01 X-57.0610 Y14.7447 
G01 X-57.2390 Y14.7447 
G01 X-57.4147 Y14.7725 
G01 X-57.5839 Y14.8275 
G01 X-57.7424 Y14.9083 
G01 X-57.8863 Y15.0129 
G01 X-58.0121 Y15.1387 
G01 X-58.1167 Y15.2826 
G01 X-58.1975 Y15.4411 
G01 X-58.2525 Y15.6103 
G01 X-58.2803 Y15.7860 
G00 X-46.9010 Y17.0053 
G01 Z0.0000 F254000.00 
G01 X-46.7253 Y16.9775 F3000.00 
G01 X-46.5561 Y16.9225 
G01 X-46.3976 Y16.8417 
G01 X-46.2537 Y16.7371 
G01 X-46.1279 Y16.6113 
G01 X-46.0233 Y16.4674 
G01 X-45.9425 Y16.3089 
G01 X-45.8875 Y16.1397 
G01 X-45.8597 Y15.9640 
G01 X-45.8597 Y15.8863 
G01 X-45.8533 Y15.8974 
G01 X-45.8516 Y15.9002 
G01 X-45.7452 Y16.0066 
G01 X-45.6918 Y16.0375 
G01 X-45.6149 Y16.0819 
G01 X-45.4696 Y16.1208 
G01 X-45.3191 Y16.1208 
G01 X-45.1737 Y16.0819 
G01 X-45.0463 Y16.0083 
G01 X-45.0434 Y16.0066 
G01 X-44.9370 Y15.9002 
G01 X-40.4033 Y11.3665 
G01 X-20.5567 Y11.3665 
G01 X-15.2816 Y16.6416 
G01 X-15.1513 Y16.7169 
G01 X-15.0059 Y16.7558 
G01 X-14.8554 Y16.7558 
G01 X-14.7101 Y16.7169 
G01 X-14.6365 Y16.6744 
G01 X-14.5798 Y16.6416 
G01 X-14.4734 Y16.5352 
G01 X-14.4653 Y16.5213 
G01 X-14.4653 Y16.5990 
G01 X-14.4375 Y16.7747 
G01 X-14.3825 Y16.9439 
G01 X-14.3017 Y17.1024 
G01 X-14.1971 Y17.2463 
G01 X-14.0713 Y17.3721 
G01 X-13.9274 Y17.4767 
G01 X-13.7689 Y17.5575 
G01 X-13.5997 Y17.6125 
G01 X-13.4240 Y17.6403 
G01 X-13.3463 Y17.6403 
G01 X-13.3574 Y17.6467 
G01 X-13.3602 Y17.6484 
G01 X-13.4666 Y17.7548 
G01 X-13.4975 Y17.8082 
G01 X-13.5419 Y17.8851 
G01 X-13.5808 Y18.0304 
G01 X-13.5808 Y18.1809 
G01 X-13.5419 Y18.3263 
G01 X-13.4683 Y18.4537 
G01 X-13.4666 Y18.4566 
G01 X-13.3909 Y18.5323 
G01 X-8.8265 Y23.0967 
G01 X-8.8265 Y45.7952 
G01 X-8.7876 Y45.9406 
G01 X-8.7123 Y46.0709 
G01 X-8.6059 Y46.1773 
G01 X-8.4756 Y46.2525 
G01 X-8.3302 Y46.2915 
G01 X-5.6398 Y46.2915 
G01 X-5.4944 Y46.2525 
G01 X-5.3641 Y46.1773 
G01 X-5.2577 Y46.0709 
G01 X-5.1824 Y45.9406 
G01 X-5.1435 Y45.7952 
G01 X-5.1435 Y20.2448 
G01 X-5.1824 Y20.0994 
G01 X-5.2577 Y19.9691 
G01 X-5.3641 Y19.8627 
G01 X-17.4291 Y7.7977 
G01 X-17.5594 Y7.7224 
G01 X-17.7048 Y7.6835 
G01 X-43.2552 Y7.6835 
G01 X-43.4006 Y7.7224 
G01 X-43.5309 Y7.7977 
G01 X-43.6373 Y7.9041 
G01 X-55.7023 Y19.9691 
G01 X-55.7776 Y20.0994 
G01 X-55.8165 Y20.2448 
G01 X-55.8165 Y45.7952 
G01 X-55.7776 Y45.9406 
G01 X-55.7023 Y46.0709 
G01 X-55.5959 Y46.1773 
G01 X-43.5309 Y58.2423 
G01 X-43.4006 Y58.3176 
G01 X-43.2552 Y58.3565 
G01 X-21.3530 Y58.3565 
G01 X-21.3155 Y58.3614 
G01 X-21.2781 Y58.3565 
G01 X-21.2403 Y58.3565 
G01 X-21.2038 Y58.3467 
G01 X-21.1664 Y58.3418 
G01 X-21.1314 Y58.3273 
G01 X-21.0950 Y58.3176 
G01 X-21.0622 Y58.2987 
G01 X-20.7552 Y58.1715 
G01 X-20.2247 Y58.1715 
G01 X-19.9178 Y58.2987 
G01 X-19.8850 Y58.3176 
G01 X-19.8486 Y58.3273 
G01 X-19.8136 Y58.3418 
G01 X-19.7762 Y58.3467 
G01 X-19.7397 Y58.3565 
G01 X-19.7019 Y58.3565 
G01 X-19.6645 Y58.3614 
G01 X-19.6270 Y58.3565 
G01 X-17.7048 Y58.3565 
G01 X-17.5594 Y58.3176 
G01 X-17.4291 Y58.2423 
G01 X-17.3227 Y58.1359 
G01 X-6.5277 Y47.3409 
G01 X-6.4524 Y47.2106 
G01 X-6.4135 Y47.0652 
G01 X-6.4135 Y46.9148 
G01 X-6.4524 Y46.7694 
G01 X-6.5277 Y46.6391 
G01 X-6.6341 Y46.5327 
G01 X-6.7644 Y46.4574 
G01 X-6.9098 Y46.4185 
G01 X-12.1402 Y46.4185 
G01 X-12.2856 Y46.4574 
G01 X-12.4159 Y46.5327 
G01 X-12.5223 Y46.6391 
G01 X-14.1016 Y48.2184 
G01 X-14.1769 Y48.3487 
G01 X-14.2158 Y48.4941 
G01 X-14.2158 Y48.6446 
G01 X-14.1769 Y48.7899 
G01 X-14.1344 Y48.8635 
G01 X-14.1016 Y48.9202 
G01 X-13.9952 Y49.0266 
G01 X-13.9813 Y49.0347 
G01 X-14.0590 Y49.0347 
G01 X-14.2347 Y49.0625 
G01 X-14.4039 Y49.1175 
G01 X-14.5624 Y49.1983 
G01 X-14.7063 Y49.3029 
G01 X-14.8321 Y49.4287 
G01 X-14.9367 Y49.5726 
G01 X-15.0175 Y49.7311 
G01 X-15.0725 Y49.9003 
G01 X-15.1003 Y50.0760 
G01 X-15.1003 Y50.1537 
G01 X-15.1067 Y50.1426 
G01 X-15.1084 Y50.1398 
G01 X-15.2148 Y50.0334 
G01 X-15.2682 Y50.0025 
G01 X-15.3451 Y49.9581 
G01 X-15.4904 Y49.9192 
G01 X-15.6409 Y49.9192 
G01 X-15.7863 Y49.9581 
G01 X-15.9137 Y50.0317 
G01 X-15.9166 Y50.0334 
G01 X-16.0230 Y50.1398 
G01 X-20.5567 Y54.6735 
G01 X-40.4033 Y54.6735 
G01 X-45.5720 Y49.5048 
G01 X-45.5928 Y49.4840 
G01 X-45.6784 Y49.3984 
G01 X-45.8087 Y49.3231 
G01 X-45.9541 Y49.2842 
G01 X-46.1046 Y49.2842 
G01 X-46.2499 Y49.3231 
G01 X-46.3235 Y49.3656 
G01 X-46.3802 Y49.3984 
G01 X-46.4866 Y49.5048 
G01 X-46.4947 Y49.5187 
G01 X-46.4947 Y49.4410 
G01 X-46.5225 Y49.2653 
G01 X-46.5775 Y49.0961 
G01 X-46.6583 Y48.9376 
G01 X-46.7629 Y48.7937 
G01 X-46.8887 Y48.6679 
G01 X-47.0326 Y48.5633 
G01 X-47.1911 Y48.4825 
G01 X-47.3603 Y48.4275 
G01 X-47.5360 Y48.3997 
G01 X-47.6137 Y48.3997 
G01 X-47.6026 Y48.3933 
G01 X-47.5998 Y48.3916 
G01 X-47.4934 Y48.2852 
G01 X-47.4625 Y48.2318 
G01 X-47.4181 Y48.1549 
G01 X-47.3792 Y48.0096 
G01 X-47.3792 Y47.8591 
G01 X-47.4181 Y47.7137 
G01 X-47.4917 Y47.5863 
G01 X-47.4934 Y47.5834 
G01 X-47.5998 Y47.4770 
G01 X-52.1335 Y42.9433 
G01 X-52.1335 Y23.0967 
G01 X-46.8584 Y17.8216 
G01 X-46.7831 Y17.6913 
G01 X-46.7442 Y17.5459 
G01 X-46.7442 Y17.3954 
G01 X-46.7831 Y17.2501 
G01 X-46.8256 Y17.1765 
G01 X-46.8584 Y17.1198 
G01 X-46.9648 Y17.0134 
G01 X-46.9787 Y17.0053 
G01 X-46.9010 Y17.0053 
G00 X-32.0609 Y60.3568 
G01 Z0.0000 F254000.00 
G01 X-32.0609 Y58.7832 F3000.00 
G01 X-32.0860 Y58.7225 
G01 X-32.1325 Y58.6760 
G01 X-32.1932 Y58.6509 
G01 X-33.7668 Y58.6509 
G01 X-33.8275 Y58.6760 
G01 X-33.8740 Y58.7225 
G01 X-33.8991 Y58.7832 
G01 X-33.8991 Y58.9044 
G01 X-46.7223 Y59.0095 
G01 X-46.7629 Y58.9537 
G01 X-46.8887 Y58.8279 
G01 X-47.0326 Y58.7233 
G01 X-47.1911 Y58.6425 
G01 X-47.3603 Y58.5875 
G01 X-47.5360 Y58.5597 
G01 X-47.7140 Y58.5597 
G01 X-47.8897 Y58.5875 
G01 X-48.0589 Y58.6425 
G01 X-48.2174 Y58.7233 
G01 X-48.3613 Y58.8279 
G01 X-48.4871 Y58.9537 
G01 X-48.5917 Y59.0976 
G01 X-48.6725 Y59.2561 
G01 X-48.7275 Y59.4253 
G01 X-48.7553 Y59.6010 
G01 X-48.7553 Y59.7790 
G01 X-48.7275 Y59.9547 
G01 X-48.6725 Y60.1239 
G01 X-48.5917 Y60.2824 
G01 X-48.4871 Y60.4263 
G01 X-48.3613 Y60.5521 
G01 X-48.2174 Y60.6567 
G01 X-48.0589 Y60.7375 
G01 X-47.8897 Y60.7925 
G01 X-47.7140 Y60.8203 
G01 X-47.5360 Y60.8203 
G01 X-47.3603 Y60.7925 
G01 X-47.1911 Y60.7375 
G01 X-47.0326 Y60.6567 
G01 X-46.8887 Y60.5521 
G01 X-46.7629 Y60.4263 
G01 X-46.7115 Y60.3556 
G01 X-33.8991 Y60.2507 
G01 X-33.8991 Y60.3568 
G01 X-33.8740 Y60.4175 
G01 X-33.8275 Y60.4640 
G01 X-33.7668 Y60.4891 
G01 X-32.1932 Y60.4891 
G01 X-32.1325 Y60.4640 
G01 X-32.0860 Y60.4175 
G01 X-32.0609 Y60.3568 
G00 X-29.5609 Y60.3568 
G01 Z0.0000 F254000.00 
G01 X-29.5609 Y58.7832 F3000.00 
G01 X-29.5860 Y58.7225 
G01 X-29.6325 Y58.6760 
G01 X-29.6932 Y58.6509 
G01 X-31.2668 Y58.6509 
G01 X-31.3275 Y58.6760 
G01 X-31.3740 Y58.7225 
G01 X-31.3991 Y58.7832 
G01 X-31.3991 Y60.3568 
G01 X-31.3740 Y60.4175 
G01 X-31.3275 Y60.4640 
G01 X-31.2668 Y60.4891 
G01 X-29.6932 Y60.4891 
G01 X-29.6325 Y60.4640 
G01 X-29.5860 Y60.4175 
G01 X-29.5609 Y60.3568 
G00 X-32.0609 Y45.8568 
G01 Z0.0000 F254000.00 
G01 X-32.0609 Y44.2832 F3000.00 
G01 X-32.0860 Y44.2225 
G01 X-32.1325 Y44.1760 
G01 X-32.1932 Y44.1509 
G01 X-33.7668 Y44.1509 
G01 X-33.8275 Y44.1760 
G01 X-33.8740 Y44.2225 
G01 X-33.8991 Y44.2832 
G01 X-33.8991 Y45.8568 
G01 X-33.8740 Y45.9175 
G01 X-33.8275 Y45.9640 
G01 X-33.7668 Y45.9891 
G01 X-32.1932 Y45.9891 
G01 X-32.1325 Y45.9640 
G01 X-32.0860 Y45.9175 
G01 X-32.0609 Y45.8568 
G00 X-9.7892 Y37.3469 
G01 Z0.0000 F254000.00 
G01 X-13.0708 Y37.3469 F3000.00 
G01 X-13.1315 Y37.3720 
G01 X-13.1780 Y37.4185 
G01 X-13.2031 Y37.4792 
G01 X-13.2031 Y40.7608 
G01 X-13.1780 Y40.8215 
G01 X-13.1315 Y40.8680 
G01 X-13.0708 Y40.8931 
G01 X-9.7892 Y40.8931 
G01 X-9.7285 Y40.8680 
G01 X-9.6820 Y40.8215 
G01 X-9.6569 Y40.7608 
G01 X-9.6569 Y37.4792 
G01 X-9.6820 Y37.4185 
G01 X-9.7285 Y37.3720 
G01 X-9.7892 Y37.3469 
G00 X-9.7892 Y25.1469 
G01 Z0.0000 F254000.00 
G01 X-13.0708 Y25.1469 F3000.00 
G01 X-13.1315 Y25.1720 
G01 X-13.1780 Y25.2185 
G01 X-13.2031 Y25.2792 
G01 X-13.2031 Y28.5608 
G01 X-13.1780 Y28.6215 
G01 X-13.1315 Y28.6680 
G01 X-13.0708 Y28.6931 
G01 X-9.7892 Y28.6931 
G01 X-9.7285 Y28.6680 
G01 X-9.6820 Y28.6215 
G01 X-9.6569 Y28.5608 
G01 X-9.6569 Y25.2792 
G01 X-9.6820 Y25.2185 
G01 X-9.7285 Y25.1720 
G01 X-9.7892 Y25.1469 
G00 X-57.8168 Y33.9391 
G01 Z0.0000 F254000.00 
G01 X-56.2432 Y33.9391 F3000.00 
G01 X-56.1825 Y33.9140 
G01 X-56.1360 Y33.8675 
G01 X-56.1109 Y33.8068 
G01 X-56.1109 Y32.2332 
G01 X-56.1360 Y32.1725 
G01 X-56.1825 Y32.1260 
G01 X-56.2432 Y32.1009 
G01 X-57.8168 Y32.1009 
G01 X-57.8775 Y32.1260 
G01 X-57.9240 Y32.1725 
G01 X-57.9491 Y32.2332 
G01 X-57.9491 Y33.8068 
G01 X-57.9240 Y33.8675 
G01 X-57.8775 Y33.9140 
G01 X-57.8168 Y33.9391 
G00 X-56.2432 Y36.4391 
G01 Z0.0000 F254000.00 
G01 X-56.1825 Y36.4140 F3000.00 
G01 X-56.1360 Y36.3675 
G01 X-56.1109 Y36.3068 
G01 X-56.1109 Y34.7332 
G01 X-56.1360 Y34.6725 
G01 X-56.1825 Y34.6260 
G01 X-56.2432 Y34.6009 
G01 X-57.8168 Y34.6009 
G01 X-57.8775 Y34.6260 
G01 X-57.9240 Y34.6725 
G01 X-57.9491 Y34.7332 
G01 X-57.9491 Y36.3068 
G01 X-57.9240 Y36.3675 
G01 X-57.8775 Y36.4140 
G01 X-57.8231 Y36.4365 
G01 X-57.8231 Y42.2719 
G01 X-57.8863 Y42.3179 
G01 X-58.0121 Y42.4437 
G01 X-58.1167 Y42.5876 
G01 X-58.1975 Y42.7461 
G01 X-58.2525 Y42.9153 
G01 X-58.2803 Y43.0910 
G01 X-58.2803 Y43.2690 
G01 X-58.2525 Y43.4447 
G01 X-58.1975 Y43.6139 
G01 X-58.1167 Y43.7724 
G01 X-58.0121 Y43.9163 
G01 X-57.8863 Y44.0421 
G01 X-57.7424 Y44.1467 
G01 X-57.5839 Y44.2275 
G01 X-57.4147 Y44.2825 
G01 X-57.2390 Y44.3103 
G01 X-57.0610 Y44.3103 
G01 X-56.8853 Y44.2825 
G01 X-56.7161 Y44.2275 
G01 X-56.5576 Y44.1467 
G01 X-56.4137 Y44.0421 
G01 X-56.2879 Y43.9163 
G01 X-56.1833 Y43.7724 
G01 X-56.1025 Y43.6139 
G01 X-56.0475 Y43.4447 
G01 X-56.0197 Y43.2690 
G01 X-56.0197 Y43.0910 
G01 X-56.0475 Y42.9153 
G01 X-56.1025 Y42.7461 
G01 X-56.1833 Y42.5876 
G01 X-56.2879 Y42.4437 
G01 X-56.4137 Y42.3179 
G01 X-56.4769 Y42.2719 
G01 X-56.4769 Y36.4391 
G01 X-56.2432 Y36.4391 
G00 X-43.3168 Y31.4391 
G01 Z0.0000 F254000.00 
G01 X-41.7432 Y31.4391 F3000.00 
G01 X-41.6825 Y31.4140 
G01 X-41.6360 Y31.3675 
G01 X-41.6109 Y31.3068 
G01 X-41.6109 Y29.7332 
G01 X-41.6360 Y29.6725 
G01 X-41.6825 Y29.6260 
G01 X-41.7432 Y29.6009 
G01 X-43.3168 Y29.6009 
G01 X-43.3775 Y29.6260 
G01 X-43.4240 Y29.6725 
G01 X-43.4491 Y29.7332 
G01 X-43.4491 Y31.3068 
G01 X-43.4240 Y31.3675 
G01 X-43.3775 Y31.4140 
G01 X-43.3168 Y31.4391 
G00 X-26.1531 Y12.3292 
G01 Z0.0000 F254000.00 
G01 X-26.1531 Y15.6108 F3000.00 
G01 X-26.1280 Y15.6715 
G01 X-26.0815 Y15.7180 
G01 X-26.0208 Y15.7431 
G01 X-22.7392 Y15.7431 
G01 X-22.6785 Y15.7180 
G01 X-22.6320 Y15.6715 
G01 X-22.6069 Y15.6108 
G01 X-22.6069 Y12.3292 
G01 X-22.6320 Y12.2685 
G01 X-22.6785 Y12.2220 
G01 X-22.7392 Y12.1969 
G01 X-26.0208 Y12.1969 
G01 X-26.0815 Y12.2220 
G01 X-26.1280 Y12.2685 
G01 X-26.1531 Y12.3292 
G00 X-38.3531 Y12.3292 
G01 Z0.0000 F254000.00 
G01 X-38.3531 Y15.6108 F3000.00 
G01 X-38.3280 Y15.6715 
G01 X-38.2815 Y15.7180 
G01 X-38.2208 Y15.7431 
G01 X-34.9392 Y15.7431 
G01 X-34.8785 Y15.7180 
G01 X-34.8320 Y15.6715 
G01 X-34.8069 Y15.6108 
G01 X-34.8069 Y12.3292 
G01 X-34.8320 Y12.2685 
G01 X-34.8785 Y12.2220 
G01 X-34.9392 Y12.1969 
G01 X-38.2208 Y12.1969 
G01 X-38.2815 Y12.2220 
G01 X-38.3280 Y12.2685 
G01 X-38.3531 Y12.3292 
G00 X-36.1315 Y38.1752 
G01 Z0.0000 F254000.00 
G01 X-36.0926 Y38.3206 F3000.00 
G01 X-36.0173 Y38.4509 
G01 X-35.9109 Y38.5573 
G01 X-35.7806 Y38.6326 
G01 X-35.6352 Y38.6715 
G01 X-25.3248 Y38.6715 
G01 X-25.1794 Y38.6326 
G01 X-25.0491 Y38.5573 
G01 X-24.9427 Y38.4509 
G01 X-24.8674 Y38.3206 
G01 X-24.8285 Y38.1752 
G01 X-24.8285 Y27.8648 
G01 X-24.8674 Y27.7194 
G01 X-24.9427 Y27.5891 
G01 X-25.0491 Y27.4827 
G01 X-25.1794 Y27.4074 
G01 X-25.3248 Y27.3685 
G01 X-35.6352 Y27.3685 
G01 X-35.7806 Y27.4074 
G01 X-35.9109 Y27.4827 
G01 X-36.0173 Y27.5891 
G01 X-36.0926 Y27.7194 
G01 X-36.1315 Y27.8648 
G01 X-36.1315 Y28.0152 
G01 X-36.1315 Y38.1752 
G00 Z0.0000 
G00 X-28.9626 Y20.1705 
G01 Z0.0000 F254000.00 
G01 X-28.9626 Y21.7695 F3000.00 
G01 X-28.9278 Y21.8535 
G01 X-28.8635 Y21.9178 
G01 X-28.7795 Y21.9526 
G01 X-27.1805 Y21.9526 
G01 X-27.0965 Y21.9178 
G01 X-27.0322 Y21.8535 
G01 X-26.9974 Y21.7695 
G01 X-26.9974 Y20.1705 
G01 X-27.0322 Y20.0865 
G01 X-27.0965 Y20.0222 
G01 X-27.1805 Y19.9874 
G01 X-28.7795 Y19.9874 
G01 X-28.8635 Y20.0222 
G01 X-28.9278 Y20.0865 
G01 X-28.9626 Y20.1705 
G00 X-31.4626 Y5.6705 
G01 Z0.0000 F254000.00 
G01 X-31.4626 Y7.2695 F3000.00 
G01 X-31.4278 Y7.3535 
G01 X-31.3635 Y7.4178 
G01 X-31.2795 Y7.4526 
G01 X-29.6805 Y7.4526 
G01 X-29.5965 Y7.4178 
G01 X-29.5322 Y7.3535 
G01 X-29.4974 Y7.2695 
G01 X-29.4974 Y5.6705 
G01 X-29.5322 Y5.5865 
G01 X-29.5965 Y5.5222 
G01 X-29.6805 Y5.4874 
G01 X-31.2795 Y5.4874 
G01 X-31.3635 Y5.5222 
G01 X-31.4278 Y5.5865 
G01 X-31.4626 Y5.6705 
G00 X-28.9626 Y5.6705 
G01 Z0.0000 F254000.00 
G01 X-28.9626 Y7.2695 F3000.00 
G01 X-28.9278 Y7.3535 
G01 X-28.8635 Y7.4178 
G01 X-28.7795 Y7.4526 
G01 X-27.1805 Y7.4526 
G01 X-27.0965 Y7.4178 
G01 X-27.0322 Y7.3535 
G01 X-26.9974 Y7.2695 
G01 X-26.9974 Y7.2036 
G01 X-14.2696 Y7.0946 
G01 X-14.2456 Y7.1277 
G01 X-14.1127 Y7.2606 
G01 X-13.9607 Y7.3710 
G01 X-13.7933 Y7.4563 
G01 X-13.6145 Y7.5144 
G01 X-13.4290 Y7.5438 
G01 X-13.2410 Y7.5438 
G01 X-13.0555 Y7.5144 
G01 X-12.8767 Y7.4563 
G01 X-12.7093 Y7.3710 
G01 X-12.5573 Y7.2606 
G01 X-12.4244 Y7.1277 
G01 X-12.3140 Y6.9757 
G01 X-12.2287 Y6.8083 
G01 X-12.1706 Y6.6295 
G01 X-12.1412 Y6.4440 
G01 X-12.1412 Y6.2560 
G01 X-12.1706 Y6.0705 
G01 X-12.2287 Y5.8917 
G01 X-12.3140 Y5.7243 
G01 X-12.4244 Y5.5723 
G01 X-12.5573 Y5.4394 
G01 X-12.7093 Y5.3290 
G01 X-12.8767 Y5.2437 
G01 X-13.0555 Y5.1856 
G01 X-13.2410 Y5.1562 
G01 X-13.4290 Y5.1562 
G01 X-13.6145 Y5.1856 
G01 X-13.7933 Y5.2437 
G01 X-13.9607 Y5.3290 
G01 X-14.1127 Y5.4394 
G01 X-14.2456 Y5.5723 
G01 X-14.2813 Y5.6215 
G01 X-26.9974 Y5.7304 
G01 X-26.9974 Y5.6705 
G01 X-27.0322 Y5.5865 
G01 X-27.0965 Y5.5222 
G01 X-27.1805 Y5.4874 
G01 X-28.7795 Y5.4874 
G01 X-28.8635 Y5.5222 
G01 X-28.9278 Y5.5865 
G01 X-28.9626 Y5.6705 
G00 X-51.1835 Y40.9566 
G01 Z0.0000 F254000.00 
G01 X-47.8765 Y40.9566 F3000.00 
G01 X-47.7925 Y40.9218 
G01 X-47.7282 Y40.8575 
G01 X-47.6934 Y40.7735 
G01 X-47.6934 Y37.4665 
G01 X-47.7282 Y37.3825 
G01 X-47.7925 Y37.3182 
G01 X-47.8765 Y37.2834 
G01 X-51.1835 Y37.2834 
G01 X-51.2675 Y37.3182 
G01 X-51.3318 Y37.3825 
G01 X-51.3666 Y37.4665 
G01 X-51.3666 Y40.7735 
G01 X-51.3318 Y40.8575 
G01 X-51.2675 Y40.9218 
G01 X-51.1835 Y40.9566 
G00 X-51.1835 Y28.7566 
G01 Z0.0000 F254000.00 
G01 X-47.8765 Y28.7566 F3000.00 
G01 X-47.7925 Y28.7218 
G01 X-47.7282 Y28.6575 
G01 X-47.6934 Y28.5735 
G01 X-47.6934 Y25.2665 
G01 X-47.7282 Y25.1825 
G01 X-47.7925 Y25.1182 
G01 X-47.8765 Y25.0834 
G01 X-51.1835 Y25.0834 
G01 X-51.2675 Y25.1182 
G01 X-51.3318 Y25.1825 
G01 X-51.3666 Y25.2665 
G01 X-51.3666 Y28.5735 
G01 X-51.3318 Y28.6575 
G01 X-51.2675 Y28.7218 
G01 X-51.1835 Y28.7566 
G00 X-17.6305 Y34.5374 
G01 Z0.0000 F254000.00 
G01 X-19.2295 Y34.5374 F3000.00 
G01 X-19.3135 Y34.5722 
G01 X-19.3778 Y34.6365 
G01 X-19.4126 Y34.7205 
G01 X-19.4126 Y36.3195 
G01 X-19.3778 Y36.4035 
G01 X-19.3135 Y36.4678 
G01 X-19.2295 Y36.5026 
G01 X-17.6305 Y36.5026 
G01 X-17.5465 Y36.4678 
G01 X-17.4822 Y36.4035 
G01 X-17.4474 Y36.3195 
G01 X-17.4474 Y34.7205 
G01 X-17.4822 Y34.6365 
G01 X-17.5465 Y34.5722 
G01 X-17.6305 Y34.5374 
G00 X-3.1305 Y32.0374 
G01 Z0.0000 F254000.00 
G01 X-4.7295 Y32.0374 F3000.00 
G01 X-4.8135 Y32.0722 
G01 X-4.8778 Y32.1365 
G01 X-4.9126 Y32.2205 
G01 X-4.9126 Y33.8195 
G01 X-4.8778 Y33.9035 
G01 X-4.8135 Y33.9678 
G01 X-4.7295 Y34.0026 
G01 X-3.1305 Y34.0026 
G01 X-3.0465 Y33.9678 
G01 X-2.9822 Y33.9035 
G01 X-2.9474 Y33.8195 
G01 X-2.9474 Y32.2205 
G01 X-2.9822 Y32.1365 
G01 X-3.0465 Y32.0722 
G01 X-3.1305 Y32.0374 
G00 X-22.5434 Y53.7235 
G01 Z0.0000 F254000.00 
G01 X-22.5434 Y50.4165 F3000.00 
G01 X-22.5782 Y50.3325 
G01 X-22.6425 Y50.2682 
G01 X-22.7265 Y50.2334 
G01 X-26.0335 Y50.2334 
G01 X-26.1175 Y50.2682 
G01 X-26.1818 Y50.3325 
G01 X-26.2166 Y50.4165 
G01 X-26.2166 Y53.7235 
G01 X-26.1818 Y53.8075 
G01 X-26.1175 Y53.8718 
G01 X-26.0335 Y53.9066 
G01 X-22.7265 Y53.9066 
G01 X-22.6425 Y53.8718 
G01 X-22.5782 Y53.8075 
G01 X-22.5434 Y53.7235 
G00 X-34.7434 Y53.7235 
G01 Z0.0000 F254000.00 
G01 X-34.7434 Y50.4165 F3000.00 
G01 X-34.7782 Y50.3325 
G01 X-34.8425 Y50.2682 
G01 X-34.9265 Y50.2334 
G01 X-38.2335 Y50.2334 
G01 X-38.3175 Y50.2682 
G01 X-38.3818 Y50.3325 
G01 X-38.4166 Y50.4165 
G01 X-38.4166 Y53.7235 
G01 X-38.3818 Y53.8075 
G01 X-38.3175 Y53.8718 
G01 X-38.2335 Y53.9066 
G01 X-34.9265 Y53.9066 
G01 X-34.8425 Y53.8718 
G01 X-34.7782 Y53.8075 
G01 X-34.7434 Y53.7235 
G00 X-5.0038 Y22.7660 
G01 Z0.0000 F254000.00 
G01 X-5.0038 Y22.9540 F3000.00 
G01 X-4.9744 Y23.1395 
G01 X-4.9163 Y23.3183 
G01 X-4.8310 Y23.4857 
G01 X-4.7206 Y23.6377 
G01 X-4.5877 Y23.7706 
G01 X-4.4899 Y23.8416 
G01 X-4.5622 Y25.4433 
G01 X-4.5650 Y25.4575 
G01 X-4.5650 Y25.5057 
G01 X-4.5672 Y25.5539 
G01 X-4.5650 Y25.5681 
G01 X-4.5650 Y29.5374 
G01 X-4.7295 Y29.5374 
G01 X-4.8135 Y29.5722 
G01 X-4.8778 Y29.6365 
G01 X-4.9126 Y29.7205 
G01 X-4.9126 Y31.3195 
G01 X-4.8778 Y31.4035 
G01 X-4.8135 Y31.4678 
G01 X-4.7295 Y31.5026 
G01 X-3.1305 Y31.5026 
G01 X-3.0465 Y31.4678 
G01 X-2.9822 Y31.4035 
G01 X-2.9474 Y31.3195 
G01 X-2.9474 Y29.7205 
G01 X-2.9822 Y29.6365 
G01 X-3.0465 Y29.5722 
G01 X-3.1305 Y29.5374 
G01 X-3.2950 Y29.5374 
G01 X-3.2950 Y25.5343 
G01 X-3.2213 Y23.8999 
G01 X-3.1843 Y23.8810 
G01 X-3.0323 Y23.7706 
G01 X-2.8994 Y23.6377 
G01 X-2.7890 Y23.4857 
G01 X-2.7037 Y23.3183 
G01 X-2.6456 Y23.1395 
G01 X-2.6162 Y22.9540 
G01 X-2.6162 Y22.7660 
G01 X-2.6456 Y22.5805 
G01 X-2.7037 Y22.4017 
G01 X-2.7890 Y22.2343 
G01 X-2.8994 Y22.0823 
G01 X-3.0323 Y21.9494 
G01 X-3.1843 Y21.8390 
G01 X-3.3517 Y21.7537 
G01 X-3.5305 Y21.6956 
G01 X-3.7160 Y21.6662 
G01 X-3.9040 Y21.6662 
G01 X-4.0895 Y21.6956 
G01 X-4.2683 Y21.7537 
G01 X-4.4357 Y21.8390 
G01 X-4.5877 Y21.9494 
G01 X-4.7206 Y22.0823 
G01 X-4.8310 Y22.2343 
G01 X-4.9163 Y22.4017 
G01 X-4.9744 Y22.5805 
G01 X-5.0038 Y22.7660 
G00 X-5.0038 Y50.0710 
G01 Z0.0000 F254000.00 
G01 X-5.0038 Y50.2590 F3000.00 
G01 X-4.9744 Y50.4445 
G01 X-4.9163 Y50.6233 
G01 X-4.8310 Y50.7907 
G01 X-4.7206 Y50.9427 
G01 X-4.5877 Y51.0756 
G01 X-4.4357 Y51.1860 
G01 X-4.2683 Y51.2713 
G01 X-4.0895 Y51.3294 
G01 X-3.9040 Y51.3588 
G01 X-3.7160 Y51.3588 
G01 X-3.5305 Y51.3294 
G01 X-3.3517 Y51.2713 
G01 X-3.1843 Y51.1860 
G01 X-3.0323 Y51.0756 
G01 X-2.8994 Y50.9427 
G01 X-2.7890 Y50.7907 
G01 X-2.7037 Y50.6233 
G01 X-2.6456 Y50.4445 
G01 X-2.6162 Y50.2590 
G01 X-2.6162 Y50.0710 
G01 X-2.6456 Y49.8855 
G01 X-2.7037 Y49.7067 
G01 X-2.7890 Y49.5393 
G01 X-2.8994 Y49.3873 
G01 X-3.0323 Y49.2544 
G01 X-3.0811 Y49.2189 
G01 X-3.1853 Y36.5026 
G01 X-3.1305 Y36.5026 
G01 X-3.0465 Y36.4678 
G01 X-2.9822 Y36.4035 
G01 X-2.9474 Y36.3195 
G01 X-2.9474 Y34.7205 
G01 X-2.9822 Y34.6365 
G01 X-3.0465 Y34.5722 
G01 X-3.1305 Y34.5374 
G01 X-4.7295 Y34.5374 
G01 X-4.8135 Y34.5722 
G01 X-4.8778 Y34.6365 
G01 X-4.9126 Y34.7205 
G01 X-4.9126 Y36.3195 
G01 X-4.8778 Y36.4035 
G01 X-4.8135 Y36.4678 
G01 X-4.7295 Y36.5026 
G01 X-4.6586 Y36.5026 
G01 X-4.5543 Y49.2301 
G01 X-4.5877 Y49.2544 
G01 X-4.7206 Y49.3873 
G01 X-4.8310 Y49.5393 
G01 X-4.9163 Y49.7067 
G01 X-4.9744 Y49.8855 
G01 X-5.0038 Y50.0710 
G00 X-29.4386 Y41.8645 
G01 Z0.0000 F254000.00 
G01 X-29.4386 Y45.7655 F3000.00 
G01 X-29.4038 Y45.8495 
G01 X-29.3395 Y45.9138 
G01 X-29.2555 Y45.9486 
G01 X-28.9298 Y45.9486 
G01 X-28.9278 Y45.9535 
G01 X-28.8635 Y46.0178 
G01 X-28.7795 Y46.0526 
G01 X-27.1805 Y46.0526 
G01 X-27.0965 Y46.0178 
G01 X-27.0322 Y45.9535 
G01 X-27.0302 Y45.9486 
G01 X-26.6245 Y45.9486 
G01 X-26.5405 Y45.9138 
G01 X-26.4762 Y45.8495 
G01 X-26.4414 Y45.7655 
G01 X-26.4414 Y41.8645 
G01 X-26.4762 Y41.7805 
G01 X-26.5405 Y41.7162 
G01 X-26.6245 Y41.6814 
G01 X-27.2284 Y41.6814 
G01 X-27.3143 Y41.6190 
G01 X-27.4817 Y41.5337 
G01 X-27.6605 Y41.4756 
G01 X-27.8460 Y41.4462 
G01 X-28.0340 Y41.4462 
G01 X-28.2195 Y41.4756 
G01 X-28.3983 Y41.5337 
G01 X-28.5657 Y41.6190 
G01 X-28.6516 Y41.6814 
G01 X-29.2555 Y41.6814 
G01 X-29.3395 Y41.7162 
G01 X-29.4038 Y41.7805 
G01 X-29.4386 Y41.8645 
G00 X-43.4086 Y34.2445 
G01 Z0.0000 F254000.00 
G01 X-43.4086 Y34.5702 F3000.00 
G01 X-43.4135 Y34.5722 
G01 X-43.4778 Y34.6365 
G01 X-43.5126 Y34.7205 
G01 X-43.5126 Y36.3195 
G01 X-43.4778 Y36.4035 
G01 X-43.4135 Y36.4678 
G01 X-43.4086 Y36.4698 
G01 X-43.4086 Y36.8755 
G01 X-43.3738 Y36.9595 
G01 X-43.3095 Y37.0238 
G01 X-43.2255 Y37.0586 
G01 X-39.3245 Y37.0586 
G01 X-39.2405 Y37.0238 
G01 X-39.1762 Y36.9595 
G01 X-39.1414 Y36.8755 
G01 X-39.1414 Y35.5774 
G01 X-39.1356 Y35.5595 
G01 X-39.1062 Y35.3740 
G01 X-39.1062 Y35.1860 
G01 X-39.1356 Y35.0005 
G01 X-39.1414 Y34.9826 
G01 X-39.1414 Y34.2445 
G01 X-39.1762 Y34.1605 
G01 X-39.2405 Y34.0962 
G01 X-39.3245 Y34.0614 
G01 X-43.2255 Y34.0614 
G01 X-43.3095 Y34.0962 
G01 X-43.3738 Y34.1605 
G01 X-43.4086 Y34.2445 
G00 X-21.8186 Y29.1645 
G01 Z0.0000 F254000.00 
G01 X-21.8186 Y29.5628 F3000.00 
G01 X-21.8277 Y29.5694 
G01 X-21.9606 Y29.7023 
G01 X-22.0710 Y29.8543 
G01 X-22.1563 Y30.0217 
G01 X-22.2144 Y30.2005 
G01 X-22.2438 Y30.3860 
G01 X-22.2438 Y30.5740 
G01 X-22.2144 Y30.7595 
G01 X-22.1563 Y30.9383 
G01 X-22.0710 Y31.1057 
G01 X-21.9606 Y31.2577 
G01 X-21.8277 Y31.3906 
G01 X-21.8186 Y31.3972 
G01 X-21.8186 Y31.7955 
G01 X-21.7838 Y31.8795 
G01 X-21.7195 Y31.9438 
G01 X-21.6355 Y31.9786 
G01 X-17.7345 Y31.9786 
G01 X-17.6505 Y31.9438 
G01 X-17.5862 Y31.8795 
G01 X-17.5514 Y31.7955 
G01 X-17.5514 Y31.4698 
G01 X-17.5465 Y31.4678 
G01 X-17.4822 Y31.4035 
G01 X-17.4474 Y31.3195 
G01 X-17.4474 Y29.7205 
G01 X-17.4822 Y29.6365 
G01 X-17.5465 Y29.5722 
G01 X-17.5514 Y29.5702 
G01 X-17.5514 Y29.1645 
G01 X-17.5862 Y29.0805 
G01 X-17.6505 Y29.0162 
G01 X-17.7345 Y28.9814 
G01 X-21.6355 Y28.9814 
G01 X-21.7195 Y29.0162 
G01 X-21.7838 Y29.0805 
G01 X-21.8186 Y29.1645 
G00 X-34.5186 Y20.2745 
G01 Z0.0000 F254000.00 
G01 X-34.5186 Y24.1755 F3000.00 
G01 X-34.4838 Y24.2595 
G01 X-34.4195 Y24.3238 
G01 X-34.3355 Y24.3586 
G01 X-33.6112 Y24.3586 
G01 X-33.4783 Y24.4263 
G01 X-33.2995 Y24.4844 
G01 X-33.1140 Y24.5138 
G01 X-32.9260 Y24.5138 
G01 X-32.7405 Y24.4844 
G01 X-32.5617 Y24.4263 
G01 X-32.4288 Y24.3586 
G01 X-31.7045 Y24.3586 
G01 X-31.6205 Y24.3238 
G01 X-31.5562 Y24.2595 
G01 X-31.5214 Y24.1755 
G01 X-31.5214 Y20.2745 
G01 X-31.5562 Y20.1905 
G01 X-31.6205 Y20.1262 
G01 X-31.7045 Y20.0914 
G01 X-32.0302 Y20.0914 
G01 X-32.0322 Y20.0865 
G01 X-32.0965 Y20.0222 
G01 X-32.1805 Y19.9874 
G01 X-33.7795 Y19.9874 
G01 X-33.8635 Y20.0222 
G01 X-33.9278 Y20.0865 
G01 X-33.9298 Y20.0914 
G01 X-34.3355 Y20.0914 
G01 X-34.4195 Y20.1262 
G01 X-34.4838 Y20.1905 
G01 X-34.5186 Y20.2745 
G00 X-41.8338 Y6.2560 
G01 Z0.0000 F254000.00 
G01 X-41.8338 Y6.4440 F3000.00 
G01 X-41.8044 Y6.6295 
G01 X-41.7463 Y6.8083 
G01 X-41.6610 Y6.9757 
G01 X-41.5506 Y7.1277 
G01 X-41.4177 Y7.2606 
G01 X-41.2657 Y7.3710 
G01 X-41.0983 Y7.4563 
G01 X-40.9195 Y7.5144 
G01 X-40.7340 Y7.5438 
G01 X-40.5460 Y7.5438 
G01 X-40.3605 Y7.5144 
G01 X-40.1817 Y7.4563 
G01 X-40.0143 Y7.3710 
G01 X-39.8623 Y7.2606 
G01 X-39.7294 Y7.1277 
G01 X-39.7129 Y7.1050 
G01 X-33.9626 Y7.1050 
G01 X-33.9626 Y7.2695 
G01 X-33.9278 Y7.3535 
G01 X-33.8635 Y7.4178 
G01 X-33.7795 Y7.4526 
G01 X-32.1805 Y7.4526 
G01 X-32.0965 Y7.4178 
G01 X-32.0322 Y7.3535 
G01 X-31.9974 Y7.2695 
G01 X-31.9974 Y5.6705 
G01 X-32.0322 Y5.5865 
G01 X-32.0965 Y5.5222 
G01 X-32.1805 Y5.4874 
G01 X-33.7795 Y5.4874 
G01 X-33.8635 Y5.5222 
G01 X-33.9278 Y5.5865 
G01 X-33.9626 Y5.6705 
G01 X-33.9626 Y5.8350 
G01 X-39.5626 Y5.8350 
G01 X-39.6190 Y5.7243 
G01 X-39.7294 Y5.5723 
G01 X-39.8623 Y5.4394 
G01 X-40.0143 Y5.3290 
G01 X-40.1817 Y5.2437 
G01 X-40.3605 Y5.1856 
G01 X-40.5460 Y5.1562 
G01 X-40.7340 Y5.1562 
G01 X-40.9195 Y5.1856 
G01 X-41.0983 Y5.2437 
G01 X-41.2657 Y5.3290 
G01 X-41.4177 Y5.4394 
G01 X-41.5506 Y5.5723 
G01 X-41.6610 Y5.7243 
G01 X-41.7463 Y5.8917 
G01 X-41.8044 Y6.0705 
G01 X-41.8338 Y6.2560 
G00 X-21.4006 Y60.2827 
G01 Z0.0000 F254000.00 
G01 X-21.2677 Y60.4156 F3000.00 
G01 X-21.1157 Y60.5260 
G01 X-20.9483 Y60.6113 
G01 X-20.7695 Y60.6694 
G01 X-20.5840 Y60.6988 
G01 X-20.3960 Y60.6988 
G01 X-20.2105 Y60.6694 
G01 X-20.0317 Y60.6113 
G01 X-19.8643 Y60.5260 
G01 X-19.7123 Y60.4156 
G01 X-19.5794 Y60.2827 
G01 X-19.4690 Y60.1307 
G01 X-19.3837 Y59.9633 
G01 X-19.3256 Y59.7845 
G01 X-19.2962 Y59.5990 
G01 X-19.2962 Y59.4110 
G01 X-19.3256 Y59.2255 
G01 X-19.3837 Y59.0467 
G01 X-19.4690 Y58.8793 
G01 X-19.5794 Y58.7273 
G01 X-19.7123 Y58.5944 
G01 X-19.8643 Y58.4840 
G01 X-20.0317 Y58.3987 
G01 X-20.2105 Y58.3406 
G01 X-20.3960 Y58.3112 
G01 X-20.5840 Y58.3112 
G01 X-20.7695 Y58.3406 
G01 X-20.9483 Y58.3987 
G01 X-21.1157 Y58.4840 
G01 X-21.2677 Y58.5944 
G01 X-21.4006 Y58.7273 
G01 X-21.5057 Y58.8720 
G01 X-26.9974 Y58.8831 
G01 X-26.9974 Y58.7705 
G01 X-27.0322 Y58.6865 
G01 X-27.0965 Y58.6222 
G01 X-27.1805 Y58.5874 
G01 X-28.7795 Y58.5874 
G01 X-28.8635 Y58.6222 
G01 X-28.9278 Y58.6865 
G01 X-28.9626 Y58.7705 
G01 X-28.9626 Y60.3695 
G01 X-28.9278 Y60.4535 
G01 X-28.8635 Y60.5178 
G01 X-28.7795 Y60.5526 
G01 X-27.1805 Y60.5526 
G01 X-27.0965 Y60.5178 
G01 X-27.0322 Y60.4535 
G01 X-26.9974 Y60.3695 
G01 X-26.9974 Y60.1531 
G01 X-21.5028 Y60.1420 
G01 X-21.4006 Y60.2827 
G00 X-58.3438 Y15.7810 
G01 Z0.0000 F254000.00 
G01 X-58.3438 Y15.9690 F3000.00 
G01 X-58.3144 Y16.1545 
G01 X-58.2563 Y16.3333 
G01 X-58.1710 Y16.5007 
G01 X-58.0606 Y16.6527 
G01 X-57.9277 Y16.7856 
G01 X-57.8785 Y16.8213 
G01 X-57.7696 Y29.5374 
G01 X-57.8295 Y29.5374 
G01 X-57.9135 Y29.5722 
G01 X-57.9778 Y29.6365 
G01 X-58.0126 Y29.7205 
G01 X-58.0126 Y31.3195 
G01 X-57.9778 Y31.4035 
G01 X-57.9135 Y31.4678 
G01 X-57.8295 Y31.5026 
G01 X-56.2305 Y31.5026 
G01 X-56.1465 Y31.4678 
G01 X-56.0822 Y31.4035 
G01 X-56.0474 Y31.3195 
G01 X-56.0474 Y29.7205 
G01 X-56.0822 Y29.6365 
G01 X-56.1465 Y29.5722 
G01 X-56.2305 Y29.5374 
G01 X-56.2964 Y29.5374 
G01 X-56.4054 Y16.8096 
G01 X-56.3723 Y16.7856 
G01 X-56.2394 Y16.6527 
G01 X-56.1290 Y16.5007 
G01 X-56.0437 Y16.3333 
G01 X-55.9856 Y16.1545 
G01 X-55.9562 Y15.9690 
G01 X-55.9562 Y15.7810 
G01 X-55.9856 Y15.5955 
G01 X-56.0437 Y15.4167 
G01 X-56.1290 Y15.2493 
G01 X-56.2394 Y15.0973 
G01 X-56.3723 Y14.9644 
G01 X-56.5243 Y14.8540 
G01 X-56.6917 Y14.7687 
G01 X-56.8705 Y14.7106 
G01 X-57.0560 Y14.6812 
G01 X-57.2440 Y14.6812 
G01 X-57.4295 Y14.7106 
G01 X-57.6083 Y14.7687 
G01 X-57.7757 Y14.8540 
G01 X-57.9277 Y14.9644 
G01 X-58.0606 Y15.0973 
G01 X-58.1710 Y15.2493 
G01 X-58.2563 Y15.4167 
G01 X-58.3144 Y15.5955 
G01 X-58.3438 Y15.7810 
G00 X-46.7105 Y17.0394 
G01 Z0.0000 F254000.00 
G01 X-46.5317 Y16.9813 F3000.00 
G01 X-46.3643 Y16.8960 
G01 X-46.2123 Y16.7856 
G01 X-46.0794 Y16.6527 
G01 X-45.9690 Y16.5007 
G01 X-45.8837 Y16.3333 
G01 X-45.8256 Y16.1545 
G01 X-45.8067 Y16.0350 
G01 X-45.7991 Y16.0426 
G01 X-45.7817 Y16.0542 
G01 X-45.7660 Y16.0680 
G01 X-45.7298 Y16.0888 
G01 X-45.6951 Y16.1120 
G01 X-45.6758 Y16.1201 
G01 X-45.6577 Y16.1305 
G01 X-45.6181 Y16.1439 
G01 X-45.5795 Y16.1599 
G01 X-45.5590 Y16.1640 
G01 X-45.5392 Y16.1707 
G01 X-45.4978 Y16.1762 
G01 X-45.4569 Y16.1843 
G01 X-45.4359 Y16.1843 
G01 X-45.4152 Y16.1870 
G01 X-45.3735 Y16.1843 
G01 X-45.3318 Y16.1843 
G01 X-45.3113 Y16.1802 
G01 X-45.2904 Y16.1789 
G01 X-45.2501 Y16.1681 
G01 X-45.2091 Y16.1599 
G01 X-45.1898 Y16.1519 
G01 X-45.1696 Y16.1465 
G01 X-45.1321 Y16.1280 
G01 X-45.0935 Y16.1120 
G01 X-45.0761 Y16.1004 
G01 X-45.0574 Y16.0912 
G01 X-45.0243 Y16.0658 
G01 X-44.9895 Y16.0426 
G01 X-44.9747 Y16.0278 
G01 X-44.9581 Y16.0150 
G01 X-44.9306 Y15.9836 
G01 X-40.3770 Y11.4300 
G01 X-20.5830 Y11.4300 
G01 X-15.3944 Y16.6186 
G01 X-15.3669 Y16.6500 
G01 X-15.3503 Y16.6628 
G01 X-15.3355 Y16.6776 
G01 X-15.3007 Y16.7008 
G01 X-15.2676 Y16.7262 
G01 X-15.2489 Y16.7354 
G01 X-15.2315 Y16.7471 
G01 X-15.1929 Y16.7630 
G01 X-15.1554 Y16.7815 
G01 X-15.1352 Y16.7869 
G01 X-15.1159 Y16.7949 
G01 X-15.0749 Y16.8031 
G01 X-15.0346 Y16.8139 
G01 X-15.0137 Y16.8152 
G01 X-14.9932 Y16.8193 
G01 X-14.9515 Y16.8193 
G01 X-14.9098 Y16.8221 
G01 X-14.8891 Y16.8193 
G01 X-14.8681 Y16.8193 
G01 X-14.8272 Y16.8112 
G01 X-14.7858 Y16.8057 
G01 X-14.7660 Y16.7990 
G01 X-14.7454 Y16.7949 
G01 X-14.7069 Y16.7789 
G01 X-14.6673 Y16.7655 
G01 X-14.6492 Y16.7551 
G01 X-14.6299 Y16.7471 
G01 X-14.5952 Y16.7238 
G01 X-14.5590 Y16.7030 
G01 X-14.5433 Y16.6892 
G01 X-14.5259 Y16.6776 
G01 X-14.5183 Y16.6700 
G01 X-14.4994 Y16.7895 
G01 X-14.4413 Y16.9683 
G01 X-14.3560 Y17.1357 
G01 X-14.2456 Y17.2877 
G01 X-14.1127 Y17.4206 
G01 X-13.9607 Y17.5310 
G01 X-13.7933 Y17.6163 
G01 X-13.6145 Y17.6744 
G01 X-13.4950 Y17.6933 
G01 X-13.5026 Y17.7009 
G01 X-13.5142 Y17.7183 
G01 X-13.5280 Y17.7340 
G01 X-13.5488 Y17.7702 
G01 X-13.5721 Y17.8049 
G01 X-13.5801 Y17.8242 
G01 X-13.5905 Y17.8423 
G01 X-13.6039 Y17.8819 
G01 X-13.6199 Y17.9205 
G01 X-13.6240 Y17.9410 
G01 X-13.6307 Y17.9608 
G01 X-13.6362 Y18.0022 
G01 X-13.6443 Y18.0431 
G01 X-13.6443 Y18.0640 
G01 X-13.6471 Y18.0848 
G01 X-13.6443 Y18.1265 
G01 X-13.6443 Y18.1682 
G01 X-13.6402 Y18.1887 
G01 X-13.6389 Y18.2096 
G01 X-13.6281 Y18.2499 
G01 X-13.6199 Y18.2909 
G01 X-13.6119 Y18.3102 
G01 X-13.6065 Y18.3304 
G01 X-13.5880 Y18.3679 
G01 X-13.5721 Y18.4065 
G01 X-13.5604 Y18.4239 
G01 X-13.5512 Y18.4426 
G01 X-13.5258 Y18.4757 
G01 X-13.5026 Y18.5105 
G01 X-13.4878 Y18.5253 
G01 X-13.4750 Y18.5419 
G01 X-13.4436 Y18.5694 
G01 X-8.8900 Y23.1230 
G01 X-8.8900 Y45.7825 
G01 X-8.8656 Y45.9052 
G01 X-8.8177 Y46.0208 
G01 X-8.7482 Y46.1248 
G01 X-8.6598 Y46.2132 
G01 X-8.5558 Y46.2827 
G01 X-8.4402 Y46.3306 
G01 X-8.3175 Y46.3550 
G01 X-5.6525 Y46.3550 
G01 X-5.5298 Y46.3306 
G01 X-5.4142 Y46.2827 
G01 X-5.3102 Y46.2132 
G01 X-5.2218 Y46.1248 
G01 X-5.1523 Y46.0208 
G01 X-5.1044 Y45.9052 
G01 X-5.0800 Y45.7825 
G01 X-5.0800 Y20.2575 
G01 X-5.1044 Y20.1348 
G01 X-5.1523 Y20.0192 
G01 X-5.2218 Y19.9152 
G01 X-5.3102 Y19.8268 
G01 X-17.3752 Y7.7618 
G01 X-17.4792 Y7.6923 
G01 X-17.5948 Y7.6444 
G01 X-17.7175 Y7.6200 
G01 X-43.2425 Y7.6200 
G01 X-43.3652 Y7.6444 
G01 X-43.4808 Y7.6923 
G01 X-43.5848 Y7.7618 
G01 X-43.6732 Y7.8502 
G01 X-55.7382 Y19.9152 
G01 X-55.8077 Y20.0192 
G01 X-55.8556 Y20.1348 
G01 X-55.8800 Y20.2575 
G01 X-55.8800 Y45.7825 
G01 X-55.8556 Y45.9052 
G01 X-55.8077 Y46.0208 
G01 X-55.7382 Y46.1248 
G01 X-55.6498 Y46.2132 
G01 X-43.5848 Y58.2782 
G01 X-43.4808 Y58.3477 
G01 X-43.3652 Y58.3956 
G01 X-43.2425 Y58.4200 
G01 X-21.2530 Y58.4200 
G01 X-21.1303 Y58.3956 
G01 X-21.0789 Y58.3743 
G01 X-21.0148 Y58.3477 
G01 X-20.7426 Y58.2350 
G01 X-20.2374 Y58.2350 
G01 X-19.9652 Y58.3477 
G01 X-19.9041 Y58.3730 
G01 X-19.8497 Y58.3956 
G01 X-19.7270 Y58.4200 
G01 X-17.7175 Y58.4200 
G01 X-17.5948 Y58.3956 
G01 X-17.4792 Y58.3477 
G01 X-17.3752 Y58.2782 
G01 X-17.2868 Y58.1898 
G01 X-6.4918 Y47.3948 
G01 X-6.4223 Y47.2908 
G01 X-6.3744 Y47.1752 
G01 X-6.3500 Y47.0525 
G01 X-6.3500 Y46.9275 
G01 X-6.3744 Y46.8048 
G01 X-6.4223 Y46.6892 
G01 X-6.4918 Y46.5852 
G01 X-6.5802 Y46.4968 
G01 X-6.6842 Y46.4273 
G01 X-6.7998 Y46.3794 
G01 X-6.9225 Y46.3550 
G01 X-12.1275 Y46.3550 
G01 X-12.2502 Y46.3794 
G01 X-12.3658 Y46.4273 
G01 X-12.4698 Y46.4968 
G01 X-12.5582 Y46.5852 
G01 X-14.0786 Y48.1056 
G01 X-14.1100 Y48.1331 
G01 X-14.1228 Y48.1497 
G01 X-14.1376 Y48.1645 
G01 X-14.1608 Y48.1992 
G01 X-14.1862 Y48.2324 
G01 X-14.1954 Y48.2511 
G01 X-14.2071 Y48.2685 
G01 X-14.2230 Y48.3071 
G01 X-14.2415 Y48.3446 
G01 X-14.2469 Y48.3648 
G01 X-14.2549 Y48.3841 
G01 X-14.2631 Y48.4250 
G01 X-14.2739 Y48.4654 
G01 X-14.2752 Y48.4863 
G01 X-14.2793 Y48.5068 
G01 X-14.2793 Y48.5485 
G01 X-14.2820 Y48.5902 
G01 X-14.2793 Y48.6109 
G01 X-14.2793 Y48.6319 
G01 X-14.2712 Y48.6728 
G01 X-14.2657 Y48.7142 
G01 X-14.2590 Y48.7340 
G01 X-14.2549 Y48.7545 
G01 X-14.2389 Y48.7931 
G01 X-14.2255 Y48.8327 
G01 X-14.2151 Y48.8508 
G01 X-14.2071 Y48.8701 
G01 X-14.1838 Y48.9048 
G01 X-14.1630 Y48.9410 
G01 X-14.1492 Y48.9567 
G01 X-14.1376 Y48.9741 
G01 X-14.1300 Y48.9817 
G01 X-14.2495 Y49.0006 
G01 X-14.4283 Y49.0587 
G01 X-14.5957 Y49.1440 
G01 X-14.7477 Y49.2544 
G01 X-14.8806 Y49.3873 
G01 X-14.9910 Y49.5393 
G01 X-15.0763 Y49.7067 
G01 X-15.1344 Y49.8855 
G01 X-15.1533 Y50.0050 
G01 X-15.1609 Y49.9974 
G01 X-15.1783 Y49.9858 
G01 X-15.1940 Y49.9720 
G01 X-15.2302 Y49.9512 
G01 X-15.2649 Y49.9279 
G01 X-15.2842 Y49.9199 
G01 X-15.3023 Y49.9095 
G01 X-15.3419 Y49.8961 
G01 X-15.3805 Y49.8801 
G01 X-15.4010 Y49.8760 
G01 X-15.4208 Y49.8693 
G01 X-15.4622 Y49.8638 
G01 X-15.5031 Y49.8557 
G01 X-15.5240 Y49.8557 
G01 X-15.5448 Y49.8529 
G01 X-15.5865 Y49.8557 
G01 X-15.6282 Y49.8557 
G01 X-15.6487 Y49.8598 
G01 X-15.6696 Y49.8611 
G01 X-15.7099 Y49.8719 
G01 X-15.7509 Y49.8801 
G01 X-15.7702 Y49.8881 
G01 X-15.7904 Y49.8935 
G01 X-15.8279 Y49.9120 
G01 X-15.8665 Y49.9279 
G01 X-15.8839 Y49.9396 
G01 X-15.9026 Y49.9488 
G01 X-15.9357 Y49.9742 
G01 X-15.9705 Y49.9974 
G01 X-15.9853 Y50.0122 
G01 X-16.0019 Y50.0250 
G01 X-16.0294 Y50.0564 
G01 X-20.5830 Y54.6100 
G01 X-40.3770 Y54.6100 
G01 X-45.5656 Y49.4214 
G01 X-45.5931 Y49.3900 
G01 X-45.6097 Y49.3772 
G01 X-45.6245 Y49.3624 
G01 X-45.6593 Y49.3392 
G01 X-45.6924 Y49.3138 
G01 X-45.7111 Y49.3046 
G01 X-45.7285 Y49.2929 
G01 X-45.7671 Y49.2770 
G01 X-45.8046 Y49.2585 
G01 X-45.8248 Y49.2531 
G01 X-45.8441 Y49.2451 
G01 X-45.8850 Y49.2369 
G01 X-45.9254 Y49.2261 
G01 X-45.9463 Y49.2248 
G01 X-45.9668 Y49.2207 
G01 X-46.0085 Y49.2207 
G01 X-46.0502 Y49.2179 
G01 X-46.0709 Y49.2207 
G01 X-46.0919 Y49.2207 
G01 X-46.1328 Y49.2288 
G01 X-46.1742 Y49.2343 
G01 X-46.1940 Y49.2410 
G01 X-46.2145 Y49.2451 
G01 X-46.2531 Y49.2611 
G01 X-46.2927 Y49.2745 
G01 X-46.3108 Y49.2849 
G01 X-46.3301 Y49.2929 
G01 X-46.3648 Y49.3162 
G01 X-46.4010 Y49.3370 
G01 X-46.4167 Y49.3508 
G01 X-46.4341 Y49.3624 
G01 X-46.4417 Y49.3700 
G01 X-46.4606 Y49.2505 
G01 X-46.5187 Y49.0717 
G01 X-46.6040 Y48.9043 
G01 X-46.7144 Y48.7523 
G01 X-46.8473 Y48.6194 
G01 X-46.9993 Y48.5090 
G01 X-47.1667 Y48.4237 
G01 X-47.3454 Y48.3656 
G01 X-47.4650 Y48.3467 
G01 X-47.4574 Y48.3391 
G01 X-47.4458 Y48.3217 
G01 X-47.4320 Y48.3060 
G01 X-47.4111 Y48.2698 
G01 X-47.3879 Y48.2351 
G01 X-47.3799 Y48.2158 
G01 X-47.3695 Y48.1977 
G01 X-47.3561 Y48.1581 
G01 X-47.3401 Y48.1195 
G01 X-47.3360 Y48.0990 
G01 X-47.3293 Y48.0792 
G01 X-47.3238 Y48.0378 
G01 X-47.3157 Y47.9969 
G01 X-47.3157 Y47.9759 
G01 X-47.3129 Y47.9552 
G01 X-47.3157 Y47.9135 
G01 X-47.3157 Y47.8718 
G01 X-47.3198 Y47.8513 
G01 X-47.3211 Y47.8304 
G01 X-47.3319 Y47.7901 
G01 X-47.3401 Y47.7491 
G01 X-47.3481 Y47.7298 
G01 X-47.3535 Y47.7096 
G01 X-47.3720 Y47.6721 
G01 X-47.3879 Y47.6335 
G01 X-47.3996 Y47.6161 
G01 X-47.4088 Y47.5974 
G01 X-47.4342 Y47.5643 
G01 X-47.4574 Y47.5295 
G01 X-47.4722 Y47.5147 
G01 X-47.4850 Y47.4981 
G01 X-47.5164 Y47.4706 
G01 X-52.0700 Y42.9170 
G01 X-52.0700 Y23.1230 
G01 X-46.8814 Y17.9344 
G01 X-46.8500 Y17.9069 
G01 X-46.8372 Y17.8903 
G01 X-46.8224 Y17.8755 
G01 X-46.7992 Y17.8407 
G01 X-46.7738 Y17.8076 
G01 X-46.7646 Y17.7889 
G01 X-46.7529 Y17.7715 
G01 X-46.7370 Y17.7329 
G01 X-46.7185 Y17.6954 
G01 X-46.7131 Y17.6752 
G01 X-46.7051 Y17.6559 
G01 X-46.6969 Y17.6149 
G01 X-46.6861 Y17.5746 
G01 X-46.6848 Y17.5537 
G01 X-46.6807 Y17.5332 
G01 X-46.6807 Y17.4915 
G01 X-46.6779 Y17.4498 
G01 X-46.6807 Y17.4291 
G01 X-46.6807 Y17.4081 
G01 X-46.6888 Y17.3672 
G01 X-46.6943 Y17.3258 
G01 X-46.7010 Y17.3060 
G01 X-46.7051 Y17.2855 
G01 X-46.7211 Y17.2469 
G01 X-46.7345 Y17.2073 
G01 X-46.7449 Y17.1892 
G01 X-46.7529 Y17.1699 
G01 X-46.7762 Y17.1352 
G01 X-46.7970 Y17.0990 
G01 X-46.8108 Y17.0833 
G01 X-46.8224 Y17.0659 
G01 X-46.8300 Y17.0583 
G01 X-46.7105 Y17.0394 
G00 X-48.1838 Y43.0860 
G01 Z0.0000 F254000.00 
G01 X-48.1838 Y43.2740 F3000.00 
G01 X-48.1544 Y43.4595 
G01 X-48.0963 Y43.6383 
G01 X-48.0110 Y43.8057 
G01 X-47.9006 Y43.9577 
G01 X-47.7677 Y44.0906 
G01 X-47.6250 Y44.1943 
G01 X-47.6250 Y45.7825 
G01 X-47.6006 Y45.9052 
G01 X-47.5527 Y46.0208 
G01 X-47.4832 Y46.1248 
G01 X-47.3948 Y46.2132 
G01 X-43.5848 Y50.0232 
G01 X-43.4808 Y50.0927 
G01 X-43.3652 Y50.1406 
G01 X-43.2425 Y50.1650 
G01 X-38.4562 Y50.1650 
G01 X-38.3939 Y50.1650 
G01 X-38.3312 Y50.1650 
G01 X-38.2920 Y50.1572 
G01 X-34.8680 Y50.1572 
G01 X-34.8289 Y50.1650 
G01 X-34.7666 Y50.1650 
G01 X-34.7038 Y50.1650 
G01 X-26.2563 Y50.1650 
G01 X-26.1940 Y50.1650 
G01 X-26.1312 Y50.1650 
G01 X-26.0920 Y50.1572 
G01 X-22.6680 Y50.1572 
G01 X-22.6288 Y50.1650 
G01 X-22.5667 Y50.1650 
G01 X-22.5038 Y50.1650 
G01 X-22.1260 Y50.1650 
G01 X-22.0844 Y50.1677 
