(Block-name: Header)
(Block-expand: 0)
(Block-enable: 1)
(.../pcb-gcode-3_6_0_4/pcb-gcode.ulp)
(Copyright 2005 - 2012 by John Johnson)
(See readme.txt for licensing terms.)
(This file generated from the board:)
(.../midi_pad/midi_pad_laser_optimized.brd)
(Current profile is .../pcb-gcode-3_6_0_4/profiles/generic.pp  )
(This file generated 24.08.22 01:02)
(Settings from pcb-machine.h)
(  Tool Size)
(0.1778 )
(Z Axis Settings)
(  High     Up        Down     Drill)
(12.0000 	10.0000 	2.0000 	1.0000 )
(spindle on time = 3.0000)
(milling depth = 1.0000)
(text depth = 1.0000)
(tool change at 12.7000 15.2400 25.4000 )
(feed rate xy = F3000.00 )
(feed rate z  = F50.00 )
(Settings from pcb-defaults.h)
(isolate min = 0.0254)
(isolate max = 0.1270)
(isolate step = 0.0635)
(Generated top outlines, bottom outlines, bottom drill, )
(Unit of measure: mm)
( Tool|       Size       |  Min Sub |  Max Sub |   Count )
( T01  0.350mm 0.0138in 0.0000in 0.0000in )
( T02  3.500mm 0.1378in 0.0000in 0.0000in )
( T03  4.000mm 0.1575in 0.0000in 0.0000in )
( T04  0.900mm 0.0354in 0.0000in 0.0000in )
( T05  1.000mm 0.0394in 0.0000in 0.0000in )
( T06  1.118mm 0.0440in 0.0000in 0.0000in )
( T07  1.500mm 0.0591in 0.0000in 0.0000in )
( T08  2.200mm 0.0866in 0.0000in 0.0000in )
( T09  2.286mm 0.0900in 0.0000in 0.0000in )
(Metric Mode)
G21
(Absolute Coordinates)
G90

G00 Z10.4000 
(Block-name: block)
(Block-expand: 0)
(Block-enable: 0)
(Block-X: M03)
(Block-X: G04 P3.000000)
(Block-X: G00 Z4.000000)
(Block-X: G00 X-5.0800 Y5.0800)
(Block-X: G01 Z0.0000 F50.00 S12000)
(Block-X: G01 Z4.000000)
(Block-X: [R10.0000  P0.000000])
(Block-X: [G00 Z4.000000])
(Block-X: G00 X-63.5000 Y106.6800)
(Block-X: G01 Z0.000000)
(Block-X: G01 Z4.000000)
(Block-X: [G00 Z4.000000])
(Block-X: G00 X-63.5000 Y116.8400)
(Block-X: G01 Z0.000000)
(Block-X: G01 Z4.000000)
(Block-X: [G00 Z4.000000])
(Block-X: G00 X-66.0400 Y106.6800)
(Block-X: G01 Z0.000000)
(Block-X: G01 Z4.000000)
(Block-X: [G00 Z4.000000])
(Block-X: G00 X-66.0400 Y116.8400)
(Block-X: G01 Z0.000000)
(Block-X: G01 Z4.000000)
(Block-X: [G00 Z4.000000])
(Block-X: G00 X-73.6600 Y63.5000)
(Block-X: G01 Z0.000000)
(Block-X: G01 Z4.000000)
(Block-X: [G00 Z4.000000])
(Block-X: G00 X-81.2800 Y60.9600)
(Block-X: G01 Z0.000000)
(Block-X: G01 Z4.000000)
(Block-X: [G00 Z4.000000])
(Block-X: G00 X-83.8200 Y73.6600)
(Block-X: G01 Z0.000000)
(Block-X: G01 Z4.000000)
(Block-X: [G00 Z4.000000])
(Block-X: G00 X-86.3600 Y66.0400)
(Block-X: G01 Z0.000000)
(Block-X: G01 Z4.000000)
(Block-X: [G00 Z4.000000])
(Block-X: G00 X-98.4250 Y8.2550)
(Block-X: G01 Z0.000000)
(Block-X: G01 Z4.000000)
(Block-X: [G00 Z4.000000])
(Block-X: G00 X-109.2200 Y8.2550)
(Block-X: G01 Z0.000000)
(Block-X: G01 Z4.000000)
(Block-X: [G00 Z4.000000])
(Block-X: G00 X-134.6200 Y124.4600)
(Block-X: G01 Z0.000000)
(Block-X: G01 Z4.000000)
(Block-X: )
(Block-X: G00 Z10.4000)
(Block-name: block)
(Block-expand: 0)
(Block-enable: 1)

G04 P3.000000
G00 Z4.000000
G00 X-96.6140 Y90.7380
G01 Z0.0000 F50.00  S12000
G01 Z4.000000
(R10.0000  P0.000000)
(G00 Z4.000000)
G00 X-112.1600 Y106.7920
G01 Z0.000000
G01 Z4.000000
(G00 Z4.000000)
G00 X-112.6680 Y90.7380
G01 Z0.000000
G01 Z4.000000

G00 Z10.4000
(Block-name: block)
(Block-expand: 0)
(Block-enable: 0)
(Block-X: )
(Block-X: G04 P3.000000)
(Block-X: G00 Z4.000000)
(Block-X: G00 X-35.5600 Y34.2900)
(Block-X: G01 Z0.0000 F50.00  S12000)
(Block-X: G01 Z4.000000)
(Block-X: [R10.0000  P0.000000])
(Block-X: [G00 Z4.000000])
(Block-X: G00 X-35.5600 Y53.3400)
(Block-X: G01 Z0.000000)
(Block-X: G01 Z4.000000)
(Block-X: [G00 Z4.000000])
(Block-X: G00 X-35.5600 Y72.3900)
(Block-X: G01 Z0.000000)
(Block-X: G01 Z4.000000)
(Block-X: [G00 Z4.000000])
(Block-X: G00 X-35.5600 Y15.2400)
(Block-X: G01 Z0.000000)
(Block-X: G01 Z4.000000)
(Block-X: [G00 Z4.000000])
(Block-X: G00 X-54.6100 Y34.2900)
(Block-X: G01 Z0.000000)
(Block-X: G01 Z4.000000)
(Block-X: [G00 Z4.000000])
(Block-X: G00 X-54.6100 Y53.3400)
(Block-X: G01 Z0.000000)
(Block-X: G01 Z4.000000)
(Block-X: [G00 Z4.000000])
(Block-X: G00 X-54.6100 Y72.3900)
(Block-X: G01 Z0.000000)
(Block-X: G01 Z4.000000)
(Block-X: [G00 Z4.000000])
(Block-X: G00 X-54.6100 Y15.2400)
(Block-X: G01 Z0.000000)
(Block-X: G01 Z4.000000)
(Block-X: [G00 Z4.000000])
(Block-X: [G00 X-96.3600 Y106.7920])
(Block-X: [G01 Z0.000000])
(Block-X: [G01 Z4.000000])
(Block-X: [G00 Z4.000000])
(Block-X: G00 X-16.5100 Y34.2900)
(Block-X: G01 Z0.000000)
(Block-X: G01 Z4.000000)
(Block-X: [G00 Z4.000000])
(Block-X: G00 X-16.5100 Y53.3400)
(Block-X: G01 Z0.000000)
(Block-X: G01 Z4.000000)
(Block-X: [G00 Z4.000000])
(Block-X: G00 X-16.5100 Y72.3900)
(Block-X: G01 Z0.000000)
(Block-X: G01 Z4.000000)
(Block-X: [G00 Z4.000000])
(Block-X: G00 X-16.5100 Y15.2400)
(Block-X: G01 Z0.000000)
(Block-X: G01 Z4.000000)
(Block-X: )
(Block-X: G00 Z10.4000)
(Block-name: block)
(Block-expand: 0)
(Block-enable: 0)
(Block-X: )
(Block-X: G04 P3.000000)
(Block-X: G00 Z4.000000)
(Block-X: G00 X-31.7500 Y110.4900)
(Block-X: G01 Z0.0000 F50.00  S12000)
(Block-X: G01 Z4.000000)
(Block-X: [R10.0000  P0.000000])
(Block-X: [G00 Z4.000000])
(Block-X: G00 X-34.2900 Y110.4900)
(Block-X: G01 Z0.000000)
(Block-X: G01 Z4.000000)
(Block-X: [G00 Z4.000000])
(Block-X: G00 X-36.8300 Y110.4900)
(Block-X: G01 Z0.000000)
(Block-X: G01 Z4.000000)
(Block-X: [G00 Z4.000000])
(Block-X: G00 X-39.3700 Y110.4900)
(Block-X: G01 Z0.000000)
(Block-X: G01 Z4.000000)
(Block-X: [G00 Z4.000000])
(Block-X: G00 X-12.7400 Y124.4600)
(Block-X: G01 Z0.000000)
(Block-X: G01 Z4.000000)
(Block-X: [G00 Z4.000000])
(Block-X: G00 X-15.2400 Y124.4600)
(Block-X: G01 Z0.000000)
(Block-X: G01 Z4.000000)
(Block-X: [G00 Z4.000000])
(Block-X: G00 X-17.7400 Y124.4600)
(Block-X: G01 Z0.000000)
(Block-X: G01 Z4.000000)
(Block-X: [G00 Z4.000000])
(Block-X: G00 X-25.4400 Y124.4600)
(Block-X: G01 Z0.000000)
(Block-X: G01 Z4.000000)
(Block-X: [G00 Z4.000000])
(Block-X: G00 X-27.9400 Y124.4600)
(Block-X: G01 Z0.000000)
(Block-X: G01 Z4.000000)
(Block-X: [G00 Z4.000000])
(Block-X: G00 X-30.4400 Y124.4600)
(Block-X: G01 Z0.000000)
(Block-X: G01 Z4.000000)
(Block-X: )
(Block-X: G00 Z10.4000)
(Block-name: block)
(Block-expand: 0)
(Block-enable: 0)
(Block-X: )
(Block-X: G04 P3.000000)
(Block-X: G00 Z4.000000)
(Block-X: G00 X-31.7500 Y48.2600)
(Block-X: G01 Z0.0000 F50.00  S12000)
(Block-X: G01 Z4.000000)
(Block-X: [R10.0000  P0.000000])
(Block-X: [G00 Z4.000000])
(Block-X: G00 X-31.7500 Y67.3100)
(Block-X: G01 Z0.000000)
(Block-X: G01 Z4.000000)
(Block-X: [G00 Z4.000000])
(Block-X: G00 X-31.7500 Y10.1600)
(Block-X: G01 Z0.000000)
(Block-X: G01 Z4.000000)
(Block-X: [G00 Z4.000000])
(Block-X: G00 X-31.7500 Y29.2100)
(Block-X: G01 Z0.000000)
(Block-X: G01 Z4.000000)
(Block-X: [G00 Z4.000000])
(Block-X: G00 X-33.0200 Y93.9800)
(Block-X: G01 Z0.000000)
(Block-X: G01 Z4.000000)
(Block-X: [G00 Z4.000000])
(Block-X: G00 X-33.0200 Y116.8400)
(Block-X: G01 Z0.000000)
(Block-X: G01 Z4.000000)
(Block-X: [G00 Z4.000000])
(Block-X: G00 X-35.5600 Y93.9800)
(Block-X: G01 Z0.000000)
(Block-X: G01 Z4.000000)
(Block-X: [G00 Z4.000000])
(Block-X: G00 X-35.5600 Y116.8400)
(Block-X: G01 Z0.000000)
(Block-X: G01 Z4.000000)
(Block-X: [G00 Z4.000000])
(Block-X: G00 X-38.1000 Y93.9800)
(Block-X: G01 Z0.000000)
(Block-X: G01 Z4.000000)
(Block-X: [G00 Z4.000000])
(Block-X: G00 X-38.1000 Y116.8400)
(Block-X: G01 Z0.000000)
(Block-X: G01 Z4.000000)
(Block-X: [G00 Z4.000000])
(Block-X: G00 X-39.3700 Y48.2600)
(Block-X: G01 Z0.000000)
(Block-X: G01 Z4.000000)
(Block-X: [G00 Z4.000000])
(Block-X: G00 X-39.3700 Y67.3100)
(Block-X: G01 Z0.000000)
(Block-X: G01 Z4.000000)
(Block-X: [G00 Z4.000000])
(Block-X: G00 X-39.3700 Y10.1600)
(Block-X: G01 Z0.000000)
(Block-X: G01 Z4.000000)
(Block-X: [G00 Z4.000000])
(Block-X: G00 X-39.3700 Y29.2100)
(Block-X: G01 Z0.000000)
(Block-X: G01 Z4.000000)
(Block-X: [G00 Z4.000000])
(Block-X: G00 X-40.6400 Y93.9800)
(Block-X: G01 Z0.000000)
(Block-X: G01 Z4.000000)
(Block-X: [G00 Z4.000000])
(Block-X: G00 X-40.6400 Y116.8400)
(Block-X: G01 Z0.000000)
(Block-X: G01 Z4.000000)
(Block-X: [G00 Z4.000000])
(Block-X: G00 X-43.1800 Y93.9800)
(Block-X: G01 Z0.000000)
(Block-X: G01 Z4.000000)
(Block-X: [G00 Z4.000000])
(Block-X: G00 X-43.1800 Y116.8400)
(Block-X: G01 Z0.000000)
(Block-X: G01 Z4.000000)
(Block-X: [G00 Z4.000000])
(Block-X: G00 X-45.7200 Y93.9800)
(Block-X: G01 Z0.000000)
(Block-X: G01 Z4.000000)
(Block-X: [G00 Z4.000000])
(Block-X: G00 X-45.7200 Y116.8400)
(Block-X: G01 Z0.000000)
(Block-X: G01 Z4.000000)
(Block-X: [G00 Z4.000000])
(Block-X: G00 X-50.8000 Y48.2600)
(Block-X: G01 Z0.000000)
(Block-X: G01 Z4.000000)
(Block-X: [G00 Z4.000000])
(Block-X: G00 X-50.8000 Y67.3100)
(Block-X: G01 Z0.000000)
(Block-X: G01 Z4.000000)
(Block-X: [G00 Z4.000000])
(Block-X: G00 X-50.8000 Y10.1600)
(Block-X: G01 Z0.000000)
(Block-X: G01 Z4.000000)
(Block-X: [G00 Z4.000000])
(Block-X: G00 X-50.8000 Y29.2100)
(Block-X: G01 Z0.000000)
(Block-X: G01 Z4.000000)
(Block-X: [G00 Z4.000000])
(Block-X: G00 X-58.4200 Y48.2600)
(Block-X: G01 Z0.000000)
(Block-X: G01 Z4.000000)
(Block-X: [G00 Z4.000000])
(Block-X: G00 X-58.4200 Y67.3100)
(Block-X: G01 Z0.000000)
(Block-X: G01 Z4.000000)
(Block-X: [G00 Z4.000000])
(Block-X: G00 X-58.4200 Y10.1600)
(Block-X: G01 Z0.000000)
(Block-X: G01 Z4.000000)
(Block-X: [G00 Z4.000000])
(Block-X: G00 X-58.4200 Y29.2100)
(Block-X: G01 Z0.000000)
(Block-X: G01 Z4.000000)
(Block-X: [G00 Z4.000000])
(Block-X: G00 X-77.5900 Y35.6000)
(Block-X: G01 Z0.000000)
(Block-X: G01 Z4.000000)
(Block-X: [G00 Z4.000000])
(Block-X: G00 X-77.5900 Y38.1000)
(Block-X: G01 Z0.000000)
(Block-X: G01 Z4.000000)
(Block-X: [G00 Z4.000000])
(Block-X: G00 X-77.5900 Y40.6000)
(Block-X: G01 Z0.000000)
(Block-X: G01 Z4.000000)
(Block-X: [G00 Z4.000000])
(Block-X: G00 X-92.0900 Y35.6000)
(Block-X: G01 Z0.000000)
(Block-X: G01 Z4.000000)
(Block-X: [G00 Z4.000000])
(Block-X: G00 X-92.0900 Y40.6000)
(Block-X: G01 Z0.000000)
(Block-X: G01 Z4.000000)
(Block-X: [G00 Z4.000000])
(Block-X: G00 X-97.7632 Y95.5794)
(Block-X: G01 Z0.000000)
(Block-X: G01 Z4.000000)
(Block-X: [G00 Z4.000000])
(Block-X: G00 X-97.7632 Y98.1194)
(Block-X: G01 Z0.000000)
(Block-X: G01 Z4.000000)
(Block-X: [G00 Z4.000000])
(Block-X: G00 X-97.7632 Y100.6594)
(Block-X: G01 Z0.000000)
(Block-X: G01 Z4.000000)
(Block-X: [G00 Z4.000000])
(Block-X: G00 X-97.7632 Y103.1994)
(Block-X: G01 Z0.000000)
(Block-X: G01 Z4.000000)
(Block-X: [G00 Z4.000000])
(Block-X: G00 X-101.6400 Y50.1500)
(Block-X: G01 Z0.000000)
(Block-X: G01 Z4.000000)
(Block-X: [G00 Z4.000000])
(Block-X: G00 X-101.6400 Y64.6500)
(Block-X: G01 Z0.000000)
(Block-X: G01 Z4.000000)
(Block-X: [G00 Z4.000000])
(Block-X: G00 X-101.6400 Y11.5500)
(Block-X: G01 Z0.000000)
(Block-X: G01 Z4.000000)
(Block-X: [G00 Z4.000000])
(Block-X: G00 X-101.6400 Y26.0500)
(Block-X: G01 Z0.000000)
(Block-X: G01 Z4.000000)
(Block-X: [G00 Z4.000000])
(Block-X: G00 X-104.1400 Y64.6500)
(Block-X: G01 Z0.000000)
(Block-X: G01 Z4.000000)
(Block-X: [G00 Z4.000000])
(Block-X: G00 X-104.1400 Y11.5500)
(Block-X: G01 Z0.000000)
(Block-X: G01 Z4.000000)
(Block-X: [G00 Z4.000000])
(Block-X: G00 X-106.6400 Y50.1500)
(Block-X: G01 Z0.000000)
(Block-X: G01 Z4.000000)
(Block-X: [G00 Z4.000000])
(Block-X: G00 X-106.6400 Y64.6500)
(Block-X: G01 Z0.000000)
(Block-X: G01 Z4.000000)
(Block-X: [G00 Z4.000000])
(Block-X: G00 X-106.6400 Y11.5500)
(Block-X: G01 Z0.000000)
(Block-X: G01 Z4.000000)
(Block-X: [G00 Z4.000000])
(Block-X: G00 X-106.6400 Y26.0500)
(Block-X: G01 Z0.000000)
(Block-X: G01 Z4.000000)
(Block-X: [G00 Z4.000000])
(Block-X: G00 X-110.8378 Y96.4464)
(Block-X: G01 Z0.000000)
(Block-X: G01 Z4.000000)
(Block-X: [G00 Z4.000000])
(Block-X: G00 X-110.8378 Y98.9864)
(Block-X: G01 Z0.000000)
(Block-X: G01 Z4.000000)
(Block-X: [G00 Z4.000000])
(Block-X: G00 X-110.8378 Y101.5264)
(Block-X: G01 Z0.000000)
(Block-X: G01 Z4.000000)
(Block-X: [G00 Z4.000000])
(Block-X: G00 X-116.1900 Y35.6000)
(Block-X: G01 Z0.000000)
(Block-X: G01 Z4.000000)
(Block-X: [G00 Z4.000000])
(Block-X: G00 X-116.1900 Y40.6000)
(Block-X: G01 Z0.000000)
(Block-X: G01 Z4.000000)
(Block-X: [G00 Z4.000000])
(Block-X: G00 X-12.7000 Y48.2600)
(Block-X: G01 Z0.000000)
(Block-X: G01 Z4.000000)
(Block-X: [G00 Z4.000000])
(Block-X: G00 X-12.7000 Y67.3100)
(Block-X: G01 Z0.000000)
(Block-X: G01 Z4.000000)
(Block-X: [G00 Z4.000000])
(Block-X: G00 X-12.7000 Y10.1600)
(Block-X: G01 Z0.000000)
(Block-X: G01 Z4.000000)
(Block-X: [G00 Z4.000000])
(Block-X: G00 X-12.7000 Y29.2100)
(Block-X: G01 Z0.000000)
(Block-X: G01 Z4.000000)
(Block-X: [G00 Z4.000000])
(Block-X: G00 X-130.6900 Y35.6000)
(Block-X: G01 Z0.000000)
(Block-X: G01 Z4.000000)
(Block-X: [G00 Z4.000000])
(Block-X: G00 X-130.6900 Y38.1000)
(Block-X: G01 Z0.000000)
(Block-X: G01 Z4.000000)
(Block-X: [G00 Z4.000000])
(Block-X: G00 X-130.6900 Y40.6000)
(Block-X: G01 Z0.000000)
(Block-X: G01 Z4.000000)
(Block-X: [G00 Z4.000000])
(Block-X: G00 X-15.2400 Y93.9800)
(Block-X: G01 Z0.000000)
(Block-X: G01 Z4.000000)
(Block-X: [G00 Z4.000000])
(Block-X: G00 X-15.2400 Y116.8400)
(Block-X: G01 Z0.000000)
(Block-X: G01 Z4.000000)
(Block-X: [G00 Z4.000000])
(Block-X: G00 X-17.7800 Y93.9800)
(Block-X: G01 Z0.000000)
(Block-X: G01 Z4.000000)
(Block-X: [G00 Z4.000000])
(Block-X: G00 X-17.7800 Y116.8400)
(Block-X: G01 Z0.000000)
(Block-X: G01 Z4.000000)
(Block-X: [G00 Z4.000000])
(Block-X: G00 X-20.3200 Y48.2600)
(Block-X: G01 Z0.000000)
(Block-X: G01 Z4.000000)
(Block-X: [G00 Z4.000000])
(Block-X: G00 X-20.3200 Y67.3100)
(Block-X: G01 Z0.000000)
(Block-X: G01 Z4.000000)
(Block-X: [G00 Z4.000000])
(Block-X: G00 X-20.3200 Y93.9800)
(Block-X: G01 Z0.000000)
(Block-X: G01 Z4.000000)
(Block-X: [G00 Z4.000000])
(Block-X: G00 X-20.3200 Y10.1600)
(Block-X: G01 Z0.000000)
(Block-X: G01 Z4.000000)
(Block-X: [G00 Z4.000000])
(Block-X: G00 X-20.3200 Y116.8400)
(Block-X: G01 Z0.000000)
(Block-X: G01 Z4.000000)
(Block-X: [G00 Z4.000000])
(Block-X: G00 X-20.3200 Y29.2100)
(Block-X: G01 Z0.000000)
(Block-X: G01 Z4.000000)
(Block-X: [G00 Z4.000000])
(Block-X: G00 X-22.8600 Y93.9800)
(Block-X: G01 Z0.000000)
(Block-X: G01 Z4.000000)
(Block-X: [G00 Z4.000000])
(Block-X: G00 X-22.8600 Y116.8400)
(Block-X: G01 Z0.000000)
(Block-X: G01 Z4.000000)
(Block-X: [G00 Z4.000000])
(Block-X: G00 X-25.4000 Y93.9800)
(Block-X: G01 Z0.000000)
(Block-X: G01 Z4.000000)
(Block-X: [G00 Z4.000000])
(Block-X: G00 X-25.4000 Y116.8400)
(Block-X: G01 Z0.000000)
(Block-X: G01 Z4.000000)
(Block-X: [G00 Z4.000000])
(Block-X: G00 X-27.9400 Y93.9800)
(Block-X: G01 Z0.000000)
(Block-X: G01 Z4.000000)
(Block-X: [G00 Z4.000000])
(Block-X: G00 X-27.9400 Y116.8400)
(Block-X: G01 Z0.000000)
(Block-X: G01 Z4.000000)
(Block-X: [G00 Z4.000000])
(Block-X: G00 X-30.4800 Y93.9800)
(Block-X: G01 Z0.000000)
(Block-X: G01 Z4.000000)
(Block-X: [G00 Z4.000000])
(Block-X: G00 X-30.4800 Y116.8400)
(Block-X: G01 Z0.000000)
(Block-X: G01 Z4.000000)
(Block-X: )
(Block-X: G00 Z10.4000)
(Block-name: block)
(Block-expand: 0)
(Block-enable: 0)
(Block-X: )
(Block-X: G04 P3.000000)
(Block-X: G00 Z4.000000)
(Block-X: G00 X-77.4700 Y55.2450)
(Block-X: G01 Z0.0000 F50.00  S12000)
(Block-X: G01 Z4.000000)
(Block-X: [R10.0000  P0.000000])
(Block-X: [G00 Z4.000000])
(Block-X: G00 X-77.4700 Y27.9400)
(Block-X: G01 Z0.000000)
(Block-X: G01 Z4.000000)
(Block-X: [G00 Z4.000000])
(Block-X: G00 X-86.9950 Y11.4300)
(Block-X: G01 Z0.000000)
(Block-X: G01 Z4.000000)
(Block-X: [G00 Z4.000000])
(Block-X: G00 X-86.9950 Y21.5900)
(Block-X: G01 Z0.000000)
(Block-X: G01 Z4.000000)
(Block-X: [G00 Z4.000000])
(Block-X: G00 X-87.6300 Y55.2450)
(Block-X: G01 Z0.000000)
(Block-X: G01 Z4.000000)
(Block-X: [G00 Z4.000000])
(Block-X: G00 X-87.6300 Y27.9400)
(Block-X: G01 Z0.000000)
(Block-X: G01 Z4.000000)
(Block-X: [G00 Z4.000000])
(Block-X: G00 X-94.1500 Y54.4250)
(Block-X: G01 Z0.000000)
(Block-X: G01 Z4.000000)
(Block-X: [G00 Z4.000000])
(Block-X: G00 X-94.1500 Y64.5850)
(Block-X: G01 Z0.000000)
(Block-X: G01 Z4.000000)
(Block-X: [G00 Z4.000000])
(Block-X: G00 X-94.7100 Y35.5600)
(Block-X: G01 Z0.000000)
(Block-X: G01 Z4.000000)
(Block-X: [G00 Z4.000000])
(Block-X: G00 X-101.6000 Y37.5600)
(Block-X: G01 Z0.000000)
(Block-X: G01 Z4.000000)
(Block-X: [G00 Z4.000000])
(Block-X: G00 X-101.6000 Y47.7200)
(Block-X: G01 Z0.000000)
(Block-X: G01 Z4.000000)
(Block-X: [G00 Z4.000000])
(Block-X: G00 X-103.8000 Y40.3600)
(Block-X: G01 Z0.000000)
(Block-X: G01 Z4.000000)
(Block-X: [G00 Z4.000000])
(Block-X: G00 X-104.8700 Y35.5600)
(Block-X: G01 Z0.000000)
(Block-X: G01 Z4.000000)
(Block-X: [G00 Z4.000000])
(Block-X: G00 X-106.6800 Y38.5600)
(Block-X: G01 Z0.000000)
(Block-X: G01 Z4.000000)
(Block-X: [G00 Z4.000000])
(Block-X: G00 X-106.6800 Y28.4000)
(Block-X: G01 Z0.000000)
(Block-X: G01 Z4.000000)
(Block-X: [G00 Z4.000000])
(Block-X: G00 X-113.9600 Y40.3600)
(Block-X: G01 Z0.000000)
(Block-X: G01 Z4.000000)
(Block-X: [G00 Z4.000000])
(Block-X: G00 X-114.3000 Y11.4300)
(Block-X: G01 Z0.000000)
(Block-X: G01 Z4.000000)
(Block-X: [G00 Z4.000000])
(Block-X: G00 X-114.3000 Y21.5900)
(Block-X: G01 Z0.000000)
(Block-X: G01 Z4.000000)
(Block-X: [G00 Z4.000000])
(Block-X: G00 X-120.6500 Y48.2600)
(Block-X: G01 Z0.000000)
(Block-X: G01 Z4.000000)
(Block-X: [G00 Z4.000000])
(Block-X: G00 X-120.6500 Y20.9550)
(Block-X: G01 Z0.000000)
(Block-X: G01 Z4.000000)
(Block-X: [G00 Z4.000000])
(Block-X: G00 X-121.2850 Y54.6100)
(Block-X: G01 Z0.000000)
(Block-X: G01 Z4.000000)
(Block-X: [G00 Z4.000000])
(Block-X: G00 X-121.2850 Y64.7700)
(Block-X: G01 Z0.000000)
(Block-X: G01 Z4.000000)
(Block-X: [G00 Z4.000000])
(Block-X: G00 X-130.8100 Y48.2600)
(Block-X: G01 Z0.000000)
(Block-X: G01 Z4.000000)
(Block-X: [G00 Z4.000000])
(Block-X: G00 X-130.8100 Y20.9550)
(Block-X: G01 Z0.000000)
(Block-X: G01 Z4.000000)
(Block-X: )
(Block-X: G00 Z10.4000)
(Block-name: block)
(Block-expand: 0)
(Block-enable: 0)
(Block-X: )
(Block-X: G04 P3.000000)
(Block-X: G00 Z4.000000)
(Block-X: G00 X-31.7500 Y36.8300)
(Block-X: G01 Z0.0000 F50.00  S12000)
(Block-X: G01 Z4.000000)
(Block-X: [R10.0000  P0.000000])
(Block-X: [G00 Z4.000000])
(Block-X: G00 X-31.7500 Y55.8800)
(Block-X: G01 Z0.000000)
(Block-X: G01 Z4.000000)
(Block-X: [G00 Z4.000000])
(Block-X: G00 X-31.7500 Y74.9300)
(Block-X: G01 Z0.000000)
(Block-X: G01 Z4.000000)
(Block-X: [G00 Z4.000000])
(Block-X: G00 X-31.7500 Y17.7800)
(Block-X: G01 Z0.000000)
(Block-X: G01 Z4.000000)
(Block-X: [G00 Z4.000000])
(Block-X: G00 X-38.1000 Y39.3700)
(Block-X: G01 Z0.000000)
(Block-X: G01 Z4.000000)
(Block-X: [G00 Z4.000000])
(Block-X: G00 X-38.1000 Y58.4200)
(Block-X: G01 Z0.000000)
(Block-X: G01 Z4.000000)
(Block-X: [G00 Z4.000000])
(Block-X: G00 X-38.1000 Y77.4700)
(Block-X: G01 Z0.000000)
(Block-X: G01 Z4.000000)
(Block-X: [G00 Z4.000000])
(Block-X: G00 X-38.1000 Y20.3200)
(Block-X: G01 Z0.000000)
(Block-X: G01 Z4.000000)
(Block-X: [G00 Z4.000000])
(Block-X: G00 X-50.8000 Y36.8300)
(Block-X: G01 Z0.000000)
(Block-X: G01 Z4.000000)
(Block-X: [G00 Z4.000000])
(Block-X: G00 X-50.8000 Y55.8800)
(Block-X: G01 Z0.000000)
(Block-X: G01 Z4.000000)
(Block-X: [G00 Z4.000000])
(Block-X: G00 X-50.8000 Y74.9300)
(Block-X: G01 Z0.000000)
(Block-X: G01 Z4.000000)
(Block-X: [G00 Z4.000000])
(Block-X: G00 X-50.8000 Y17.7800)
(Block-X: G01 Z0.000000)
(Block-X: G01 Z4.000000)
(Block-X: [G00 Z4.000000])
(Block-X: G00 X-57.1500 Y39.3700)
(Block-X: G01 Z0.000000)
(Block-X: G01 Z4.000000)
(Block-X: [G00 Z4.000000])
(Block-X: G00 X-57.1500 Y58.4200)
(Block-X: G01 Z0.000000)
(Block-X: G01 Z4.000000)
(Block-X: [G00 Z4.000000])
(Block-X: G00 X-57.1500 Y77.4700)
(Block-X: G01 Z0.000000)
(Block-X: G01 Z4.000000)
(Block-X: [G00 Z4.000000])
(Block-X: G00 X-57.1500 Y20.3200)
(Block-X: G01 Z0.000000)
(Block-X: G01 Z4.000000)
(Block-X: [G00 Z4.000000])
(Block-X: G00 X-12.7000 Y36.8300)
(Block-X: G01 Z0.000000)
(Block-X: G01 Z4.000000)
(Block-X: [G00 Z4.000000])
(Block-X: G00 X-12.7000 Y55.8800)
(Block-X: G01 Z0.000000)
(Block-X: G01 Z4.000000)
(Block-X: [G00 Z4.000000])
(Block-X: G00 X-12.7000 Y74.9300)
(Block-X: G01 Z0.000000)
(Block-X: G01 Z4.000000)
(Block-X: [G00 Z4.000000])
(Block-X: G00 X-12.7000 Y17.7800)
(Block-X: G01 Z0.000000)
(Block-X: G01 Z4.000000)
(Block-X: [G00 Z4.000000])
(Block-X: G00 X-19.0500 Y39.3700)
(Block-X: G01 Z0.000000)
(Block-X: G01 Z4.000000)
(Block-X: [G00 Z4.000000])
(Block-X: G00 X-19.0500 Y58.4200)
(Block-X: G01 Z0.000000)
(Block-X: G01 Z4.000000)
(Block-X: [G00 Z4.000000])
(Block-X: G00 X-19.0500 Y77.4700)
(Block-X: G01 Z0.000000)
(Block-X: G01 Z4.000000)
(Block-X: [G00 Z4.000000])
(Block-X: G00 X-19.0500 Y20.3200)
(Block-X: G01 Z0.000000)
(Block-X: G01 Z4.000000)
(Block-X: )
(Block-X: G00 Z10.4000)
(Block-name: block)
(Block-expand: 0)
(Block-enable: 0)
(Block-X: )
(Block-X: G04 P3.000000)
(Block-X: G00 Z4.000000)
(Block-X: G00 X-85.0900 Y32.0000)
(Block-X: G01 Z0.0000 F50.00  S12000)
(Block-X: G01 Z4.000000)
(Block-X: [R10.0000  P0.000000])
(Block-X: [G00 Z4.000000])
(Block-X: G00 X-85.0900 Y44.2000)
(Block-X: G01 Z0.000000)
(Block-X: G01 Z4.000000)
(Block-X: [G00 Z4.000000])
(Block-X: G00 X-98.0400 Y57.1500)
(Block-X: G01 Z0.000000)
(Block-X: G01 Z4.000000)
(Block-X: [G00 Z4.000000])
(Block-X: G00 X-98.0400 Y19.0500)
(Block-X: G01 Z0.000000)
(Block-X: G01 Z4.000000)
(Block-X: [G00 Z4.000000])
(Block-X: G00 X-110.2400 Y57.1500)
(Block-X: G01 Z0.000000)
(Block-X: G01 Z4.000000)
(Block-X: [G00 Z4.000000])
(Block-X: G00 X-110.2400 Y19.0500)
(Block-X: G01 Z0.000000)
(Block-X: G01 Z4.000000)
(Block-X: [G00 Z4.000000])
(Block-X: G00 X-123.1900 Y32.0000)
(Block-X: G01 Z0.000000)
(Block-X: G01 Z4.000000)
(Block-X: [G00 Z4.000000])
(Block-X: G00 X-123.1900 Y44.2000)
(Block-X: G01 Z0.000000)
(Block-X: G01 Z4.000000)
(Block-X: )
(Block-X: G00 Z10.4000)
(Block-name: block)
(Block-expand: 0)
(Block-enable: 0)
(Block-X: )
(Block-X: G04 P3.000000)
(Block-X: G00 Z4.000000)
(Block-X: G00 X-48.2600 Y94.7420)
(Block-X: G01 Z0.0000 F50.00  S12000)
(Block-X: G01 Z4.000000)
(Block-X: [R10.0000  P0.000000])
(Block-X: [G00 Z4.000000])
(Block-X: G00 X-10.1600 Y115.6970)
(Block-X: G01 Z0.000000)
(Block-X: G01 Z4.000000)
(Block-X: T01)
(Block-X: G00 Z12.0000)
(Block-name: block)
(Block-expand: 0)
(Block-enable: 1)
M05
M02
