(.../pcb-gcode-3_6_0_4/pcb-gcode.ulp)
(Copyright 2005 - 2012 by John Johnson)
(See readme.txt for licensing terms.)
(This file generated from the board:)
(.../EAGLE/midi_pad_laser_optimized2.brd)
(Current profile is .../pcb-gcode-3_6_0_4/profiles/generic.pp  )
(This file generated 08.09.22 00:35)
(Settings from pcb-machine.h)
(  Tool Size)
(0.1000 )
(Z Axis Settings)
(  High     Up        Down     Drill)
(5.0000 	4.0000 	0.0000 	2.0000 )
(spindle on time = 3.0000)
(milling depth = 1.0000)
(text depth = 1.0000)
(tool change at 12.7000 15.2400 25.4000 )
(feed rate xy = F3000.00 )
(feed rate z  = F9000.00 )
(Settings from pcb-defaults.h)
(isolate min = 0.0254)
(isolate max = 0.4000)
(isolate step = 0.0635)
(Generated top outlines, bottom outlines, )
(Unit of measure: mm)
(Metric Mode)
G21
(Absolute Coordinates)
G90
G00 X0.0000 Y0.0000 
M03
G04 P3.000000
G00 Z4.0000 
G00 X115.7886 Y34.7719 
G01 Z0.0000 F9000.00 
G01 X115.7886 Y32.5681 F3000.00 
G01 X115.8155 Y32.3984 
G01 X115.8686 Y32.2350 
G01 X115.9466 Y32.0820 
G01 X116.0475 Y31.9430 
G01 X116.1690 Y31.8215 
G01 X116.1696 Y26.8016 
G01 X116.1969 Y26.6643 
G01 X116.2505 Y26.5350 
G01 X116.3282 Y26.4187 
G01 X118.3460 Y24.4009 
G01 X118.3460 Y20.5355 
G01 X118.3155 Y20.4416 
G01 X118.2886 Y20.2719 
G01 X118.2886 Y18.0681 
G01 X118.3155 Y17.8984 
G01 X118.3686 Y17.7350 
G01 X118.4466 Y17.5820 
G01 X118.5475 Y17.4430 
G01 X118.6690 Y17.3215 
G01 X118.8080 Y17.2205 
G01 X118.9610 Y17.1426 
G01 X119.1244 Y17.0895 
G01 X119.2941 Y17.0626 
G01 X119.4659 Y17.0626 
G01 X119.6356 Y17.0895 
G01 X119.7990 Y17.1426 
G01 X119.9520 Y17.2205 
G01 X120.0910 Y17.3215 
G01 X120.2125 Y17.4430 
G01 X120.3134 Y17.5820 
G01 X120.3914 Y17.7350 
G01 X120.4445 Y17.8984 
G01 X120.4714 Y18.0681 
G01 X120.4714 Y20.2719 
G01 X120.4445 Y20.4416 
G01 X120.3914 Y20.6050 
G01 X120.3134 Y20.7580 
G01 X120.2125 Y20.8970 
G01 X120.0910 Y21.0185 
G01 X119.9520 Y21.1194 
G01 X119.7990 Y21.1974 
G01 X119.7668 Y21.2079 
G01 X119.7668 Y24.7651 
G01 X119.7395 Y24.9024 
G01 X119.6859 Y25.0317 
G01 X119.6082 Y25.1480 
G01 X117.5904 Y27.1658 
G01 X117.5904 Y31.8211 
G01 X117.7125 Y31.9430 
G01 X117.8134 Y32.0820 
G01 X117.8914 Y32.2350 
G01 X117.9445 Y32.3984 
G01 X117.9714 Y32.5681 
G01 X117.9714 Y34.7719 
G01 X117.9445 Y34.9416 
G01 X117.8914 Y35.1050 
G01 X117.8134 Y35.2580 
G01 X117.7125 Y35.3970 
G01 X117.5910 Y35.5185 
G01 X117.4520 Y35.6194 
G01 X117.2990 Y35.6974 
G01 X117.1356 Y35.7505 
G01 X116.9659 Y35.7774 
G01 X116.7941 Y35.7774 
G01 X116.6244 Y35.7505 
G01 X116.4610 Y35.6974 
G01 X116.3080 Y35.6194 
G01 X116.1690 Y35.5185 
G01 X116.0475 Y35.3970 
G01 X115.9466 Y35.2580 
G01 X115.8686 Y35.1050 
G01 X115.8155 Y34.9416 
G01 X115.7886 Y34.7719 
G00 Z4.0000 
G00 X120.7886 Y20.2719 
G01 Z0.0000 F9000.00 
G01 X120.7886 Y18.0681 F3000.00 
G01 X120.8155 Y17.8984 
G01 X120.8686 Y17.7350 
G01 X120.9466 Y17.5820 
G01 X121.0475 Y17.4430 
G01 X121.1690 Y17.3215 
G01 X121.3080 Y17.2205 
G01 X121.4610 Y17.1426 
G01 X121.6244 Y17.0895 
G01 X121.7941 Y17.0626 
G01 X121.9659 Y17.0626 
G01 X122.1356 Y17.0895 
G01 X122.2990 Y17.1426 
G01 X122.4520 Y17.2205 
G01 X122.5910 Y17.3215 
G01 X122.7125 Y17.4430 
G01 X122.8134 Y17.5820 
G01 X122.8914 Y17.7350 
G01 X122.9445 Y17.8984 
G01 X122.9714 Y18.0681 
G01 X122.9714 Y20.2719 
G01 X122.9445 Y20.4416 
G01 X122.8914 Y20.6050 
G01 X122.8134 Y20.7580 
G01 X122.7125 Y20.8970 
G01 X122.5910 Y21.0185 
G01 X122.4520 Y21.1194 
G01 X122.2990 Y21.1974 
G01 X122.1356 Y21.2505 
G01 X121.9659 Y21.2774 
G01 X121.7941 Y21.2774 
G01 X121.6244 Y21.2505 
G01 X121.4610 Y21.1974 
G01 X121.3080 Y21.1194 
G01 X121.1690 Y21.0185 
G01 X121.0475 Y20.8970 
G01 X120.9466 Y20.7580 
G01 X120.8686 Y20.6050 
G01 X120.8155 Y20.4416 
G01 X120.7886 Y20.2719 
G00 Z4.0000 
G00 X115.7886 Y20.2719 
G01 Z0.0000 F9000.00 
G01 X115.7886 Y18.0681 F3000.00 
G01 X115.8155 Y17.8984 
G01 X115.8686 Y17.7350 
G01 X115.9466 Y17.5820 
G01 X116.0475 Y17.4430 
G01 X116.1690 Y17.3215 
G01 X116.3080 Y17.2205 
G01 X116.4610 Y17.1426 
G01 X116.6244 Y17.0895 
G01 X116.7941 Y17.0626 
G01 X116.9659 Y17.0626 
G01 X117.1356 Y17.0895 
G01 X117.2990 Y17.1426 
G01 X117.4520 Y17.2205 
G01 X117.5910 Y17.3215 
G01 X117.7125 Y17.4430 
G01 X117.8134 Y17.5820 
G01 X117.8914 Y17.7350 
G01 X117.9445 Y17.8984 
G01 X117.9714 Y18.0681 
G01 X117.9714 Y20.2719 
G01 X117.9445 Y20.4416 
G01 X117.8914 Y20.6050 
G01 X117.8134 Y20.7580 
G01 X117.7125 Y20.8970 
G01 X117.5910 Y21.0185 
G01 X117.4520 Y21.1194 
G01 X117.2990 Y21.1974 
G01 X117.1356 Y21.2505 
G01 X116.9659 Y21.2774 
G01 X116.7941 Y21.2774 
G01 X116.6244 Y21.2505 
G01 X116.4610 Y21.1974 
G01 X116.3080 Y21.1194 
G01 X116.1690 Y21.0185 
G01 X116.0475 Y20.8970 
G01 X115.9466 Y20.7580 
G01 X115.8686 Y20.6050 
G01 X115.8155 Y20.4416 
G01 X115.7886 Y20.2719 
G00 Z4.0000 
G00 X140.0530 Y53.5034 
G01 Z0.0000 F9000.00 
G01 X136.8070 Y53.5034 F3000.00 
G01 X136.7793 Y53.4919 
G01 X136.7581 Y53.4707 
G01 X136.7466 Y53.4430 
G01 X136.7466 Y50.1970 
G01 X136.7581 Y50.1693 
G01 X136.7793 Y50.1481 
G01 X136.8070 Y50.1366 
G01 X140.0530 Y50.1366 
G01 X140.0807 Y50.1481 
G01 X140.1019 Y50.1693 
G01 X140.1134 Y50.1970 
G01 X140.1134 Y53.4430 
G01 X140.1019 Y53.4707 
G01 X140.0807 Y53.4919 
G01 X140.0530 Y53.5034 
G00 Z4.0000 
G00 X140.0530 Y41.3034 
G01 Z0.0000 F9000.00 
G01 X136.8070 Y41.3034 F3000.00 
G01 X136.7793 Y41.2919 
G01 X136.7581 Y41.2707 
G01 X136.7466 Y41.2430 
G01 X136.7466 Y37.9970 
G01 X136.7581 Y37.9693 
G01 X136.7793 Y37.9481 
G01 X136.8070 Y37.9366 
G01 X140.0530 Y37.9366 
G01 X140.0807 Y37.9481 
G01 X140.1019 Y37.9693 
G01 X140.1134 Y37.9970 
G01 X140.1134 Y41.2430 
G01 X140.1019 Y41.2707 
G01 X140.0807 Y41.2919 
G01 X140.0530 Y41.3034 
G00 Z4.0000 
G00 X108.4319 Y49.3114 
G01 Z0.0000 F9000.00 
G01 X106.2281 Y49.3114 F3000.00 
G01 X106.0584 Y49.2845 
G01 X105.8950 Y49.2314 
G01 X105.7420 Y49.1534 
G01 X105.6030 Y49.0525 
G01 X105.4815 Y48.9310 
G01 X103.0016 Y48.9304 
G01 X102.8643 Y48.9031 
G01 X102.7350 Y48.8495 
G01 X102.6187 Y48.7718 
G01 X100.6009 Y46.7540 
G01 X94.1955 Y46.7540 
G01 X94.1016 Y46.7845 
G01 X93.9319 Y46.8114 
G01 X91.7281 Y46.8114 
G01 X91.5584 Y46.7845 
G01 X91.3950 Y46.7314 
G01 X91.2420 Y46.6534 
G01 X91.1030 Y46.5525 
G01 X90.9815 Y46.4310 
G01 X90.8805 Y46.2920 
G01 X90.8026 Y46.1390 
G01 X90.7495 Y45.9756 
G01 X90.7226 Y45.8059 
G01 X90.7226 Y45.6341 
G01 X90.7495 Y45.4644 
G01 X90.8026 Y45.3010 
G01 X90.8805 Y45.1480 
G01 X90.9815 Y45.0090 
G01 X91.1030 Y44.8875 
G01 X91.2420 Y44.7866 
G01 X91.3950 Y44.7086 
G01 X91.5584 Y44.6555 
G01 X91.7281 Y44.6286 
G01 X93.9319 Y44.6286 
G01 X94.1016 Y44.6555 
G01 X94.2649 Y44.7086 
G01 X94.4180 Y44.7866 
G01 X94.5570 Y44.8875 
G01 X94.6785 Y45.0090 
G01 X94.7794 Y45.1480 
G01 X94.8574 Y45.3010 
G01 X94.8679 Y45.3332 
G01 X100.9651 Y45.3332 
G01 X101.1024 Y45.3605 
G01 X101.2317 Y45.4141 
G01 X101.3480 Y45.4918 
G01 X103.3658 Y47.5096 
G01 X105.4811 Y47.5096 
G01 X105.6030 Y47.3875 
G01 X105.7420 Y47.2866 
G01 X105.8950 Y47.2086 
G01 X106.0584 Y47.1555 
G01 X106.2281 Y47.1286 
G01 X108.4319 Y47.1286 
G01 X108.6016 Y47.1555 
G01 X108.7649 Y47.2086 
G01 X108.9180 Y47.2866 
G01 X109.0570 Y47.3875 
G01 X109.1785 Y47.5090 
G01 X109.2794 Y47.6480 
G01 X109.3574 Y47.8010 
G01 X109.4105 Y47.9644 
G01 X109.4374 Y48.1341 
G01 X109.4374 Y48.3059 
G01 X109.4105 Y48.4756 
G01 X109.3574 Y48.6390 
G01 X109.2794 Y48.7920 
G01 X109.1785 Y48.9310 
G01 X109.0570 Y49.0525 
G01 X108.9180 Y49.1534 
G01 X108.7649 Y49.2314 
G01 X108.6016 Y49.2845 
G01 X108.4319 Y49.3114 
G00 Z4.0000 
G00 X93.9319 Y44.3114 
G01 Z0.0000 F9000.00 
G01 X91.7281 Y44.3114 F3000.00 
G01 X91.5584 Y44.2845 
G01 X91.3950 Y44.2314 
G01 X91.2420 Y44.1534 
G01 X91.1030 Y44.0525 
G01 X90.9815 Y43.9310 
G01 X90.8805 Y43.7920 
G01 X90.8026 Y43.6390 
G01 X90.7495 Y43.4756 
G01 X90.7226 Y43.3059 
G01 X90.7226 Y43.1341 
G01 X90.7495 Y42.9644 
G01 X90.8026 Y42.8010 
G01 X90.8805 Y42.6480 
G01 X90.9815 Y42.5090 
G01 X91.1030 Y42.3875 
G01 X91.2420 Y42.2866 
G01 X91.3950 Y42.2086 
G01 X91.5584 Y42.1555 
G01 X91.7281 Y42.1286 
G01 X93.9319 Y42.1286 
G01 X94.1016 Y42.1555 
G01 X94.2649 Y42.2086 
G01 X94.4180 Y42.2866 
G01 X94.5570 Y42.3875 
G01 X94.6785 Y42.5090 
G01 X94.7794 Y42.6480 
G01 X94.8574 Y42.8010 
G01 X94.9105 Y42.9644 
G01 X94.9374 Y43.1341 
G01 X94.9374 Y43.3059 
G01 X94.9105 Y43.4756 
G01 X94.8574 Y43.6390 
G01 X94.7794 Y43.7920 
G01 X94.6785 Y43.9310 
G01 X94.5570 Y44.0525 
G01 X94.4180 Y44.1534 
G01 X94.2649 Y44.2314 
G01 X94.1016 Y44.2845 
G01 X93.9319 Y44.3114 
G00 Z4.0000 
G00 X93.9319 Y49.3114 
G01 Z0.0000 F9000.00 
G01 X91.7281 Y49.3114 F3000.00 
G01 X91.5584 Y49.2845 
G01 X91.3950 Y49.2314 
G01 X91.2420 Y49.1534 
G01 X91.1030 Y49.0525 
G01 X90.9815 Y48.9310 
G01 X90.8805 Y48.7920 
G01 X90.8026 Y48.6390 
G01 X90.7495 Y48.4756 
G01 X90.7226 Y48.3059 
G01 X90.7226 Y48.1341 
G01 X90.7495 Y47.9644 
G01 X90.8026 Y47.8010 
G01 X90.8805 Y47.6480 
G01 X90.9815 Y47.5090 
G01 X91.1030 Y47.3875 
G01 X91.2420 Y47.2866 
G01 X91.3950 Y47.2086 
G01 X91.5584 Y47.1555 
G01 X91.7281 Y47.1286 
G01 X93.9319 Y47.1286 
G01 X94.1016 Y47.1555 
G01 X94.2649 Y47.2086 
G01 X94.4180 Y47.2866 
G01 X94.5570 Y47.3875 
G01 X94.6785 Y47.5090 
G01 X94.7794 Y47.6480 
G01 X94.8574 Y47.8010 
G01 X94.9105 Y47.9644 
G01 X94.9374 Y48.1341 
G01 X94.9374 Y48.3059 
G01 X94.9105 Y48.4756 
G01 X94.8574 Y48.6390 
G01 X94.7794 Y48.7920 
G01 X94.6785 Y48.9310 
G01 X94.5570 Y49.0525 
G01 X94.4180 Y49.1534 
G01 X94.2649 Y49.2314 
G01 X94.1016 Y49.2845 
G01 X93.9319 Y49.3114 
G00 Z4.0000 
G00 X111.5966 Y66.3930 
G01 Z0.0000 F9000.00 
G01 X111.5966 Y63.1470 F3000.00 
G01 X111.6081 Y63.1193 
G01 X111.6293 Y63.0981 
G01 X111.6570 Y63.0866 
G01 X114.9030 Y63.0866 
G01 X114.9307 Y63.0981 
G01 X114.9519 Y63.1193 
G01 X114.9634 Y63.1470 
G01 X114.9634 Y66.3930 
G01 X114.9519 Y66.4207 
G01 X114.9307 Y66.4419 
G01 X114.9030 Y66.4534 
G01 X111.6570 Y66.4534 
G01 X111.6293 Y66.4419 
G01 X111.6081 Y66.4207 
G01 X111.5966 Y66.3930 
G00 Z4.0000 
G00 X123.7966 Y66.3930 
G01 Z0.0000 F9000.00 
G01 X123.7966 Y63.1470 F3000.00 
G01 X123.8081 Y63.1193 
G01 X123.8293 Y63.0981 
G01 X123.8570 Y63.0866 
G01 X127.1030 Y63.0866 
G01 X127.1307 Y63.0981 
G01 X127.1519 Y63.1193 
G01 X127.1634 Y63.1470 
G01 X127.1634 Y66.3930 
G01 X127.1519 Y66.4207 
G01 X127.1307 Y66.4419 
G01 X127.1030 Y66.4534 
G01 X123.8570 Y66.4534 
G01 X123.8293 Y66.4419 
G01 X123.8081 Y66.4207 
G01 X123.7966 Y66.3930 
G00 Z4.0000 
G00 X118.1854 Y55.2341 
G01 Z0.0000 F9000.00 
G01 X118.1854 Y55.4459 F3000.00 
G01 X118.1523 Y55.6550 
G01 X118.0868 Y55.8565 
G01 X117.9907 Y56.0451 
G01 X117.8662 Y56.2165 
G01 X117.8429 Y56.2398 
G01 X117.8914 Y56.3350 
G01 X117.9445 Y56.4984 
G01 X117.9714 Y56.6681 
G01 X117.9714 Y58.8719 
G01 X117.9445 Y59.0416 
G01 X117.8914 Y59.2050 
G01 X117.8134 Y59.3580 
G01 X117.7125 Y59.4970 
G01 X117.5910 Y59.6185 
G01 X117.4520 Y59.7194 
G01 X117.2990 Y59.7974 
G01 X117.1356 Y59.8505 
G01 X116.9659 Y59.8774 
G01 X116.7941 Y59.8774 
G01 X116.6244 Y59.8505 
G01 X116.4610 Y59.7974 
G01 X116.3080 Y59.7194 
G01 X116.1690 Y59.6185 
G01 X116.0475 Y59.4970 
G01 X115.9466 Y59.3580 
G01 X115.8686 Y59.2050 
G01 X115.8155 Y59.0416 
G01 X115.7886 Y58.8719 
G01 X115.7886 Y56.6681 
G01 X115.8155 Y56.4984 
G01 X115.8686 Y56.3350 
G01 X115.8901 Y56.2928 
G01 X115.8138 Y56.2165 
G01 X115.6893 Y56.0451 
G01 X115.5932 Y55.8565 
G01 X115.5277 Y55.6550 
G01 X115.4946 Y55.4459 
G01 X115.4946 Y55.2341 
G01 X115.5277 Y55.0250 
G01 X115.5932 Y54.8235 
G01 X115.6893 Y54.6349 
G01 X115.8138 Y54.4635 
G01 X115.9635 Y54.3138 
G01 X116.1349 Y54.1893 
G01 X116.3235 Y54.0932 
G01 X116.5250 Y54.0277 
G01 X116.7341 Y53.9946 
G01 X116.9459 Y53.9946 
G01 X117.1550 Y54.0277 
G01 X117.3565 Y54.0932 
G01 X117.5451 Y54.1893 
G01 X117.7165 Y54.3138 
G01 X117.8662 Y54.4635 
G01 X117.9907 Y54.6349 
G01 X118.0868 Y54.8235 
G01 X118.1523 Y55.0250 
G01 X118.1854 Y55.2341 
G00 Z4.0000 
G00 X118.1854 Y45.0741 
G01 Z0.0000 F9000.00 
G01 X118.1854 Y45.2859 F3000.00 
G01 X118.1523 Y45.4950 
G01 X118.0868 Y45.6965 
G01 X117.9907 Y45.8851 
G01 X117.8662 Y46.0565 
G01 X117.7165 Y46.2062 
G01 X117.5451 Y46.3307 
G01 X117.3565 Y46.4268 
G01 X117.1550 Y46.4923 
G01 X116.9459 Y46.5254 
G01 X116.7341 Y46.5254 
G01 X116.5250 Y46.4923 
G01 X116.3235 Y46.4268 
G01 X116.1349 Y46.3307 
G01 X115.9635 Y46.2062 
G01 X115.8138 Y46.0565 
G01 X115.6893 Y45.8851 
G01 X115.5932 Y45.6965 
G01 X115.5277 Y45.4950 
G01 X115.4946 Y45.2859 
G01 X115.4946 Y45.0741 
G01 X115.5277 Y44.8650 
G01 X115.5932 Y44.6635 
G01 X115.6893 Y44.4749 
G01 X115.8138 Y44.3035 
G01 X115.9635 Y44.1538 
G01 X116.1349 Y44.0293 
G01 X116.3235 Y43.9332 
G01 X116.5250 Y43.8677 
G01 X116.7341 Y43.8346 
G01 X116.9459 Y43.8346 
G01 X117.1550 Y43.8677 
G01 X117.3565 Y43.9332 
G01 X117.5451 Y44.0293 
G01 X117.7165 Y44.1538 
G01 X117.8662 Y44.3035 
G01 X117.9907 Y44.4749 
G01 X118.0868 Y44.6635 
G01 X118.1523 Y44.8650 
G01 X118.1854 Y45.0741 
G00 Z4.0000 
G00 X123.2654 Y35.9141 
G01 Z0.0000 F9000.00 
G01 X123.2654 Y36.1259 F3000.00 
G01 X123.2323 Y36.3350 
G01 X123.1668 Y36.5365 
G01 X123.0707 Y36.7251 
G01 X122.9462 Y36.8965 
G01 X122.7965 Y37.0462 
G01 X122.6251 Y37.1707 
G01 X122.4365 Y37.2668 
G01 X122.2350 Y37.3323 
G01 X122.0259 Y37.3654 
G01 X121.8141 Y37.3654 
G01 X121.6050 Y37.3323 
G01 X121.4035 Y37.2668 
G01 X121.2149 Y37.1707 
G01 X121.0435 Y37.0462 
G01 X120.8938 Y36.8965 
G01 X120.7693 Y36.7251 
G01 X120.6732 Y36.5365 
G01 X120.6077 Y36.3350 
G01 X120.5746 Y36.1259 
G01 X120.5746 Y35.9141 
G01 X120.6077 Y35.7050 
G01 X120.6732 Y35.5035 
G01 X120.7693 Y35.3149 
G01 X120.8905 Y35.1480 
G01 X120.8686 Y35.1050 
G01 X120.8155 Y34.9416 
G01 X120.7886 Y34.7719 
G01 X120.7886 Y32.5681 
G01 X120.8155 Y32.3984 
G01 X120.8686 Y32.2350 
G01 X120.9466 Y32.0820 
G01 X121.0475 Y31.9430 
G01 X121.1690 Y31.8215 
G01 X121.3080 Y31.7206 
G01 X121.4610 Y31.6426 
G01 X121.6244 Y31.5895 
G01 X121.7941 Y31.5626 
G01 X121.9659 Y31.5626 
G01 X122.1356 Y31.5895 
G01 X122.2990 Y31.6426 
G01 X122.4520 Y31.7206 
G01 X122.5910 Y31.8215 
G01 X122.7125 Y31.9430 
G01 X122.8134 Y32.0820 
G01 X122.8914 Y32.2350 
G01 X122.9445 Y32.3984 
G01 X122.9714 Y32.5681 
G01 X122.9714 Y34.7719 
G01 X122.9445 Y34.9416 
G01 X122.8954 Y35.0927 
G01 X122.9462 Y35.1435 
G01 X123.0707 Y35.3149 
G01 X123.1668 Y35.5035 
G01 X123.2323 Y35.7050 
G01 X123.2654 Y35.9141 
G00 Z4.0000 
G00 X123.2654 Y46.0741 
G01 Z0.0000 F9000.00 
G01 X123.2654 Y46.2859 F3000.00 
G01 X123.2323 Y46.4950 
G01 X123.1668 Y46.6965 
G01 X123.0707 Y46.8851 
G01 X122.9462 Y47.0565 
G01 X122.7965 Y47.2062 
G01 X122.6251 Y47.3307 
G01 X122.4365 Y47.4268 
G01 X122.2350 Y47.4923 
G01 X122.0259 Y47.5254 
G01 X121.8141 Y47.5254 
G01 X121.6050 Y47.4923 
G01 X121.4035 Y47.4268 
G01 X121.2149 Y47.3307 
G01 X121.0435 Y47.2062 
G01 X120.8938 Y47.0565 
G01 X120.7693 Y46.8851 
G01 X120.6732 Y46.6965 
G01 X120.6077 Y46.4950 
G01 X120.5746 Y46.2859 
G01 X120.5746 Y46.0741 
G01 X120.6077 Y45.8650 
G01 X120.6732 Y45.6635 
G01 X120.7693 Y45.4749 
G01 X120.8938 Y45.3035 
G01 X121.0435 Y45.1538 
G01 X121.2149 Y45.0293 
G01 X121.4035 Y44.9332 
G01 X121.6050 Y44.8677 
G01 X121.8141 Y44.8346 
G01 X122.0259 Y44.8346 
G01 X122.2350 Y44.8677 
G01 X122.4365 Y44.9332 
G01 X122.6251 Y45.0293 
G01 X122.7965 Y45.1538 
G01 X122.9462 Y45.3035 
G01 X123.0707 Y45.4749 
G01 X123.1668 Y45.6635 
G01 X123.2323 Y45.8650 
G01 X123.2654 Y46.0741 
G00 Z4.0000 
G00 X103.5804 Y18.9441 
G01 Z0.0000 F9000.00 
G01 X103.5804 Y19.1559 F3000.00 
G01 X103.5473 Y19.3650 
G01 X103.4818 Y19.5665 
G01 X103.3857 Y19.7551 
G01 X103.2612 Y19.9265 
G01 X103.1115 Y20.0762 
G01 X102.9401 Y20.2007 
G01 X102.7515 Y20.2968 
G01 X102.5500 Y20.3623 
G01 X102.3409 Y20.3954 
G01 X102.1291 Y20.3954 
G01 X101.9200 Y20.3623 
G01 X101.7185 Y20.2968 
G01 X101.5299 Y20.2007 
G01 X101.3585 Y20.0762 
G01 X101.2088 Y19.9265 
G01 X101.0843 Y19.7551 
G01 X100.9882 Y19.5665 
G01 X100.9227 Y19.3650 
G01 X100.8896 Y19.1559 
G01 X100.8896 Y18.9441 
G01 X100.9227 Y18.7350 
G01 X100.9882 Y18.5335 
G01 X101.0843 Y18.3449 
G01 X101.2088 Y18.1735 
G01 X101.3585 Y18.0238 
G01 X101.5299 Y17.8993 
G01 X101.7185 Y17.8032 
G01 X101.9200 Y17.7377 
G01 X102.1291 Y17.7046 
G01 X102.3409 Y17.7046 
G01 X102.5500 Y17.7377 
G01 X102.7515 Y17.8032 
G01 X102.9401 Y17.8993 
G01 X103.1115 Y18.0238 
G01 X103.2612 Y18.1735 
G01 X103.3857 Y18.3449 
G01 X103.4818 Y18.5335 
G01 X103.5473 Y18.7350 
G01 X103.5804 Y18.9441 
G00 Z4.0000 
G00 X103.5804 Y29.1041 
G01 Z0.0000 F9000.00 
G01 X103.5804 Y29.3159 F3000.00 
G01 X103.5473 Y29.5250 
G01 X103.4818 Y29.7265 
G01 X103.3857 Y29.9151 
G01 X103.3104 Y30.0188 
G01 X103.3104 Y31.2337 
G01 X103.2839 Y31.4009 
G01 X103.2316 Y31.5619 
G01 X103.1548 Y31.7127 
G01 X103.0553 Y31.8496 
G01 X102.9356 Y31.9693 
G01 X102.7986 Y32.0688 
G01 X102.6478 Y32.1457 
G01 X102.4868 Y32.1980 
G01 X102.3196 Y32.2244 
G01 X102.1504 Y32.2244 
G01 X101.9832 Y32.1980 
G01 X101.8222 Y32.1457 
G01 X101.6714 Y32.0688 
G01 X101.5344 Y31.9693 
G01 X101.4147 Y31.8496 
G01 X101.3152 Y31.7127 
G01 X101.2384 Y31.5619 
G01 X101.1861 Y31.4009 
G01 X101.1596 Y31.2337 
G01 X101.1596 Y30.0188 
G01 X101.0843 Y29.9151 
G01 X100.9882 Y29.7265 
G01 X100.9227 Y29.5250 
G01 X100.8896 Y29.3159 
G01 X100.8896 Y29.1041 
G01 X100.9227 Y28.8950 
G01 X100.9882 Y28.6935 
G01 X101.0843 Y28.5049 
G01 X101.2088 Y28.3335 
G01 X101.3585 Y28.1838 
G01 X101.5299 Y28.0593 
G01 X101.7185 Y27.9632 
G01 X101.9200 Y27.8977 
G01 X102.1291 Y27.8646 
G01 X102.3409 Y27.8646 
G01 X102.5500 Y27.8977 
G01 X102.7515 Y27.9632 
G01 X102.9401 Y28.0593 
G01 X103.1115 Y28.1838 
G01 X103.2612 Y28.3335 
G01 X103.3857 Y28.5049 
G01 X103.4818 Y28.6935 
G01 X103.5473 Y28.8950 
G01 X103.5804 Y29.1041 
G00 Z4.0000 
G00 X130.8854 Y18.9441 
G01 Z0.0000 F9000.00 
G01 X130.8854 Y19.1559 F3000.00 
G01 X130.8523 Y19.3650 
G01 X130.7868 Y19.5665 
G01 X130.6907 Y19.7551 
G01 X130.5662 Y19.9265 
G01 X130.4165 Y20.0762 
G01 X130.2451 Y20.2007 
G01 X130.0565 Y20.2968 
G01 X129.8550 Y20.3623 
G01 X129.6459 Y20.3954 
G01 X129.4341 Y20.3954 
G01 X129.2250 Y20.3623 
G01 X129.0235 Y20.2968 
G01 X128.8349 Y20.2007 
G01 X128.6635 Y20.0762 
G01 X128.5138 Y19.9265 
G01 X128.3893 Y19.7551 
G01 X128.2932 Y19.5665 
G01 X128.2277 Y19.3650 
G01 X128.1946 Y19.1559 
G01 X128.1946 Y18.9441 
G01 X128.2277 Y18.7350 
G01 X128.2932 Y18.5335 
G01 X128.3893 Y18.3449 
G01 X128.5138 Y18.1735 
G01 X128.6635 Y18.0238 
G01 X128.8349 Y17.8993 
G01 X129.0235 Y17.8032 
G01 X129.2250 Y17.7377 
G01 X129.4341 Y17.7046 
G01 X129.6459 Y17.7046 
G01 X129.8550 Y17.7377 
G01 X130.0565 Y17.8032 
G01 X130.2451 Y17.8993 
G01 X130.4165 Y18.0238 
G01 X130.5662 Y18.1735 
G01 X130.6907 Y18.3449 
G01 X130.7868 Y18.5335 
G01 X130.8523 Y18.7350 
G01 X130.8854 Y18.9441 
G00 Z4.0000 
G00 X130.8854 Y29.1041 
G01 Z0.0000 F9000.00 
G01 X130.8854 Y29.3159 F3000.00 
G01 X130.8523 Y29.5250 
G01 X130.7868 Y29.7265 
G01 X130.6907 Y29.9151 
G01 X130.5662 Y30.0865 
G01 X130.4165 Y30.2362 
G01 X130.2451 Y30.3607 
G01 X130.0565 Y30.4568 
G01 X129.8550 Y30.5223 
G01 X129.6459 Y30.5554 
G01 X129.4341 Y30.5554 
G01 X129.2250 Y30.5223 
G01 X129.0235 Y30.4568 
G01 X128.8349 Y30.3607 
G01 X128.6635 Y30.2362 
G01 X128.5138 Y30.0865 
G01 X128.3893 Y29.9151 
G01 X128.2932 Y29.7265 
G01 X128.2277 Y29.5250 
G01 X128.1946 Y29.3159 
G01 X128.1946 Y29.1041 
G01 X128.2277 Y28.8950 
G01 X128.2932 Y28.6935 
G01 X128.3893 Y28.5049 
G01 X128.5138 Y28.3335 
G01 X128.6635 Y28.1838 
G01 X128.8349 Y28.0593 
G01 X129.0235 Y27.9632 
G01 X129.2250 Y27.8977 
G01 X129.4341 Y27.8646 
G01 X129.6459 Y27.8646 
G01 X129.8550 Y27.8977 
G01 X130.0565 Y27.9632 
G01 X130.2451 Y28.0593 
G01 X130.4165 Y28.1838 
G01 X130.5662 Y28.3335 
G01 X130.6907 Y28.5049 
G01 X130.7868 Y28.6935 
G01 X130.8523 Y28.8950 
G01 X130.8854 Y29.1041 
G00 Z4.0000 
G00 X137.8704 Y72.2841 
G01 Z0.0000 F9000.00 
G01 X137.8704 Y72.4959 F3000.00 
G01 X137.8373 Y72.7050 
G01 X137.7718 Y72.9065 
G01 X137.6757 Y73.0951 
G01 X137.5512 Y73.2665 
G01 X137.4015 Y73.4162 
G01 X137.2301 Y73.5407 
G01 X137.0415 Y73.6368 
G01 X136.8400 Y73.7023 
G01 X136.6309 Y73.7354 
G01 X136.4191 Y73.7354 
G01 X136.2100 Y73.7023 
G01 X136.0085 Y73.6368 
G01 X135.8199 Y73.5407 
G01 X135.6485 Y73.4162 
G01 X135.4988 Y73.2665 
G01 X135.3743 Y73.0951 
G01 X135.2782 Y72.9065 
G01 X135.2127 Y72.7050 
G01 X135.1796 Y72.4959 
G01 X135.1796 Y72.2841 
G01 X135.2127 Y72.0750 
G01 X135.2782 Y71.8735 
G01 X135.3743 Y71.6849 
G01 X135.4988 Y71.5135 
G01 X135.6485 Y71.3638 
G01 X135.8199 Y71.2393 
G01 X136.0085 Y71.1432 
G01 X136.2100 Y71.0777 
G01 X136.4191 Y71.0446 
G01 X136.6309 Y71.0446 
G01 X136.8400 Y71.0777 
G01 X137.0415 Y71.1432 
G01 X137.2301 Y71.2393 
G01 X137.4015 Y71.3638 
G01 X137.5512 Y71.5135 
G01 X137.6757 Y71.6849 
G01 X137.7718 Y71.8735 
G01 X137.8373 Y72.0750 
G01 X137.8704 Y72.2841 
G00 Z4.0000 
G00 X137.8704 Y62.1241 
G01 Z0.0000 F9000.00 
G01 X137.8704 Y62.3359 F3000.00 
G01 X137.8373 Y62.5450 
G01 X137.7718 Y62.7465 
G01 X137.6757 Y62.9351 
G01 X137.5512 Y63.1065 
G01 X137.4015 Y63.2562 
G01 X137.2301 Y63.3807 
G01 X137.0415 Y63.4768 
G01 X136.8400 Y63.5423 
G01 X136.6309 Y63.5754 
G01 X136.4191 Y63.5754 
G01 X136.2100 Y63.5423 
G01 X136.0085 Y63.4768 
G01 X135.8199 Y63.3807 
G01 X135.6485 Y63.2562 
G01 X135.4988 Y63.1065 
G01 X135.3743 Y62.9351 
G01 X135.2782 Y62.7465 
G01 X135.2127 Y62.5450 
G01 X135.1796 Y62.3359 
G01 X135.1796 Y62.1241 
G01 X135.2127 Y61.9150 
G01 X135.2782 Y61.7135 
G01 X135.3743 Y61.5249 
G01 X135.4988 Y61.3535 
G01 X135.6485 Y61.2038 
G01 X135.8199 Y61.0793 
G01 X136.0085 Y60.9832 
G01 X136.2100 Y60.9177 
G01 X136.4191 Y60.8846 
G01 X136.6309 Y60.8846 
G01 X136.8400 Y60.9177 
G01 X137.0415 Y60.9832 
G01 X137.2301 Y61.0793 
G01 X137.4015 Y61.2038 
G01 X137.5512 Y61.3535 
G01 X137.6757 Y61.5249 
G01 X137.7718 Y61.7135 
G01 X137.8373 Y61.9150 
G01 X137.8704 Y62.1241 
G00 Z4.0000 
G00 X110.7354 Y72.0991 
G01 Z0.0000 F9000.00 
G01 X110.7354 Y72.3109 F3000.00 
G01 X110.7023 Y72.5200 
G01 X110.6368 Y72.7215 
G01 X110.5407 Y72.9101 
G01 X110.4162 Y73.0815 
G01 X110.2665 Y73.2312 
G01 X110.0951 Y73.3557 
G01 X109.9065 Y73.4518 
G01 X109.7050 Y73.5173 
G01 X109.4959 Y73.5504 
G01 X109.2841 Y73.5504 
G01 X109.0750 Y73.5173 
G01 X108.8735 Y73.4518 
G01 X108.6849 Y73.3557 
G01 X108.5135 Y73.2312 
G01 X108.3638 Y73.0815 
G01 X108.2393 Y72.9101 
G01 X108.1432 Y72.7215 
G01 X108.0777 Y72.5200 
G01 X108.0446 Y72.3109 
G01 X108.0446 Y72.0991 
G01 X108.0777 Y71.8899 
G01 X108.1432 Y71.6885 
G01 X108.2393 Y71.4999 
G01 X108.3638 Y71.3285 
G01 X108.5135 Y71.1788 
G01 X108.6849 Y71.0543 
G01 X108.8735 Y70.9582 
G01 X109.0750 Y70.8927 
G01 X109.2841 Y70.8596 
G01 X109.4959 Y70.8596 
G01 X109.7050 Y70.8927 
G01 X109.9065 Y70.9582 
G01 X110.0951 Y71.0543 
G01 X110.2665 Y71.1788 
G01 X110.4162 Y71.3285 
G01 X110.5407 Y71.4999 
G01 X110.6368 Y71.6885 
G01 X110.7023 Y71.8899 
G01 X110.7354 Y72.0991 
G00 Z4.0000 
G00 X110.7354 Y61.9391 
G01 Z0.0000 F9000.00 
G01 X110.7354 Y62.1509 F3000.00 
G01 X110.7023 Y62.3600 
G01 X110.6368 Y62.5615 
G01 X110.5407 Y62.7501 
G01 X110.4162 Y62.9215 
G01 X110.2665 Y63.0712 
G01 X110.1004 Y63.1919 
G01 X110.1004 Y65.9400 
G01 X110.0731 Y66.0772 
G01 X110.0195 Y66.2065 
G01 X109.9418 Y66.3229 
G01 X109.8429 Y66.4218 
G01 X102.6754 Y73.5893 
G01 X102.6754 Y73.7446 
G01 X102.6489 Y73.9118 
G01 X102.5966 Y74.0728 
G01 X102.5198 Y74.2236 
G01 X102.4203 Y74.3606 
G01 X102.1606 Y74.6203 
G01 X102.0236 Y74.7198 
G01 X101.8728 Y74.7966 
G01 X101.7118 Y74.8489 
G01 X101.5446 Y74.8754 
G01 X101.3754 Y74.8754 
G01 X101.2082 Y74.8489 
G01 X101.0472 Y74.7966 
G01 X100.8964 Y74.7198 
G01 X100.7594 Y74.6203 
G01 X100.6397 Y74.5006 
G01 X100.5402 Y74.3636 
G01 X100.4634 Y74.2128 
G01 X100.4111 Y74.0518 
G01 X100.3846 Y73.8846 
G01 X100.3846 Y73.7154 
G01 X100.4111 Y73.5482 
G01 X100.4634 Y73.3872 
G01 X100.5402 Y73.2364 
G01 X100.6397 Y73.0994 
G01 X100.8994 Y72.8397 
G01 X101.0364 Y72.7402 
G01 X101.1872 Y72.6634 
G01 X101.3482 Y72.6111 
G01 X101.5154 Y72.5846 
G01 X101.6707 Y72.5846 
G01 X108.6796 Y65.5757 
G01 X108.6796 Y63.1919 
G01 X108.5135 Y63.0712 
G01 X108.3638 Y62.9215 
G01 X108.2393 Y62.7501 
G01 X108.1432 Y62.5615 
G01 X108.0777 Y62.3600 
G01 X108.0446 Y62.1509 
G01 X108.0446 Y61.9391 
G01 X108.0777 Y61.7300 
G01 X108.1432 Y61.5285 
G01 X108.2393 Y61.3399 
G01 X108.3638 Y61.1685 
G01 X108.5135 Y61.0188 
G01 X108.6849 Y60.8943 
G01 X108.8735 Y60.7982 
G01 X109.0750 Y60.7327 
G01 X109.2841 Y60.6996 
G01 X109.4959 Y60.6996 
G01 X109.7050 Y60.7327 
G01 X109.9065 Y60.7982 
G01 X110.0951 Y60.8943 
G01 X110.2665 Y61.0188 
G01 X110.4162 Y61.1685 
G01 X110.5407 Y61.3399 
G01 X110.6368 Y61.5285 
G01 X110.7023 Y61.7300 
G01 X110.7354 Y61.9391 
G00 Z4.0000 
G00 X111.2954 Y43.0741 
G01 Z0.0000 F9000.00 
G01 X111.2954 Y43.2859 F3000.00 
G01 X111.2623 Y43.4950 
G01 X111.1968 Y43.6965 
G01 X111.1007 Y43.8851 
G01 X110.9762 Y44.0565 
G01 X110.8265 Y44.2062 
G01 X110.6551 Y44.3307 
G01 X110.4665 Y44.4268 
G01 X110.2650 Y44.4923 
G01 X110.0559 Y44.5254 
G01 X109.8441 Y44.5254 
G01 X109.6350 Y44.4923 
G01 X109.4335 Y44.4268 
G01 X109.2449 Y44.3307 
G01 X109.0735 Y44.2062 
G01 X108.9775 Y44.1102 
G01 X108.9180 Y44.1534 
G01 X108.7649 Y44.2314 
G01 X108.6016 Y44.2845 
G01 X108.4319 Y44.3114 
G01 X106.2281 Y44.3114 
G01 X106.0584 Y44.2845 
G01 X105.8950 Y44.2314 
G01 X105.7420 Y44.1534 
G01 X105.6030 Y44.0525 
G01 X105.4815 Y43.9310 
G01 X105.3805 Y43.7920 
G01 X105.3026 Y43.6390 
G01 X105.2495 Y43.4756 
G01 X105.2226 Y43.3059 
G01 X105.2226 Y43.1341 
G01 X105.2495 Y42.9644 
G01 X105.3026 Y42.8010 
G01 X105.3805 Y42.6480 
G01 X105.4815 Y42.5090 
G01 X105.6030 Y42.3875 
G01 X105.7420 Y42.2866 
G01 X105.8950 Y42.2086 
G01 X106.0584 Y42.1555 
G01 X106.2281 Y42.1286 
G01 X108.4319 Y42.1286 
G01 X108.6016 Y42.1555 
G01 X108.7649 Y42.2086 
G01 X108.9180 Y42.2866 
G01 X108.9312 Y42.2961 
G01 X109.0735 Y42.1538 
G01 X109.2449 Y42.0293 
G01 X109.4335 Y41.9332 
G01 X109.6350 Y41.8677 
G01 X109.8441 Y41.8346 
G01 X110.0559 Y41.8346 
G01 X110.2650 Y41.8677 
G01 X110.4665 Y41.9332 
G01 X110.6551 Y42.0293 
G01 X110.8265 Y42.1538 
G01 X110.9762 Y42.3035 
G01 X111.1007 Y42.4749 
G01 X111.1968 Y42.6635 
G01 X111.2623 Y42.8650 
G01 X111.2954 Y43.0741 
G00 Z4.0000 
G00 X121.4554 Y43.0741 
G01 Z0.0000 F9000.00 
G01 X121.4554 Y43.2859 F3000.00 
G01 X121.4223 Y43.4950 
G01 X121.3568 Y43.6965 
G01 X121.2607 Y43.8851 
G01 X121.1362 Y44.0565 
G01 X120.9865 Y44.2062 
G01 X120.8151 Y44.3307 
G01 X120.6265 Y44.4268 
G01 X120.4250 Y44.4923 
G01 X120.2159 Y44.5254 
G01 X120.0041 Y44.5254 
G01 X119.7950 Y44.4923 
G01 X119.5935 Y44.4268 
G01 X119.4049 Y44.3307 
G01 X119.2335 Y44.2062 
G01 X119.0838 Y44.0565 
G01 X118.9593 Y43.8851 
G01 X118.8632 Y43.6965 
G01 X118.7977 Y43.4950 
G01 X118.7646 Y43.2859 
G01 X118.7646 Y43.0741 
G01 X118.7977 Y42.8650 
G01 X118.8632 Y42.6635 
G01 X118.9593 Y42.4749 
G01 X119.0838 Y42.3035 
G01 X119.2335 Y42.1538 
G01 X119.4049 Y42.0293 
G01 X119.5935 Y41.9332 
G01 X119.7950 Y41.8677 
G01 X120.0041 Y41.8346 
G01 X120.2159 Y41.8346 
G01 X120.4250 Y41.8677 
G01 X120.6265 Y41.9332 
G01 X120.8151 Y42.0293 
G01 X120.9865 Y42.1538 
G01 X121.1362 Y42.3035 
G01 X121.2607 Y42.4749 
G01 X121.3568 Y42.6635 
G01 X121.4223 Y42.8650 
G01 X121.4554 Y43.0741 
G00 Z4.0000 
G00 X94.0554 Y62.7591 
G01 Z0.0000 F9000.00 
G01 X94.0554 Y62.9709 F3000.00 
G01 X94.0223 Y63.1800 
G01 X93.9568 Y63.3815 
G01 X93.8607 Y63.5701 
G01 X93.7362 Y63.7415 
G01 X93.5865 Y63.8912 
G01 X93.4151 Y64.0157 
G01 X93.2265 Y64.1118 
G01 X93.0250 Y64.1773 
G01 X92.8159 Y64.2104 
G01 X92.6041 Y64.2104 
G01 X92.3950 Y64.1773 
G01 X92.1935 Y64.1118 
G01 X92.0049 Y64.0157 
G01 X91.8335 Y63.8912 
G01 X91.6838 Y63.7415 
G01 X91.5593 Y63.5701 
G01 X91.4632 Y63.3815 
G01 X91.3977 Y63.1800 
G01 X91.3646 Y62.9709 
G01 X91.3646 Y62.7591 
G01 X91.3977 Y62.5500 
G01 X91.4632 Y62.3485 
G01 X91.5593 Y62.1599 
G01 X91.6838 Y61.9885 
G01 X91.8335 Y61.8388 
G01 X92.0049 Y61.7143 
G01 X92.1935 Y61.6182 
G01 X92.3950 Y61.5527 
G01 X92.6041 Y61.5196 
G01 X92.8159 Y61.5196 
G01 X93.0250 Y61.5527 
G01 X93.2265 Y61.6182 
G01 X93.4151 Y61.7143 
G01 X93.5865 Y61.8388 
G01 X93.7362 Y61.9885 
G01 X93.8607 Y62.1599 
G01 X93.9568 Y62.3485 
G01 X94.0223 Y62.5500 
G01 X94.0554 Y62.7591 
G00 Z4.0000 
G00 X104.2154 Y62.7591 
G01 Z0.0000 F9000.00 
G01 X104.2154 Y62.9709 F3000.00 
G01 X104.1823 Y63.1800 
G01 X104.1168 Y63.3815 
G01 X104.0207 Y63.5701 
G01 X103.8962 Y63.7415 
G01 X103.7465 Y63.8912 
G01 X103.5751 Y64.0157 
G01 X103.3865 Y64.1118 
G01 X103.1850 Y64.1773 
G01 X102.9759 Y64.2104 
G01 X102.7641 Y64.2104 
G01 X102.5550 Y64.1773 
G01 X102.3535 Y64.1118 
G01 X102.1649 Y64.0157 
G01 X101.9935 Y63.8912 
G01 X101.8438 Y63.7415 
G01 X101.7193 Y63.5701 
G01 X101.6232 Y63.3815 
G01 X101.5577 Y63.1800 
G01 X101.5246 Y62.9709 
G01 X101.5246 Y62.7591 
G01 X101.5577 Y62.5500 
G01 X101.6232 Y62.3485 
G01 X101.7193 Y62.1599 
G01 X101.8438 Y61.9885 
G01 X101.9935 Y61.8388 
G01 X102.1649 Y61.7143 
G01 X102.3535 Y61.6182 
G01 X102.5550 Y61.5527 
G01 X102.7641 Y61.5196 
G01 X102.9759 Y61.5196 
G01 X103.1850 Y61.5527 
G01 X103.3865 Y61.6182 
G01 X103.5751 Y61.7143 
G01 X103.7465 Y61.8388 
G01 X103.8962 Y61.9885 
G01 X104.0207 Y62.1599 
G01 X104.1168 Y62.3485 
G01 X104.1823 Y62.5500 
G01 X104.2154 Y62.7591 
G00 Z4.0000 
G00 X94.0554 Y35.4541 
G01 Z0.0000 F9000.00 
G01 X94.0554 Y35.6659 F3000.00 
G01 X94.0223 Y35.8750 
G01 X93.9568 Y36.0765 
G01 X93.8607 Y36.2651 
G01 X93.7362 Y36.4365 
G01 X93.5865 Y36.5862 
G01 X93.4151 Y36.7107 
G01 X93.2265 Y36.8068 
G01 X93.0250 Y36.8723 
G01 X92.8159 Y36.9054 
G01 X92.6041 Y36.9054 
G01 X92.3950 Y36.8723 
G01 X92.1935 Y36.8068 
G01 X92.0049 Y36.7107 
G01 X91.8335 Y36.5862 
G01 X91.6838 Y36.4365 
G01 X91.5593 Y36.2651 
G01 X91.4632 Y36.0765 
G01 X91.3977 Y35.8750 
G01 X91.3646 Y35.6659 
G01 X91.3646 Y35.4541 
G01 X91.3977 Y35.2450 
G01 X91.4632 Y35.0435 
G01 X91.5593 Y34.8549 
G01 X91.6838 Y34.6835 
G01 X91.8335 Y34.5338 
G01 X92.0049 Y34.4093 
G01 X92.1935 Y34.3132 
G01 X92.3950 Y34.2477 
G01 X92.6041 Y34.2146 
G01 X92.8159 Y34.2146 
G01 X93.0250 Y34.2477 
G01 X93.2265 Y34.3132 
G01 X93.4151 Y34.4093 
G01 X93.5865 Y34.5338 
G01 X93.7362 Y34.6835 
G01 X93.8607 Y34.8549 
G01 X93.9568 Y35.0435 
G01 X94.0223 Y35.2450 
G01 X94.0554 Y35.4541 
G00 Z4.0000 
G00 X104.2154 Y35.4541 
G01 Z0.0000 F9000.00 
G01 X104.2154 Y35.6659 F3000.00 
G01 X104.1823 Y35.8750 
G01 X104.1168 Y36.0765 
G01 X104.0207 Y36.2651 
G01 X103.8962 Y36.4365 
G01 X103.7465 Y36.5862 
G01 X103.5751 Y36.7107 
G01 X103.3865 Y36.8068 
G01 X103.1850 Y36.8723 
G01 X102.9759 Y36.9054 
G01 X102.7641 Y36.9054 
G01 X102.5550 Y36.8723 
G01 X102.3535 Y36.8068 
G01 X102.1649 Y36.7107 
G01 X101.9935 Y36.5862 
G01 X101.8438 Y36.4365 
G01 X101.7193 Y36.2651 
G01 X101.6232 Y36.0765 
G01 X101.5577 Y35.8750 
G01 X101.5246 Y35.6659 
G01 X101.5246 Y35.4541 
G01 X101.5577 Y35.2450 
G01 X101.6232 Y35.0435 
G01 X101.7193 Y34.8549 
G01 X101.8438 Y34.6835 
G01 X101.9935 Y34.5338 
G01 X102.1649 Y34.4093 
G01 X102.3535 Y34.3132 
G01 X102.5550 Y34.2477 
G01 X102.7641 Y34.2146 
G01 X102.9759 Y34.2146 
G01 X103.1850 Y34.2477 
G01 X103.3865 Y34.3132 
G01 X103.5751 Y34.4093 
G01 X103.7465 Y34.5338 
G01 X103.8962 Y34.6835 
G01 X104.0207 Y34.8549 
G01 X104.1168 Y35.0435 
G01 X104.1823 Y35.2450 
G01 X104.2154 Y35.4541 
G00 Z4.0000 
G00 X129.7165 Y49.2268 
G01 Z0.0000 F9000.00 
G01 X129.5150 Y49.2923 F3000.00 
G01 X129.3059 Y49.3254 
G01 X129.0941 Y49.3254 
G01 X128.8850 Y49.2923 
G01 X128.6835 Y49.2268 
G01 X128.4949 Y49.1307 
G01 X128.3235 Y49.0062 
G01 X128.1738 Y48.8565 
G01 X128.0493 Y48.6851 
G01 X127.9532 Y48.4965 
G01 X127.8877 Y48.2950 
G01 X127.8546 Y48.0859 
G01 X127.8546 Y47.8741 
G01 X127.8877 Y47.6650 
G01 X127.9532 Y47.4635 
G01 X128.0493 Y47.2749 
G01 X128.1738 Y47.1035 
G01 X128.3235 Y46.9538 
G01 X128.4949 Y46.8293 
G01 X128.6835 Y46.7332 
G01 X128.8850 Y46.6677 
G01 X129.0941 Y46.6346 
G01 X129.3059 Y46.6346 
G01 X129.5150 Y46.6677 
G01 X129.7165 Y46.7332 
G01 X129.9051 Y46.8293 
G01 X130.0765 Y46.9538 
G01 X130.2262 Y47.1035 
G01 X130.2531 Y47.1405 
G01 X130.3281 Y47.1286 
G01 X132.5319 Y47.1286 
G01 X132.7016 Y47.1555 
G01 X132.8649 Y47.2086 
G01 X133.0180 Y47.2866 
G01 X133.1570 Y47.3875 
G01 X133.2785 Y47.5090 
G01 X133.3794 Y47.6480 
G01 X133.4574 Y47.8010 
G01 X133.5105 Y47.9644 
G01 X133.5374 Y48.1341 
G01 X133.5374 Y48.3059 
G01 X133.5105 Y48.4756 
G01 X133.4574 Y48.6390 
G01 X133.3794 Y48.7920 
G01 X133.2785 Y48.9310 
G01 X133.1570 Y49.0525 
G01 X133.0180 Y49.1534 
G01 X132.8649 Y49.2314 
G01 X132.7016 Y49.2845 
G01 X132.5319 Y49.3114 
G01 X130.3281 Y49.3114 
G01 X130.1584 Y49.2845 
G01 X129.9950 Y49.2314 
G01 X129.8512 Y49.1582 
G01 X129.7165 Y49.2268 
G00 Z4.0000 
G00 X120.3854 Y47.8741 
G01 Z0.0000 F9000.00 
G01 X120.3854 Y48.0859 F3000.00 
G01 X120.3523 Y48.2950 
G01 X120.2868 Y48.4965 
G01 X120.1907 Y48.6851 
G01 X120.0662 Y48.8565 
G01 X119.9165 Y49.0062 
G01 X119.7451 Y49.1307 
G01 X119.5565 Y49.2268 
G01 X119.3550 Y49.2923 
G01 X119.1459 Y49.3254 
G01 X118.9341 Y49.3254 
G01 X118.7250 Y49.2923 
G01 X118.5235 Y49.2268 
G01 X118.3349 Y49.1307 
G01 X118.1635 Y49.0062 
G01 X118.0138 Y48.8565 
G01 X117.8931 Y48.6904 
G01 X113.0307 Y48.6904 
G01 X99.2878 Y62.4333 
G01 X99.2878 Y66.5926 
G01 X99.2605 Y66.7298 
G01 X99.2069 Y66.8591 
G01 X99.1292 Y66.9755 
G01 X99.0303 Y67.0744 
G01 X97.5954 Y68.5093 
G01 X97.5954 Y68.6646 
G01 X97.5689 Y68.8318 
G01 X97.5166 Y68.9928 
G01 X97.4398 Y69.1436 
G01 X97.3403 Y69.2806 
G01 X97.2206 Y69.4003 
G01 X97.0806 Y69.5403 
G01 X96.9436 Y69.6398 
G01 X96.7928 Y69.7166 
G01 X96.6318 Y69.7689 
G01 X96.4646 Y69.7954 
G01 X96.2954 Y69.7954 
G01 X96.1282 Y69.7689 
G01 X95.9672 Y69.7166 
G01 X95.8164 Y69.6398 
G01 X95.6794 Y69.5403 
G01 X95.5597 Y69.4206 
G01 X95.4602 Y69.2836 
G01 X95.3834 Y69.1328 
G01 X95.3311 Y68.9718 
G01 X95.3046 Y68.8046 
G01 X95.3046 Y68.6354 
G01 X95.3311 Y68.4682 
G01 X95.3834 Y68.3072 
G01 X95.4602 Y68.1564 
G01 X95.5597 Y68.0194 
G01 X95.6997 Y67.8794 
G01 X95.8194 Y67.7597 
G01 X95.9564 Y67.6602 
G01 X96.1072 Y67.5834 
G01 X96.2682 Y67.5311 
G01 X96.4354 Y67.5046 
G01 X96.5907 Y67.5046 
G01 X97.8670 Y66.2283 
G01 X97.8670 Y62.0691 
G01 X97.8943 Y61.9318 
G01 X97.9479 Y61.8025 
G01 X98.0256 Y61.6862 
G01 X112.2836 Y47.4282 
G01 X112.3999 Y47.3505 
G01 X112.5292 Y47.2969 
G01 X112.6665 Y47.2696 
G01 X117.8931 Y47.2696 
G01 X118.0138 Y47.1035 
G01 X118.1635 Y46.9538 
G01 X118.3349 Y46.8293 
G01 X118.5235 Y46.7332 
G01 X118.7250 Y46.6677 
G01 X118.9341 Y46.6346 
G01 X119.1459 Y46.6346 
G01 X119.3550 Y46.6677 
G01 X119.5565 Y46.7332 
G01 X119.7451 Y46.8293 
G01 X119.9165 Y46.9538 
G01 X120.0662 Y47.1035 
G01 X120.1907 Y47.2749 
G01 X120.2868 Y47.4635 
G01 X120.3523 Y47.6650 
G01 X120.3854 Y47.8741 
G00 Z4.0000 
G00 X147.3954 Y28.4691 
G01 Z0.0000 F9000.00 
G01 X147.3954 Y28.6809 F3000.00 
G01 X147.3623 Y28.8900 
G01 X147.2968 Y29.0915 
G01 X147.2007 Y29.2801 
G01 X147.0762 Y29.4515 
G01 X146.9265 Y29.6012 
G01 X146.7551 Y29.7257 
G01 X146.5665 Y29.8218 
G01 X146.3650 Y29.8873 
G01 X146.1559 Y29.9204 
G01 X145.9441 Y29.9204 
G01 X145.7349 Y29.8873 
G01 X145.5335 Y29.8218 
G01 X145.3449 Y29.7257 
G01 X145.1735 Y29.6012 
G01 X145.0238 Y29.4515 
G01 X144.8993 Y29.2801 
G01 X144.8032 Y29.0915 
G01 X144.7377 Y28.8900 
G01 X144.7046 Y28.6809 
G01 X144.7046 Y28.4691 
G01 X144.7377 Y28.2599 
G01 X144.8032 Y28.0585 
G01 X144.8993 Y27.8699 
G01 X145.0238 Y27.6985 
G01 X145.1735 Y27.5488 
G01 X145.3449 Y27.4243 
G01 X145.5335 Y27.3282 
G01 X145.7349 Y27.2627 
G01 X145.9441 Y27.2296 
G01 X146.1559 Y27.2296 
G01 X146.3650 Y27.2627 
G01 X146.5665 Y27.3282 
G01 X146.7551 Y27.4243 
G01 X146.9265 Y27.5488 
G01 X147.0762 Y27.6985 
G01 X147.2007 Y27.8699 
G01 X147.2968 Y28.0585 
G01 X147.3623 Y28.2599 
G01 X147.3954 Y28.4691 
G00 Z4.0000 
G00 X137.2354 Y28.4691 
G01 Z0.0000 F9000.00 
G01 X137.2354 Y28.6809 F3000.00 
G01 X137.2023 Y28.8900 
G01 X137.1368 Y29.0915 
G01 X137.0407 Y29.2801 
G01 X136.9162 Y29.4515 
G01 X136.7665 Y29.6012 
G01 X136.5951 Y29.7257 
G01 X136.4065 Y29.8218 
G01 X136.2050 Y29.8873 
G01 X135.9959 Y29.9204 
G01 X135.7841 Y29.9204 
G01 X135.5750 Y29.8873 
G01 X135.3735 Y29.8218 
G01 X135.1849 Y29.7257 
G01 X135.0135 Y29.6012 
G01 X134.8638 Y29.4515 
G01 X134.7393 Y29.2801 
G01 X134.6432 Y29.0915 
G01 X134.5777 Y28.8900 
G01 X134.5446 Y28.6809 
G01 X134.5446 Y28.4691 
G01 X134.5777 Y28.2599 
G01 X134.6432 Y28.0585 
G01 X134.7393 Y27.8699 
G01 X134.8638 Y27.6985 
G01 X135.0135 Y27.5488 
G01 X135.1849 Y27.4243 
G01 X135.3735 Y27.3282 
G01 X135.5750 Y27.2627 
G01 X135.7841 Y27.2296 
G01 X135.9959 Y27.2296 
G01 X136.2050 Y27.2627 
G01 X136.4065 Y27.3282 
G01 X136.5951 Y27.4243 
G01 X136.7665 Y27.5488 
G01 X136.9162 Y27.6985 
G01 X137.0407 Y27.8699 
G01 X137.1368 Y28.0585 
G01 X137.2023 Y28.2599 
G01 X137.2354 Y28.4691 
G00 Z4.0000 
G00 X147.3954 Y55.7741 
G01 Z0.0000 F9000.00 
G01 X147.3954 Y55.9859 F3000.00 
G01 X147.3623 Y56.1950 
G01 X147.2968 Y56.3965 
G01 X147.2007 Y56.5851 
G01 X147.0762 Y56.7565 
G01 X146.9265 Y56.9062 
G01 X146.7551 Y57.0307 
G01 X146.5665 Y57.1268 
G01 X146.3650 Y57.1923 
G01 X146.1559 Y57.2254 
G01 X145.9441 Y57.2254 
G01 X145.7349 Y57.1923 
G01 X145.5335 Y57.1268 
G01 X145.3449 Y57.0307 
G01 X145.1735 Y56.9062 
G01 X145.0238 Y56.7565 
G01 X144.8993 Y56.5851 
G01 X144.8032 Y56.3965 
G01 X144.7377 Y56.1950 
G01 X144.7046 Y55.9859 
G01 X144.7046 Y55.7741 
G01 X144.7377 Y55.5650 
G01 X144.8032 Y55.3635 
G01 X144.8993 Y55.1749 
G01 X145.0238 Y55.0035 
G01 X145.1735 Y54.8538 
G01 X145.3449 Y54.7293 
G01 X145.5335 Y54.6332 
G01 X145.7349 Y54.5677 
G01 X145.9441 Y54.5346 
G01 X146.1559 Y54.5346 
G01 X146.3650 Y54.5677 
G01 X146.5665 Y54.6332 
G01 X146.7551 Y54.7293 
G01 X146.9265 Y54.8538 
G01 X147.0762 Y55.0035 
G01 X147.2007 Y55.1749 
G01 X147.2968 Y55.3635 
G01 X147.3623 Y55.5650 
G01 X147.3954 Y55.7741 
G00 Z4.0000 
G00 X137.2354 Y55.7741 
G01 Z0.0000 F9000.00 
G01 X137.2354 Y55.9859 F3000.00 
G01 X137.2023 Y56.1950 
G01 X137.1368 Y56.3965 
G01 X137.0407 Y56.5851 
G01 X136.9162 Y56.7565 
G01 X136.7665 Y56.9062 
G01 X136.5951 Y57.0307 
G01 X136.4065 Y57.1268 
G01 X136.2050 Y57.1923 
G01 X135.9959 Y57.2254 
G01 X135.7841 Y57.2254 
G01 X135.5750 Y57.1923 
G01 X135.3735 Y57.1268 
G01 X135.1849 Y57.0307 
G01 X135.0135 Y56.9062 
G01 X134.8638 Y56.7565 
G01 X134.7393 Y56.5851 
G01 X134.6432 Y56.3965 
G01 X134.5777 Y56.1950 
G01 X134.5446 Y55.9859 
G01 X134.5446 Y55.7741 
G01 X134.5777 Y55.5650 
G01 X134.6432 Y55.3635 
G01 X134.7393 Y55.1749 
G01 X134.8638 Y55.0035 
G01 X135.0135 Y54.8538 
G01 X135.1849 Y54.7293 
G01 X135.3735 Y54.6332 
G01 X135.5750 Y54.5677 
G01 X135.7841 Y54.5346 
G01 X135.9959 Y54.5346 
G01 X136.2050 Y54.5677 
G01 X136.4065 Y54.6332 
G01 X136.5951 Y54.7293 
G01 X136.7665 Y54.8538 
G01 X136.9162 Y55.0035 
G01 X137.0407 Y55.1749 
G01 X137.1368 Y55.3635 
G01 X137.2023 Y55.5650 
G01 X137.2354 Y55.7741 
G00 Z4.0000 
G00 X29.9204 Y82.4202 
G01 Z0.0000 F9000.00 
G01 X29.9204 Y82.6798 F3000.00 
G01 X29.8865 Y82.9372 
G01 X29.8193 Y83.1879 
G01 X29.7200 Y83.4278 
G01 X29.5902 Y83.6526 
G01 X29.4321 Y83.8586 
G01 X29.2486 Y84.0421 
G01 X29.0426 Y84.2002 
G01 X28.8178 Y84.3300 
G01 X28.5779 Y84.4293 
G01 X28.3272 Y84.4965 
G01 X28.0698 Y84.5304 
G01 X27.8102 Y84.5304 
G01 X27.5528 Y84.4965 
G01 X27.3021 Y84.4293 
G01 X27.0622 Y84.3300 
G01 X26.8374 Y84.2002 
G01 X26.6314 Y84.0421 
G01 X26.4479 Y83.8586 
G01 X26.2898 Y83.6526 
G01 X26.1600 Y83.4278 
G01 X26.0607 Y83.1879 
G01 X25.9935 Y82.9372 
G01 X25.9596 Y82.6798 
G01 X25.9596 Y82.4202 
G01 X25.9935 Y82.1628 
G01 X26.0607 Y81.9121 
G01 X26.1600 Y81.6722 
G01 X26.2898 Y81.4474 
G01 X26.4479 Y81.2414 
G01 X26.6314 Y81.0579 
G01 X26.8374 Y80.8998 
G01 X27.0622 Y80.7700 
G01 X27.3021 Y80.6707 
G01 X27.5528 Y80.6035 
G01 X27.8102 Y80.5696 
G01 X28.0698 Y80.5696 
G01 X28.3272 Y80.6035 
G01 X28.5779 Y80.6707 
G01 X28.8178 Y80.7700 
G01 X29.0426 Y80.8998 
G01 X29.2486 Y81.0579 
G01 X29.4321 Y81.2414 
G01 X29.5902 Y81.4474 
G01 X29.7200 Y81.6722 
G01 X29.8193 Y81.9121 
G01 X29.8865 Y82.1628 
G01 X29.9204 Y82.4202 
G00 Z4.0000 
G00 X36.2704 Y84.9602 
G01 Z0.0000 F9000.00 
G01 X36.2704 Y85.2198 F3000.00 
G01 X36.2365 Y85.4772 
G01 X36.1693 Y85.7279 
G01 X36.0700 Y85.9678 
G01 X35.9402 Y86.1926 
G01 X35.7821 Y86.3986 
G01 X35.5986 Y86.5821 
G01 X35.3926 Y86.7402 
G01 X35.1678 Y86.8700 
G01 X34.9279 Y86.9693 
G01 X34.6772 Y87.0365 
G01 X34.4198 Y87.0704 
G01 X34.1602 Y87.0704 
G01 X33.9028 Y87.0365 
G01 X33.6521 Y86.9693 
G01 X33.4122 Y86.8700 
G01 X33.1874 Y86.7402 
G01 X32.9814 Y86.5821 
G01 X32.7979 Y86.3986 
G01 X32.6398 Y86.1926 
G01 X32.5100 Y85.9678 
G01 X32.4107 Y85.7279 
G01 X32.3435 Y85.4772 
G01 X32.3096 Y85.2198 
G01 X32.3096 Y84.9602 
G01 X32.3435 Y84.7028 
G01 X32.4107 Y84.4521 
G01 X32.5100 Y84.2122 
G01 X32.6398 Y83.9874 
G01 X32.7979 Y83.7814 
G01 X32.9814 Y83.5979 
G01 X33.1874 Y83.4398 
G01 X33.4122 Y83.3100 
G01 X33.6521 Y83.2107 
G01 X33.9028 Y83.1435 
G01 X34.1602 Y83.1096 
G01 X34.4198 Y83.1096 
G01 X34.6772 Y83.1435 
G01 X34.9279 Y83.2107 
G01 X35.1678 Y83.3100 
G01 X35.3926 Y83.4398 
G01 X35.5986 Y83.5979 
G01 X35.7821 Y83.7814 
G01 X35.9402 Y83.9874 
G01 X36.0700 Y84.2122 
G01 X36.1693 Y84.4521 
G01 X36.2365 Y84.7028 
G01 X36.2704 Y84.9602 
G00 Z4.0000 
G00 X26.5946 Y76.3059 
G01 Z0.0000 F9000.00 
G01 X26.5946 Y73.5541 F3000.00 
G01 X26.6277 Y73.3449 
G01 X26.6932 Y73.1435 
G01 X26.7893 Y72.9549 
G01 X26.9138 Y72.7835 
G01 X27.0635 Y72.6338 
G01 X27.2349 Y72.5093 
G01 X27.4235 Y72.4132 
G01 X27.6250 Y72.3477 
G01 X27.8341 Y72.3146 
G01 X28.0459 Y72.3146 
G01 X28.2550 Y72.3477 
G01 X28.4565 Y72.4132 
G01 X28.6451 Y72.5093 
G01 X28.8165 Y72.6338 
G01 X28.9662 Y72.7835 
G01 X29.0907 Y72.9549 
G01 X29.1868 Y73.1435 
G01 X29.2523 Y73.3449 
G01 X29.2854 Y73.5541 
G01 X29.2854 Y76.3059 
G01 X29.2523 Y76.5150 
G01 X29.1868 Y76.7165 
G01 X29.0907 Y76.9051 
G01 X28.9662 Y77.0765 
G01 X28.8165 Y77.2262 
G01 X28.6451 Y77.3507 
G01 X28.4565 Y77.4468 
G01 X28.2550 Y77.5123 
G01 X28.0459 Y77.5454 
G01 X27.8341 Y77.5454 
G01 X27.6250 Y77.5123 
G01 X27.4235 Y77.4468 
G01 X27.2349 Y77.3507 
G01 X27.0635 Y77.2262 
G01 X26.9138 Y77.0765 
G01 X26.7893 Y76.9051 
G01 X26.6932 Y76.7165 
G01 X26.6277 Y76.5150 
G01 X26.5946 Y76.3059 
G00 Z4.0000 
G00 X34.2146 Y76.3059 
G01 Z0.0000 F9000.00 
G01 X34.2146 Y73.5541 F3000.00 
G01 X34.2477 Y73.3449 
G01 X34.3132 Y73.1435 
G01 X34.4093 Y72.9549 
G01 X34.5338 Y72.7835 
G01 X34.6835 Y72.6338 
G01 X34.8549 Y72.5093 
G01 X35.0435 Y72.4132 
G01 X35.2450 Y72.3477 
G01 X35.4541 Y72.3146 
G01 X35.6659 Y72.3146 
G01 X35.8750 Y72.3477 
G01 X36.0765 Y72.4132 
G01 X36.2651 Y72.5093 
G01 X36.4365 Y72.6338 
G01 X36.5862 Y72.7835 
G01 X36.7107 Y72.9549 
G01 X36.8068 Y73.1435 
G01 X36.8723 Y73.3449 
G01 X36.9054 Y73.5541 
G01 X36.9054 Y76.3059 
G01 X36.8723 Y76.5150 
G01 X36.8068 Y76.7165 
G01 X36.7107 Y76.9051 
G01 X36.5862 Y77.0765 
G01 X36.4365 Y77.2262 
G01 X36.2651 Y77.3507 
G01 X36.0765 Y77.4468 
G01 X35.8750 Y77.5123 
G01 X35.6659 Y77.5454 
G01 X35.4541 Y77.5454 
G01 X35.2450 Y77.5123 
G01 X35.0435 Y77.4468 
G01 X34.8549 Y77.3507 
G01 X34.6835 Y77.2262 
G01 X34.5338 Y77.0765 
G01 X34.4093 Y76.9051 
G01 X34.3132 Y76.7165 
G01 X34.2477 Y76.5150 
G01 X34.2146 Y76.3059 
G00 Z4.0000 
G00 X68.0204 Y63.3702 
G01 Z0.0000 F9000.00 
G01 X68.0204 Y63.6298 F3000.00 
G01 X67.9865 Y63.8872 
G01 X67.9193 Y64.1379 
G01 X67.8200 Y64.3778 
G01 X67.6902 Y64.6026 
G01 X67.5321 Y64.8086 
G01 X67.3486 Y64.9921 
G01 X67.1426 Y65.1502 
G01 X66.9178 Y65.2800 
G01 X66.6779 Y65.3793 
G01 X66.4272 Y65.4465 
G01 X66.1698 Y65.4804 
G01 X65.9102 Y65.4804 
G01 X65.6528 Y65.4465 
G01 X65.4021 Y65.3793 
G01 X65.1622 Y65.2800 
G01 X64.9374 Y65.1502 
G01 X64.7314 Y64.9921 
G01 X64.5479 Y64.8086 
G01 X64.3898 Y64.6026 
G01 X64.2600 Y64.3778 
G01 X64.1607 Y64.1379 
G01 X64.0935 Y63.8872 
G01 X64.0596 Y63.6298 
G01 X64.0596 Y63.3702 
G01 X64.0935 Y63.1128 
G01 X64.1607 Y62.8621 
G01 X64.2600 Y62.6222 
G01 X64.3898 Y62.3974 
G01 X64.5479 Y62.1914 
G01 X64.7314 Y62.0079 
G01 X64.9374 Y61.8498 
G01 X65.1622 Y61.7200 
G01 X65.4021 Y61.6207 
G01 X65.6528 Y61.5535 
G01 X65.9102 Y61.5196 
G01 X66.1698 Y61.5196 
G01 X66.4272 Y61.5535 
G01 X66.6779 Y61.6207 
G01 X66.9178 Y61.7200 
G01 X67.1426 Y61.8498 
G01 X67.3486 Y62.0079 
G01 X67.5321 Y62.1914 
G01 X67.6902 Y62.3974 
G01 X67.8200 Y62.6222 
G01 X67.9193 Y62.8621 
G01 X67.9865 Y63.1128 
G01 X68.0204 Y63.3702 
G00 Z4.0000 
G00 X74.3704 Y65.9102 
G01 Z0.0000 F9000.00 
G01 X74.3704 Y66.1698 F3000.00 
G01 X74.3365 Y66.4272 
G01 X74.2693 Y66.6779 
G01 X74.1700 Y66.9178 
G01 X74.0402 Y67.1426 
G01 X73.8821 Y67.3486 
G01 X73.6986 Y67.5321 
G01 X73.4926 Y67.6902 
G01 X73.2678 Y67.8200 
G01 X73.0279 Y67.9193 
G01 X72.7772 Y67.9865 
G01 X72.5198 Y68.0204 
G01 X72.2602 Y68.0204 
G01 X72.0028 Y67.9865 
G01 X71.7521 Y67.9193 
G01 X71.5122 Y67.8200 
G01 X71.2874 Y67.6902 
G01 X71.0814 Y67.5321 
G01 X70.8979 Y67.3486 
G01 X70.7398 Y67.1426 
G01 X70.6100 Y66.9178 
G01 X70.5107 Y66.6779 
G01 X70.4435 Y66.4272 
G01 X70.4096 Y66.1698 
G01 X70.4096 Y65.9102 
G01 X70.4435 Y65.6528 
G01 X70.5107 Y65.4021 
G01 X70.6100 Y65.1622 
G01 X70.7398 Y64.9374 
G01 X70.8979 Y64.7314 
G01 X71.0814 Y64.5479 
G01 X71.2874 Y64.3898 
G01 X71.5122 Y64.2600 
G01 X71.7521 Y64.1607 
G01 X72.0028 Y64.0935 
G01 X72.2602 Y64.0596 
G01 X72.5198 Y64.0596 
G01 X72.7772 Y64.0935 
G01 X73.0279 Y64.1607 
G01 X73.2678 Y64.2600 
G01 X73.4926 Y64.3898 
G01 X73.6986 Y64.5479 
G01 X73.8821 Y64.7314 
G01 X74.0402 Y64.9374 
G01 X74.1700 Y65.1622 
G01 X74.2693 Y65.4021 
G01 X74.3365 Y65.6528 
G01 X74.3704 Y65.9102 
G00 Z4.0000 
G00 X64.6946 Y57.2559 
G01 Z0.0000 F9000.00 
G01 X64.6946 Y54.5041 F3000.00 
G01 X64.7277 Y54.2950 
G01 X64.7932 Y54.0935 
G01 X64.8893 Y53.9049 
G01 X65.0138 Y53.7335 
G01 X65.1635 Y53.5838 
G01 X65.3349 Y53.4593 
G01 X65.5235 Y53.3632 
G01 X65.7250 Y53.2977 
G01 X65.9341 Y53.2646 
G01 X66.1459 Y53.2646 
G01 X66.3550 Y53.2977 
G01 X66.5565 Y53.3632 
G01 X66.7451 Y53.4593 
G01 X66.9165 Y53.5838 
G01 X67.0662 Y53.7335 
G01 X67.1907 Y53.9049 
G01 X67.2868 Y54.0935 
G01 X67.3523 Y54.2950 
G01 X67.3854 Y54.5041 
G01 X67.3854 Y57.2559 
G01 X67.3523 Y57.4650 
G01 X67.2868 Y57.6665 
G01 X67.1907 Y57.8551 
G01 X67.0662 Y58.0265 
G01 X66.9165 Y58.1762 
G01 X66.7451 Y58.3007 
G01 X66.5565 Y58.3968 
G01 X66.3550 Y58.4623 
G01 X66.1459 Y58.4954 
G01 X65.9341 Y58.4954 
G01 X65.7250 Y58.4623 
G01 X65.5235 Y58.3968 
G01 X65.3349 Y58.3007 
G01 X65.1635 Y58.1762 
G01 X65.0138 Y58.0265 
G01 X64.8893 Y57.8551 
G01 X64.7932 Y57.6665 
G01 X64.7277 Y57.4650 
G01 X64.6946 Y57.2559 
G00 Z4.0000 
G00 X72.3146 Y57.2559 
G01 Z0.0000 F9000.00 
G01 X72.3146 Y54.5041 F3000.00 
G01 X72.3477 Y54.2950 
G01 X72.4132 Y54.0935 
G01 X72.5093 Y53.9049 
G01 X72.6338 Y53.7335 
G01 X72.7835 Y53.5838 
G01 X72.9549 Y53.4593 
G01 X73.1435 Y53.3632 
G01 X73.3449 Y53.2977 
G01 X73.5541 Y53.2646 
G01 X73.7659 Y53.2646 
G01 X73.9750 Y53.2977 
G01 X74.1765 Y53.3632 
G01 X74.3651 Y53.4593 
G01 X74.5365 Y53.5838 
G01 X74.6862 Y53.7335 
G01 X74.8107 Y53.9049 
G01 X74.9068 Y54.0935 
G01 X74.9723 Y54.2950 
G01 X75.0054 Y54.5041 
G01 X75.0054 Y57.2559 
G01 X74.9723 Y57.4650 
G01 X74.9068 Y57.6665 
G01 X74.8107 Y57.8551 
G01 X74.6862 Y58.0265 
G01 X74.5365 Y58.1762 
G01 X74.3651 Y58.3007 
G01 X74.1765 Y58.3968 
G01 X73.9750 Y58.4623 
G01 X73.7659 Y58.4954 
G01 X73.5541 Y58.4954 
G01 X73.3449 Y58.4623 
G01 X73.1435 Y58.3968 
G01 X72.9549 Y58.3007 
G01 X72.7835 Y58.1762 
G01 X72.6338 Y58.0265 
G01 X72.5093 Y57.8551 
G01 X72.4132 Y57.6665 
G01 X72.3477 Y57.4650 
G01 X72.3146 Y57.2559 
G00 Z4.0000 
G00 X29.9204 Y44.3202 
G01 Z0.0000 F9000.00 
G01 X29.9204 Y44.5798 F3000.00 
G01 X29.8865 Y44.8372 
G01 X29.8193 Y45.0879 
G01 X29.7200 Y45.3278 
G01 X29.5902 Y45.5526 
G01 X29.4321 Y45.7586 
G01 X29.2486 Y45.9421 
G01 X29.0426 Y46.1002 
G01 X28.8178 Y46.2300 
G01 X28.5779 Y46.3293 
G01 X28.3272 Y46.3965 
G01 X28.0698 Y46.4304 
G01 X27.8102 Y46.4304 
G01 X27.5528 Y46.3965 
G01 X27.3021 Y46.3293 
G01 X27.0622 Y46.2300 
G01 X26.8374 Y46.1002 
G01 X26.6314 Y45.9421 
G01 X26.4479 Y45.7586 
G01 X26.2898 Y45.5526 
G01 X26.1600 Y45.3278 
G01 X26.0607 Y45.0879 
G01 X25.9935 Y44.8372 
G01 X25.9596 Y44.5798 
G01 X25.9596 Y44.3202 
G01 X25.9935 Y44.0628 
G01 X26.0607 Y43.8121 
G01 X26.1600 Y43.5722 
G01 X26.2898 Y43.3474 
G01 X26.4479 Y43.1414 
G01 X26.6314 Y42.9579 
G01 X26.8374 Y42.7998 
G01 X27.0622 Y42.6700 
G01 X27.3021 Y42.5707 
G01 X27.5528 Y42.5035 
G01 X27.8102 Y42.4696 
G01 X28.0698 Y42.4696 
G01 X28.3272 Y42.5035 
G01 X28.5779 Y42.5707 
G01 X28.8178 Y42.6700 
G01 X29.0426 Y42.7998 
G01 X29.2486 Y42.9579 
G01 X29.4321 Y43.1414 
G01 X29.5902 Y43.3474 
G01 X29.7200 Y43.5722 
G01 X29.8193 Y43.8121 
G01 X29.8865 Y44.0628 
G01 X29.9204 Y44.3202 
G00 Z4.0000 
G00 X36.2704 Y46.8602 
G01 Z0.0000 F9000.00 
G01 X36.2704 Y47.1198 F3000.00 
G01 X36.2365 Y47.3772 
G01 X36.1693 Y47.6279 
G01 X36.0700 Y47.8678 
G01 X35.9402 Y48.0926 
G01 X35.7821 Y48.2986 
G01 X35.5986 Y48.4821 
G01 X35.3926 Y48.6402 
G01 X35.1678 Y48.7700 
G01 X34.9279 Y48.8693 
G01 X34.6772 Y48.9365 
G01 X34.4198 Y48.9704 
G01 X34.1602 Y48.9704 
G01 X33.9028 Y48.9365 
G01 X33.6521 Y48.8693 
G01 X33.4122 Y48.7700 
G01 X33.1874 Y48.6402 
G01 X32.9814 Y48.4821 
G01 X32.7979 Y48.2986 
G01 X32.6398 Y48.0926 
G01 X32.5100 Y47.8678 
G01 X32.4107 Y47.6279 
G01 X32.3435 Y47.3772 
G01 X32.3096 Y47.1198 
G01 X32.3096 Y46.8602 
G01 X32.3435 Y46.6028 
G01 X32.4107 Y46.3521 
G01 X32.5100 Y46.1122 
G01 X32.6398 Y45.8874 
G01 X32.7979 Y45.6814 
G01 X32.9814 Y45.4979 
G01 X33.1874 Y45.3398 
G01 X33.4122 Y45.2100 
G01 X33.6521 Y45.1107 
G01 X33.9028 Y45.0435 
G01 X34.1602 Y45.0096 
G01 X34.4198 Y45.0096 
G01 X34.6772 Y45.0435 
G01 X34.9279 Y45.1107 
G01 X35.1678 Y45.2100 
G01 X35.3926 Y45.3398 
G01 X35.5986 Y45.4979 
G01 X35.7821 Y45.6814 
G01 X35.9402 Y45.8874 
G01 X36.0700 Y46.1122 
G01 X36.1693 Y46.3521 
G01 X36.2365 Y46.6028 
G01 X36.2704 Y46.8602 
G00 Z4.0000 
G00 X26.5946 Y38.2059 
G01 Z0.0000 F9000.00 
G01 X26.5946 Y35.4541 F3000.00 
G01 X26.6277 Y35.2450 
G01 X26.6932 Y35.0435 
G01 X26.7893 Y34.8549 
G01 X26.9138 Y34.6835 
G01 X27.0635 Y34.5338 
G01 X27.2349 Y34.4093 
G01 X27.4235 Y34.3132 
G01 X27.6250 Y34.2477 
G01 X27.8341 Y34.2146 
G01 X28.0459 Y34.2146 
G01 X28.2550 Y34.2477 
G01 X28.4565 Y34.3132 
G01 X28.6451 Y34.4093 
G01 X28.8165 Y34.5338 
G01 X28.9662 Y34.6835 
G01 X29.0907 Y34.8549 
G01 X29.1868 Y35.0435 
G01 X29.2523 Y35.2450 
G01 X29.2854 Y35.4541 
G01 X29.2854 Y38.2059 
G01 X29.2523 Y38.4150 
G01 X29.1868 Y38.6165 
G01 X29.0907 Y38.8051 
G01 X28.9662 Y38.9765 
G01 X28.8165 Y39.1262 
G01 X28.6451 Y39.2507 
G01 X28.4565 Y39.3468 
G01 X28.2550 Y39.4123 
G01 X28.0459 Y39.4454 
G01 X27.8341 Y39.4454 
G01 X27.6250 Y39.4123 
G01 X27.4235 Y39.3468 
G01 X27.2349 Y39.2507 
G01 X27.0635 Y39.1262 
G01 X26.9138 Y38.9765 
G01 X26.7893 Y38.8051 
G01 X26.6932 Y38.6165 
G01 X26.6277 Y38.4150 
G01 X26.5946 Y38.2059 
G00 Z4.0000 
G00 X34.2146 Y38.2059 
G01 Z0.0000 F9000.00 
G01 X34.2146 Y35.4541 F3000.00 
G01 X34.2477 Y35.2450 
G01 X34.3132 Y35.0435 
G01 X34.4093 Y34.8549 
G01 X34.5338 Y34.6835 
G01 X34.6835 Y34.5338 
G01 X34.8549 Y34.4093 
G01 X35.0435 Y34.3132 
G01 X35.2450 Y34.2477 
G01 X35.4541 Y34.2146 
G01 X35.6659 Y34.2146 
G01 X35.8750 Y34.2477 
G01 X36.0765 Y34.3132 
G01 X36.2651 Y34.4093 
G01 X36.4365 Y34.5338 
G01 X36.5862 Y34.6835 
G01 X36.7107 Y34.8549 
G01 X36.8068 Y35.0435 
G01 X36.8723 Y35.2450 
G01 X36.9054 Y35.4541 
G01 X36.9054 Y38.2059 
G01 X36.8723 Y38.4150 
G01 X36.8068 Y38.6165 
G01 X36.7107 Y38.8051 
G01 X36.5862 Y38.9765 
G01 X36.4365 Y39.1262 
G01 X36.2651 Y39.2507 
G01 X36.0765 Y39.3468 
G01 X35.8750 Y39.4123 
G01 X35.6659 Y39.4454 
G01 X35.4541 Y39.4454 
G01 X35.2450 Y39.4123 
G01 X35.0435 Y39.3468 
G01 X34.8549 Y39.2507 
G01 X34.6835 Y39.1262 
G01 X34.5338 Y38.9765 
G01 X34.4093 Y38.8051 
G01 X34.3132 Y38.6165 
G01 X34.2477 Y38.4150 
G01 X34.2146 Y38.2059 
G00 Z4.0000 
G00 X48.9704 Y44.3202 
G01 Z0.0000 F9000.00 
G01 X48.9704 Y44.5798 F3000.00 
G01 X48.9365 Y44.8372 
G01 X48.8693 Y45.0879 
G01 X48.7700 Y45.3278 
G01 X48.6402 Y45.5526 
G01 X48.4821 Y45.7586 
G01 X48.2986 Y45.9421 
G01 X48.0926 Y46.1002 
G01 X47.8678 Y46.2300 
G01 X47.6279 Y46.3293 
G01 X47.3772 Y46.3965 
G01 X47.1198 Y46.4304 
G01 X46.8602 Y46.4304 
G01 X46.6028 Y46.3965 
G01 X46.3521 Y46.3293 
G01 X46.1122 Y46.2300 
G01 X45.8874 Y46.1002 
G01 X45.6814 Y45.9421 
G01 X45.4979 Y45.7586 
G01 X45.3398 Y45.5526 
G01 X45.2100 Y45.3278 
G01 X45.1107 Y45.0879 
G01 X45.0435 Y44.8372 
G01 X45.0096 Y44.5798 
G01 X45.0096 Y44.3202 
G01 X45.0435 Y44.0628 
G01 X45.1107 Y43.8121 
G01 X45.2100 Y43.5722 
G01 X45.3398 Y43.3474 
G01 X45.4979 Y43.1414 
G01 X45.6814 Y42.9579 
G01 X45.8874 Y42.7998 
G01 X46.1122 Y42.6700 
G01 X46.3521 Y42.5707 
G01 X46.6028 Y42.5035 
G01 X46.8602 Y42.4696 
G01 X47.1198 Y42.4696 
G01 X47.3772 Y42.5035 
G01 X47.6279 Y42.5707 
G01 X47.8678 Y42.6700 
G01 X48.0926 Y42.7998 
G01 X48.2986 Y42.9579 
G01 X48.4821 Y43.1414 
G01 X48.6402 Y43.3474 
G01 X48.7700 Y43.5722 
G01 X48.8693 Y43.8121 
G01 X48.9365 Y44.0628 
G01 X48.9704 Y44.3202 
G00 Z4.0000 
G00 X55.3204 Y46.8602 
G01 Z0.0000 F9000.00 
G01 X55.3204 Y47.1198 F3000.00 
G01 X55.2865 Y47.3772 
G01 X55.2193 Y47.6279 
G01 X55.1200 Y47.8678 
G01 X54.9902 Y48.0926 
G01 X54.8321 Y48.2986 
G01 X54.6486 Y48.4821 
G01 X54.4426 Y48.6402 
G01 X54.2178 Y48.7700 
G01 X53.9779 Y48.8693 
G01 X53.7272 Y48.9365 
G01 X53.4698 Y48.9704 
G01 X53.2102 Y48.9704 
G01 X52.9528 Y48.9365 
G01 X52.7021 Y48.8693 
G01 X52.4622 Y48.7700 
G01 X52.2374 Y48.6402 
G01 X52.0314 Y48.4821 
G01 X51.8479 Y48.2986 
G01 X51.6898 Y48.0926 
G01 X51.5600 Y47.8678 
G01 X51.4607 Y47.6279 
G01 X51.3935 Y47.3772 
G01 X51.3596 Y47.1198 
G01 X51.3596 Y46.8602 
G01 X51.3935 Y46.6028 
G01 X51.4607 Y46.3521 
G01 X51.5600 Y46.1122 
G01 X51.6898 Y45.8874 
G01 X51.8479 Y45.6814 
G01 X52.0314 Y45.4979 
G01 X52.2374 Y45.3398 
G01 X52.4622 Y45.2100 
G01 X52.7021 Y45.1107 
G01 X52.9528 Y45.0435 
G01 X53.2102 Y45.0096 
G01 X53.4698 Y45.0096 
G01 X53.7272 Y45.0435 
G01 X53.9779 Y45.1107 
G01 X54.2178 Y45.2100 
G01 X54.4426 Y45.3398 
G01 X54.6486 Y45.4979 
G01 X54.8321 Y45.6814 
G01 X54.9902 Y45.8874 
G01 X55.1200 Y46.1122 
G01 X55.2193 Y46.3521 
G01 X55.2865 Y46.6028 
G01 X55.3204 Y46.8602 
G00 Z4.0000 
G00 X45.6446 Y38.2059 
G01 Z0.0000 F9000.00 
G01 X45.6446 Y35.4541 F3000.00 
G01 X45.6777 Y35.2450 
G01 X45.7432 Y35.0435 
G01 X45.8393 Y34.8549 
G01 X45.9638 Y34.6835 
G01 X46.1135 Y34.5338 
G01 X46.2849 Y34.4093 
G01 X46.4735 Y34.3132 
G01 X46.6750 Y34.2477 
G01 X46.8841 Y34.2146 
G01 X47.0959 Y34.2146 
G01 X47.3050 Y34.2477 
G01 X47.5065 Y34.3132 
G01 X47.6951 Y34.4093 
G01 X47.8665 Y34.5338 
G01 X48.0162 Y34.6835 
G01 X48.1407 Y34.8549 
G01 X48.2368 Y35.0435 
G01 X48.3023 Y35.2450 
G01 X48.3354 Y35.4541 
G01 X48.3354 Y38.2059 
G01 X48.3023 Y38.4150 
G01 X48.2368 Y38.6165 
G01 X48.1407 Y38.8051 
G01 X48.0162 Y38.9765 
G01 X47.8665 Y39.1262 
G01 X47.6951 Y39.2507 
G01 X47.5065 Y39.3468 
G01 X47.3050 Y39.4123 
G01 X47.0959 Y39.4454 
G01 X46.8841 Y39.4454 
G01 X46.6750 Y39.4123 
G01 X46.4735 Y39.3468 
G01 X46.2849 Y39.2507 
G01 X46.1135 Y39.1262 
G01 X45.9638 Y38.9765 
G01 X45.8393 Y38.8051 
G01 X45.7432 Y38.6165 
G01 X45.6777 Y38.4150 
G01 X45.6446 Y38.2059 
G00 Z4.0000 
G00 X53.2646 Y38.2059 
G01 Z0.0000 F9000.00 
G01 X53.2646 Y35.4541 F3000.00 
G01 X53.2977 Y35.2450 
G01 X53.3632 Y35.0435 
G01 X53.4593 Y34.8549 
G01 X53.5838 Y34.6835 
G01 X53.7335 Y34.5338 
G01 X53.9049 Y34.4093 
G01 X54.0935 Y34.3132 
G01 X54.2950 Y34.2477 
G01 X54.5041 Y34.2146 
G01 X54.7159 Y34.2146 
G01 X54.9250 Y34.2477 
G01 X55.1265 Y34.3132 
G01 X55.3151 Y34.4093 
G01 X55.4865 Y34.5338 
G01 X55.6362 Y34.6835 
G01 X55.7607 Y34.8549 
G01 X55.8568 Y35.0435 
G01 X55.9223 Y35.2450 
G01 X55.9554 Y35.4541 
G01 X55.9554 Y38.2059 
G01 X55.9223 Y38.4150 
G01 X55.8568 Y38.6165 
G01 X55.7607 Y38.8051 
G01 X55.6362 Y38.9765 
G01 X55.4865 Y39.1262 
G01 X55.3151 Y39.2507 
G01 X55.1265 Y39.3468 
G01 X54.9250 Y39.4123 
G01 X54.7159 Y39.4454 
G01 X54.5041 Y39.4454 
G01 X54.2950 Y39.4123 
G01 X54.0935 Y39.3468 
G01 X53.9049 Y39.2507 
G01 X53.7335 Y39.1262 
G01 X53.5838 Y38.9765 
G01 X53.4593 Y38.8051 
G01 X53.3632 Y38.6165 
G01 X53.2977 Y38.4150 
G01 X53.2646 Y38.2059 
G00 Z4.0000 
G00 X68.0204 Y44.3202 
G01 Z0.0000 F9000.00 
G01 X68.0204 Y44.5798 F3000.00 
G01 X67.9865 Y44.8372 
G01 X67.9193 Y45.0879 
G01 X67.8200 Y45.3278 
G01 X67.6902 Y45.5526 
G01 X67.5321 Y45.7586 
G01 X67.3486 Y45.9421 
G01 X67.1426 Y46.1002 
G01 X66.9178 Y46.2300 
G01 X66.6779 Y46.3293 
G01 X66.4272 Y46.3965 
G01 X66.1698 Y46.4304 
G01 X65.9102 Y46.4304 
G01 X65.6528 Y46.3965 
G01 X65.4021 Y46.3293 
G01 X65.1622 Y46.2300 
G01 X64.9374 Y46.1002 
G01 X64.7314 Y45.9421 
G01 X64.5479 Y45.7586 
G01 X64.3898 Y45.5526 
G01 X64.2600 Y45.3278 
G01 X64.1607 Y45.0879 
G01 X64.0935 Y44.8372 
G01 X64.0596 Y44.5798 
G01 X64.0596 Y44.3202 
G01 X64.0935 Y44.0628 
G01 X64.1607 Y43.8121 
G01 X64.2600 Y43.5722 
G01 X64.3898 Y43.3474 
G01 X64.5479 Y43.1414 
G01 X64.7314 Y42.9579 
G01 X64.9374 Y42.7998 
G01 X65.1622 Y42.6700 
G01 X65.4021 Y42.5707 
G01 X65.6528 Y42.5035 
G01 X65.9102 Y42.4696 
G01 X66.1698 Y42.4696 
G01 X66.4272 Y42.5035 
G01 X66.6779 Y42.5707 
G01 X66.9178 Y42.6700 
G01 X67.1426 Y42.7998 
G01 X67.3486 Y42.9579 
G01 X67.5321 Y43.1414 
G01 X67.6902 Y43.3474 
G01 X67.8200 Y43.5722 
G01 X67.9193 Y43.8121 
G01 X67.9865 Y44.0628 
G01 X68.0204 Y44.3202 
G00 Z4.0000 
G00 X74.3704 Y46.8602 
G01 Z0.0000 F9000.00 
G01 X74.3704 Y47.1198 F3000.00 
G01 X74.3365 Y47.3772 
G01 X74.2693 Y47.6279 
G01 X74.1700 Y47.8678 
G01 X74.0402 Y48.0926 
G01 X73.8821 Y48.2986 
G01 X73.6986 Y48.4821 
G01 X73.4926 Y48.6402 
G01 X73.2678 Y48.7700 
G01 X73.0279 Y48.8693 
G01 X72.7772 Y48.9365 
G01 X72.5198 Y48.9704 
G01 X72.2602 Y48.9704 
G01 X72.0028 Y48.9365 
G01 X71.7521 Y48.8693 
G01 X71.5122 Y48.7700 
G01 X71.2874 Y48.6402 
G01 X71.0814 Y48.4821 
G01 X70.8979 Y48.2986 
G01 X70.7398 Y48.0926 
G01 X70.6100 Y47.8678 
G01 X70.5107 Y47.6279 
G01 X70.4435 Y47.3772 
G01 X70.4096 Y47.1198 
G01 X70.4096 Y46.8602 
G01 X70.4435 Y46.6028 
G01 X70.5107 Y46.3521 
G01 X70.6100 Y46.1122 
G01 X70.7398 Y45.8874 
G01 X70.8979 Y45.6814 
G01 X71.0814 Y45.4979 
G01 X71.2874 Y45.3398 
G01 X71.5122 Y45.2100 
G01 X71.7521 Y45.1107 
G01 X72.0028 Y45.0435 
G01 X72.2602 Y45.0096 
G01 X72.5198 Y45.0096 
G01 X72.7772 Y45.0435 
G01 X73.0279 Y45.1107 
G01 X73.2678 Y45.2100 
G01 X73.4926 Y45.3398 
G01 X73.6986 Y45.4979 
G01 X73.8821 Y45.6814 
G01 X74.0402 Y45.8874 
G01 X74.1700 Y46.1122 
G01 X74.2693 Y46.3521 
G01 X74.3365 Y46.6028 
G01 X74.3704 Y46.8602 
G00 Z4.0000 
G00 X64.6946 Y38.2059 
G01 Z0.0000 F9000.00 
G01 X64.6946 Y35.4541 F3000.00 
G01 X64.7277 Y35.2450 
G01 X64.7932 Y35.0435 
G01 X64.8893 Y34.8549 
G01 X65.0138 Y34.6835 
G01 X65.1635 Y34.5338 
G01 X65.3349 Y34.4093 
G01 X65.5235 Y34.3132 
G01 X65.7250 Y34.2477 
G01 X65.9341 Y34.2146 
G01 X66.1459 Y34.2146 
G01 X66.3550 Y34.2477 
G01 X66.5565 Y34.3132 
G01 X66.7451 Y34.4093 
G01 X66.9165 Y34.5338 
G01 X67.0662 Y34.6835 
G01 X67.1907 Y34.8549 
G01 X67.2868 Y35.0435 
G01 X67.3523 Y35.2450 
G01 X67.3854 Y35.4541 
G01 X67.3854 Y38.2059 
G01 X67.3523 Y38.4150 
G01 X67.2868 Y38.6165 
G01 X67.1907 Y38.8051 
G01 X67.0662 Y38.9765 
G01 X66.9165 Y39.1262 
G01 X66.7451 Y39.2507 
G01 X66.5565 Y39.3468 
G01 X66.3550 Y39.4123 
G01 X66.1459 Y39.4454 
G01 X65.9341 Y39.4454 
G01 X65.7250 Y39.4123 
G01 X65.5235 Y39.3468 
G01 X65.3349 Y39.2507 
G01 X65.1635 Y39.1262 
G01 X65.0138 Y38.9765 
G01 X64.8893 Y38.8051 
G01 X64.7932 Y38.6165 
G01 X64.7277 Y38.4150 
G01 X64.6946 Y38.2059 
G00 Z4.0000 
G00 X72.3146 Y38.2059 
G01 Z0.0000 F9000.00 
G01 X72.3146 Y35.4541 F3000.00 
G01 X72.3477 Y35.2450 
G01 X72.4132 Y35.0435 
G01 X72.5093 Y34.8549 
G01 X72.6338 Y34.6835 
G01 X72.7835 Y34.5338 
G01 X72.9549 Y34.4093 
G01 X73.1435 Y34.3132 
G01 X73.3449 Y34.2477 
G01 X73.5541 Y34.2146 
G01 X73.7659 Y34.2146 
G01 X73.9750 Y34.2477 
G01 X74.1765 Y34.3132 
G01 X74.3651 Y34.4093 
G01 X74.5365 Y34.5338 
G01 X74.6862 Y34.6835 
G01 X74.8107 Y34.8549 
G01 X74.9068 Y35.0435 
G01 X74.9723 Y35.2450 
G01 X75.0054 Y35.4541 
G01 X75.0054 Y38.2059 
G01 X74.9723 Y38.4150 
G01 X74.9068 Y38.6165 
G01 X74.8107 Y38.8051 
G01 X74.6862 Y38.9765 
G01 X74.5365 Y39.1262 
G01 X74.3651 Y39.2507 
G01 X74.1765 Y39.3468 
G01 X73.9750 Y39.4123 
G01 X73.7659 Y39.4454 
G01 X73.5541 Y39.4454 
G01 X73.3449 Y39.4123 
G01 X73.1435 Y39.3468 
G01 X72.9549 Y39.2507 
G01 X72.7835 Y39.1262 
G01 X72.6338 Y38.9765 
G01 X72.5093 Y38.8051 
G01 X72.4132 Y38.6165 
G01 X72.3477 Y38.4150 
G01 X72.3146 Y38.2059 
G00 Z4.0000 
G00 X29.9204 Y25.2702 
G01 Z0.0000 F9000.00 
G01 X29.9204 Y25.5298 F3000.00 
G01 X29.8865 Y25.7872 
G01 X29.8193 Y26.0379 
G01 X29.7200 Y26.2778 
G01 X29.5902 Y26.5026 
G01 X29.4321 Y26.7086 
G01 X29.2486 Y26.8921 
G01 X29.0426 Y27.0502 
G01 X28.8178 Y27.1800 
G01 X28.5779 Y27.2793 
G01 X28.3272 Y27.3465 
G01 X28.0698 Y27.3804 
G01 X27.8102 Y27.3804 
G01 X27.5528 Y27.3465 
G01 X27.3021 Y27.2793 
G01 X27.0622 Y27.1800 
G01 X26.8374 Y27.0502 
G01 X26.6314 Y26.8921 
G01 X26.4479 Y26.7086 
G01 X26.2898 Y26.5026 
G01 X26.1600 Y26.2778 
G01 X26.0607 Y26.0379 
G01 X25.9935 Y25.7872 
G01 X25.9596 Y25.5298 
G01 X25.9596 Y25.2702 
G01 X25.9935 Y25.0128 
G01 X26.0607 Y24.7621 
G01 X26.1600 Y24.5222 
G01 X26.2898 Y24.2974 
G01 X26.4479 Y24.0914 
G01 X26.6314 Y23.9079 
G01 X26.8374 Y23.7498 
G01 X27.0622 Y23.6200 
G01 X27.3021 Y23.5207 
G01 X27.5528 Y23.4535 
G01 X27.8102 Y23.4196 
G01 X28.0698 Y23.4196 
G01 X28.3272 Y23.4535 
G01 X28.5779 Y23.5207 
G01 X28.8178 Y23.6200 
G01 X29.0426 Y23.7498 
G01 X29.2486 Y23.9079 
G01 X29.4321 Y24.0914 
G01 X29.5902 Y24.2974 
G01 X29.7200 Y24.5222 
G01 X29.8193 Y24.7621 
G01 X29.8865 Y25.0128 
G01 X29.9204 Y25.2702 
G00 Z4.0000 
G00 X36.2704 Y27.8102 
G01 Z0.0000 F9000.00 
G01 X36.2704 Y28.0698 F3000.00 
G01 X36.2365 Y28.3272 
G01 X36.1693 Y28.5779 
G01 X36.0700 Y28.8178 
G01 X35.9402 Y29.0426 
G01 X35.7821 Y29.2486 
G01 X35.5986 Y29.4321 
G01 X35.3926 Y29.5902 
G01 X35.1678 Y29.7200 
G01 X34.9279 Y29.8193 
G01 X34.6772 Y29.8865 
G01 X34.4198 Y29.9204 
G01 X34.1602 Y29.9204 
G01 X33.9028 Y29.8865 
G01 X33.6521 Y29.8193 
G01 X33.4122 Y29.7200 
G01 X33.1874 Y29.5902 
G01 X32.9814 Y29.4321 
G01 X32.7979 Y29.2486 
G01 X32.6398 Y29.0426 
G01 X32.5100 Y28.8178 
G01 X32.4107 Y28.5779 
G01 X32.3435 Y28.3272 
G01 X32.3096 Y28.0698 
G01 X32.3096 Y27.8102 
G01 X32.3435 Y27.5528 
G01 X32.4107 Y27.3021 
G01 X32.5100 Y27.0622 
G01 X32.6398 Y26.8374 
G01 X32.7979 Y26.6314 
G01 X32.9814 Y26.4479 
G01 X33.1874 Y26.2898 
G01 X33.4122 Y26.1600 
G01 X33.6521 Y26.0607 
G01 X33.9028 Y25.9935 
G01 X34.1602 Y25.9596 
G01 X34.4198 Y25.9596 
G01 X34.6772 Y25.9935 
G01 X34.9279 Y26.0607 
G01 X35.1678 Y26.1600 
G01 X35.3926 Y26.2898 
G01 X35.5986 Y26.4479 
G01 X35.7821 Y26.6314 
G01 X35.9402 Y26.8374 
G01 X36.0700 Y27.0622 
G01 X36.1693 Y27.3021 
G01 X36.2365 Y27.5528 
G01 X36.2704 Y27.8102 
G00 Z4.0000 
G00 X26.5946 Y19.1559 
G01 Z0.0000 F9000.00 
G01 X26.5946 Y16.4041 F3000.00 
G01 X26.6277 Y16.1950 
G01 X26.6932 Y15.9935 
G01 X26.7893 Y15.8049 
G01 X26.9138 Y15.6335 
G01 X27.0635 Y15.4838 
G01 X27.2349 Y15.3593 
G01 X27.4235 Y15.2632 
G01 X27.6250 Y15.1977 
G01 X27.8341 Y15.1646 
G01 X28.0459 Y15.1646 
G01 X28.2550 Y15.1977 
G01 X28.4565 Y15.2632 
G01 X28.6451 Y15.3593 
G01 X28.8165 Y15.4838 
G01 X28.9662 Y15.6335 
G01 X29.0907 Y15.8049 
G01 X29.1868 Y15.9935 
G01 X29.2523 Y16.1950 
G01 X29.2854 Y16.4041 
G01 X29.2854 Y19.1559 
G01 X29.2523 Y19.3650 
G01 X29.1868 Y19.5665 
G01 X29.0907 Y19.7551 
G01 X28.9662 Y19.9265 
G01 X28.8165 Y20.0762 
G01 X28.6451 Y20.2007 
G01 X28.4565 Y20.2968 
G01 X28.2550 Y20.3623 
G01 X28.0459 Y20.3954 
G01 X27.8341 Y20.3954 
G01 X27.6250 Y20.3623 
G01 X27.4235 Y20.2968 
G01 X27.2349 Y20.2007 
G01 X27.0635 Y20.0762 
G01 X26.9138 Y19.9265 
G01 X26.7893 Y19.7551 
G01 X26.6932 Y19.5665 
G01 X26.6277 Y19.3650 
G01 X26.5946 Y19.1559 
G00 Z4.0000 
G00 X34.2146 Y19.1559 
G01 Z0.0000 F9000.00 
G01 X34.2146 Y16.4041 F3000.00 
G01 X34.2477 Y16.1950 
G01 X34.3132 Y15.9935 
G01 X34.4093 Y15.8049 
G01 X34.5338 Y15.6335 
G01 X34.6835 Y15.4838 
G01 X34.8549 Y15.3593 
G01 X35.0435 Y15.2632 
G01 X35.2450 Y15.1977 
G01 X35.4541 Y15.1646 
G01 X35.6659 Y15.1646 
G01 X35.8750 Y15.1977 
G01 X36.0765 Y15.2632 
G01 X36.2651 Y15.3593 
G01 X36.4365 Y15.4838 
G01 X36.5862 Y15.6335 
G01 X36.7107 Y15.8049 
G01 X36.8068 Y15.9935 
G01 X36.8723 Y16.1950 
G01 X36.9054 Y16.4041 
G01 X36.9054 Y19.1559 
G01 X36.8723 Y19.3650 
G01 X36.8068 Y19.5665 
G01 X36.7107 Y19.7551 
G01 X36.5862 Y19.9265 
G01 X36.4365 Y20.0762 
G01 X36.2651 Y20.2007 
G01 X36.0765 Y20.2968 
G01 X35.8750 Y20.3623 
G01 X35.6659 Y20.3954 
G01 X35.4541 Y20.3954 
G01 X35.2450 Y20.3623 
G01 X35.0435 Y20.2968 
G01 X34.8549 Y20.2007 
G01 X34.6835 Y20.0762 
G01 X34.5338 Y19.9265 
G01 X34.4093 Y19.7551 
G01 X34.3132 Y19.5665 
G01 X34.2477 Y19.3650 
G01 X34.2146 Y19.1559 
G00 Z4.0000 
G00 X48.9704 Y25.2702 
G01 Z0.0000 F9000.00 
G01 X48.9704 Y25.5298 F3000.00 
G01 X48.9365 Y25.7872 
G01 X48.8693 Y26.0379 
G01 X48.7700 Y26.2778 
G01 X48.6402 Y26.5026 
G01 X48.4821 Y26.7086 
G01 X48.2986 Y26.8921 
G01 X48.0926 Y27.0502 
G01 X47.8678 Y27.1800 
G01 X47.6279 Y27.2793 
G01 X47.3772 Y27.3465 
G01 X47.1198 Y27.3804 
G01 X46.8602 Y27.3804 
G01 X46.6028 Y27.3465 
G01 X46.3521 Y27.2793 
G01 X46.1122 Y27.1800 
G01 X45.8874 Y27.0502 
G01 X45.6814 Y26.8921 
G01 X45.4979 Y26.7086 
G01 X45.3398 Y26.5026 
G01 X45.2100 Y26.2778 
G01 X45.1107 Y26.0379 
G01 X45.0435 Y25.7872 
G01 X45.0096 Y25.5298 
G01 X45.0096 Y25.2702 
G01 X45.0435 Y25.0128 
G01 X45.1107 Y24.7621 
G01 X45.2100 Y24.5222 
G01 X45.3398 Y24.2974 
G01 X45.4979 Y24.0914 
G01 X45.6814 Y23.9079 
G01 X45.8874 Y23.7498 
G01 X46.1122 Y23.6200 
G01 X46.3521 Y23.5207 
G01 X46.6028 Y23.4535 
G01 X46.8602 Y23.4196 
G01 X47.1198 Y23.4196 
G01 X47.3772 Y23.4535 
G01 X47.6279 Y23.5207 
G01 X47.8678 Y23.6200 
G01 X48.0926 Y23.7498 
G01 X48.2986 Y23.9079 
G01 X48.4821 Y24.0914 
G01 X48.6402 Y24.2974 
G01 X48.7700 Y24.5222 
G01 X48.8693 Y24.7621 
G01 X48.9365 Y25.0128 
G01 X48.9704 Y25.2702 
G00 Z4.0000 
G00 X55.3204 Y27.8102 
G01 Z0.0000 F9000.00 
G01 X55.3204 Y28.0698 F3000.00 
G01 X55.2865 Y28.3272 
G01 X55.2193 Y28.5779 
G01 X55.1200 Y28.8178 
G01 X54.9902 Y29.0426 
G01 X54.8321 Y29.2486 
G01 X54.6486 Y29.4321 
G01 X54.4426 Y29.5902 
G01 X54.2178 Y29.7200 
G01 X53.9779 Y29.8193 
G01 X53.7272 Y29.8865 
G01 X53.4698 Y29.9204 
G01 X53.2102 Y29.9204 
G01 X52.9528 Y29.8865 
G01 X52.7021 Y29.8193 
G01 X52.4622 Y29.7200 
G01 X52.2374 Y29.5902 
G01 X52.0314 Y29.4321 
G01 X51.8479 Y29.2486 
G01 X51.6898 Y29.0426 
G01 X51.5600 Y28.8178 
G01 X51.4607 Y28.5779 
G01 X51.3935 Y28.3272 
G01 X51.3596 Y28.0698 
G01 X51.3596 Y27.8102 
G01 X51.3935 Y27.5528 
G01 X51.4607 Y27.3021 
G01 X51.5600 Y27.0622 
G01 X51.6898 Y26.8374 
G01 X51.8479 Y26.6314 
G01 X52.0314 Y26.4479 
G01 X52.2374 Y26.2898 
G01 X52.4622 Y26.1600 
G01 X52.7021 Y26.0607 
G01 X52.9528 Y25.9935 
G01 X53.2102 Y25.9596 
G01 X53.4698 Y25.9596 
G01 X53.7272 Y25.9935 
G01 X53.9779 Y26.0607 
G01 X54.2178 Y26.1600 
G01 X54.4426 Y26.2898 
G01 X54.6486 Y26.4479 
G01 X54.8321 Y26.6314 
G01 X54.9902 Y26.8374 
G01 X55.1200 Y27.0622 
G01 X55.2193 Y27.3021 
G01 X55.2865 Y27.5528 
G01 X55.3204 Y27.8102 
G00 Z4.0000 
G00 X45.6446 Y19.1559 
G01 Z0.0000 F9000.00 
G01 X45.6446 Y16.4041 F3000.00 
G01 X45.6777 Y16.1950 
G01 X45.7432 Y15.9935 
G01 X45.8393 Y15.8049 
G01 X45.9638 Y15.6335 
G01 X46.1135 Y15.4838 
G01 X46.2849 Y15.3593 
G01 X46.4735 Y15.2632 
G01 X46.6750 Y15.1977 
G01 X46.8841 Y15.1646 
G01 X47.0959 Y15.1646 
G01 X47.3050 Y15.1977 
G01 X47.5065 Y15.2632 
G01 X47.6951 Y15.3593 
G01 X47.8665 Y15.4838 
G01 X48.0162 Y15.6335 
G01 X48.1407 Y15.8049 
G01 X48.2368 Y15.9935 
G01 X48.3023 Y16.1950 
G01 X48.3354 Y16.4041 
G01 X48.3354 Y19.1559 
G01 X48.3023 Y19.3650 
G01 X48.2368 Y19.5665 
G01 X48.1407 Y19.7551 
G01 X48.0162 Y19.9265 
G01 X47.8665 Y20.0762 
G01 X47.6951 Y20.2007 
G01 X47.5065 Y20.2968 
G01 X47.3050 Y20.3623 
G01 X47.0959 Y20.3954 
G01 X46.8841 Y20.3954 
G01 X46.6750 Y20.3623 
G01 X46.4735 Y20.2968 
G01 X46.2849 Y20.2007 
G01 X46.1135 Y20.0762 
G01 X45.9638 Y19.9265 
G01 X45.8393 Y19.7551 
G01 X45.7432 Y19.5665 
G01 X45.6777 Y19.3650 
G01 X45.6446 Y19.1559 
G00 Z4.0000 
G00 X53.2646 Y19.1559 
G01 Z0.0000 F9000.00 
G01 X53.2646 Y16.4041 F3000.00 
G01 X53.2977 Y16.1950 
G01 X53.3632 Y15.9935 
G01 X53.4593 Y15.8049 
G01 X53.5838 Y15.6335 
G01 X53.7335 Y15.4838 
G01 X53.9049 Y15.3593 
G01 X54.0935 Y15.2632 
G01 X54.2950 Y15.1977 
G01 X54.5041 Y15.1646 
G01 X54.7159 Y15.1646 
G01 X54.9250 Y15.1977 
G01 X55.1265 Y15.2632 
G01 X55.3151 Y15.3593 
G01 X55.4865 Y15.4838 
G01 X55.6362 Y15.6335 
G01 X55.7607 Y15.8049 
G01 X55.8568 Y15.9935 
G01 X55.9223 Y16.1950 
G01 X55.9554 Y16.4041 
G01 X55.9554 Y19.1559 
G01 X55.9223 Y19.3650 
G01 X55.8568 Y19.5665 
G01 X55.7607 Y19.7551 
G01 X55.6362 Y19.9265 
G01 X55.4865 Y20.0762 
G01 X55.3151 Y20.2007 
G01 X55.1265 Y20.2968 
G01 X54.9250 Y20.3623 
G01 X54.7159 Y20.3954 
G01 X54.5041 Y20.3954 
G01 X54.2950 Y20.3623 
G01 X54.0935 Y20.2968 
G01 X53.9049 Y20.2007 
G01 X53.7335 Y20.0762 
G01 X53.5838 Y19.9265 
G01 X53.4593 Y19.7551 
G01 X53.3632 Y19.5665 
G01 X53.2977 Y19.3650 
G01 X53.2646 Y19.1559 
G00 Z4.0000 
G00 X68.0204 Y25.2702 
G01 Z0.0000 F9000.00 
G01 X68.0204 Y25.5298 F3000.00 
G01 X67.9865 Y25.7872 
G01 X67.9193 Y26.0379 
G01 X67.8200 Y26.2778 
G01 X67.6902 Y26.5026 
G01 X67.5321 Y26.7086 
G01 X67.3486 Y26.8921 
G01 X67.1426 Y27.0502 
G01 X66.9178 Y27.1800 
G01 X66.6779 Y27.2793 
G01 X66.4272 Y27.3465 
G01 X66.1698 Y27.3804 
G01 X65.9102 Y27.3804 
G01 X65.6528 Y27.3465 
G01 X65.4021 Y27.2793 
G01 X65.1622 Y27.1800 
G01 X64.9374 Y27.0502 
G01 X64.7314 Y26.8921 
G01 X64.5479 Y26.7086 
G01 X64.3898 Y26.5026 
G01 X64.2600 Y26.2778 
G01 X64.1607 Y26.0379 
G01 X64.0935 Y25.7872 
G01 X64.0596 Y25.5298 
G01 X64.0596 Y25.2702 
G01 X64.0935 Y25.0128 
G01 X64.1607 Y24.7621 
G01 X64.2600 Y24.5222 
G01 X64.3898 Y24.2974 
G01 X64.5479 Y24.0914 
G01 X64.7314 Y23.9079 
G01 X64.9374 Y23.7498 
G01 X65.1622 Y23.6200 
G01 X65.4021 Y23.5207 
G01 X65.6528 Y23.4535 
G01 X65.9102 Y23.4196 
G01 X66.1698 Y23.4196 
G01 X66.4272 Y23.4535 
G01 X66.6779 Y23.5207 
G01 X66.9178 Y23.6200 
G01 X67.1426 Y23.7498 
G01 X67.3486 Y23.9079 
G01 X67.5321 Y24.0914 
G01 X67.6902 Y24.2974 
G01 X67.8200 Y24.5222 
G01 X67.9193 Y24.7621 
G01 X67.9865 Y25.0128 
G01 X68.0204 Y25.2702 
G00 Z4.0000 
G00 X74.3704 Y27.8102 
G01 Z0.0000 F9000.00 
G01 X74.3704 Y28.0698 F3000.00 
G01 X74.3365 Y28.3272 
G01 X74.2693 Y28.5779 
G01 X74.1700 Y28.8178 
G01 X74.0402 Y29.0426 
G01 X73.8821 Y29.2486 
G01 X73.6986 Y29.4321 
G01 X73.4926 Y29.5902 
G01 X73.2678 Y29.7200 
G01 X73.0279 Y29.8193 
G01 X72.7772 Y29.8865 
G01 X72.5198 Y29.9204 
G01 X72.2602 Y29.9204 
G01 X72.0028 Y29.8865 
G01 X71.7521 Y29.8193 
G01 X71.5122 Y29.7200 
G01 X71.2874 Y29.5902 
G01 X71.0814 Y29.4321 
G01 X70.8979 Y29.2486 
G01 X70.7398 Y29.0426 
G01 X70.6100 Y28.8178 
G01 X70.5107 Y28.5779 
G01 X70.4435 Y28.3272 
G01 X70.4096 Y28.0698 
G01 X70.4096 Y27.8102 
G01 X70.4435 Y27.5528 
G01 X70.5107 Y27.3021 
G01 X70.6100 Y27.0622 
G01 X70.7398 Y26.8374 
G01 X70.8979 Y26.6314 
G01 X71.0814 Y26.4479 
G01 X71.2874 Y26.2898 
G01 X71.5122 Y26.1600 
G01 X71.7521 Y26.0607 
G01 X72.0028 Y25.9935 
G01 X72.2602 Y25.9596 
G01 X72.5198 Y25.9596 
G01 X72.7772 Y25.9935 
G01 X73.0279 Y26.0607 
G01 X73.2678 Y26.1600 
G01 X73.4926 Y26.2898 
G01 X73.6986 Y26.4479 
G01 X73.8821 Y26.6314 
G01 X74.0402 Y26.8374 
G01 X74.1700 Y27.0622 
G01 X74.2693 Y27.3021 
G01 X74.3365 Y27.5528 
G01 X74.3704 Y27.8102 
G00 Z4.0000 
G00 X64.6946 Y19.1559 
G01 Z0.0000 F9000.00 
G01 X64.6946 Y16.4041 F3000.00 
G01 X64.7277 Y16.1950 
G01 X64.7932 Y15.9935 
G01 X64.8893 Y15.8049 
G01 X65.0138 Y15.6335 
G01 X65.1635 Y15.4838 
G01 X65.3349 Y15.3593 
G01 X65.5235 Y15.2632 
G01 X65.7250 Y15.1977 
G01 X65.9341 Y15.1646 
G01 X66.1459 Y15.1646 
G01 X66.3550 Y15.1977 
G01 X66.5565 Y15.2632 
G01 X66.7451 Y15.3593 
G01 X66.9165 Y15.4838 
G01 X67.0662 Y15.6335 
G01 X67.1907 Y15.8049 
G01 X67.2868 Y15.9935 
G01 X67.3523 Y16.1950 
G01 X67.3854 Y16.4041 
G01 X67.3854 Y19.1559 
G01 X67.3523 Y19.3650 
G01 X67.2868 Y19.5665 
G01 X67.1907 Y19.7551 
G01 X67.0662 Y19.9265 
G01 X66.9165 Y20.0762 
G01 X66.7451 Y20.2007 
G01 X66.5565 Y20.2968 
G01 X66.3550 Y20.3623 
G01 X66.1459 Y20.3954 
G01 X65.9341 Y20.3954 
G01 X65.7250 Y20.3623 
G01 X65.5235 Y20.2968 
G01 X65.3349 Y20.2007 
G01 X65.1635 Y20.0762 
G01 X65.0138 Y19.9265 
G01 X64.8893 Y19.7551 
G01 X64.7932 Y19.5665 
G01 X64.7277 Y19.3650 
G01 X64.6946 Y19.1559 
G00 Z4.0000 
G00 X72.3146 Y19.1559 
G01 Z0.0000 F9000.00 
G01 X72.3146 Y16.4041 F3000.00 
G01 X72.3477 Y16.1950 
G01 X72.4132 Y15.9935 
G01 X72.5093 Y15.8049 
G01 X72.6338 Y15.6335 
G01 X72.7835 Y15.4838 
G01 X72.9549 Y15.3593 
G01 X73.1435 Y15.2632 
G01 X73.3449 Y15.1977 
G01 X73.5541 Y15.1646 
G01 X73.7659 Y15.1646 
G01 X73.9750 Y15.1977 
G01 X74.1765 Y15.2632 
G01 X74.3651 Y15.3593 
G01 X74.5365 Y15.4838 
G01 X74.6862 Y15.6335 
G01 X74.8107 Y15.8049 
G01 X74.9068 Y15.9935 
G01 X74.9723 Y16.1950 
G01 X75.0054 Y16.4041 
G01 X75.0054 Y19.1559 
G01 X74.9723 Y19.3650 
G01 X74.9068 Y19.5665 
G01 X74.8107 Y19.7551 
G01 X74.6862 Y19.9265 
G01 X74.5365 Y20.0762 
G01 X74.3651 Y20.2007 
G01 X74.1765 Y20.2968 
G01 X73.9750 Y20.3623 
G01 X73.7659 Y20.3954 
G01 X73.5541 Y20.3954 
G01 X73.3449 Y20.3623 
G01 X73.1435 Y20.2968 
G01 X72.9549 Y20.2007 
G01 X72.7835 Y20.0762 
G01 X72.6338 Y19.9265 
G01 X72.5093 Y19.7551 
G01 X72.4132 Y19.5665 
G01 X72.3477 Y19.3650 
G01 X72.3146 Y19.1559 
G00 Z4.0000 
G00 X48.9704 Y82.4202 
G01 Z0.0000 F9000.00 
G01 X48.9704 Y82.6798 F3000.00 
G01 X48.9365 Y82.9372 
G01 X48.8693 Y83.1879 
G01 X48.7700 Y83.4278 
G01 X48.6402 Y83.6526 
G01 X48.4821 Y83.8586 
G01 X48.2986 Y84.0421 
G01 X48.0926 Y84.2002 
G01 X47.8678 Y84.3300 
G01 X47.6279 Y84.4293 
G01 X47.3772 Y84.4965 
G01 X47.1198 Y84.5304 
G01 X46.8602 Y84.5304 
G01 X46.6028 Y84.4965 
G01 X46.3521 Y84.4293 
G01 X46.1122 Y84.3300 
G01 X45.8874 Y84.2002 
G01 X45.6814 Y84.0421 
G01 X45.4979 Y83.8586 
G01 X45.3398 Y83.6526 
G01 X45.2100 Y83.4278 
G01 X45.1107 Y83.1879 
G01 X45.0435 Y82.9372 
G01 X45.0096 Y82.6798 
G01 X45.0096 Y82.4202 
G01 X45.0435 Y82.1628 
G01 X45.1107 Y81.9121 
G01 X45.2100 Y81.6722 
G01 X45.3398 Y81.4474 
G01 X45.4979 Y81.2414 
G01 X45.6814 Y81.0579 
G01 X45.8874 Y80.8998 
G01 X46.1122 Y80.7700 
G01 X46.3521 Y80.6707 
G01 X46.6028 Y80.6035 
G01 X46.8602 Y80.5696 
G01 X47.1198 Y80.5696 
G01 X47.3772 Y80.6035 
G01 X47.6279 Y80.6707 
G01 X47.8678 Y80.7700 
G01 X48.0926 Y80.8998 
G01 X48.2986 Y81.0579 
G01 X48.4821 Y81.2414 
G01 X48.6402 Y81.4474 
G01 X48.7700 Y81.6722 
G01 X48.8693 Y81.9121 
G01 X48.9365 Y82.1628 
G01 X48.9704 Y82.4202 
G00 Z4.0000 
G00 X55.3204 Y84.9602 
G01 Z0.0000 F9000.00 
G01 X55.3204 Y85.2198 F3000.00 
G01 X55.2865 Y85.4772 
G01 X55.2193 Y85.7279 
G01 X55.1200 Y85.9678 
G01 X54.9902 Y86.1926 
G01 X54.8321 Y86.3986 
G01 X54.6486 Y86.5821 
G01 X54.4426 Y86.7402 
G01 X54.2178 Y86.8700 
G01 X53.9779 Y86.9693 
G01 X53.7272 Y87.0365 
G01 X53.4698 Y87.0704 
G01 X53.2102 Y87.0704 
G01 X52.9528 Y87.0365 
G01 X52.7021 Y86.9693 
G01 X52.4622 Y86.8700 
G01 X52.2374 Y86.7402 
G01 X52.0314 Y86.5821 
G01 X51.8479 Y86.3986 
G01 X51.6898 Y86.1926 
G01 X51.5600 Y85.9678 
G01 X51.4607 Y85.7279 
G01 X51.3935 Y85.4772 
G01 X51.3596 Y85.2198 
G01 X51.3596 Y84.9602 
G01 X51.3935 Y84.7028 
G01 X51.4607 Y84.4521 
G01 X51.5600 Y84.2122 
G01 X51.6898 Y83.9874 
G01 X51.8479 Y83.7814 
G01 X52.0314 Y83.5979 
G01 X52.2374 Y83.4398 
G01 X52.4622 Y83.3100 
G01 X52.7021 Y83.2107 
G01 X52.9528 Y83.1435 
G01 X53.2102 Y83.1096 
G01 X53.4698 Y83.1096 
G01 X53.7272 Y83.1435 
G01 X53.9779 Y83.2107 
G01 X54.2178 Y83.3100 
G01 X54.4426 Y83.4398 
G01 X54.6486 Y83.5979 
G01 X54.8321 Y83.7814 
G01 X54.9902 Y83.9874 
G01 X55.1200 Y84.2122 
G01 X55.2193 Y84.4521 
G01 X55.2865 Y84.7028 
G01 X55.3204 Y84.9602 
G00 Z4.0000 
G00 X45.6446 Y76.3059 
G01 Z0.0000 F9000.00 
G01 X45.6446 Y73.5541 F3000.00 
G01 X45.6777 Y73.3449 
G01 X45.7432 Y73.1435 
G01 X45.8393 Y72.9549 
G01 X45.9638 Y72.7835 
G01 X46.1135 Y72.6338 
G01 X46.2849 Y72.5093 
G01 X46.4735 Y72.4132 
G01 X46.6750 Y72.3477 
G01 X46.8841 Y72.3146 
G01 X47.0959 Y72.3146 
G01 X47.3050 Y72.3477 
G01 X47.5065 Y72.4132 
G01 X47.6951 Y72.5093 
G01 X47.8665 Y72.6338 
G01 X48.0162 Y72.7835 
G01 X48.1407 Y72.9549 
G01 X48.2368 Y73.1435 
G01 X48.3023 Y73.3449 
G01 X48.3354 Y73.5541 
G01 X48.3354 Y76.3059 
G01 X48.3023 Y76.5150 
G01 X48.2368 Y76.7165 
G01 X48.1407 Y76.9051 
G01 X48.0162 Y77.0765 
G01 X47.8665 Y77.2262 
G01 X47.6951 Y77.3507 
G01 X47.5065 Y77.4468 
G01 X47.3050 Y77.5123 
G01 X47.0959 Y77.5454 
G01 X46.8841 Y77.5454 
G01 X46.6750 Y77.5123 
G01 X46.4735 Y77.4468 
G01 X46.2849 Y77.3507 
G01 X46.1135 Y77.2262 
G01 X45.9638 Y77.0765 
G01 X45.8393 Y76.9051 
G01 X45.7432 Y76.7165 
G01 X45.6777 Y76.5150 
G01 X45.6446 Y76.3059 
G00 Z4.0000 
G00 X53.2646 Y76.3059 
G01 Z0.0000 F9000.00 
G01 X53.2646 Y73.5541 F3000.00 
G01 X53.2977 Y73.3449 
G01 X53.3632 Y73.1435 
G01 X53.4593 Y72.9549 
G01 X53.5838 Y72.7835 
G01 X53.7335 Y72.6338 
G01 X53.9049 Y72.5093 
G01 X54.0935 Y72.4132 
G01 X54.2950 Y72.3477 
G01 X54.5041 Y72.3146 
G01 X54.7159 Y72.3146 
G01 X54.9250 Y72.3477 
G01 X55.1265 Y72.4132 
G01 X55.3151 Y72.5093 
G01 X55.4865 Y72.6338 
G01 X55.6362 Y72.7835 
G01 X55.7607 Y72.9549 
G01 X55.8568 Y73.1435 
G01 X55.9223 Y73.3449 
G01 X55.9554 Y73.5541 
G01 X55.9554 Y76.3059 
G01 X55.9223 Y76.5150 
G01 X55.8568 Y76.7165 
G01 X55.7607 Y76.9051 
G01 X55.6362 Y77.0765 
G01 X55.4865 Y77.2262 
G01 X55.3151 Y77.3507 
G01 X55.1265 Y77.4468 
G01 X54.9250 Y77.5123 
G01 X54.7159 Y77.5454 
G01 X54.5041 Y77.5454 
G01 X54.2950 Y77.5123 
G01 X54.0935 Y77.4468 
G01 X53.9049 Y77.3507 
G01 X53.7335 Y77.2262 
G01 X53.5838 Y77.0765 
G01 X53.4593 Y76.9051 
G01 X53.3632 Y76.7165 
G01 X53.2977 Y76.5150 
G01 X53.2646 Y76.3059 
G00 Z4.0000 
G00 X68.0204 Y82.4202 
G01 Z0.0000 F9000.00 
G01 X68.0204 Y82.6798 F3000.00 
G01 X67.9865 Y82.9372 
G01 X67.9193 Y83.1879 
G01 X67.8200 Y83.4278 
G01 X67.6902 Y83.6526 
G01 X67.5321 Y83.8586 
G01 X67.3486 Y84.0421 
G01 X67.1426 Y84.2002 
G01 X66.9178 Y84.3300 
G01 X66.6779 Y84.4293 
G01 X66.4272 Y84.4965 
G01 X66.1698 Y84.5304 
G01 X65.9102 Y84.5304 
G01 X65.6528 Y84.4965 
G01 X65.4021 Y84.4293 
G01 X65.1622 Y84.3300 
G01 X64.9374 Y84.2002 
G01 X64.7314 Y84.0421 
G01 X64.5479 Y83.8586 
G01 X64.3898 Y83.6526 
G01 X64.2600 Y83.4278 
G01 X64.1607 Y83.1879 
G01 X64.0935 Y82.9372 
G01 X64.0596 Y82.6798 
G01 X64.0596 Y82.4202 
G01 X64.0935 Y82.1628 
G01 X64.1607 Y81.9121 
G01 X64.2600 Y81.6722 
G01 X64.3898 Y81.4474 
G01 X64.5479 Y81.2414 
G01 X64.7314 Y81.0579 
G01 X64.9374 Y80.8998 
G01 X65.1622 Y80.7700 
G01 X65.4021 Y80.6707 
G01 X65.6528 Y80.6035 
G01 X65.9102 Y80.5696 
G01 X66.1698 Y80.5696 
G01 X66.4272 Y80.6035 
G01 X66.6779 Y80.6707 
G01 X66.9178 Y80.7700 
G01 X67.1426 Y80.8998 
G01 X67.3486 Y81.0579 
G01 X67.5321 Y81.2414 
G01 X67.6902 Y81.4474 
G01 X67.8200 Y81.6722 
G01 X67.9193 Y81.9121 
G01 X67.9865 Y82.1628 
G01 X68.0204 Y82.4202 
G00 Z4.0000 
G00 X74.3704 Y84.9602 
G01 Z0.0000 F9000.00 
G01 X74.3704 Y85.2198 F3000.00 
G01 X74.3365 Y85.4772 
G01 X74.2693 Y85.7279 
G01 X74.1700 Y85.9678 
G01 X74.0402 Y86.1926 
G01 X73.8821 Y86.3986 
G01 X73.6986 Y86.5821 
G01 X73.4926 Y86.7402 
G01 X73.2678 Y86.8700 
G01 X73.0279 Y86.9693 
G01 X72.7772 Y87.0365 
G01 X72.5198 Y87.0704 
G01 X72.2602 Y87.0704 
G01 X72.0028 Y87.0365 
G01 X71.7521 Y86.9693 
G01 X71.5122 Y86.8700 
G01 X71.2874 Y86.7402 
G01 X71.0814 Y86.5821 
G01 X70.8979 Y86.3986 
G01 X70.7398 Y86.1926 
G01 X70.6100 Y85.9678 
G01 X70.5107 Y85.7279 
G01 X70.4435 Y85.4772 
G01 X70.4096 Y85.2198 
G01 X70.4096 Y84.9602 
G01 X70.4435 Y84.7028 
G01 X70.5107 Y84.4521 
G01 X70.6100 Y84.2122 
G01 X70.7398 Y83.9874 
G01 X70.8979 Y83.7814 
G01 X71.0814 Y83.5979 
G01 X71.2874 Y83.4398 
G01 X71.5122 Y83.3100 
G01 X71.7521 Y83.2107 
G01 X72.0028 Y83.1435 
G01 X72.2602 Y83.1096 
G01 X72.5198 Y83.1096 
G01 X72.7772 Y83.1435 
G01 X73.0279 Y83.2107 
G01 X73.2678 Y83.3100 
G01 X73.4926 Y83.4398 
G01 X73.6986 Y83.5979 
G01 X73.8821 Y83.7814 
G01 X74.0402 Y83.9874 
G01 X74.1700 Y84.2122 
G01 X74.2693 Y84.4521 
G01 X74.3365 Y84.7028 
G01 X74.3704 Y84.9602 
G00 Z4.0000 
G00 X64.6946 Y76.3059 
G01 Z0.0000 F9000.00 
G01 X64.6946 Y73.5541 F3000.00 
G01 X64.7277 Y73.3449 
G01 X64.7932 Y73.1435 
G01 X64.8893 Y72.9549 
G01 X65.0138 Y72.7835 
G01 X65.1635 Y72.6338 
G01 X65.3349 Y72.5093 
G01 X65.5235 Y72.4132 
G01 X65.7250 Y72.3477 
G01 X65.9341 Y72.3146 
G01 X66.1459 Y72.3146 
G01 X66.3550 Y72.3477 
G01 X66.5565 Y72.4132 
G01 X66.7451 Y72.5093 
G01 X66.9165 Y72.6338 
G01 X67.0662 Y72.7835 
G01 X67.1907 Y72.9549 
G01 X67.2868 Y73.1435 
G01 X67.3523 Y73.3449 
G01 X67.3854 Y73.5541 
G01 X67.3854 Y76.3059 
G01 X67.3523 Y76.5150 
G01 X67.2868 Y76.7165 
G01 X67.1907 Y76.9051 
G01 X67.0662 Y77.0765 
G01 X66.9165 Y77.2262 
G01 X66.7451 Y77.3507 
G01 X66.5565 Y77.4468 
G01 X66.3550 Y77.5123 
G01 X66.1459 Y77.5454 
G01 X65.9341 Y77.5454 
G01 X65.7250 Y77.5123 
G01 X65.5235 Y77.4468 
G01 X65.3349 Y77.3507 
G01 X65.1635 Y77.2262 
G01 X65.0138 Y77.0765 
G01 X64.8893 Y76.9051 
G01 X64.7932 Y76.7165 
G01 X64.7277 Y76.5150 
G01 X64.6946 Y76.3059 
G00 Z4.0000 
G00 X72.3146 Y76.3059 
G01 Z0.0000 F9000.00 
G01 X72.3146 Y73.5541 F3000.00 
G01 X72.3477 Y73.3449 
G01 X72.4132 Y73.1435 
G01 X72.5093 Y72.9549 
G01 X72.6338 Y72.7835 
G01 X72.7835 Y72.6338 
G01 X72.9549 Y72.5093 
G01 X73.1435 Y72.4132 
G01 X73.3449 Y72.3477 
G01 X73.5541 Y72.3146 
G01 X73.7659 Y72.3146 
G01 X73.9750 Y72.3477 
G01 X74.1765 Y72.4132 
G01 X74.3651 Y72.5093 
G01 X74.5365 Y72.6338 
G01 X74.6862 Y72.7835 
G01 X74.8107 Y72.9549 
G01 X74.9068 Y73.1435 
G01 X74.9723 Y73.3449 
G01 X75.0054 Y73.5541 
G01 X75.0054 Y76.3059 
G01 X74.9723 Y76.5150 
G01 X74.9068 Y76.7165 
G01 X74.8107 Y76.9051 
G01 X74.6862 Y77.0765 
G01 X74.5365 Y77.2262 
G01 X74.3651 Y77.3507 
G01 X74.1765 Y77.4468 
G01 X73.9750 Y77.5123 
G01 X73.7659 Y77.5454 
G01 X73.5541 Y77.5454 
G01 X73.3449 Y77.5123 
G01 X73.1435 Y77.4468 
G01 X72.9549 Y77.3507 
G01 X72.7835 Y77.2262 
G01 X72.6338 Y77.0765 
G01 X72.5093 Y76.9051 
G01 X72.4132 Y76.7165 
G01 X72.3477 Y76.5150 
G01 X72.3146 Y76.3059 
G00 Z4.0000 
G00 X122.9714 Y71.1681 
G01 Z0.0000 F9000.00 
G01 X122.9714 Y73.3719 F3000.00 
G01 X122.9445 Y73.5416 
G01 X122.8914 Y73.7049 
G01 X122.8134 Y73.8580 
G01 X122.7125 Y73.9970 
G01 X122.5910 Y74.1185 
G01 X122.4520 Y74.2194 
G01 X122.2990 Y74.2974 
G01 X122.1356 Y74.3505 
G01 X121.9659 Y74.3774 
G01 X121.7941 Y74.3774 
G01 X121.6244 Y74.3505 
G01 X121.4610 Y74.2974 
G01 X121.3080 Y74.2194 
G01 X121.1690 Y74.1185 
G01 X121.0475 Y73.9970 
G01 X120.9466 Y73.8580 
G01 X120.8686 Y73.7049 
G01 X120.8155 Y73.5416 
G01 X120.7886 Y73.3719 
G01 X120.7886 Y71.1681 
G01 X120.8155 Y70.9984 
G01 X120.8686 Y70.8350 
G01 X120.9466 Y70.6820 
G01 X121.0475 Y70.5430 
G01 X121.1690 Y70.4215 
G01 X121.3080 Y70.3205 
G01 X121.4610 Y70.2426 
G01 X121.6244 Y70.1895 
G01 X121.7941 Y70.1626 
G01 X121.9659 Y70.1626 
G01 X122.1356 Y70.1895 
G01 X122.2990 Y70.2426 
G01 X122.4520 Y70.3205 
G01 X122.5910 Y70.4215 
G01 X122.7125 Y70.5430 
G01 X122.8134 Y70.6820 
G01 X122.8914 Y70.8350 
G01 X122.9445 Y70.9984 
G01 X122.9714 Y71.1681 
G00 Z4.0000 
G00 X117.9714 Y71.1681 
G01 Z0.0000 F9000.00 
G01 X117.9714 Y73.3719 F3000.00 
G01 X117.9445 Y73.5416 
G01 X117.8914 Y73.7049 
G01 X117.8134 Y73.8580 
G01 X117.7125 Y73.9970 
G01 X117.5910 Y74.1185 
G01 X117.4520 Y74.2194 
G01 X117.2990 Y74.2974 
G01 X117.1356 Y74.3505 
G01 X116.9659 Y74.3774 
G01 X116.7941 Y74.3774 
G01 X116.6244 Y74.3505 
G01 X116.4610 Y74.2974 
G01 X116.3080 Y74.2194 
G01 X116.1690 Y74.1185 
G01 X116.0475 Y73.9970 
G01 X115.9466 Y73.8580 
G01 X115.8686 Y73.7049 
G01 X115.8155 Y73.5416 
G01 X115.7886 Y73.3719 
G01 X115.7886 Y71.1681 
G01 X115.8155 Y70.9984 
G01 X115.8686 Y70.8350 
G01 X115.9466 Y70.6820 
G01 X116.0475 Y70.5430 
G01 X116.1690 Y70.4215 
G01 X116.3080 Y70.3205 
G01 X116.4610 Y70.2426 
G01 X116.6244 Y70.1895 
G01 X116.7941 Y70.1626 
G01 X116.9659 Y70.1626 
G01 X117.1356 Y70.1895 
G01 X117.2990 Y70.2426 
G01 X117.4520 Y70.3205 
G01 X117.5910 Y70.4215 
G01 X117.7125 Y70.5430 
G01 X117.8134 Y70.6820 
G01 X117.8914 Y70.8350 
G01 X117.9445 Y70.9984 
G01 X117.9714 Y71.1681 
G00 Z4.0000 
G00 X122.9714 Y56.6681 
G01 Z0.0000 F9000.00 
G01 X122.9714 Y58.8719 F3000.00 
G01 X122.9445 Y59.0416 
G01 X122.8914 Y59.2050 
G01 X122.8134 Y59.3580 
G01 X122.7125 Y59.4970 
G01 X122.5910 Y59.6185 
G01 X122.5904 Y62.0984 
G01 X122.5631 Y62.2357 
G01 X122.5095 Y62.3650 
G01 X122.4318 Y62.4813 
G01 X120.4140 Y64.4991 
G01 X120.4140 Y70.9045 
G01 X120.4445 Y70.9984 
G01 X120.4714 Y71.1681 
G01 X120.4714 Y73.3719 
G01 X120.4445 Y73.5416 
G01 X120.3914 Y73.7049 
G01 X120.3134 Y73.8580 
G01 X120.2125 Y73.9970 
G01 X120.0910 Y74.1185 
G01 X119.9520 Y74.2194 
G01 X119.7990 Y74.2974 
G01 X119.6356 Y74.3505 
G01 X119.4659 Y74.3774 
G01 X119.2941 Y74.3774 
G01 X119.1244 Y74.3505 
G01 X118.9610 Y74.2974 
G01 X118.8080 Y74.2194 
G01 X118.6690 Y74.1185 
G01 X118.5475 Y73.9970 
G01 X118.4466 Y73.8580 
G01 X118.3686 Y73.7049 
G01 X118.3155 Y73.5416 
G01 X118.2886 Y73.3719 
G01 X118.2886 Y71.1681 
G01 X118.3155 Y70.9984 
G01 X118.3686 Y70.8350 
G01 X118.4466 Y70.6820 
G01 X118.5475 Y70.5430 
G01 X118.6690 Y70.4215 
G01 X118.8080 Y70.3205 
G01 X118.9610 Y70.2426 
G01 X118.9932 Y70.2321 
G01 X118.9932 Y64.1349 
G01 X119.0205 Y63.9976 
G01 X119.0740 Y63.8683 
G01 X119.1518 Y63.7520 
G01 X121.1696 Y61.7342 
G01 X121.1696 Y59.6189 
G01 X121.0475 Y59.4970 
G01 X120.9466 Y59.3580 
G01 X120.8686 Y59.2050 
G01 X120.8155 Y59.0416 
G01 X120.7886 Y58.8719 
G01 X120.7886 Y56.6681 
G01 X120.8155 Y56.4984 
G01 X120.8686 Y56.3350 
G01 X120.9466 Y56.1820 
G01 X121.0475 Y56.0430 
G01 X121.1690 Y55.9215 
G01 X121.3080 Y55.8206 
G01 X121.4610 Y55.7426 
G01 X121.6244 Y55.6895 
G01 X121.7941 Y55.6626 
G01 X121.9659 Y55.6626 
G01 X122.1356 Y55.6895 
G01 X122.2990 Y55.7426 
G01 X122.4520 Y55.8206 
G01 X122.5910 Y55.9215 
G01 X122.7125 Y56.0430 
G01 X122.8134 Y56.1820 
G01 X122.8914 Y56.3350 
G01 X122.9445 Y56.4984 
G01 X122.9714 Y56.6681 
G00 Z4.0000 
G00 X98.7070 Y50.1366 
G01 Z0.0000 F9000.00 
G01 X101.9530 Y50.1366 F3000.00 
G01 X101.9807 Y50.1481 
G01 X102.0019 Y50.1693 
G01 X102.0134 Y50.1970 
G01 X102.0134 Y53.4430 
G01 X102.0019 Y53.4707 
G01 X101.9807 Y53.4919 
G01 X101.9530 Y53.5034 
G01 X98.7070 Y53.5034 
G01 X98.6793 Y53.4919 
G01 X98.6581 Y53.4707 
G01 X98.6466 Y53.4430 
G01 X98.6466 Y50.1970 
G01 X98.6581 Y50.1693 
G01 X98.6793 Y50.1481 
G01 X98.7070 Y50.1366 
G00 Z4.0000 
G00 X98.7070 Y37.9366 
G01 Z0.0000 F9000.00 
G01 X101.9530 Y37.9366 F3000.00 
G01 X101.9807 Y37.9481 
G01 X102.0019 Y37.9693 
G01 X102.0134 Y37.9970 
G01 X102.0134 Y41.2430 
G01 X102.0019 Y41.2707 
G01 X101.9807 Y41.2919 
G01 X101.9530 Y41.3034 
G01 X98.7070 Y41.3034 
G01 X98.6793 Y41.2919 
G01 X98.6581 Y41.2707 
G01 X98.6466 Y41.2430 
G01 X98.6466 Y37.9970 
G01 X98.6581 Y37.9693 
G01 X98.6793 Y37.9481 
G01 X98.7070 Y37.9366 
G00 Z4.0000 
G00 X144.8281 Y42.1286 
G01 Z0.0000 F9000.00 
G01 X147.0319 Y42.1286 F3000.00 
G01 X147.2016 Y42.1555 
G01 X147.3649 Y42.2086 
G01 X147.5180 Y42.2866 
G01 X147.6570 Y42.3875 
G01 X147.7785 Y42.5090 
G01 X147.8794 Y42.6480 
G01 X147.9574 Y42.8010 
G01 X148.0105 Y42.9644 
G01 X148.0374 Y43.1341 
G01 X148.0374 Y43.3059 
G01 X148.0105 Y43.4756 
G01 X147.9574 Y43.6390 
G01 X147.8794 Y43.7920 
G01 X147.7785 Y43.9310 
G01 X147.6570 Y44.0525 
G01 X147.5180 Y44.1534 
G01 X147.3649 Y44.2314 
G01 X147.2016 Y44.2845 
G01 X147.0319 Y44.3114 
G01 X144.8281 Y44.3114 
G01 X144.6584 Y44.2845 
G01 X144.4950 Y44.2314 
G01 X144.3420 Y44.1534 
G01 X144.2030 Y44.0525 
G01 X144.0815 Y43.9310 
G01 X143.9805 Y43.7920 
G01 X143.9026 Y43.6390 
G01 X143.8495 Y43.4756 
G01 X143.8226 Y43.3059 
G01 X143.8226 Y43.1341 
G01 X143.8495 Y42.9644 
G01 X143.9026 Y42.8010 
G01 X143.9805 Y42.6480 
G01 X144.0815 Y42.5090 
G01 X144.2030 Y42.3875 
G01 X144.3420 Y42.2866 
G01 X144.4950 Y42.2086 
G01 X144.6584 Y42.1555 
G01 X144.8281 Y42.1286 
G00 Z4.0000 
G00 X144.8281 Y47.1286 
G01 Z0.0000 F9000.00 
G01 X147.0319 Y47.1286 F3000.00 
G01 X147.2016 Y47.1555 
G01 X147.3649 Y47.2086 
G01 X147.5180 Y47.2866 
G01 X147.6570 Y47.3875 
G01 X147.7785 Y47.5090 
G01 X147.8794 Y47.6480 
G01 X147.9574 Y47.8010 
G01 X148.0105 Y47.9644 
G01 X148.0374 Y48.1341 
G01 X148.0374 Y48.3059 
G01 X148.0105 Y48.4756 
G01 X147.9574 Y48.6390 
G01 X147.8794 Y48.7920 
G01 X147.7785 Y48.9310 
G01 X147.6570 Y49.0525 
G01 X147.5180 Y49.1534 
G01 X147.3649 Y49.2314 
G01 X147.2016 Y49.2845 
G01 X147.0319 Y49.3114 
G01 X144.8281 Y49.3114 
G01 X144.6584 Y49.2845 
G01 X144.4950 Y49.2314 
G01 X144.3420 Y49.1534 
G01 X144.2030 Y49.0525 
G01 X144.0815 Y48.9310 
G01 X143.9805 Y48.7920 
G01 X143.9026 Y48.6390 
G01 X143.8495 Y48.4756 
G01 X143.8226 Y48.3059 
G01 X143.8226 Y48.1341 
G01 X143.8495 Y47.9644 
G01 X143.9026 Y47.8010 
G01 X143.9805 Y47.6480 
G01 X144.0815 Y47.5090 
G01 X144.2030 Y47.3875 
G01 X144.3420 Y47.2866 
G01 X144.4950 Y47.2086 
G01 X144.6584 Y47.1555 
G01 X144.8281 Y47.1286 
G00 Z4.0000 
G00 X130.3281 Y42.1286 
G01 Z0.0000 F9000.00 
G01 X132.5319 Y42.1286 F3000.00 
G01 X132.7016 Y42.1555 
G01 X132.8649 Y42.2086 
G01 X133.0180 Y42.2866 
G01 X133.1570 Y42.3875 
G01 X133.2785 Y42.5090 
G01 X138.2984 Y42.5096 
G01 X138.4357 Y42.5369 
G01 X138.5650 Y42.5905 
G01 X138.6813 Y42.6682 
G01 X141.3341 Y45.3210 
G01 X143.8961 Y45.3210 
G01 X143.9026 Y45.3010 
G01 X143.9805 Y45.1480 
G01 X144.0815 Y45.0090 
G01 X144.2030 Y44.8875 
G01 X144.3420 Y44.7866 
G01 X144.4950 Y44.7086 
G01 X144.6584 Y44.6555 
G01 X144.8281 Y44.6286 
G01 X147.0319 Y44.6286 
G01 X147.2016 Y44.6555 
G01 X147.3649 Y44.7086 
G01 X147.5180 Y44.7866 
G01 X147.6570 Y44.8875 
G01 X147.7785 Y45.0090 
G01 X147.8794 Y45.1480 
G01 X147.9574 Y45.3010 
G01 X148.0105 Y45.4644 
G01 X148.0374 Y45.6341 
G01 X148.0374 Y45.8059 
G01 X148.0105 Y45.9756 
G01 X147.9574 Y46.1390 
G01 X147.8794 Y46.2920 
G01 X147.7785 Y46.4310 
G01 X147.6570 Y46.5525 
G01 X147.5180 Y46.6534 
G01 X147.3649 Y46.7314 
G01 X147.2016 Y46.7845 
G01 X147.0319 Y46.8114 
G01 X144.8281 Y46.8114 
G01 X144.6584 Y46.7845 
G01 X144.5269 Y46.7418 
G01 X140.9699 Y46.7418 
G01 X140.8326 Y46.7145 
G01 X140.7033 Y46.6609 
G01 X140.5870 Y46.5832 
G01 X137.9342 Y43.9304 
G01 X133.2789 Y43.9304 
G01 X133.1570 Y44.0525 
G01 X133.0180 Y44.1534 
G01 X132.8649 Y44.2314 
G01 X132.7016 Y44.2845 
G01 X132.5319 Y44.3114 
G01 X130.3281 Y44.3114 
G01 X130.1584 Y44.2845 
G01 X129.9950 Y44.2314 
G01 X129.8420 Y44.1534 
G01 X129.7030 Y44.0525 
G01 X129.5815 Y43.9310 
G01 X129.4805 Y43.7920 
G01 X129.4026 Y43.6390 
G01 X129.3495 Y43.4756 
G01 X129.3226 Y43.3059 
G01 X129.3226 Y43.1341 
G01 X129.3495 Y42.9644 
G01 X129.4026 Y42.8010 
G01 X129.4805 Y42.6480 
G01 X129.5815 Y42.5090 
G01 X129.7030 Y42.3875 
G01 X129.8420 Y42.2866 
G01 X129.9950 Y42.2086 
G01 X130.1584 Y42.1555 
G01 X130.3281 Y42.1286 
G00 Z4.0000 
G00 X114.9634 Y25.0470 
G01 Z0.0000 F9000.00 
G01 X114.9634 Y28.2930 F3000.00 
G01 X114.9519 Y28.3207 
G01 X114.9307 Y28.3419 
G01 X114.9030 Y28.3534 
G01 X111.6570 Y28.3534 
G01 X111.6293 Y28.3419 
G01 X111.6081 Y28.3207 
G01 X111.5966 Y28.2930 
G01 X111.5966 Y25.0470 
G01 X111.6081 Y25.0193 
G01 X111.6293 Y24.9981 
G01 X111.6570 Y24.9866 
G01 X114.9030 Y24.9866 
G01 X114.9307 Y24.9981 
G01 X114.9519 Y25.0193 
G01 X114.9634 Y25.0470 
G00 Z4.0000 
G00 X127.1634 Y25.0470 
G01 Z0.0000 F9000.00 
G01 X127.1634 Y28.2930 F3000.00 
G01 X127.1519 Y28.3207 
G01 X127.1307 Y28.3419 
G01 X127.1030 Y28.3534 
G01 X123.8570 Y28.3534 
G01 X123.8293 Y28.3419 
G01 X123.8081 Y28.3207 
G01 X123.7966 Y28.2930 
G01 X123.7966 Y25.0470 
G01 X123.8081 Y25.0193 
G01 X123.8293 Y24.9981 
G01 X123.8570 Y24.9866 
G01 X127.1030 Y24.9866 
G01 X127.1307 Y24.9981 
G01 X127.1519 Y25.0193 
G01 X127.1634 Y25.0470 
G00 Z4.0000 
G00 X29.9204 Y63.3702 
G01 Z0.0000 F9000.00 
G01 X29.9204 Y63.6298 F3000.00 
G01 X29.8865 Y63.8872 
G01 X29.8193 Y64.1379 
G01 X29.7200 Y64.3778 
G01 X29.5902 Y64.6026 
G01 X29.4321 Y64.8086 
G01 X29.2486 Y64.9921 
G01 X29.0426 Y65.1502 
G01 X28.8178 Y65.2800 
G01 X28.5779 Y65.3793 
G01 X28.3272 Y65.4465 
G01 X28.0698 Y65.4804 
G01 X27.8102 Y65.4804 
G01 X27.5528 Y65.4465 
G01 X27.3021 Y65.3793 
G01 X27.0622 Y65.2800 
G01 X26.8374 Y65.1502 
G01 X26.6314 Y64.9921 
G01 X26.4479 Y64.8086 
G01 X26.2898 Y64.6026 
G01 X26.1600 Y64.3778 
G01 X26.0607 Y64.1379 
G01 X25.9935 Y63.8872 
G01 X25.9596 Y63.6298 
G01 X25.9596 Y63.3702 
G01 X25.9935 Y63.1128 
G01 X26.0607 Y62.8621 
G01 X26.1600 Y62.6222 
G01 X26.2898 Y62.3974 
G01 X26.4479 Y62.1914 
G01 X26.6314 Y62.0079 
G01 X26.8374 Y61.8498 
G01 X27.0622 Y61.7200 
G01 X27.3021 Y61.6207 
G01 X27.5528 Y61.5535 
G01 X27.8102 Y61.5196 
G01 X28.0698 Y61.5196 
G01 X28.3272 Y61.5535 
G01 X28.5779 Y61.6207 
G01 X28.8178 Y61.7200 
G01 X29.0426 Y61.8498 
G01 X29.2486 Y62.0079 
G01 X29.4321 Y62.1914 
G01 X29.5902 Y62.3974 
G01 X29.7200 Y62.6222 
G01 X29.8193 Y62.8621 
G01 X29.8865 Y63.1128 
G01 X29.9204 Y63.3702 
G00 Z4.0000 
G00 X36.2704 Y65.9102 
G01 Z0.0000 F9000.00 
G01 X36.2704 Y66.1698 F3000.00 
G01 X36.2365 Y66.4272 
G01 X36.1693 Y66.6779 
G01 X36.0700 Y66.9178 
G01 X35.9402 Y67.1426 
G01 X35.7821 Y67.3486 
G01 X35.5986 Y67.5321 
G01 X35.3926 Y67.6902 
G01 X35.1678 Y67.8200 
G01 X34.9279 Y67.9193 
G01 X34.6772 Y67.9865 
G01 X34.4198 Y68.0204 
G01 X34.1602 Y68.0204 
G01 X33.9028 Y67.9865 
G01 X33.6521 Y67.9193 
G01 X33.4122 Y67.8200 
G01 X33.1874 Y67.6902 
G01 X32.9814 Y67.5321 
G01 X32.7979 Y67.3486 
G01 X32.6398 Y67.1426 
G01 X32.5100 Y66.9178 
G01 X32.4107 Y66.6779 
G01 X32.3435 Y66.4272 
G01 X32.3096 Y66.1698 
G01 X32.3096 Y65.9102 
G01 X32.3435 Y65.6528 
G01 X32.4107 Y65.4021 
G01 X32.5100 Y65.1622 
G01 X32.6398 Y64.9374 
G01 X32.7979 Y64.7314 
G01 X32.9814 Y64.5479 
G01 X33.1874 Y64.3898 
G01 X33.4122 Y64.2600 
G01 X33.6521 Y64.1607 
G01 X33.9028 Y64.0935 
G01 X34.1602 Y64.0596 
G01 X34.4198 Y64.0596 
G01 X34.6772 Y64.0935 
G01 X34.9279 Y64.1607 
G01 X35.1678 Y64.2600 
G01 X35.3926 Y64.3898 
G01 X35.5986 Y64.5479 
G01 X35.7821 Y64.7314 
G01 X35.9402 Y64.9374 
G01 X36.0700 Y65.1622 
G01 X36.1693 Y65.4021 
G01 X36.2365 Y65.6528 
G01 X36.2704 Y65.9102 
G00 Z4.0000 
G00 X26.5946 Y57.2559 
G01 Z0.0000 F9000.00 
G01 X26.5946 Y54.5041 F3000.00 
G01 X26.6277 Y54.2950 
G01 X26.6932 Y54.0935 
G01 X26.7893 Y53.9049 
G01 X26.9138 Y53.7335 
G01 X27.0635 Y53.5838 
G01 X27.2349 Y53.4593 
G01 X27.4235 Y53.3632 
G01 X27.6250 Y53.2977 
G01 X27.8341 Y53.2646 
G01 X28.0459 Y53.2646 
G01 X28.2550 Y53.2977 
G01 X28.4565 Y53.3632 
G01 X28.6451 Y53.4593 
G01 X28.8165 Y53.5838 
G01 X28.9662 Y53.7335 
G01 X29.0907 Y53.9049 
G01 X29.1868 Y54.0935 
G01 X29.2523 Y54.2950 
G01 X29.2854 Y54.5041 
G01 X29.2854 Y57.2559 
G01 X29.2523 Y57.4650 
G01 X29.1868 Y57.6665 
G01 X29.0907 Y57.8551 
G01 X28.9662 Y58.0265 
G01 X28.8165 Y58.1762 
G01 X28.6451 Y58.3007 
G01 X28.4565 Y58.3968 
G01 X28.2550 Y58.4623 
G01 X28.0459 Y58.4954 
G01 X27.8341 Y58.4954 
G01 X27.6250 Y58.4623 
G01 X27.4235 Y58.3968 
G01 X27.2349 Y58.3007 
G01 X27.0635 Y58.1762 
G01 X26.9138 Y58.0265 
G01 X26.7893 Y57.8551 
G01 X26.6932 Y57.6665 
G01 X26.6277 Y57.4650 
G01 X26.5946 Y57.2559 
G00 Z4.0000 
G00 X34.2146 Y57.2559 
G01 Z0.0000 F9000.00 
G01 X34.2146 Y54.5041 F3000.00 
G01 X34.2477 Y54.2950 
G01 X34.3132 Y54.0935 
G01 X34.4093 Y53.9049 
G01 X34.5338 Y53.7335 
G01 X34.6835 Y53.5838 
G01 X34.8549 Y53.4593 
G01 X35.0435 Y53.3632 
G01 X35.2450 Y53.2977 
G01 X35.4541 Y53.2646 
G01 X35.6659 Y53.2646 
G01 X35.8750 Y53.2977 
G01 X36.0765 Y53.3632 
G01 X36.2651 Y53.4593 
G01 X36.4365 Y53.5838 
G01 X36.5862 Y53.7335 
G01 X36.7107 Y53.9049 
G01 X36.8068 Y54.0935 
G01 X36.8723 Y54.2950 
G01 X36.9054 Y54.5041 
G01 X36.9054 Y57.2559 
G01 X36.8723 Y57.4650 
G01 X36.8068 Y57.6665 
G01 X36.7107 Y57.8551 
G01 X36.5862 Y58.0265 
G01 X36.4365 Y58.1762 
G01 X36.2651 Y58.3007 
G01 X36.0765 Y58.3968 
G01 X35.8750 Y58.4623 
G01 X35.6659 Y58.4954 
G01 X35.4541 Y58.4954 
G01 X35.2450 Y58.4623 
G01 X35.0435 Y58.3968 
G01 X34.8549 Y58.3007 
G01 X34.6835 Y58.1762 
G01 X34.5338 Y58.0265 
G01 X34.4093 Y57.8551 
G01 X34.3132 Y57.6665 
G01 X34.2477 Y57.4650 
G01 X34.2146 Y57.2559 
G00 Z4.0000 
G00 X48.9704 Y63.3702 
G01 Z0.0000 F9000.00 
G01 X48.9704 Y63.6298 F3000.00 
G01 X48.9365 Y63.8872 
G01 X48.8693 Y64.1379 
G01 X48.7700 Y64.3778 
G01 X48.6402 Y64.6026 
G01 X48.4821 Y64.8086 
G01 X48.2986 Y64.9921 
G01 X48.0926 Y65.1502 
G01 X47.8678 Y65.2800 
G01 X47.6279 Y65.3793 
G01 X47.3772 Y65.4465 
G01 X47.1198 Y65.4804 
G01 X46.8602 Y65.4804 
G01 X46.6028 Y65.4465 
G01 X46.3521 Y65.3793 
G01 X46.1122 Y65.2800 
G01 X45.8874 Y65.1502 
G01 X45.6814 Y64.9921 
G01 X45.4979 Y64.8086 
G01 X45.3398 Y64.6026 
G01 X45.2100 Y64.3778 
G01 X45.1107 Y64.1379 
G01 X45.0435 Y63.8872 
G01 X45.0096 Y63.6298 
G01 X45.0096 Y63.3702 
G01 X45.0435 Y63.1128 
G01 X45.1107 Y62.8621 
G01 X45.2100 Y62.6222 
G01 X45.3398 Y62.3974 
G01 X45.4979 Y62.1914 
G01 X45.6814 Y62.0079 
G01 X45.8874 Y61.8498 
G01 X46.1122 Y61.7200 
G01 X46.3521 Y61.6207 
G01 X46.6028 Y61.5535 
G01 X46.8602 Y61.5196 
G01 X47.1198 Y61.5196 
G01 X47.3772 Y61.5535 
G01 X47.6279 Y61.6207 
G01 X47.8678 Y61.7200 
G01 X48.0926 Y61.8498 
G01 X48.2986 Y62.0079 
G01 X48.4821 Y62.1914 
G01 X48.6402 Y62.3974 
G01 X48.7700 Y62.6222 
G01 X48.8693 Y62.8621 
G01 X48.9365 Y63.1128 
G01 X48.9704 Y63.3702 
G00 Z4.0000 
G00 X55.3204 Y65.9102 
G01 Z0.0000 F9000.00 
G01 X55.3204 Y66.1698 F3000.00 
G01 X55.2865 Y66.4272 
G01 X55.2193 Y66.6779 
G01 X55.1200 Y66.9178 
G01 X54.9902 Y67.1426 
G01 X54.8321 Y67.3486 
G01 X54.6486 Y67.5321 
G01 X54.4426 Y67.6902 
G01 X54.2178 Y67.8200 
G01 X53.9779 Y67.9193 
G01 X53.7272 Y67.9865 
G01 X53.4698 Y68.0204 
G01 X53.2102 Y68.0204 
G01 X52.9528 Y67.9865 
G01 X52.7021 Y67.9193 
G01 X52.4622 Y67.8200 
G01 X52.2374 Y67.6902 
G01 X52.0314 Y67.5321 
G01 X51.8479 Y67.3486 
G01 X51.6898 Y67.1426 
G01 X51.5600 Y66.9178 
G01 X51.4607 Y66.6779 
G01 X51.3935 Y66.4272 
G01 X51.3596 Y66.1698 
G01 X51.3596 Y65.9102 
G01 X51.3935 Y65.6528 
G01 X51.4607 Y65.4021 
G01 X51.5600 Y65.1622 
G01 X51.6898 Y64.9374 
G01 X51.8479 Y64.7314 
G01 X52.0314 Y64.5479 
G01 X52.2374 Y64.3898 
G01 X52.4622 Y64.2600 
G01 X52.7021 Y64.1607 
G01 X52.9528 Y64.0935 
G01 X53.2102 Y64.0596 
G01 X53.4698 Y64.0596 
G01 X53.7272 Y64.0935 
G01 X53.9779 Y64.1607 
G01 X54.2178 Y64.2600 
G01 X54.4426 Y64.3898 
G01 X54.6486 Y64.5479 
G01 X54.8321 Y64.7314 
G01 X54.9902 Y64.9374 
G01 X55.1200 Y65.1622 
G01 X55.2193 Y65.4021 
G01 X55.2865 Y65.6528 
G01 X55.3204 Y65.9102 
G00 Z4.0000 
G00 X45.6446 Y57.2559 
G01 Z0.0000 F9000.00 
G01 X45.6446 Y54.5041 F3000.00 
G01 X45.6777 Y54.2950 
G01 X45.7432 Y54.0935 
G01 X45.8393 Y53.9049 
G01 X45.9638 Y53.7335 
G01 X46.1135 Y53.5838 
G01 X46.2849 Y53.4593 
G01 X46.4735 Y53.3632 
G01 X46.6750 Y53.2977 
G01 X46.8841 Y53.2646 
G01 X47.0959 Y53.2646 
G01 X47.3050 Y53.2977 
G01 X47.5065 Y53.3632 
G01 X47.6951 Y53.4593 
G01 X47.8665 Y53.5838 
G01 X48.0162 Y53.7335 
G01 X48.1407 Y53.9049 
G01 X48.2368 Y54.0935 
G01 X48.3023 Y54.2950 
G01 X48.3354 Y54.5041 
G01 X48.3354 Y57.2559 
G01 X48.3023 Y57.4650 
G01 X48.2368 Y57.6665 
G01 X48.1407 Y57.8551 
G01 X48.0162 Y58.0265 
G01 X47.8665 Y58.1762 
G01 X47.6951 Y58.3007 
G01 X47.5065 Y58.3968 
G01 X47.3050 Y58.4623 
G01 X47.0959 Y58.4954 
G01 X46.8841 Y58.4954 
G01 X46.6750 Y58.4623 
G01 X46.4735 Y58.3968 
G01 X46.2849 Y58.3007 
G01 X46.1135 Y58.1762 
G01 X45.9638 Y58.0265 
G01 X45.8393 Y57.8551 
G01 X45.7432 Y57.6665 
G01 X45.6777 Y57.4650 
G01 X45.6446 Y57.2559 
G00 Z4.0000 
G00 X53.2646 Y57.2559 
G01 Z0.0000 F9000.00 
G01 X53.2646 Y54.5041 F3000.00 
G01 X53.2977 Y54.2950 
G01 X53.3632 Y54.0935 
G01 X53.4593 Y53.9049 
G01 X53.5838 Y53.7335 
G01 X53.7335 Y53.5838 
G01 X53.9049 Y53.4593 
G01 X54.0935 Y53.3632 
G01 X54.2950 Y53.2977 
G01 X54.5041 Y53.2646 
G01 X54.7159 Y53.2646 
G01 X54.9250 Y53.2977 
G01 X55.1265 Y53.3632 
G01 X55.3151 Y53.4593 
G01 X55.4865 Y53.5838 
G01 X55.6362 Y53.7335 
G01 X55.7607 Y53.9049 
G01 X55.8568 Y54.0935 
G01 X55.9223 Y54.2950 
G01 X55.9554 Y54.5041 
G01 X55.9554 Y57.2559 
G01 X55.9223 Y57.4650 
G01 X55.8568 Y57.6665 
G01 X55.7607 Y57.8551 
G01 X55.6362 Y58.0265 
G01 X55.4865 Y58.1762 
G01 X55.3151 Y58.3007 
G01 X55.1265 Y58.3968 
G01 X54.9250 Y58.4623 
G01 X54.7159 Y58.4954 
G01 X54.5041 Y58.4954 
G01 X54.2950 Y58.4623 
G01 X54.0935 Y58.3968 
G01 X53.9049 Y58.3007 
G01 X53.7335 Y58.1762 
G01 X53.5838 Y58.0265 
G01 X53.4593 Y57.8551 
G01 X53.3632 Y57.6665 
G01 X53.2977 Y57.4650 
