(.../pcb-gcode-3_6_0_4/pcb-gcode.ulp)
(Copyright 2005 - 2012 by John Johnson)
(See readme.txt for licensing terms.)
(This file generated from the board:)
(.../projects/midi_pad/midi_pad.brd)
(Current profile is .../pcb-gcode-3_6_0_4/profiles/generic.pp  )
(This file generated 19.08.22 19:34)
(Settings from pcb-machine.h)
(  Tool Size)
(0.1778 )
(Z Axis Settings)
(  High     Up        Down     Drill)
(12.7000 	2.5400 	-0.1778 	-0.8128 )
(spindle on time = 3.0000)
(milling depth = -0.2540)
(text depth = -0.1270)
(tool change at 12.7000 15.2400 25.4000 )
(feed rate xy = F3000.00 )
(feed rate z  = F2540.00 )
(Settings from pcb-defaults.h)
(isolate min = 0.0254)
(isolate max = 0.5080)
(isolate step = 0.1270)
(Generated top outlines, top drill, bottom outlines, bottom drill, )
(Unit of measure: mm)
(Metric Mode)
G21
(Absolute Coordinates)
G90
G00 X0.0000 Y0.0000 
M03
G04 P3.000000
G00 Z2.5400 
G00 X-87.2245 Y61.3283 
G01 Z-0.1778 F2540.00 
G01 X-87.2156 Y61.3254 F3000.00 
G01 X-87.2073 Y61.3212 
G01 X-87.2144 Y61.3283 
G01 X-87.2245 Y61.3283 
G00 Z2.5400 
G00 X-88.0527 Y61.3212 
G01 Z-0.1778 F2540.00 
G01 X-88.0444 Y61.3254 F3000.00 
G01 X-88.0355 Y61.3283 
G01 X-88.0456 Y61.3283 
G01 X-88.0527 Y61.3212 
G00 Z2.5400 
G00 X-112.8395 Y85.7350 
G01 Z-0.1778 F2540.00 
G01 X-112.8395 Y85.9050 F3000.00 
G01 X-112.8129 Y86.0728 
G01 X-112.7604 Y86.2344 
G01 X-112.6833 Y86.3858 
G01 X-112.5834 Y86.5232 
G01 X-112.4632 Y86.6434 
G01 X-112.3258 Y86.7433 
G01 X-112.1744 Y86.8204 
G01 X-112.0128 Y86.8729 
G01 X-111.8450 Y86.8995 
G01 X-111.6750 Y86.8995 
G01 X-111.5072 Y86.8729 
G01 X-111.3456 Y86.8204 
G01 X-111.1942 Y86.7433 
G01 X-111.0568 Y86.6434 
G01 X-110.9366 Y86.5232 
G01 X-110.8367 Y86.3858 
G01 X-110.7596 Y86.2344 
G01 X-110.7071 Y86.0728 
G01 X-110.6805 Y85.9050 
G01 X-110.6805 Y85.7350 
G01 X-110.7071 Y85.5672 
G01 X-110.7596 Y85.4056 
G01 X-110.8367 Y85.2542 
G01 X-110.9366 Y85.1168 
G01 X-111.0568 Y84.9966 
G01 X-111.1942 Y84.8967 
G01 X-111.3456 Y84.8196 
G01 X-111.5072 Y84.7671 
G01 X-111.6750 Y84.7405 
G01 X-111.8450 Y84.7405 
G01 X-112.0128 Y84.7671 
G01 X-112.1744 Y84.8196 
G01 X-112.3258 Y84.8967 
G01 X-112.4632 Y84.9966 
G01 X-112.5834 Y85.1168 
G01 X-112.6833 Y85.2542 
G01 X-112.7604 Y85.4056 
G01 X-112.8129 Y85.5672 
G01 X-112.8395 Y85.7350 
G00 Z2.5400 
G00 X-112.8395 Y75.5750 
G01 Z-0.1778 F2540.00 
G01 X-112.8395 Y75.7450 F3000.00 
G01 X-112.8129 Y75.9128 
G01 X-112.7604 Y76.0744 
G01 X-112.6833 Y76.2258 
G01 X-112.5834 Y76.3632 
G01 X-112.4632 Y76.4834 
G01 X-112.3258 Y76.5833 
G01 X-112.1744 Y76.6604 
G01 X-112.0128 Y76.7129 
G01 X-111.8450 Y76.7395 
G01 X-111.6750 Y76.7395 
G01 X-111.5072 Y76.7129 
G01 X-111.3456 Y76.6604 
G01 X-111.1942 Y76.5833 
G01 X-111.0568 Y76.4834 
G01 X-110.9366 Y76.3632 
G01 X-110.8367 Y76.2258 
G01 X-110.7596 Y76.0744 
G01 X-110.7071 Y75.9128 
G01 X-110.6805 Y75.7450 
G01 X-110.6805 Y75.5750 
G01 X-110.7071 Y75.4072 
G01 X-110.7596 Y75.2456 
G01 X-110.8367 Y75.0942 
G01 X-110.9366 Y74.9568 
G01 X-111.0568 Y74.8366 
G01 X-111.1942 Y74.7367 
G01 X-111.3456 Y74.6596 
G01 X-111.5072 Y74.6071 
G01 X-111.6750 Y74.5805 
G01 X-111.8450 Y74.5805 
G01 X-112.0128 Y74.6071 
G01 X-112.1744 Y74.6596 
G01 X-112.3258 Y74.7367 
G01 X-112.4632 Y74.8366 
G01 X-112.5834 Y74.9568 
G01 X-112.6833 Y75.0942 
G01 X-112.7604 Y75.2456 
G01 X-112.8129 Y75.4072 
G01 X-112.8395 Y75.5750 
G00 Z2.5400 
G00 X-117.9195 Y66.4150 
G01 Z-0.1778 F2540.00 
G01 X-117.9195 Y66.5850 F3000.00 
G01 X-117.8929 Y66.7528 
G01 X-117.8404 Y66.9144 
G01 X-117.7633 Y67.0658 
G01 X-117.6634 Y67.2032 
G01 X-117.5432 Y67.3234 
G01 X-117.4058 Y67.4233 
G01 X-117.2544 Y67.5004 
G01 X-117.0928 Y67.5529 
G01 X-116.9250 Y67.5795 
G01 X-116.7550 Y67.5795 
G01 X-116.5872 Y67.5529 
G01 X-116.4256 Y67.5004 
G01 X-116.2742 Y67.4233 
G01 X-116.1368 Y67.3234 
G01 X-116.0166 Y67.2032 
G01 X-115.9167 Y67.0658 
G01 X-115.8396 Y66.9144 
G01 X-115.7871 Y66.7528 
G01 X-115.7605 Y66.5850 
G01 X-115.7605 Y66.4150 
G01 X-115.7871 Y66.2472 
G01 X-115.8396 Y66.0856 
G01 X-115.9167 Y65.9342 
G01 X-116.0166 Y65.7968 
G01 X-116.1368 Y65.6766 
G01 X-116.2742 Y65.5767 
G01 X-116.4256 Y65.4996 
G01 X-116.5872 Y65.4471 
G01 X-116.7550 Y65.4205 
G01 X-116.9250 Y65.4205 
G01 X-117.0928 Y65.4471 
G01 X-117.2544 Y65.4996 
G01 X-117.4058 Y65.5767 
G01 X-117.5432 Y65.6766 
G01 X-117.6634 Y65.7968 
G01 X-117.7633 Y65.9342 
G01 X-117.8404 Y66.0856 
G01 X-117.8929 Y66.2472 
G01 X-117.9195 Y66.4150 
G00 Z2.5400 
G00 X-117.9195 Y76.5750 
G01 Z-0.1778 F2540.00 
G01 X-117.9195 Y76.7450 F3000.00 
G01 X-117.8929 Y76.9128 
G01 X-117.8404 Y77.0744 
G01 X-117.7633 Y77.2258 
G01 X-117.6634 Y77.3632 
G01 X-117.5432 Y77.4834 
G01 X-117.4058 Y77.5833 
G01 X-117.2544 Y77.6604 
G01 X-117.0928 Y77.7129 
G01 X-116.9250 Y77.7395 
G01 X-116.7550 Y77.7395 
G01 X-116.5872 Y77.7129 
G01 X-116.4256 Y77.6604 
G01 X-116.2742 Y77.5833 
G01 X-116.1368 Y77.4834 
G01 X-116.0166 Y77.3632 
G01 X-115.9167 Y77.2258 
G01 X-115.8396 Y77.0744 
G01 X-115.7871 Y76.9128 
G01 X-115.7605 Y76.7450 
G01 X-115.7605 Y76.5750 
G01 X-115.7871 Y76.4072 
G01 X-115.8396 Y76.2456 
G01 X-115.9167 Y76.0942 
G01 X-116.0166 Y75.9568 
G01 X-116.1368 Y75.8366 
G01 X-116.2742 Y75.7367 
G01 X-116.4256 Y75.6596 
G01 X-116.5872 Y75.6071 
G01 X-116.7550 Y75.5805 
G01 X-116.9250 Y75.5805 
G01 X-117.0928 Y75.6071 
G01 X-117.2544 Y75.6596 
G01 X-117.4058 Y75.7367 
G01 X-117.5432 Y75.8366 
G01 X-117.6634 Y75.9568 
G01 X-117.7633 Y76.0942 
G01 X-117.8404 Y76.2456 
G01 X-117.8929 Y76.4072 
G01 X-117.9195 Y76.5750 
G00 Z2.5400 
G00 X-106.4895 Y49.4450 
G01 Z-0.1778 F2540.00 
G01 X-106.4895 Y49.6150 F3000.00 
G01 X-106.4629 Y49.7828 
G01 X-106.4104 Y49.9444 
G01 X-106.3333 Y50.0958 
G01 X-106.2334 Y50.2332 
G01 X-106.1132 Y50.3534 
G01 X-105.9758 Y50.4533 
G01 X-105.8244 Y50.5304 
G01 X-105.6628 Y50.5829 
G01 X-105.4950 Y50.6095 
G01 X-105.3250 Y50.6095 
G01 X-105.1572 Y50.5829 
G01 X-104.9956 Y50.5304 
G01 X-104.8442 Y50.4533 
G01 X-104.7068 Y50.3534 
G01 X-104.5866 Y50.2332 
G01 X-104.4867 Y50.0958 
G01 X-104.4096 Y49.9444 
G01 X-104.3571 Y49.7828 
G01 X-104.3305 Y49.6150 
G01 X-104.3305 Y49.4450 
G01 X-104.3571 Y49.2772 
G01 X-104.4096 Y49.1156 
G01 X-104.4867 Y48.9642 
G01 X-104.5866 Y48.8268 
G01 X-104.7068 Y48.7066 
G01 X-104.8442 Y48.6067 
G01 X-104.9956 Y48.5296 
G01 X-105.1572 Y48.4771 
G01 X-105.3250 Y48.4505 
G01 X-105.4950 Y48.4505 
G01 X-105.6628 Y48.4771 
G01 X-105.8244 Y48.5296 
G01 X-105.9758 Y48.6067 
G01 X-106.1132 Y48.7066 
G01 X-106.2334 Y48.8268 
G01 X-106.3333 Y48.9642 
G01 X-106.4104 Y49.1156 
G01 X-106.4629 Y49.2772 
G01 X-106.4895 Y49.4450 
G00 Z2.5400 
G00 X-96.3295 Y49.4450 
G01 Z-0.1778 F2540.00 
G01 X-96.3295 Y49.6150 F3000.00 
G01 X-96.3029 Y49.7828 
G01 X-96.2504 Y49.9444 
G01 X-96.1733 Y50.0958 
G01 X-96.0734 Y50.2332 
G01 X-95.9532 Y50.3534 
G01 X-95.8158 Y50.4533 
G01 X-95.6644 Y50.5304 
G01 X-95.5028 Y50.5829 
G01 X-95.3350 Y50.6095 
G01 X-95.1650 Y50.6095 
G01 X-94.9972 Y50.5829 
G01 X-94.8356 Y50.5304 
G01 X-94.6842 Y50.4533 
G01 X-94.5468 Y50.3534 
G01 X-94.4266 Y50.2332 
G01 X-94.3267 Y50.0958 
G01 X-94.2496 Y49.9444 
G01 X-94.1971 Y49.7828 
G01 X-94.1705 Y49.6150 
G01 X-94.1705 Y49.4450 
G01 X-94.1971 Y49.2772 
G01 X-94.2496 Y49.1156 
G01 X-94.3267 Y48.9642 
G01 X-94.4266 Y48.8268 
G01 X-94.5468 Y48.7066 
G01 X-94.6842 Y48.6067 
G01 X-94.8356 Y48.5296 
G01 X-94.9972 Y48.4771 
G01 X-95.1650 Y48.4505 
G01 X-95.3350 Y48.4505 
G01 X-95.5028 Y48.4771 
G01 X-95.6644 Y48.5296 
G01 X-95.8158 Y48.6067 
G01 X-95.9532 Y48.7066 
G01 X-96.0734 Y48.8268 
G01 X-96.1733 Y48.9642 
G01 X-96.2504 Y49.1156 
G01 X-96.3029 Y49.2772 
G01 X-96.3295 Y49.4450 
G00 Z2.5400 
G00 X-129.9845 Y49.4450 
G01 Z-0.1778 F2540.00 
G01 X-129.9845 Y49.6150 F3000.00 
G01 X-129.9579 Y49.7828 
G01 X-129.9054 Y49.9444 
G01 X-129.8283 Y50.0958 
G01 X-129.7284 Y50.2332 
G01 X-129.6082 Y50.3534 
G01 X-129.4708 Y50.4533 
G01 X-129.3194 Y50.5304 
G01 X-129.1578 Y50.5829 
G01 X-128.9900 Y50.6095 
G01 X-128.8200 Y50.6095 
G01 X-128.6522 Y50.5829 
G01 X-128.4906 Y50.5304 
G01 X-128.3392 Y50.4533 
G01 X-128.2018 Y50.3534 
G01 X-128.0816 Y50.2332 
G01 X-127.9817 Y50.0958 
G01 X-127.9046 Y49.9444 
G01 X-127.8521 Y49.7828 
G01 X-127.8255 Y49.6150 
G01 X-127.8255 Y49.4450 
G01 X-127.8521 Y49.2772 
G01 X-127.9046 Y49.1156 
G01 X-127.9817 Y48.9642 
G01 X-128.0816 Y48.8268 
G01 X-128.2018 Y48.7066 
G01 X-128.3392 Y48.6067 
G01 X-128.4906 Y48.5296 
G01 X-128.6522 Y48.4771 
G01 X-128.8200 Y48.4505 
G01 X-128.9900 Y48.4505 
G01 X-129.1578 Y48.4771 
G01 X-129.3194 Y48.5296 
G01 X-129.4708 Y48.6067 
G01 X-129.6082 Y48.7066 
G01 X-129.7284 Y48.8268 
G01 X-129.8283 Y48.9642 
G01 X-129.9054 Y49.1156 
G01 X-129.9579 Y49.2772 
G01 X-129.9845 Y49.4450 
G00 Z2.5400 
G00 X-129.9845 Y59.6050 
G01 Z-0.1778 F2540.00 
G01 X-129.9845 Y59.7750 F3000.00 
G01 X-129.9579 Y59.9428 
G01 X-129.9054 Y60.1044 
G01 X-129.8283 Y60.2558 
G01 X-129.7284 Y60.3932 
G01 X-129.6082 Y60.5134 
G01 X-129.4708 Y60.6133 
G01 X-129.3194 Y60.6904 
G01 X-129.1578 Y60.7429 
G01 X-128.9900 Y60.7695 
G01 X-128.8200 Y60.7695 
G01 X-128.6522 Y60.7429 
G01 X-128.4906 Y60.6904 
G01 X-128.3392 Y60.6133 
G01 X-128.2018 Y60.5134 
G01 X-128.0816 Y60.3932 
G01 X-127.9817 Y60.2558 
G01 X-127.9046 Y60.1044 
G01 X-127.8521 Y59.9428 
G01 X-127.8255 Y59.7750 
G01 X-127.8255 Y59.6050 
G01 X-127.8521 Y59.4372 
G01 X-127.9046 Y59.2756 
G01 X-127.9817 Y59.1242 
G01 X-128.0816 Y58.9868 
G01 X-128.2018 Y58.8666 
G01 X-128.3392 Y58.7667 
G01 X-128.4906 Y58.6896 
G01 X-128.6522 Y58.6371 
G01 X-128.8200 Y58.6105 
G01 X-128.9900 Y58.6105 
G01 X-129.1578 Y58.6371 
G01 X-129.3194 Y58.6896 
G01 X-129.4708 Y58.7667 
G01 X-129.6082 Y58.8666 
G01 X-129.7284 Y58.9868 
G01 X-129.8283 Y59.1242 
G01 X-129.9054 Y59.2756 
G01 X-129.9579 Y59.4372 
G01 X-129.9845 Y59.6050 
G00 Z2.5400 
G00 X-125.5395 Y102.7850 
G01 Z-0.1778 F2540.00 
G01 X-125.5395 Y102.9550 F3000.00 
G01 X-125.5129 Y103.1228 
G01 X-125.4604 Y103.2844 
G01 X-125.3833 Y103.4358 
G01 X-125.2834 Y103.5732 
G01 X-125.1632 Y103.6934 
G01 X-125.0258 Y103.7933 
G01 X-124.8744 Y103.8704 
G01 X-124.7128 Y103.9229 
G01 X-124.5450 Y103.9495 
G01 X-124.3750 Y103.9495 
G01 X-124.2072 Y103.9229 
G01 X-124.0456 Y103.8704 
G01 X-123.8942 Y103.7933 
G01 X-123.7568 Y103.6934 
G01 X-123.6366 Y103.5732 
G01 X-123.5367 Y103.4358 
G01 X-123.4596 Y103.2844 
G01 X-123.4071 Y103.1228 
G01 X-123.3805 Y102.9550 
G01 X-123.3805 Y102.7850 
G01 X-123.4071 Y102.6172 
G01 X-123.4596 Y102.4556 
G01 X-123.5367 Y102.3042 
G01 X-123.6366 Y102.1668 
G01 X-123.7568 Y102.0466 
G01 X-123.8942 Y101.9467 
G01 X-124.0456 Y101.8696 
G01 X-124.2072 Y101.8171 
G01 X-124.3750 Y101.7905 
G01 X-124.5450 Y101.7905 
G01 X-124.7128 Y101.8171 
G01 X-124.8744 Y101.8696 
G01 X-125.0258 Y101.9467 
G01 X-125.1632 Y102.0466 
G01 X-125.2834 Y102.1668 
G01 X-125.3833 Y102.3042 
G01 X-125.4604 Y102.4556 
G01 X-125.5129 Y102.6172 
G01 X-125.5395 Y102.7850 
G00 Z2.5400 
G00 X-135.6995 Y102.7850 
G01 Z-0.1778 F2540.00 
G01 X-135.6995 Y102.9550 F3000.00 
G01 X-135.6729 Y103.1228 
G01 X-135.6204 Y103.2844 
G01 X-135.5433 Y103.4358 
G01 X-135.4434 Y103.5732 
G01 X-135.3232 Y103.6934 
G01 X-135.1858 Y103.7933 
G01 X-135.0344 Y103.8704 
G01 X-134.8728 Y103.9229 
G01 X-134.7050 Y103.9495 
G01 X-134.5350 Y103.9495 
G01 X-134.3672 Y103.9229 
G01 X-134.2056 Y103.8704 
G01 X-134.0542 Y103.7933 
G01 X-133.9168 Y103.6934 
G01 X-133.7966 Y103.5732 
G01 X-133.6967 Y103.4358 
G01 X-133.6196 Y103.2844 
G01 X-133.5671 Y103.1228 
G01 X-133.5405 Y102.9550 
G01 X-133.5405 Y102.7850 
G01 X-133.5671 Y102.6172 
G01 X-133.6196 Y102.4556 
G01 X-133.6967 Y102.3042 
G01 X-133.7966 Y102.1668 
G01 X-133.9168 Y102.0466 
G01 X-134.0542 Y101.9467 
G01 X-134.2056 Y101.8696 
G01 X-134.3672 Y101.8171 
G01 X-134.5350 Y101.7905 
G01 X-134.7050 Y101.7905 
G01 X-134.8728 Y101.8171 
G01 X-135.0344 Y101.8696 
G01 X-135.1858 Y101.9467 
G01 X-135.3232 Y102.0466 
G01 X-135.4434 Y102.1668 
G01 X-135.5433 Y102.3042 
G01 X-135.6204 Y102.4556 
G01 X-135.6729 Y102.6172 
G01 X-135.6995 Y102.7850 
G00 Z2.5400 
G00 X-99.6745 Y102.6000 
G01 Z-0.1778 F2540.00 
G01 X-99.6745 Y102.7700 F3000.00 
G01 X-99.6479 Y102.9378 
G01 X-99.5954 Y103.0994 
G01 X-99.5183 Y103.2508 
G01 X-99.4184 Y103.3882 
G01 X-99.2982 Y103.5084 
G01 X-99.1608 Y103.6083 
G01 X-99.0094 Y103.6854 
G01 X-98.8478 Y103.7379 
G01 X-98.6800 Y103.7645 
G01 X-98.5100 Y103.7645 
G01 X-98.3422 Y103.7379 
G01 X-98.1806 Y103.6854 
G01 X-98.0292 Y103.6083 
G01 X-97.8918 Y103.5084 
G01 X-97.7716 Y103.3882 
G01 X-97.6717 Y103.2508 
G01 X-97.5946 Y103.0994 
G01 X-97.5421 Y102.9378 
G01 X-97.5155 Y102.7700 
G01 X-97.5155 Y102.6000 
G01 X-97.5421 Y102.4322 
G01 X-97.5946 Y102.2706 
G01 X-97.6717 Y102.1192 
G01 X-97.7716 Y101.9818 
G01 X-97.8918 Y101.8616 
G01 X-98.0292 Y101.7617 
G01 X-98.1806 Y101.6846 
G01 X-98.3422 Y101.6321 
G01 X-98.5100 Y101.6055 
G01 X-98.6800 Y101.6055 
G01 X-98.8478 Y101.6321 
G01 X-99.0094 Y101.6846 
G01 X-99.1608 Y101.7617 
G01 X-99.2982 Y101.8616 
G01 X-99.4184 Y101.9818 
G01 X-99.5183 Y102.1192 
G01 X-99.5954 Y102.2706 
G01 X-99.6479 Y102.4322 
G01 X-99.6745 Y102.6000 
G00 Z2.5400 
G00 X-105.9495 Y73.5750 
G01 Z-0.1778 F2540.00 
G01 X-105.9495 Y73.7450 F3000.00 
G01 X-105.9229 Y73.9128 
G01 X-105.8704 Y74.0744 
G01 X-105.7933 Y74.2258 
G01 X-105.6934 Y74.3632 
G01 X-105.5732 Y74.4834 
G01 X-105.4358 Y74.5833 
G01 X-105.2844 Y74.6604 
G01 X-105.1228 Y74.7129 
G01 X-104.9550 Y74.7395 
G01 X-104.7850 Y74.7395 
G01 X-104.6172 Y74.7129 
G01 X-104.4556 Y74.6604 
G01 X-104.3042 Y74.5833 
G01 X-104.1668 Y74.4834 
G01 X-104.0466 Y74.3632 
G01 X-103.9467 Y74.2258 
G01 X-103.8696 Y74.0744 
G01 X-103.8171 Y73.9128 
G01 X-103.7905 Y73.7450 
G01 X-103.7905 Y73.5750 
G01 X-103.8171 Y73.4072 
G01 X-103.8696 Y73.2456 
G01 X-103.9467 Y73.0942 
G01 X-104.0466 Y72.9568 
G01 X-104.1668 Y72.8366 
G01 X-104.3042 Y72.7367 
G01 X-104.4556 Y72.6596 
G01 X-104.6172 Y72.6071 
G01 X-104.7850 Y72.5805 
G01 X-104.9550 Y72.5805 
G01 X-105.1228 Y72.6071 
G01 X-105.2844 Y72.6596 
G01 X-105.4358 Y72.7367 
G01 X-105.5732 Y72.8366 
G01 X-105.6934 Y72.9568 
G01 X-105.7933 Y73.0942 
G01 X-105.8704 Y73.2456 
G01 X-105.9229 Y73.4072 
G01 X-105.9495 Y73.5750 
G00 Z2.5400 
G00 X-116.1095 Y73.5750 
G01 Z-0.1778 F2540.00 
G01 X-116.1095 Y73.7450 F3000.00 
G01 X-116.0829 Y73.9128 
G01 X-116.0304 Y74.0744 
G01 X-115.9533 Y74.2258 
G01 X-115.8534 Y74.3632 
G01 X-115.7332 Y74.4834 
G01 X-115.5958 Y74.5833 
G01 X-115.4444 Y74.6604 
G01 X-115.2828 Y74.7129 
G01 X-115.1150 Y74.7395 
G01 X-114.9450 Y74.7395 
G01 X-114.7772 Y74.7129 
G01 X-114.6156 Y74.6604 
G01 X-114.4642 Y74.5833 
G01 X-114.3268 Y74.4834 
G01 X-114.2066 Y74.3632 
G01 X-114.1067 Y74.2258 
G01 X-114.0296 Y74.0744 
G01 X-113.9771 Y73.9128 
G01 X-113.9505 Y73.7450 
G01 X-113.9505 Y73.5750 
G01 X-113.9771 Y73.4072 
G01 X-114.0296 Y73.2456 
G01 X-114.1067 Y73.0942 
G01 X-114.2066 Y72.9568 
G01 X-114.3268 Y72.8366 
G01 X-114.4642 Y72.7367 
G01 X-114.6156 Y72.6596 
G01 X-114.7772 Y72.6071 
G01 X-114.9450 Y72.5805 
G01 X-115.1150 Y72.5805 
G01 X-115.2828 Y72.6071 
G01 X-115.4444 Y72.6596 
G01 X-115.5958 Y72.7367 
G01 X-115.7332 Y72.8366 
G01 X-115.8534 Y72.9568 
G01 X-115.9533 Y73.0942 
G01 X-116.0304 Y73.2456 
G01 X-116.0829 Y73.4072 
G01 X-116.1095 Y73.5750 
G00 Z2.5400 
G00 X-88.7095 Y86.2750 
G01 Z-0.1778 F2540.00 
G01 X-88.7095 Y86.4450 F3000.00 
G01 X-88.6829 Y86.6128 
G01 X-88.6304 Y86.7744 
G01 X-88.5533 Y86.9258 
G01 X-88.4534 Y87.0632 
G01 X-88.3332 Y87.1834 
G01 X-88.1958 Y87.2833 
G01 X-88.0444 Y87.3604 
G01 X-87.8828 Y87.4129 
G01 X-87.7150 Y87.4395 
G01 X-87.5450 Y87.4395 
G01 X-87.3772 Y87.4129 
G01 X-87.2156 Y87.3604 
G01 X-87.0642 Y87.2833 
G01 X-86.9268 Y87.1834 
G01 X-86.8066 Y87.0632 
G01 X-86.7067 Y86.9258 
G01 X-86.6296 Y86.7744 
G01 X-86.5771 Y86.6128 
G01 X-86.5505 Y86.4450 
G01 X-86.5505 Y86.2750 
G01 X-86.5771 Y86.1072 
G01 X-86.6296 Y85.9456 
G01 X-86.7067 Y85.7942 
G01 X-86.8066 Y85.6568 
G01 X-86.9268 Y85.5366 
G01 X-87.0642 Y85.4367 
G01 X-87.2156 Y85.3596 
G01 X-87.3772 Y85.3071 
G01 X-87.5450 Y85.2805 
G01 X-87.7150 Y85.2805 
G01 X-87.8828 Y85.3071 
G01 X-88.0444 Y85.3596 
G01 X-88.1958 Y85.4367 
G01 X-88.3332 Y85.5366 
G01 X-88.4534 Y85.6568 
G01 X-88.5533 Y85.7942 
G01 X-88.6304 Y85.9456 
G01 X-88.6829 Y86.1072 
G01 X-88.7095 Y86.2750 
G00 Z2.5400 
G00 X-88.7095 Y96.4350 
G01 Z-0.1778 F2540.00 
G01 X-88.7095 Y96.6050 F3000.00 
G01 X-88.6829 Y96.7728 
G01 X-88.6304 Y96.9344 
G01 X-88.5533 Y97.0858 
G01 X-88.4534 Y97.2232 
G01 X-88.3332 Y97.3434 
G01 X-88.1958 Y97.4433 
G01 X-88.0444 Y97.5204 
G01 X-87.8828 Y97.5729 
G01 X-87.7150 Y97.5995 
G01 X-87.5450 Y97.5995 
G01 X-87.3772 Y97.5729 
G01 X-87.2156 Y97.5204 
G01 X-87.0642 Y97.4433 
G01 X-86.9268 Y97.3434 
G01 X-86.8066 Y97.2232 
G01 X-86.7067 Y97.0858 
G01 X-86.6296 Y96.9344 
G01 X-86.5771 Y96.7728 
G01 X-86.5505 Y96.6050 
G01 X-86.5505 Y96.4350 
G01 X-86.5771 Y96.2672 
G01 X-86.6296 Y96.1056 
G01 X-86.7067 Y95.9542 
G01 X-86.8066 Y95.8168 
G01 X-86.9268 Y95.6966 
G01 X-87.0642 Y95.5967 
G01 X-87.2156 Y95.5196 
G01 X-87.3772 Y95.4671 
G01 X-87.5450 Y95.4405 
G01 X-87.7150 Y95.4405 
G01 X-87.8828 Y95.4671 
G01 X-88.0444 Y95.5196 
G01 X-88.1958 Y95.5967 
G01 X-88.3332 Y95.6966 
G01 X-88.4534 Y95.8168 
G01 X-88.5533 Y95.9542 
G01 X-88.6304 Y96.1056 
G01 X-88.6829 Y96.2672 
G01 X-88.7095 Y96.4350 
G00 Z2.5400 
G00 X-98.8695 Y60.2400 
G01 Z-0.1778 F2540.00 
G01 X-98.8695 Y60.4100 F3000.00 
G01 X-98.8429 Y60.5778 
G01 X-98.7904 Y60.7394 
G01 X-98.7133 Y60.8908 
G01 X-98.6134 Y61.0282 
G01 X-98.4932 Y61.1484 
G01 X-98.3558 Y61.2483 
G01 X-98.2044 Y61.3254 
G01 X-98.0428 Y61.3779 
G01 X-97.8750 Y61.4045 
G01 X-97.7050 Y61.4045 
G01 X-97.5372 Y61.3779 
G01 X-97.3756 Y61.3254 
G01 X-97.2242 Y61.2483 
G01 X-97.0868 Y61.1484 
G01 X-96.9666 Y61.0282 
G01 X-96.8667 Y60.8908 
G01 X-96.7896 Y60.7394 
G01 X-96.7371 Y60.5778 
G01 X-96.7105 Y60.4100 
G01 X-96.7105 Y60.2400 
G01 X-96.7371 Y60.0722 
G01 X-96.7896 Y59.9106 
G01 X-96.8667 Y59.7592 
G01 X-96.9666 Y59.6218 
G01 X-97.0868 Y59.5016 
G01 X-97.2242 Y59.4017 
G01 X-97.3756 Y59.3246 
G01 X-97.5372 Y59.2721 
G01 X-97.7050 Y59.2455 
G01 X-97.8750 Y59.2455 
G01 X-98.0428 Y59.2721 
G01 X-98.2044 Y59.3246 
G01 X-98.3558 Y59.4017 
G01 X-98.4932 Y59.5016 
G01 X-98.6134 Y59.6218 
G01 X-98.7133 Y59.7592 
G01 X-98.7904 Y59.9106 
G01 X-98.8429 Y60.0722 
G01 X-98.8695 Y60.2400 
G00 Z2.5400 
G00 X-125.1995 Y78.3750 
G01 Z-0.1778 F2540.00 
G01 X-125.1995 Y78.5450 F3000.00 
G01 X-125.1729 Y78.7128 
G01 X-125.1204 Y78.8744 
G01 X-125.0433 Y79.0258 
G01 X-124.9434 Y79.1632 
G01 X-124.8232 Y79.2834 
G01 X-124.6858 Y79.3833 
G01 X-124.5344 Y79.4604 
G01 X-124.3728 Y79.5129 
G01 X-124.2050 Y79.5395 
G01 X-124.0350 Y79.5395 
G01 X-123.8672 Y79.5129 
G01 X-123.7056 Y79.4604 
G01 X-123.5542 Y79.3833 
G01 X-123.4168 Y79.2834 
G01 X-123.2966 Y79.1632 
G01 X-123.1967 Y79.0258 
G01 X-123.1196 Y78.8744 
G01 X-123.0671 Y78.7128 
G01 X-123.0405 Y78.5450 
G01 X-123.0405 Y78.3750 
G01 X-123.0671 Y78.2072 
G01 X-123.1196 Y78.0456 
G01 X-123.1967 Y77.8942 
G01 X-123.2966 Y77.7568 
G01 X-123.4168 Y77.6366 
G01 X-123.5542 Y77.5367 
G01 X-123.7056 Y77.4596 
G01 X-123.8672 Y77.4071 
G01 X-124.0350 Y77.3805 
G01 X-124.2050 Y77.3805 
G01 X-124.3728 Y77.4071 
G01 X-124.5344 Y77.4596 
G01 X-124.6858 Y77.5367 
G01 X-124.8232 Y77.6366 
G01 X-124.9434 Y77.7568 
G01 X-125.0433 Y77.8942 
G01 X-125.1204 Y78.0456 
G01 X-125.1729 Y78.2072 
G01 X-125.1995 Y78.3750 
G00 Z2.5400 
G00 X-142.0495 Y67.2250 
G01 Z-0.1778 F2540.00 
G01 X-142.0495 Y67.3950 F3000.00 
G01 X-142.0229 Y67.5628 
G01 X-141.9704 Y67.7244 
G01 X-141.8933 Y67.8758 
G01 X-141.7934 Y68.0132 
G01 X-141.6732 Y68.1334 
G01 X-141.5358 Y68.2333 
G01 X-141.3844 Y68.3104 
G01 X-141.2228 Y68.3629 
G01 X-141.0550 Y68.3895 
G01 X-140.8850 Y68.3895 
G01 X-140.7172 Y68.3629 
G01 X-140.5556 Y68.3104 
G01 X-140.4042 Y68.2333 
G01 X-140.2668 Y68.1334 
G01 X-140.1466 Y68.0132 
G01 X-140.0467 Y67.8758 
G01 X-139.9696 Y67.7244 
G01 X-139.9171 Y67.5628 
G01 X-139.8905 Y67.3950 
G01 X-139.8905 Y67.2250 
G01 X-139.9171 Y67.0572 
G01 X-139.9696 Y66.8956 
G01 X-140.0467 Y66.7442 
G01 X-140.1466 Y66.6068 
G01 X-140.2668 Y66.4866 
G01 X-140.4042 Y66.3867 
G01 X-140.5556 Y66.3096 
G01 X-140.7172 Y66.2571 
G01 X-140.8850 Y66.2305 
G01 X-141.0550 Y66.2305 
G01 X-141.2228 Y66.2571 
G01 X-141.3844 Y66.3096 
G01 X-141.5358 Y66.3867 
G01 X-141.6732 Y66.4866 
G01 X-141.7934 Y66.6068 
G01 X-141.8933 Y66.7442 
G01 X-141.9704 Y66.8956 
G01 X-142.0229 Y67.0572 
G01 X-142.0495 Y67.2250 
G00 Z2.5400 
G00 X-142.0495 Y57.0650 
G01 Z-0.1778 F2540.00 
G01 X-142.0495 Y57.2350 F3000.00 
G01 X-142.0229 Y57.4028 
G01 X-141.9704 Y57.5644 
G01 X-141.8933 Y57.7158 
G01 X-141.7934 Y57.8532 
G01 X-141.6732 Y57.9734 
G01 X-141.5358 Y58.0733 
G01 X-141.3844 Y58.1504 
G01 X-141.2228 Y58.2029 
G01 X-141.0550 Y58.2295 
G01 X-140.8850 Y58.2295 
G01 X-140.7172 Y58.2029 
G01 X-140.5556 Y58.1504 
G01 X-140.4042 Y58.0733 
G01 X-140.2668 Y57.9734 
G01 X-140.1466 Y57.8532 
G01 X-140.0467 Y57.7158 
G01 X-139.9696 Y57.5644 
G01 X-139.9171 Y57.4028 
G01 X-139.8905 Y57.2350 
G01 X-139.8905 Y57.0650 
G01 X-139.9171 Y56.8972 
G01 X-139.9696 Y56.7356 
G01 X-140.0467 Y56.5842 
G01 X-140.1466 Y56.4468 
G01 X-140.2668 Y56.3266 
G01 X-140.4042 Y56.2267 
G01 X-140.5556 Y56.1496 
G01 X-140.7172 Y56.0971 
G01 X-140.8850 Y56.0705 
G01 X-141.0550 Y56.0705 
G01 X-141.2228 Y56.0971 
G01 X-141.3844 Y56.1496 
G01 X-141.5358 Y56.2267 
G01 X-141.6732 Y56.3266 
G01 X-141.7934 Y56.4468 
G01 X-141.8933 Y56.5842 
G01 X-141.9704 Y56.7356 
G01 X-142.0229 Y56.8972 
G01 X-142.0495 Y57.0650 
G00 Z2.5400 
G00 X-142.0495 Y91.9900 
G01 Z-0.1778 F2540.00 
G01 X-142.0495 Y92.1600 F3000.00 
G01 X-142.0229 Y92.3278 
G01 X-141.9704 Y92.4894 
G01 X-141.8933 Y92.6408 
G01 X-141.7934 Y92.7782 
G01 X-141.6732 Y92.8984 
G01 X-141.5358 Y92.9983 
G01 X-141.3844 Y93.0754 
G01 X-141.2228 Y93.1279 
G01 X-141.0550 Y93.1545 
G01 X-140.8850 Y93.1545 
G01 X-140.7172 Y93.1279 
G01 X-140.5556 Y93.0754 
G01 X-140.4042 Y92.9983 
G01 X-140.2668 Y92.8984 
G01 X-140.1466 Y92.7782 
G01 X-140.0467 Y92.6408 
G01 X-139.9696 Y92.4894 
G01 X-139.9171 Y92.3278 
G01 X-139.8905 Y92.1600 
G01 X-139.8905 Y91.9900 
G01 X-139.9171 Y91.8222 
G01 X-139.9696 Y91.6606 
G01 X-140.0467 Y91.5092 
G01 X-140.1466 Y91.3718 
G01 X-140.2668 Y91.2516 
G01 X-140.4042 Y91.1517 
G01 X-140.5556 Y91.0746 
G01 X-140.7172 Y91.0221 
G01 X-140.8850 Y90.9955 
G01 X-141.0550 Y90.9955 
G01 X-141.2228 Y91.0221 
G01 X-141.3844 Y91.0746 
G01 X-141.5358 Y91.1517 
G01 X-141.6732 Y91.2516 
G01 X-141.7934 Y91.3718 
G01 X-141.8933 Y91.5092 
G01 X-141.9704 Y91.6606 
G01 X-142.0229 Y91.8222 
G01 X-142.0495 Y91.9900 
G00 Z2.5400 
G00 X-131.8895 Y91.9900 
G01 Z-0.1778 F2540.00 
G01 X-131.8895 Y92.1600 F3000.00 
G01 X-131.8629 Y92.3278 
G01 X-131.8104 Y92.4894 
G01 X-131.7333 Y92.6408 
G01 X-131.6334 Y92.7782 
G01 X-131.5132 Y92.8984 
G01 X-131.3758 Y92.9983 
G01 X-131.2244 Y93.0754 
G01 X-131.0628 Y93.1279 
G01 X-130.8950 Y93.1545 
G01 X-130.7250 Y93.1545 
G01 X-130.5572 Y93.1279 
G01 X-130.3956 Y93.0754 
G01 X-130.2442 Y92.9983 
G01 X-130.1068 Y92.8984 
G01 X-129.9866 Y92.7782 
G01 X-129.8867 Y92.6408 
G01 X-129.8096 Y92.4894 
G01 X-129.7571 Y92.3278 
G01 X-129.7305 Y92.1600 
G01 X-129.7305 Y91.9900 
G01 X-129.7571 Y91.8222 
G01 X-129.8096 Y91.6606 
G01 X-129.8867 Y91.5092 
G01 X-129.9866 Y91.3718 
G01 X-130.1068 Y91.2516 
G01 X-130.2442 Y91.1517 
G01 X-130.3956 Y91.0746 
G01 X-130.5572 Y91.0221 
G01 X-130.7250 Y90.9955 
G01 X-130.8950 Y90.9955 
G01 X-131.0628 Y91.0221 
G01 X-131.2244 Y91.0746 
G01 X-131.3758 Y91.1517 
G01 X-131.5132 Y91.2516 
G01 X-131.6334 Y91.3718 
G01 X-131.7333 Y91.5092 
G01 X-131.8104 Y91.6606 
G01 X-131.8629 Y91.8222 
G01 X-131.8895 Y91.9900 
G00 Z2.5400 
G00 X-16.4793 Y95.1525 
G01 Z-0.1778 F2540.00 
G01 X-16.4793 Y95.3475 F3000.00 
G01 X-16.4488 Y95.5402 
G01 X-16.3885 Y95.7257 
G01 X-16.2999 Y95.8995 
G01 X-16.1853 Y96.0573 
G01 X-16.0473 Y96.1953 
G01 X-15.8895 Y96.3099 
G01 X-15.7157 Y96.3985 
G01 X-15.5302 Y96.4588 
G01 X-15.3375 Y96.4893 
G01 X-15.1425 Y96.4893 
G01 X-14.9498 Y96.4588 
G01 X-14.7643 Y96.3985 
G01 X-14.5905 Y96.3099 
G01 X-14.4327 Y96.1953 
G01 X-14.2947 Y96.0573 
G01 X-14.1801 Y95.8995 
G01 X-14.0915 Y95.7257 
G01 X-14.0312 Y95.5402 
G01 X-14.0007 Y95.3475 
G01 X-14.0007 Y95.1525 
G01 X-14.0312 Y94.9598 
G01 X-14.0915 Y94.7743 
G01 X-14.1801 Y94.6005 
G01 X-14.2947 Y94.4427 
G01 X-14.4327 Y94.3047 
G01 X-14.5905 Y94.1901 
G01 X-14.7643 Y94.1015 
G01 X-14.9498 Y94.0412 
G01 X-15.1425 Y94.0107 
G01 X-15.3375 Y94.0107 
G01 X-15.5302 Y94.0412 
G01 X-15.7157 Y94.1015 
G01 X-15.8895 Y94.1901 
G01 X-16.0473 Y94.3047 
G01 X-16.1853 Y94.4427 
G01 X-16.2999 Y94.6005 
G01 X-16.3885 Y94.7743 
G01 X-16.4488 Y94.9598 
G01 X-16.4793 Y95.1525 
G00 Z2.5400 
G00 X-22.8293 Y97.6925 
G01 Z-0.1778 F2540.00 
G01 X-22.8293 Y97.8875 F3000.00 
G01 X-22.7988 Y98.0802 
G01 X-22.7385 Y98.2657 
G01 X-22.6499 Y98.4395 
G01 X-22.5353 Y98.5973 
G01 X-22.3973 Y98.7353 
G01 X-22.2395 Y98.8499 
G01 X-22.0657 Y98.9385 
G01 X-21.8802 Y98.9988 
G01 X-21.6875 Y99.0293 
G01 X-21.4925 Y99.0293 
G01 X-21.2998 Y98.9988 
G01 X-21.1143 Y98.9385 
G01 X-20.9405 Y98.8499 
G01 X-20.7827 Y98.7353 
G01 X-20.6447 Y98.5973 
G01 X-20.5301 Y98.4395 
G01 X-20.4415 Y98.2657 
G01 X-20.3812 Y98.0802 
G01 X-20.3507 Y97.8875 
G01 X-20.3507 Y97.6925 
G01 X-20.3812 Y97.4998 
G01 X-20.4415 Y97.3143 
G01 X-20.5301 Y97.1405 
G01 X-20.6447 Y96.9827 
G01 X-20.7827 Y96.8447 
G01 X-20.9405 Y96.7301 
G01 X-21.1143 Y96.6415 
G01 X-21.2998 Y96.5812 
G01 X-21.4925 Y96.5507 
G01 X-21.6875 Y96.5507 
G01 X-21.8802 Y96.5812 
G01 X-22.0657 Y96.6415 
G01 X-22.2395 Y96.7301 
G01 X-22.3973 Y96.8447 
G01 X-22.5353 Y96.9827 
G01 X-22.6499 Y97.1405 
G01 X-22.7385 Y97.3143 
G01 X-22.7988 Y97.4998 
G01 X-22.8293 Y97.6925 
G00 Z2.5400 
G00 X-54.5793 Y76.1025 
G01 Z-0.1778 F2540.00 
G01 X-54.5793 Y76.2975 F3000.00 
G01 X-54.5488 Y76.4902 
G01 X-54.4885 Y76.6757 
G01 X-54.3999 Y76.8495 
G01 X-54.2853 Y77.0073 
G01 X-54.1473 Y77.1453 
G01 X-53.9895 Y77.2599 
G01 X-53.8157 Y77.3485 
G01 X-53.6302 Y77.4088 
G01 X-53.4375 Y77.4393 
G01 X-53.2425 Y77.4393 
G01 X-53.0498 Y77.4088 
G01 X-52.8643 Y77.3485 
G01 X-52.6905 Y77.2599 
G01 X-52.5327 Y77.1453 
G01 X-52.3947 Y77.0073 
G01 X-52.2801 Y76.8495 
G01 X-52.1915 Y76.6757 
G01 X-52.1312 Y76.4902 
G01 X-52.1007 Y76.2975 
G01 X-52.1007 Y76.1025 
G01 X-52.1312 Y75.9098 
G01 X-52.1915 Y75.7243 
G01 X-52.2801 Y75.5505 
G01 X-52.3947 Y75.3927 
G01 X-52.5327 Y75.2547 
G01 X-52.6905 Y75.1401 
G01 X-52.8643 Y75.0515 
G01 X-53.0498 Y74.9912 
G01 X-53.2425 Y74.9607 
G01 X-53.4375 Y74.9607 
G01 X-53.6302 Y74.9912 
G01 X-53.8157 Y75.0515 
G01 X-53.9895 Y75.1401 
G01 X-54.1473 Y75.2547 
G01 X-54.2853 Y75.3927 
G01 X-54.3999 Y75.5505 
G01 X-54.4885 Y75.7243 
G01 X-54.5488 Y75.9098 
G01 X-54.5793 Y76.1025 
G00 Z2.5400 
G00 X-60.9293 Y78.6425 
G01 Z-0.1778 F2540.00 
G01 X-60.9293 Y78.8375 F3000.00 
G01 X-60.8988 Y79.0302 
G01 X-60.8385 Y79.2157 
G01 X-60.7499 Y79.3895 
G01 X-60.6353 Y79.5473 
G01 X-60.4973 Y79.6853 
G01 X-60.3395 Y79.7999 
G01 X-60.1657 Y79.8885 
G01 X-59.9802 Y79.9488 
G01 X-59.7875 Y79.9793 
G01 X-59.5925 Y79.9793 
G01 X-59.3998 Y79.9488 
G01 X-59.2143 Y79.8885 
G01 X-59.0405 Y79.7999 
G01 X-58.8827 Y79.6853 
G01 X-58.7447 Y79.5473 
G01 X-58.6301 Y79.3895 
G01 X-58.5415 Y79.2157 
G01 X-58.4812 Y79.0302 
G01 X-58.4507 Y78.8375 
G01 X-58.4507 Y78.6425 
G01 X-58.4812 Y78.4498 
G01 X-58.5415 Y78.2643 
G01 X-58.6301 Y78.0905 
G01 X-58.7447 Y77.9327 
G01 X-58.8827 Y77.7947 
G01 X-59.0405 Y77.6801 
G01 X-59.2143 Y77.5915 
G01 X-59.3998 Y77.5312 
G01 X-59.5925 Y77.5007 
G01 X-59.7875 Y77.5007 
G01 X-59.9802 Y77.5312 
G01 X-60.1657 Y77.5915 
G01 X-60.3395 Y77.6801 
G01 X-60.4973 Y77.7947 
G01 X-60.6353 Y77.9327 
G01 X-60.7499 Y78.0905 
G01 X-60.8385 Y78.2643 
G01 X-60.8988 Y78.4498 
G01 X-60.9293 Y78.6425 
G00 Z2.5400 
G00 X-61.8283 Y68.4945 
G01 Z-0.1778 F2540.00 
G01 X-61.8283 Y68.6655 F3000.00 
G01 X-61.7949 Y68.8333 
G01 X-61.7295 Y68.9913 
G01 X-61.6345 Y69.1335 
G01 X-61.5135 Y69.2545 
G01 X-61.3713 Y69.3495 
G01 X-61.2133 Y69.4149 
G01 X-61.0455 Y69.4483 
G01 X-60.8745 Y69.4483 
G01 X-60.7067 Y69.4149 
G01 X-60.5487 Y69.3495 
G01 X-60.4065 Y69.2545 
G01 X-60.2855 Y69.1335 
G01 X-60.1905 Y68.9913 
G01 X-60.1251 Y68.8333 
G01 X-60.0917 Y68.6655 
G01 X-60.0917 Y68.4945 
G01 X-60.1251 Y68.3267 
G01 X-60.1905 Y68.1687 
G01 X-60.2855 Y68.0265 
G01 X-60.4065 Y67.9055 
G01 X-60.5487 Y67.8105 
G01 X-60.7067 Y67.7451 
G01 X-60.8745 Y67.7117 
G01 X-61.0455 Y67.7117 
G01 X-61.2133 Y67.7451 
G01 X-61.3713 Y67.8105 
G01 X-61.5135 Y67.9055 
G01 X-61.6345 Y68.0265 
G01 X-61.7295 Y68.1687 
G01 X-61.7949 Y68.3267 
G01 X-61.8283 Y68.4945 
G00 Z2.5400 
G00 X-16.4793 Y57.0525 
G01 Z-0.1778 F2540.00 
G01 X-16.4793 Y57.2475 F3000.00 
G01 X-16.4488 Y57.4402 
G01 X-16.3885 Y57.6257 
G01 X-16.2999 Y57.7995 
G01 X-16.1853 Y57.9573 
G01 X-16.0473 Y58.0953 
G01 X-15.8895 Y58.2099 
G01 X-15.7157 Y58.2985 
G01 X-15.5302 Y58.3588 
G01 X-15.3375 Y58.3893 
G01 X-15.1425 Y58.3893 
G01 X-14.9498 Y58.3588 
G01 X-14.7643 Y58.2985 
G01 X-14.5905 Y58.2099 
G01 X-14.4327 Y58.0953 
G01 X-14.2947 Y57.9573 
G01 X-14.1801 Y57.7995 
G01 X-14.0915 Y57.6257 
G01 X-14.0312 Y57.4402 
G01 X-14.0007 Y57.2475 
G01 X-14.0007 Y57.0525 
G01 X-14.0312 Y56.8598 
G01 X-14.0915 Y56.6743 
G01 X-14.1801 Y56.5005 
G01 X-14.2947 Y56.3427 
G01 X-14.4327 Y56.2047 
G01 X-14.5905 Y56.0901 
G01 X-14.7643 Y56.0015 
G01 X-14.9498 Y55.9412 
G01 X-15.1425 Y55.9107 
G01 X-15.3375 Y55.9107 
G01 X-15.5302 Y55.9412 
G01 X-15.7157 Y56.0015 
G01 X-15.8895 Y56.0901 
G01 X-16.0473 Y56.2047 
G01 X-16.1853 Y56.3427 
G01 X-16.2999 Y56.5005 
G01 X-16.3885 Y56.6743 
G01 X-16.4488 Y56.8598 
G01 X-16.4793 Y57.0525 
G00 Z2.5400 
G00 X-22.8293 Y59.5925 
G01 Z-0.1778 F2540.00 
G01 X-22.8293 Y59.7875 F3000.00 
G01 X-22.7988 Y59.9802 
G01 X-22.7385 Y60.1657 
G01 X-22.6499 Y60.3395 
G01 X-22.5353 Y60.4973 
G01 X-22.3973 Y60.6353 
G01 X-22.2395 Y60.7499 
G01 X-22.0657 Y60.8385 
G01 X-21.8802 Y60.8988 
G01 X-21.6875 Y60.9293 
G01 X-21.4925 Y60.9293 
G01 X-21.2998 Y60.8988 
G01 X-21.1143 Y60.8385 
G01 X-20.9405 Y60.7499 
G01 X-20.7827 Y60.6353 
G01 X-20.6447 Y60.4973 
G01 X-20.5301 Y60.3395 
G01 X-20.4415 Y60.1657 
G01 X-20.3812 Y59.9802 
G01 X-20.3507 Y59.7875 
G01 X-20.3507 Y59.5925 
G01 X-20.3812 Y59.3998 
G01 X-20.4415 Y59.2143 
G01 X-20.5301 Y59.0405 
G01 X-20.6447 Y58.8827 
G01 X-20.7827 Y58.7447 
G01 X-20.9405 Y58.6301 
G01 X-21.1143 Y58.5415 
G01 X-21.2998 Y58.4812 
G01 X-21.4925 Y58.4507 
G01 X-21.6875 Y58.4507 
G01 X-21.8802 Y58.4812 
G01 X-22.0657 Y58.5415 
G01 X-22.2395 Y58.6301 
G01 X-22.3973 Y58.7447 
G01 X-22.5353 Y58.8827 
G01 X-22.6499 Y59.0405 
G01 X-22.7385 Y59.2143 
G01 X-22.7988 Y59.3998 
G01 X-22.8293 Y59.5925 
G00 Z2.5400 
G00 X-35.5293 Y57.0525 
G01 Z-0.1778 F2540.00 
G01 X-35.5293 Y57.2475 F3000.00 
G01 X-35.4988 Y57.4402 
G01 X-35.4385 Y57.6257 
G01 X-35.3499 Y57.7995 
G01 X-35.2353 Y57.9573 
G01 X-35.0973 Y58.0953 
G01 X-34.9395 Y58.2099 
G01 X-34.7657 Y58.2985 
G01 X-34.5802 Y58.3588 
G01 X-34.3875 Y58.3893 
G01 X-34.1925 Y58.3893 
G01 X-33.9998 Y58.3588 
G01 X-33.8143 Y58.2985 
G01 X-33.6405 Y58.2099 
G01 X-33.4826 Y58.0953 
G01 X-33.3447 Y57.9573 
G01 X-33.2301 Y57.7995 
G01 X-33.1415 Y57.6257 
G01 X-33.0812 Y57.4402 
G01 X-33.0507 Y57.2475 
G01 X-33.0507 Y57.0525 
G01 X-33.0812 Y56.8598 
G01 X-33.1415 Y56.6743 
G01 X-33.2301 Y56.5005 
G01 X-33.3447 Y56.3427 
G01 X-33.4826 Y56.2047 
G01 X-33.6405 Y56.0901 
G01 X-33.8143 Y56.0015 
G01 X-33.9998 Y55.9412 
G01 X-34.1925 Y55.9107 
G01 X-34.3875 Y55.9107 
G01 X-34.5802 Y55.9412 
G01 X-34.7657 Y56.0015 
G01 X-34.9395 Y56.0901 
G01 X-35.0973 Y56.2047 
G01 X-35.2353 Y56.3427 
G01 X-35.3499 Y56.5005 
G01 X-35.4385 Y56.6743 
G01 X-35.4988 Y56.8598 
G01 X-35.5293 Y57.0525 
G00 Z2.5400 
G00 X-41.8793 Y59.5925 
G01 Z-0.1778 F2540.00 
G01 X-41.8793 Y59.7875 F3000.00 
G01 X-41.8488 Y59.9802 
G01 X-41.7885 Y60.1657 
G01 X-41.6999 Y60.3395 
G01 X-41.5853 Y60.4973 
G01 X-41.4473 Y60.6353 
G01 X-41.2895 Y60.7499 
G01 X-41.1157 Y60.8385 
G01 X-40.9302 Y60.8988 
G01 X-40.7375 Y60.9293 
G01 X-40.5425 Y60.9293 
G01 X-40.3498 Y60.8988 
G01 X-40.1643 Y60.8385 
G01 X-39.9905 Y60.7499 
G01 X-39.8327 Y60.6353 
G01 X-39.6947 Y60.4973 
G01 X-39.5801 Y60.3395 
G01 X-39.4915 Y60.1657 
G01 X-39.4312 Y59.9802 
G01 X-39.4007 Y59.7875 
G01 X-39.4007 Y59.5925 
G01 X-39.4312 Y59.3998 
G01 X-39.4915 Y59.2143 
G01 X-39.5801 Y59.0405 
G01 X-39.6947 Y58.8827 
G01 X-39.8327 Y58.7447 
G01 X-39.9905 Y58.6301 
G01 X-40.1643 Y58.5415 
G01 X-40.3498 Y58.4812 
G01 X-40.5425 Y58.4507 
G01 X-40.7375 Y58.4507 
G01 X-40.9302 Y58.4812 
G01 X-41.1157 Y58.5415 
G01 X-41.2895 Y58.6301 
G01 X-41.4473 Y58.7447 
G01 X-41.5853 Y58.8827 
G01 X-41.6999 Y59.0405 
G01 X-41.7885 Y59.2143 
G01 X-41.8488 Y59.3998 
G01 X-41.8793 Y59.5925 
G00 Z2.5400 
G00 X-54.5793 Y57.0525 
G01 Z-0.1778 F2540.00 
G01 X-54.5793 Y57.2475 F3000.00 
G01 X-54.5488 Y57.4402 
G01 X-54.4885 Y57.6257 
G01 X-54.3999 Y57.7995 
G01 X-54.2853 Y57.9573 
G01 X-54.1473 Y58.0953 
G01 X-53.9895 Y58.2099 
G01 X-53.8157 Y58.2985 
G01 X-53.6302 Y58.3588 
G01 X-53.4375 Y58.3893 
G01 X-53.2425 Y58.3893 
G01 X-53.0498 Y58.3588 
G01 X-52.8643 Y58.2985 
G01 X-52.6905 Y58.2099 
G01 X-52.5327 Y58.0953 
G01 X-52.3947 Y57.9573 
G01 X-52.2801 Y57.7995 
G01 X-52.1915 Y57.6257 
G01 X-52.1312 Y57.4402 
G01 X-52.1007 Y57.2475 
G01 X-52.1007 Y57.0525 
G01 X-52.1312 Y56.8598 
G01 X-52.1915 Y56.6743 
G01 X-52.2801 Y56.5005 
G01 X-52.3947 Y56.3427 
G01 X-52.5327 Y56.2047 
G01 X-52.6905 Y56.0901 
G01 X-52.8643 Y56.0015 
G01 X-53.0498 Y55.9412 
G01 X-53.2425 Y55.9107 
G01 X-53.4375 Y55.9107 
G01 X-53.6302 Y55.9412 
G01 X-53.8157 Y56.0015 
G01 X-53.9895 Y56.0901 
G01 X-54.1473 Y56.2047 
G01 X-54.2853 Y56.3427 
G01 X-54.3999 Y56.5005 
G01 X-54.4885 Y56.6743 
G01 X-54.5488 Y56.8598 
G01 X-54.5793 Y57.0525 
G00 Z2.5400 
G00 X-60.9293 Y59.5925 
G01 Z-0.1778 F2540.00 
G01 X-60.9293 Y59.7875 F3000.00 
G01 X-60.8988 Y59.9802 
G01 X-60.8385 Y60.1657 
G01 X-60.7499 Y60.3395 
G01 X-60.6353 Y60.4973 
G01 X-60.4973 Y60.6353 
G01 X-60.3395 Y60.7499 
G01 X-60.1657 Y60.8385 
G01 X-59.9802 Y60.8988 
G01 X-59.7875 Y60.9293 
G01 X-59.5925 Y60.9293 
G01 X-59.3998 Y60.8988 
G01 X-59.2143 Y60.8385 
G01 X-59.0405 Y60.7499 
G01 X-58.8827 Y60.6353 
G01 X-58.7447 Y60.4973 
G01 X-58.6301 Y60.3395 
G01 X-58.5415 Y60.1657 
G01 X-58.4812 Y59.9802 
G01 X-58.4507 Y59.7875 
G01 X-58.4507 Y59.5925 
G01 X-58.4812 Y59.3998 
G01 X-58.5415 Y59.2143 
G01 X-58.6301 Y59.0405 
G01 X-58.7447 Y58.8827 
G01 X-58.8827 Y58.7447 
G01 X-59.0405 Y58.6301 
G01 X-59.2143 Y58.5415 
G01 X-59.3998 Y58.4812 
G01 X-59.5925 Y58.4507 
G01 X-59.7875 Y58.4507 
G01 X-59.9802 Y58.4812 
G01 X-60.1657 Y58.5415 
G01 X-60.3395 Y58.6301 
G01 X-60.4973 Y58.7447 
G01 X-60.6353 Y58.8827 
G01 X-60.7499 Y59.0405 
G01 X-60.8385 Y59.2143 
G01 X-60.8988 Y59.3998 
G01 X-60.9293 Y59.5925 
G00 Z2.5400 
G00 X-54.2083 Y49.4445 
G01 Z-0.1778 F2540.00 
G01 X-54.2083 Y49.5182 F3000.00 
G01 X-55.1538 Y50.4637 
G01 X-76.1533 Y50.4637 
G01 X-76.2736 Y50.4876 
G01 X-76.3868 Y50.5345 
G01 X-76.4887 Y50.6026 
G01 X-76.5754 Y50.6893 
G01 X-86.6338 Y60.7477 
G01 X-86.6296 Y60.7394 
G01 X-86.5771 Y60.5778 
G01 X-86.5505 Y60.4100 
G01 X-86.5505 Y60.2400 
G01 X-86.5771 Y60.0722 
G01 X-86.6296 Y59.9106 
G01 X-86.7067 Y59.7592 
G01 X-86.8066 Y59.6218 
G01 X-86.9268 Y59.5016 
G01 X-87.0642 Y59.4017 
G01 X-87.2156 Y59.3246 
G01 X-87.3772 Y59.2721 
G01 X-87.5450 Y59.2455 
G01 X-87.7150 Y59.2455 
G01 X-87.8828 Y59.2721 
G01 X-88.0444 Y59.3246 
G01 X-88.1958 Y59.4017 
G01 X-88.3332 Y59.5016 
G01 X-88.4534 Y59.6218 
G01 X-88.5533 Y59.7592 
G01 X-88.6304 Y59.9106 
G01 X-88.6829 Y60.0722 
G01 X-88.7095 Y60.2400 
G01 X-88.7095 Y60.4100 
G01 X-88.6829 Y60.5778 
G01 X-88.6304 Y60.7394 
G01 X-88.6070 Y60.7854 
G01 X-88.6251 Y60.7763 
G01 X-88.6441 Y60.7636 
G01 X-88.6798 Y60.7488 
G01 X-88.7142 Y60.7315 
G01 X-88.7363 Y60.7254 
G01 X-88.7574 Y60.7167 
G01 X-88.7952 Y60.7091 
G01 X-88.8324 Y60.6989 
G01 X-88.8552 Y60.6972 
G01 X-88.8776 Y60.6927 
G01 X-88.9162 Y60.6927 
G01 X-88.9547 Y60.6899 
G01 X-88.9773 Y60.6927 
G01 X-89.0002 Y60.6927 
G01 X-89.0380 Y60.7003 
G01 X-89.0763 Y60.7050 
G01 X-89.0980 Y60.7122 
G01 X-89.1204 Y60.7167 
G01 X-89.1561 Y60.7314 
G01 X-125.7072 Y72.8317 
G01 X-127.1267 Y72.8317 
G01 X-127.1687 Y72.8491 
G01 X-127.2009 Y72.8813 
G01 X-127.2183 Y72.9233 
G01 X-127.2183 Y73.2182 
G01 X-139.9834 Y75.4191 
G01 X-139.9991 Y75.3813 
G01 X-140.0313 Y75.3491 
G01 X-140.0733 Y75.3317 
G01 X-141.6267 Y75.3317 
G01 X-141.6687 Y75.3491 
G01 X-141.7009 Y75.3813 
G01 X-141.7183 Y75.4233 
G01 X-141.7183 Y76.9767 
G01 X-141.7009 Y77.0187 
G01 X-141.6687 Y77.0509 
G01 X-141.6267 Y77.0683 
G01 X-140.0733 Y77.0683 
G01 X-140.0313 Y77.0509 
G01 X-139.9991 Y77.0187 
G01 X-139.9817 Y76.9767 
G01 X-139.9817 Y76.6818 
G01 X-127.2166 Y74.4809 
G01 X-127.2009 Y74.5187 
G01 X-127.1687 Y74.5509 
G01 X-127.1267 Y74.5683 
G01 X-125.5733 Y74.5683 
G01 X-125.5313 Y74.5509 
G01 X-125.4991 Y74.5187 
G01 X-125.4817 Y74.4767 
G01 X-125.4817 Y74.0681 
G01 X-89.1076 Y62.0264 
G01 X-88.7867 Y62.3473 
G01 X-88.7000 Y62.4340 
G01 X-88.5981 Y62.5021 
G01 X-88.4849 Y62.5490 
G01 X-88.3646 Y62.5729 
G01 X-86.8954 Y62.5729 
G01 X-86.7751 Y62.5490 
G01 X-86.6619 Y62.5021 
G01 X-86.5600 Y62.4340 
G01 X-75.8343 Y51.7083 
G01 X-54.8347 Y51.7083 
G01 X-54.7145 Y51.6844 
G01 X-54.6012 Y51.6375 
G01 X-54.4993 Y51.5694 
G01 X-54.4126 Y51.4827 
G01 X-53.3282 Y50.3983 
G01 X-53.2545 Y50.3983 
G01 X-53.0867 Y50.3649 
G01 X-52.9287 Y50.2995 
G01 X-52.7865 Y50.2045 
G01 X-52.7343 Y50.1523 
G01 X-44.1680 Y50.1523 
G01 X-42.8926 Y51.4278 
G01 X-42.7906 Y51.4959 
G01 X-42.6774 Y51.5428 
G01 X-42.5572 Y51.5667 
G01 X-41.2628 Y51.5667 
G01 X-41.1426 Y51.5428 
G01 X-41.0294 Y51.4959 
G01 X-40.9274 Y51.4278 
G01 X-39.6520 Y50.1523 
G01 X-34.8957 Y50.1523 
G01 X-34.8435 Y50.2045 
G01 X-34.7013 Y50.2995 
G01 X-34.5433 Y50.3649 
G01 X-34.3755 Y50.3983 
G01 X-34.2045 Y50.3983 
G01 X-34.0367 Y50.3649 
G01 X-33.8787 Y50.2995 
G01 X-33.7365 Y50.2045 
G01 X-33.6843 Y50.1523 
G01 X-25.1180 Y50.1523 
G01 X-23.8426 Y51.4278 
G01 X-23.7406 Y51.4959 
G01 X-23.6274 Y51.5428 
G01 X-23.5072 Y51.5667 
G01 X-22.2128 Y51.5667 
G01 X-22.0926 Y51.5428 
G01 X-21.9794 Y51.4959 
G01 X-21.8774 Y51.4278 
G01 X-20.6020 Y50.1523 
G01 X-15.8457 Y50.1523 
G01 X-15.7935 Y50.2045 
G01 X-15.6513 Y50.2995 
G01 X-15.4933 Y50.3649 
G01 X-15.3255 Y50.3983 
G01 X-15.1545 Y50.3983 
G01 X-14.9867 Y50.3649 
G01 X-14.8287 Y50.2995 
G01 X-14.6865 Y50.2045 
G01 X-14.5655 Y50.0835 
G01 X-14.4705 Y49.9413 
G01 X-14.4051 Y49.7833 
G01 X-14.3717 Y49.6155 
G01 X-14.3717 Y49.4445 
G01 X-14.4051 Y49.2767 
G01 X-14.4705 Y49.1187 
G01 X-14.5655 Y48.9765 
G01 X-14.6865 Y48.8555 
G01 X-14.8287 Y48.7605 
G01 X-14.9867 Y48.6951 
G01 X-15.1545 Y48.6617 
G01 X-15.3255 Y48.6617 
G01 X-15.4933 Y48.6951 
G01 X-15.6513 Y48.7605 
G01 X-15.7935 Y48.8555 
G01 X-15.8457 Y48.9077 
G01 X-20.9210 Y48.9077 
G01 X-21.0413 Y48.9316 
G01 X-21.1545 Y48.9785 
G01 X-21.2564 Y49.0466 
G01 X-22.0477 Y49.8379 
G01 X-22.0251 Y49.7833 
G01 X-21.9917 Y49.6155 
G01 X-21.9917 Y49.4445 
G01 X-22.0251 Y49.2767 
G01 X-22.0905 Y49.1187 
G01 X-22.1855 Y48.9765 
G01 X-22.3065 Y48.8555 
G01 X-22.4487 Y48.7605 
G01 X-22.6067 Y48.6951 
G01 X-22.7745 Y48.6617 
G01 X-22.9455 Y48.6617 
G01 X-23.1133 Y48.6951 
G01 X-23.2713 Y48.7605 
G01 X-23.4135 Y48.8555 
G01 X-23.5344 Y48.9765 
G01 X-23.6295 Y49.1187 
G01 X-23.6949 Y49.2767 
G01 X-23.7283 Y49.4445 
G01 X-23.7283 Y49.6155 
G01 X-23.6949 Y49.7833 
G01 X-23.6723 Y49.8379 
G01 X-24.4636 Y49.0466 
G01 X-24.5655 Y48.9785 
G01 X-24.6787 Y48.9316 
G01 X-24.7990 Y48.9077 
G01 X-33.6843 Y48.9077 
G01 X-33.7365 Y48.8555 
G01 X-33.8787 Y48.7605 
G01 X-34.0367 Y48.6951 
G01 X-34.2045 Y48.6617 
G01 X-34.3755 Y48.6617 
G01 X-34.5433 Y48.6951 
G01 X-34.7013 Y48.7605 
G01 X-34.8435 Y48.8555 
G01 X-34.8957 Y48.9077 
G01 X-39.9710 Y48.9077 
G01 X-40.0913 Y48.9316 
G01 X-40.2045 Y48.9785 
G01 X-40.3064 Y49.0466 
G01 X-41.0977 Y49.8379 
G01 X-41.0751 Y49.7833 
G01 X-41.0417 Y49.6155 
G01 X-41.0417 Y49.4445 
G01 X-41.0751 Y49.2767 
G01 X-41.1405 Y49.1187 
G01 X-41.2355 Y48.9765 
G01 X-41.3565 Y48.8555 
G01 X-41.4987 Y48.7605 
G01 X-41.6567 Y48.6951 
G01 X-41.8245 Y48.6617 
G01 X-41.9955 Y48.6617 
G01 X-42.1633 Y48.6951 
G01 X-42.3213 Y48.7605 
G01 X-42.4635 Y48.8555 
G01 X-42.5845 Y48.9765 
G01 X-42.6795 Y49.1187 
G01 X-42.7449 Y49.2767 
G01 X-42.7783 Y49.4445 
G01 X-42.7783 Y49.6155 
G01 X-42.7449 Y49.7833 
G01 X-42.7223 Y49.8379 
G01 X-43.5136 Y49.0466 
G01 X-43.6155 Y48.9785 
G01 X-43.7287 Y48.9316 
G01 X-43.8490 Y48.9077 
G01 X-52.7343 Y48.9077 
G01 X-52.7865 Y48.8555 
G01 X-52.9287 Y48.7605 
G01 X-53.0867 Y48.6951 
G01 X-53.2545 Y48.6617 
G01 X-53.4255 Y48.6617 
G01 X-53.5933 Y48.6951 
G01 X-53.7513 Y48.7605 
G01 X-53.8935 Y48.8555 
G01 X-54.0145 Y48.9765 
G01 X-54.1095 Y49.1187 
G01 X-54.1749 Y49.2767 
G01 X-54.2083 Y49.4445 
G00 Z2.5400 
G00 X-61.8283 Y49.4445 
G01 Z-0.1778 F2540.00 
G01 X-61.8283 Y49.6155 F3000.00 
G01 X-61.7949 Y49.7833 
G01 X-61.7295 Y49.9413 
G01 X-61.6345 Y50.0835 
G01 X-61.5135 Y50.2045 
G01 X-61.3713 Y50.2995 
G01 X-61.2133 Y50.3649 
G01 X-61.0455 Y50.3983 
G01 X-60.8745 Y50.3983 
G01 X-60.7067 Y50.3649 
G01 X-60.5487 Y50.2995 
G01 X-60.4065 Y50.2045 
G01 X-60.2855 Y50.0835 
G01 X-60.1905 Y49.9413 
G01 X-60.1251 Y49.7833 
G01 X-60.0917 Y49.6155 
G01 X-60.0917 Y49.4445 
G01 X-60.1251 Y49.2767 
G01 X-60.1905 Y49.1187 
G01 X-60.2855 Y48.9765 
G01 X-60.4065 Y48.8555 
G01 X-60.5487 Y48.7605 
G01 X-60.7067 Y48.6951 
G01 X-60.8745 Y48.6617 
G01 X-61.0455 Y48.6617 
G01 X-61.2133 Y48.6951 
G01 X-61.3713 Y48.7605 
G01 X-61.5135 Y48.8555 
G01 X-61.6345 Y48.9765 
G01 X-61.7295 Y49.1187 
G01 X-61.7949 Y49.2767 
G01 X-61.8283 Y49.4445 
G00 Z2.5400 
G00 X-16.4793 Y38.0025 
G01 Z-0.1778 F2540.00 
G01 X-16.4793 Y38.1975 F3000.00 
G01 X-16.4488 Y38.3902 
G01 X-16.3885 Y38.5757 
G01 X-16.2999 Y38.7495 
G01 X-16.1853 Y38.9073 
G01 X-16.0473 Y39.0453 
G01 X-15.8895 Y39.1599 
G01 X-15.7157 Y39.2485 
G01 X-15.5302 Y39.3088 
G01 X-15.3375 Y39.3393 
G01 X-15.1425 Y39.3393 
G01 X-14.9498 Y39.3088 
G01 X-14.7643 Y39.2485 
G01 X-14.5905 Y39.1599 
G01 X-14.4327 Y39.0453 
G01 X-14.2947 Y38.9073 
G01 X-14.1801 Y38.7495 
G01 X-14.0915 Y38.5757 
G01 X-14.0312 Y38.3902 
G01 X-14.0007 Y38.1975 
G01 X-14.0007 Y38.0025 
G01 X-14.0312 Y37.8098 
G01 X-14.0915 Y37.6243 
G01 X-14.1801 Y37.4505 
G01 X-14.2947 Y37.2927 
G01 X-14.4327 Y37.1547 
G01 X-14.5905 Y37.0401 
G01 X-14.7643 Y36.9515 
G01 X-14.9498 Y36.8912 
G01 X-15.1425 Y36.8607 
G01 X-15.3375 Y36.8607 
G01 X-15.5302 Y36.8912 
G01 X-15.7157 Y36.9515 
G01 X-15.8895 Y37.0401 
G01 X-16.0473 Y37.1547 
G01 X-16.1853 Y37.2927 
G01 X-16.2999 Y37.4505 
G01 X-16.3885 Y37.6243 
G01 X-16.4488 Y37.8098 
G01 X-16.4793 Y38.0025 
G00 Z2.5400 
G00 X-22.8293 Y40.5425 
G01 Z-0.1778 F2540.00 
G01 X-22.8293 Y40.7375 F3000.00 
G01 X-22.7988 Y40.9302 
G01 X-22.7385 Y41.1157 
G01 X-22.6499 Y41.2895 
G01 X-22.5353 Y41.4473 
G01 X-22.3973 Y41.5853 
G01 X-22.2395 Y41.6999 
G01 X-22.0657 Y41.7885 
G01 X-21.8802 Y41.8488 
G01 X-21.6875 Y41.8793 
G01 X-21.4925 Y41.8793 
G01 X-21.2998 Y41.8488 
G01 X-21.1143 Y41.7885 
G01 X-20.9405 Y41.6999 
G01 X-20.7827 Y41.5853 
G01 X-20.6447 Y41.4473 
G01 X-20.5301 Y41.2895 
G01 X-20.4415 Y41.1157 
G01 X-20.3812 Y40.9302 
G01 X-20.3507 Y40.7375 
G01 X-20.3507 Y40.5425 
G01 X-20.3812 Y40.3498 
G01 X-20.4415 Y40.1643 
G01 X-20.5301 Y39.9905 
G01 X-20.6447 Y39.8327 
G01 X-20.7827 Y39.6947 
G01 X-20.9405 Y39.5801 
G01 X-21.1143 Y39.4915 
G01 X-21.2998 Y39.4312 
G01 X-21.4925 Y39.4007 
G01 X-21.6875 Y39.4007 
G01 X-21.8802 Y39.4312 
G01 X-22.0657 Y39.4915 
G01 X-22.2395 Y39.5801 
G01 X-22.3973 Y39.6947 
G01 X-22.5353 Y39.8327 
G01 X-22.6499 Y39.9905 
G01 X-22.7385 Y40.1643 
G01 X-22.7988 Y40.3498 
G01 X-22.8293 Y40.5425 
G00 Z2.5400 
G00 X-35.5293 Y38.0025 
G01 Z-0.1778 F2540.00 
G01 X-35.5293 Y38.1975 F3000.00 
G01 X-35.4988 Y38.3902 
G01 X-35.4385 Y38.5757 
G01 X-35.3499 Y38.7495 
G01 X-35.2353 Y38.9073 
G01 X-35.0973 Y39.0453 
G01 X-34.9395 Y39.1599 
G01 X-34.7657 Y39.2485 
G01 X-34.5802 Y39.3088 
G01 X-34.3875 Y39.3393 
G01 X-34.1925 Y39.3393 
G01 X-33.9998 Y39.3088 
G01 X-33.8143 Y39.2485 
G01 X-33.6405 Y39.1599 
G01 X-33.4826 Y39.0453 
G01 X-33.3447 Y38.9073 
G01 X-33.2301 Y38.7495 
G01 X-33.1415 Y38.5757 
G01 X-33.0812 Y38.3902 
G01 X-33.0507 Y38.1975 
G01 X-33.0507 Y38.0025 
G01 X-33.0812 Y37.8098 
G01 X-33.1415 Y37.6243 
G01 X-33.2301 Y37.4505 
G01 X-33.3447 Y37.2927 
G01 X-33.4826 Y37.1547 
G01 X-33.6405 Y37.0401 
G01 X-33.8143 Y36.9515 
G01 X-33.9998 Y36.8912 
G01 X-34.1925 Y36.8607 
G01 X-34.3875 Y36.8607 
G01 X-34.5802 Y36.8912 
G01 X-34.7657 Y36.9515 
G01 X-34.9395 Y37.0401 
G01 X-35.0973 Y37.1547 
G01 X-35.2353 Y37.2927 
G01 X-35.3499 Y37.4505 
G01 X-35.4385 Y37.6243 
G01 X-35.4988 Y37.8098 
G01 X-35.5293 Y38.0025 
G00 Z2.5400 
G00 X-41.8793 Y40.5425 
G01 Z-0.1778 F2540.00 
G01 X-41.8793 Y40.7375 F3000.00 
G01 X-41.8488 Y40.9302 
G01 X-41.7885 Y41.1157 
G01 X-41.6999 Y41.2895 
G01 X-41.5853 Y41.4473 
G01 X-41.4473 Y41.5853 
G01 X-41.2895 Y41.6999 
G01 X-41.1157 Y41.7885 
G01 X-40.9302 Y41.8488 
G01 X-40.7375 Y41.8793 
G01 X-40.5425 Y41.8793 
G01 X-40.3498 Y41.8488 
G01 X-40.1643 Y41.7885 
G01 X-39.9905 Y41.6999 
G01 X-39.8327 Y41.5853 
G01 X-39.6947 Y41.4473 
G01 X-39.5801 Y41.2895 
G01 X-39.4915 Y41.1157 
G01 X-39.4312 Y40.9302 
G01 X-39.4007 Y40.7375 
G01 X-39.4007 Y40.5425 
G01 X-39.4312 Y40.3498 
G01 X-39.4915 Y40.1643 
G01 X-39.5801 Y39.9905 
G01 X-39.6947 Y39.8327 
G01 X-39.8327 Y39.6947 
G01 X-39.9905 Y39.5801 
G01 X-40.1643 Y39.4915 
G01 X-40.3498 Y39.4312 
G01 X-40.5425 Y39.4007 
G01 X-40.7375 Y39.4007 
G01 X-40.9302 Y39.4312 
G01 X-41.1157 Y39.4915 
G01 X-41.2895 Y39.5801 
G01 X-41.4473 Y39.6947 
G01 X-41.5853 Y39.8327 
G01 X-41.6999 Y39.9905 
G01 X-41.7885 Y40.1643 
G01 X-41.8488 Y40.3498 
G01 X-41.8793 Y40.5425 
G00 Z2.5400 
G00 X-54.5793 Y38.0025 
G01 Z-0.1778 F2540.00 
G01 X-54.5793 Y38.1975 F3000.00 
G01 X-54.5488 Y38.3902 
G01 X-54.4885 Y38.5757 
G01 X-54.3999 Y38.7495 
G01 X-54.2853 Y38.9073 
G01 X-54.1473 Y39.0453 
G01 X-53.9895 Y39.1599 
G01 X-53.8157 Y39.2485 
G01 X-53.6302 Y39.3088 
G01 X-53.4375 Y39.3393 
G01 X-53.2425 Y39.3393 
G01 X-53.0498 Y39.3088 
G01 X-52.8643 Y39.2485 
G01 X-52.6905 Y39.1599 
G01 X-52.5327 Y39.0453 
G01 X-52.3947 Y38.9073 
G01 X-52.2801 Y38.7495 
G01 X-52.1915 Y38.5757 
G01 X-52.1312 Y38.3902 
G01 X-52.1007 Y38.1975 
G01 X-52.1007 Y38.0025 
G01 X-52.1312 Y37.8098 
G01 X-52.1915 Y37.6243 
G01 X-52.2801 Y37.4505 
G01 X-52.3947 Y37.2927 
G01 X-52.5327 Y37.1547 
G01 X-52.6905 Y37.0401 
G01 X-52.8643 Y36.9515 
G01 X-53.0498 Y36.8912 
G01 X-53.2425 Y36.8607 
G01 X-53.4375 Y36.8607 
G01 X-53.6302 Y36.8912 
G01 X-53.8157 Y36.9515 
G01 X-53.9895 Y37.0401 
G01 X-54.1473 Y37.1547 
G01 X-54.2853 Y37.2927 
G01 X-54.3999 Y37.4505 
G01 X-54.4885 Y37.6243 
G01 X-54.5488 Y37.8098 
G01 X-54.5793 Y38.0025 
G00 Z2.5400 
G00 X-60.9293 Y40.5425 
G01 Z-0.1778 F2540.00 
G01 X-60.9293 Y40.7375 F3000.00 
G01 X-60.8988 Y40.9302 
G01 X-60.8385 Y41.1157 
G01 X-60.7499 Y41.2895 
G01 X-60.6353 Y41.4473 
G01 X-60.4973 Y41.5853 
G01 X-60.3395 Y41.6999 
G01 X-60.1657 Y41.7885 
G01 X-59.9802 Y41.8488 
G01 X-59.7875 Y41.8793 
G01 X-59.5925 Y41.8793 
G01 X-59.3998 Y41.8488 
G01 X-59.2143 Y41.7885 
G01 X-59.0405 Y41.6999 
G01 X-58.8827 Y41.5853 
G01 X-58.7447 Y41.4473 
G01 X-58.6301 Y41.2895 
G01 X-58.5415 Y41.1157 
G01 X-58.4812 Y40.9302 
G01 X-58.4507 Y40.7375 
G01 X-58.4507 Y40.5425 
G01 X-58.4812 Y40.3498 
G01 X-58.5415 Y40.1643 
G01 X-58.6301 Y39.9905 
G01 X-58.7447 Y39.8327 
G01 X-58.8827 Y39.6947 
G01 X-59.0405 Y39.5801 
G01 X-59.2143 Y39.4915 
G01 X-59.3998 Y39.4312 
G01 X-59.5925 Y39.4007 
G01 X-59.7875 Y39.4007 
G01 X-59.9802 Y39.4312 
G01 X-60.1657 Y39.4915 
G01 X-60.3395 Y39.5801 
G01 X-60.4973 Y39.6947 
G01 X-60.6353 Y39.8327 
G01 X-60.7499 Y39.9905 
G01 X-60.8385 Y40.1643 
G01 X-60.8988 Y40.3498 
G01 X-60.9293 Y40.5425 
G00 Z2.5400 
G00 X-61.8283 Y30.3945 
G01 Z-0.1778 F2540.00 
G01 X-61.8283 Y30.5655 F3000.00 
G01 X-61.7949 Y30.7333 
G01 X-61.7295 Y30.8913 
G01 X-61.6345 Y31.0335 
G01 X-61.5135 Y31.1545 
G01 X-61.3713 Y31.2495 
G01 X-61.2133 Y31.3149 
G01 X-61.0455 Y31.3483 
G01 X-60.8745 Y31.3483 
G01 X-60.7067 Y31.3149 
G01 X-60.5487 Y31.2495 
G01 X-60.4065 Y31.1545 
G01 X-60.2855 Y31.0335 
G01 X-60.1905 Y30.8913 
G01 X-60.1251 Y30.7333 
G01 X-60.0917 Y30.5655 
G01 X-60.0917 Y30.3945 
G01 X-60.1251 Y30.2267 
G01 X-60.1905 Y30.0687 
G01 X-60.2855 Y29.9265 
G01 X-60.4065 Y29.8055 
G01 X-60.5487 Y29.7105 
G01 X-60.7067 Y29.6451 
G01 X-60.8745 Y29.6117 
G01 X-61.0455 Y29.6117 
G01 X-61.2133 Y29.6451 
G01 X-61.3713 Y29.7105 
G01 X-61.5135 Y29.8055 
G01 X-61.6345 Y29.9265 
G01 X-61.7295 Y30.0687 
G01 X-61.7949 Y30.2267 
G01 X-61.8283 Y30.3945 
G00 Z2.5400 
G00 X-35.5293 Y95.1525 
G01 Z-0.1778 F2540.00 
G01 X-35.5293 Y95.3475 F3000.00 
G01 X-35.4988 Y95.5402 
G01 X-35.4385 Y95.7257 
G01 X-35.3499 Y95.8995 
G01 X-35.2353 Y96.0573 
G01 X-35.0973 Y96.1953 
G01 X-34.9395 Y96.3099 
G01 X-34.7657 Y96.3985 
G01 X-34.5802 Y96.4588 
G01 X-34.3875 Y96.4893 
G01 X-34.1925 Y96.4893 
G01 X-33.9998 Y96.4588 
G01 X-33.8143 Y96.3985 
G01 X-33.6405 Y96.3099 
G01 X-33.4826 Y96.1953 
G01 X-33.3447 Y96.0573 
G01 X-33.2301 Y95.8995 
G01 X-33.1415 Y95.7257 
G01 X-33.0812 Y95.5402 
G01 X-33.0507 Y95.3475 
G01 X-33.0507 Y95.1525 
G01 X-33.0812 Y94.9598 
G01 X-33.1415 Y94.7743 
G01 X-33.2301 Y94.6005 
G01 X-33.3447 Y94.4427 
G01 X-33.4826 Y94.3047 
G01 X-33.6405 Y94.1901 
G01 X-33.8143 Y94.1015 
G01 X-33.9998 Y94.0412 
G01 X-34.1925 Y94.0107 
G01 X-34.3875 Y94.0107 
G01 X-34.5802 Y94.0412 
G01 X-34.7657 Y94.1015 
G01 X-34.9395 Y94.1901 
G01 X-35.0973 Y94.3047 
G01 X-35.2353 Y94.4427 
G01 X-35.3499 Y94.6005 
G01 X-35.4385 Y94.7743 
G01 X-35.4988 Y94.9598 
G01 X-35.5293 Y95.1525 
G00 Z2.5400 
G00 X-41.8793 Y97.6925 
G01 Z-0.1778 F2540.00 
G01 X-41.8793 Y97.8875 F3000.00 
G01 X-41.8488 Y98.0802 
G01 X-41.7885 Y98.2657 
G01 X-41.6999 Y98.4395 
G01 X-41.5853 Y98.5973 
G01 X-41.4473 Y98.7353 
G01 X-41.2895 Y98.8499 
G01 X-41.1157 Y98.9385 
G01 X-40.9302 Y98.9988 
G01 X-40.7375 Y99.0293 
G01 X-40.5425 Y99.0293 
G01 X-40.3498 Y98.9988 
G01 X-40.1643 Y98.9385 
G01 X-39.9905 Y98.8499 
G01 X-39.8327 Y98.7353 
G01 X-39.6947 Y98.5973 
G01 X-39.5801 Y98.4395 
G01 X-39.4915 Y98.2657 
G01 X-39.4312 Y98.0802 
G01 X-39.4007 Y97.8875 
G01 X-39.4007 Y97.6925 
G01 X-39.4312 Y97.4998 
G01 X-39.4915 Y97.3143 
G01 X-39.5801 Y97.1405 
G01 X-39.6947 Y96.9827 
G01 X-39.8327 Y96.8447 
G01 X-39.9905 Y96.7301 
G01 X-40.1643 Y96.6415 
G01 X-40.3498 Y96.5812 
G01 X-40.5425 Y96.5507 
G01 X-40.7375 Y96.5507 
G01 X-40.9302 Y96.5812 
G01 X-41.1157 Y96.6415 
G01 X-41.2895 Y96.7301 
G01 X-41.4473 Y96.8447 
G01 X-41.5853 Y96.9827 
G01 X-41.6999 Y97.1405 
G01 X-41.7885 Y97.3143 
G01 X-41.8488 Y97.4998 
G01 X-41.8793 Y97.6925 
G00 Z2.5400 
G00 X-42.7783 Y87.5445 
G01 Z-0.1778 F2540.00 
G01 X-42.7783 Y87.7155 F3000.00 
G01 X-42.7449 Y87.8833 
G01 X-42.7223 Y87.9379 
G01 X-43.5136 Y87.1466 
G01 X-43.6155 Y87.0785 
G01 X-43.7287 Y87.0316 
G01 X-43.8490 Y87.0077 
G01 X-52.7343 Y87.0077 
G01 X-52.7865 Y86.9555 
G01 X-52.9287 Y86.8605 
G01 X-53.0867 Y86.7951 
G01 X-53.2545 Y86.7617 
G01 X-53.4255 Y86.7617 
G01 X-53.5933 Y86.7951 
G01 X-53.7513 Y86.8605 
G01 X-53.8935 Y86.9555 
G01 X-53.9457 Y87.0077 
G01 X-59.0210 Y87.0077 
G01 X-59.1412 Y87.0316 
G01 X-59.2545 Y87.0785 
G01 X-59.3564 Y87.1466 
G01 X-60.1477 Y87.9379 
G01 X-60.1251 Y87.8833 
G01 X-60.0917 Y87.7155 
G01 X-60.0917 Y87.5445 
G01 X-60.1251 Y87.3767 
G01 X-60.1905 Y87.2187 
G01 X-60.2855 Y87.0765 
G01 X-60.4065 Y86.9555 
G01 X-60.5487 Y86.8605 
G01 X-60.7067 Y86.7951 
G01 X-60.8745 Y86.7617 
G01 X-61.0455 Y86.7617 
G01 X-61.2133 Y86.7951 
G01 X-61.3713 Y86.8605 
G01 X-61.5135 Y86.9555 
G01 X-61.6345 Y87.0765 
G01 X-61.7295 Y87.2187 
G01 X-61.7949 Y87.3767 
G01 X-61.8283 Y87.5445 
G01 X-61.8283 Y87.7155 
G01 X-61.7949 Y87.8833 
G01 X-61.7295 Y88.0413 
G01 X-61.6345 Y88.1835 
G01 X-61.5135 Y88.3045 
G01 X-61.3713 Y88.3995 
G01 X-61.2133 Y88.4649 
G01 X-61.0455 Y88.4983 
G01 X-60.8745 Y88.4983 
G01 X-60.7067 Y88.4649 
G01 X-60.6521 Y88.4423 
G01 X-61.2519 Y89.0421 
G01 X-104.5361 Y89.0421 
G01 X-112.9197 Y78.7517 
G01 X-112.9071 Y78.7128 
G01 X-112.8805 Y78.5450 
G01 X-112.8805 Y78.3750 
G01 X-112.9071 Y78.2072 
G01 X-112.9596 Y78.0456 
G01 X-113.0367 Y77.8942 
G01 X-113.1366 Y77.7568 
G01 X-113.2568 Y77.6366 
G01 X-113.3942 Y77.5367 
G01 X-113.5456 Y77.4596 
G01 X-113.7072 Y77.4071 
G01 X-113.8750 Y77.3805 
G01 X-114.0450 Y77.3805 
G01 X-114.2128 Y77.4071 
G01 X-114.3744 Y77.4596 
G01 X-114.5258 Y77.5367 
G01 X-114.6632 Y77.6366 
G01 X-114.7834 Y77.7568 
G01 X-114.8833 Y77.8942 
G01 X-114.9604 Y78.0456 
G01 X-115.0129 Y78.2072 
G01 X-115.0395 Y78.3750 
G01 X-115.0395 Y78.5450 
G01 X-115.0129 Y78.7128 
G01 X-114.9604 Y78.8744 
G01 X-114.8833 Y79.0258 
G01 X-114.7834 Y79.1632 
G01 X-114.6632 Y79.2834 
G01 X-114.5258 Y79.3833 
G01 X-114.3744 Y79.4604 
G01 X-114.2128 Y79.5129 
G01 X-114.0450 Y79.5395 
G01 X-113.8832 Y79.5395 
G01 X-106.1415 Y89.0421 
G01 X-110.9381 Y89.0421 
G01 X-110.9317 Y89.0267 
G01 X-110.9317 Y87.4733 
G01 X-110.9491 Y87.4313 
G01 X-110.9813 Y87.3991 
G01 X-111.0233 Y87.3817 
G01 X-112.5767 Y87.3817 
G01 X-112.6187 Y87.3991 
G01 X-112.6509 Y87.4313 
G01 X-112.6683 Y87.4733 
G01 X-112.6683 Y88.9436 
G01 X-113.8453 Y87.7666 
G01 X-113.9472 Y87.6985 
G01 X-114.0604 Y87.6516 
G01 X-114.1806 Y87.6277 
G01 X-115.9317 Y87.6277 
G01 X-115.9317 Y87.4733 
G01 X-115.9491 Y87.4313 
G01 X-115.9813 Y87.3991 
G01 X-116.0233 Y87.3817 
G01 X-117.5767 Y87.3817 
G01 X-117.6187 Y87.3991 
G01 X-117.6509 Y87.4313 
G01 X-117.6683 Y87.4733 
G01 X-117.6683 Y89.0267 
G01 X-117.6509 Y89.0687 
G01 X-117.6187 Y89.1009 
G01 X-117.5767 Y89.1183 
G01 X-117.2818 Y89.1183 
G01 X-115.0809 Y101.8834 
G01 X-115.1187 Y101.8991 
G01 X-115.1509 Y101.9313 
G01 X-115.1683 Y101.9733 
G01 X-115.1683 Y103.5267 
G01 X-115.1509 Y103.5687 
G01 X-115.1187 Y103.6009 
G01 X-115.0767 Y103.6183 
G01 X-113.5233 Y103.6183 
G01 X-113.4813 Y103.6009 
G01 X-113.4491 Y103.5687 
G01 X-113.4317 Y103.5267 
G01 X-113.4317 Y101.9733 
G01 X-113.4491 Y101.9313 
G01 X-113.4813 Y101.8991 
G01 X-113.5233 Y101.8817 
G01 X-113.8182 Y101.8817 
G01 X-116.0191 Y89.1166 
G01 X-115.9813 Y89.1009 
G01 X-115.9491 Y89.0687 
G01 X-115.9317 Y89.0267 
G01 X-115.9317 Y88.8723 
G01 X-114.4997 Y88.8723 
G01 X-113.3109 Y90.0611 
G01 X-113.2242 Y90.1478 
G01 X-113.1223 Y90.2159 
G01 X-113.0091 Y90.2628 
G01 X-112.8888 Y90.2867 
G01 X-105.1275 Y90.2867 
G01 X-100.7842 Y95.6179 
G01 X-106.9782 Y108.4080 
G01 X-107.0894 Y108.4541 
G01 X-107.2310 Y108.5487 
G01 X-107.3513 Y108.6690 
G01 X-107.4459 Y108.8106 
G01 X-107.5111 Y108.9679 
G01 X-107.5443 Y109.1349 
G01 X-107.5443 Y109.3051 
G01 X-107.5111 Y109.4721 
G01 X-107.4459 Y109.6294 
G01 X-107.3513 Y109.7710 
G01 X-107.2310 Y109.8913 
G01 X-107.0894 Y109.9859 
G01 X-106.9321 Y110.0511 
G01 X-106.7651 Y110.0843 
G01 X-106.5949 Y110.0843 
G01 X-106.4279 Y110.0511 
G01 X-106.2706 Y109.9859 
G01 X-106.1290 Y109.8913 
G01 X-106.0087 Y109.7710 
G01 X-105.9141 Y109.6294 
G01 X-105.8489 Y109.4721 
G01 X-105.8157 Y109.3051 
G01 X-105.8157 Y109.1349 
G01 X-105.8489 Y108.9679 
G01 X-105.8570 Y108.9483 
G01 X-99.9169 Y96.6825 
G01 X-89.7643 Y109.1444 
G01 X-89.7643 Y109.3051 
G01 X-89.7311 Y109.4721 
G01 X-89.6659 Y109.6294 
G01 X-89.5713 Y109.7710 
G01 X-89.4510 Y109.8913 
G01 X-89.3094 Y109.9859 
G01 X-89.1521 Y110.0511 
G01 X-88.9851 Y110.0843 
G01 X-88.8149 Y110.0843 
G01 X-88.6479 Y110.0511 
G01 X-88.4906 Y109.9859 
G01 X-88.3490 Y109.8913 
G01 X-88.2287 Y109.7710 
G01 X-88.1341 Y109.6294 
G01 X-88.0689 Y109.4721 
G01 X-88.0357 Y109.3051 
G01 X-88.0357 Y109.1349 
G01 X-88.0689 Y108.9679 
G01 X-88.1341 Y108.8106 
G01 X-88.2287 Y108.6690 
G01 X-88.3490 Y108.5487 
G01 X-88.4906 Y108.4541 
G01 X-88.6479 Y108.3889 
G01 X-88.7989 Y108.3589 
G01 X-99.3184 Y95.4466 
G01 X-98.4194 Y93.5901 
G01 X-98.3422 Y93.5779 
G01 X-98.1806 Y93.5254 
G01 X-98.0292 Y93.4483 
G01 X-97.8918 Y93.3484 
G01 X-97.7716 Y93.2282 
G01 X-97.6717 Y93.0908 
G01 X-97.5946 Y92.9394 
G01 X-97.5421 Y92.7778 
G01 X-97.5155 Y92.6100 
G01 X-97.5155 Y92.4400 
G01 X-97.5421 Y92.2722 
G01 X-97.5946 Y92.1106 
G01 X-97.6717 Y91.9592 
G01 X-97.7716 Y91.8218 
G01 X-97.8918 Y91.7016 
G01 X-98.0292 Y91.6017 
G01 X-98.1806 Y91.5246 
G01 X-98.3422 Y91.4721 
G01 X-98.5100 Y91.4455 
G01 X-98.6800 Y91.4455 
G01 X-98.8478 Y91.4721 
G01 X-99.0094 Y91.5246 
G01 X-99.1608 Y91.6017 
G01 X-99.2982 Y91.7016 
G01 X-99.4184 Y91.8218 
G01 X-99.5183 Y91.9592 
G01 X-99.5954 Y92.1106 
G01 X-99.6479 Y92.2722 
G01 X-99.6745 Y92.4400 
G01 X-99.6745 Y92.6100 
G01 X-99.6479 Y92.7778 
G01 X-99.5954 Y92.9394 
G01 X-99.5399 Y93.0484 
G01 X-100.1857 Y94.3820 
G01 X-103.5222 Y90.2867 
G01 X-60.9328 Y90.2867 
G01 X-60.8126 Y90.2628 
G01 X-60.6994 Y90.2159 
G01 X-60.5974 Y90.1478 
G01 X-58.7020 Y88.2523 
G01 X-53.9457 Y88.2523 
G01 X-53.8935 Y88.3045 
G01 X-53.7513 Y88.3995 
G01 X-53.5933 Y88.4649 
G01 X-53.4255 Y88.4983 
G01 X-53.2545 Y88.4983 
G01 X-53.0867 Y88.4649 
G01 X-52.9287 Y88.3995 
G01 X-52.7865 Y88.3045 
G01 X-52.7343 Y88.2523 
G01 X-44.1680 Y88.2523 
G01 X-42.8926 Y89.5278 
G01 X-42.7906 Y89.5959 
G01 X-42.6774 Y89.6428 
G01 X-42.5572 Y89.6667 
G01 X-41.2628 Y89.6667 
G01 X-41.1426 Y89.6428 
G01 X-41.0294 Y89.5959 
G01 X-40.9274 Y89.5278 
G01 X-39.6520 Y88.2523 
G01 X-34.8957 Y88.2523 
G01 X-34.8435 Y88.3045 
G01 X-34.7013 Y88.3995 
G01 X-34.5433 Y88.4649 
G01 X-34.3755 Y88.4983 
G01 X-34.2045 Y88.4983 
G01 X-34.0367 Y88.4649 
G01 X-33.8787 Y88.3995 
G01 X-33.7365 Y88.3045 
G01 X-33.6843 Y88.2523 
G01 X-25.1180 Y88.2523 
G01 X-23.8426 Y89.5278 
G01 X-23.7406 Y89.5959 
G01 X-23.6274 Y89.6428 
G01 X-23.5072 Y89.6667 
G01 X-22.2128 Y89.6667 
G01 X-22.0926 Y89.6428 
G01 X-21.9794 Y89.5959 
G01 X-21.8774 Y89.5278 
G01 X-20.6020 Y88.2523 
G01 X-15.8457 Y88.2523 
G01 X-15.7935 Y88.3045 
G01 X-15.6513 Y88.3995 
G01 X-15.4933 Y88.4649 
G01 X-15.3255 Y88.4983 
G01 X-15.1545 Y88.4983 
G01 X-14.9867 Y88.4649 
G01 X-14.8287 Y88.3995 
G01 X-14.6865 Y88.3045 
G01 X-14.5655 Y88.1835 
G01 X-14.4705 Y88.0413 
G01 X-14.4051 Y87.8833 
G01 X-14.3717 Y87.7155 
G01 X-14.3717 Y87.5445 
G01 X-14.4051 Y87.3767 
G01 X-14.4705 Y87.2187 
G01 X-14.5655 Y87.0765 
G01 X-14.6865 Y86.9555 
G01 X-14.8287 Y86.8605 
G01 X-14.9867 Y86.7951 
G01 X-15.1545 Y86.7617 
G01 X-15.3255 Y86.7617 
G01 X-15.4933 Y86.7951 
G01 X-15.6513 Y86.8605 
G01 X-15.7935 Y86.9555 
G01 X-15.8457 Y87.0077 
G01 X-20.9210 Y87.0077 
G01 X-21.0413 Y87.0316 
G01 X-21.1545 Y87.0785 
G01 X-21.2564 Y87.1466 
G01 X-22.0477 Y87.9379 
G01 X-22.0251 Y87.8833 
G01 X-21.9917 Y87.7155 
G01 X-21.9917 Y87.5445 
G01 X-22.0251 Y87.3767 
G01 X-22.0905 Y87.2187 
G01 X-22.1855 Y87.0765 
G01 X-22.3065 Y86.9555 
G01 X-22.4487 Y86.8605 
G01 X-22.6067 Y86.7951 
G01 X-22.7745 Y86.7617 
G01 X-22.9455 Y86.7617 
G01 X-23.1133 Y86.7951 
G01 X-23.2713 Y86.8605 
G01 X-23.4135 Y86.9555 
G01 X-23.5344 Y87.0765 
G01 X-23.6295 Y87.2187 
G01 X-23.6949 Y87.3767 
G01 X-23.7283 Y87.5445 
G01 X-23.7283 Y87.7155 
G01 X-23.6949 Y87.8833 
G01 X-23.6723 Y87.9379 
G01 X-24.4636 Y87.1466 
G01 X-24.5655 Y87.0785 
G01 X-24.6787 Y87.0316 
G01 X-24.7990 Y87.0077 
G01 X-33.6843 Y87.0077 
G01 X-33.7365 Y86.9555 
G01 X-33.8787 Y86.8605 
G01 X-34.0367 Y86.7951 
G01 X-34.2045 Y86.7617 
G01 X-34.3755 Y86.7617 
G01 X-34.5433 Y86.7951 
G01 X-34.7013 Y86.8605 
G01 X-34.8435 Y86.9555 
G01 X-34.8957 Y87.0077 
G01 X-39.9710 Y87.0077 
G01 X-40.0913 Y87.0316 
G01 X-40.2045 Y87.0785 
G01 X-40.3064 Y87.1466 
G01 X-41.0977 Y87.9379 
G01 X-41.0751 Y87.8833 
G01 X-41.0417 Y87.7155 
G01 X-41.0417 Y87.5445 
G01 X-41.0751 Y87.3767 
G01 X-41.1405 Y87.2187 
G01 X-41.2355 Y87.0765 
G01 X-41.3565 Y86.9555 
G01 X-41.4987 Y86.8605 
G01 X-41.6567 Y86.7951 
G01 X-41.8245 Y86.7617 
G01 X-41.9955 Y86.7617 
G01 X-42.1633 Y86.7951 
G01 X-42.3213 Y86.8605 
G01 X-42.4635 Y86.9555 
G01 X-42.5845 Y87.0765 
G01 X-42.6795 Y87.2187 
G01 X-42.7449 Y87.3767 
G01 X-42.7783 Y87.5445 
G00 Z2.5400 
G00 X-54.5793 Y95.1525 
G01 Z-0.1778 F2540.00 
G01 X-54.5793 Y95.3475 F3000.00 
G01 X-54.5488 Y95.5402 
G01 X-54.4885 Y95.7257 
G01 X-54.3999 Y95.8995 
G01 X-54.2853 Y96.0573 
G01 X-54.1473 Y96.1953 
G01 X-53.9895 Y96.3099 
G01 X-53.8157 Y96.3985 
G01 X-53.6302 Y96.4588 
G01 X-53.4375 Y96.4893 
G01 X-53.2425 Y96.4893 
G01 X-53.0498 Y96.4588 
G01 X-52.8643 Y96.3985 
G01 X-52.6905 Y96.3099 
G01 X-52.5327 Y96.1953 
G01 X-52.3947 Y96.0573 
G01 X-52.2801 Y95.8995 
G01 X-52.1915 Y95.7257 
G01 X-52.1312 Y95.5402 
G01 X-52.1007 Y95.3475 
G01 X-52.1007 Y95.1525 
G01 X-52.1312 Y94.9598 
G01 X-52.1915 Y94.7743 
G01 X-52.2801 Y94.6005 
G01 X-52.3947 Y94.4427 
G01 X-52.5327 Y94.3047 
G01 X-52.6905 Y94.1901 
G01 X-52.8643 Y94.1015 
G01 X-53.0498 Y94.0412 
G01 X-53.2425 Y94.0107 
G01 X-53.4375 Y94.0107 
G01 X-53.6302 Y94.0412 
G01 X-53.8157 Y94.1015 
G01 X-53.9895 Y94.1901 
G01 X-54.1473 Y94.3047 
G01 X-54.2853 Y94.4427 
G01 X-54.3999 Y94.6005 
G01 X-54.4885 Y94.7743 
G01 X-54.5488 Y94.9598 
G01 X-54.5793 Y95.1525 
G00 Z2.5400 
G00 X-60.9293 Y97.6925 
G01 Z-0.1778 F2540.00 
G01 X-60.9293 Y97.8875 F3000.00 
G01 X-60.8988 Y98.0802 
G01 X-60.8385 Y98.2657 
G01 X-60.7499 Y98.4395 
G01 X-60.6353 Y98.5973 
G01 X-60.4973 Y98.7353 
G01 X-60.3395 Y98.8499 
G01 X-60.1657 Y98.9385 
G01 X-59.9802 Y98.9988 
G01 X-59.7875 Y99.0293 
G01 X-59.5925 Y99.0293 
G01 X-59.3998 Y98.9988 
G01 X-59.2143 Y98.9385 
G01 X-59.0405 Y98.8499 
G01 X-58.8827 Y98.7353 
G01 X-58.7447 Y98.5973 
G01 X-58.6301 Y98.4395 
G01 X-58.5415 Y98.2657 
G01 X-58.4812 Y98.0802 
G01 X-58.4507 Y97.8875 
G01 X-58.4507 Y97.6925 
G01 X-58.4812 Y97.4998 
G01 X-58.5415 Y97.3143 
G01 X-58.6301 Y97.1405 
G01 X-58.7447 Y96.9827 
G01 X-58.8827 Y96.8447 
G01 X-59.0405 Y96.7301 
G01 X-59.2143 Y96.6415 
G01 X-59.3998 Y96.5812 
G01 X-59.5925 Y96.5507 
G01 X-59.7875 Y96.5507 
G01 X-59.9802 Y96.5812 
G01 X-60.1657 Y96.6415 
G01 X-60.3395 Y96.7301 
G01 X-60.4973 Y96.8447 
G01 X-60.6353 Y96.9827 
G01 X-60.7499 Y97.1405 
G01 X-60.8385 Y97.3143 
G01 X-60.8988 Y97.4998 
G01 X-60.9293 Y97.6925 
G00 Z2.5400 
G00 X-115.9317 Y103.5267 
G01 Z-0.1778 F2540.00 
G01 X-115.9317 Y101.9733 F3000.00 
G01 X-115.9491 Y101.9313 
G01 X-115.9813 Y101.8991 
G01 X-116.0233 Y101.8817 
G01 X-117.5767 Y101.8817 
G01 X-117.6187 Y101.8991 
G01 X-117.6509 Y101.9313 
G01 X-117.6683 Y101.9733 
G01 X-117.6683 Y103.5267 
G01 X-117.6509 Y103.5687 
G01 X-117.6187 Y103.6009 
G01 X-117.5767 Y103.6183 
G01 X-116.0233 Y103.6183 
G01 X-115.9813 Y103.6009 
G01 X-115.9491 Y103.5687 
G01 X-115.9317 Y103.5267 
G00 Z2.5400 
G00 X-110.9317 Y103.5267 
G01 Z-0.1778 F2540.00 
G01 X-110.9317 Y101.9733 F3000.00 
G01 X-110.9491 Y101.9313 
G01 X-110.9813 Y101.8991 
G01 X-111.0233 Y101.8817 
G01 X-112.5767 Y101.8817 
G01 X-112.6187 Y101.8991 
G01 X-112.6509 Y101.9313 
G01 X-112.6683 Y101.9733 
G01 X-112.6683 Y103.5267 
G01 X-112.6509 Y103.5687 
G01 X-112.6187 Y103.6009 
G01 X-112.5767 Y103.6183 
G01 X-111.0233 Y103.6183 
G01 X-110.9813 Y103.6009 
G01 X-110.9491 Y103.5687 
G01 X-110.9317 Y103.5267 
G00 Z2.5400 
G00 X-118.6777 Y96.8807 
G01 Z-0.1778 F2540.00 
G01 X-118.6777 Y93.6193 F3000.00 
G01 X-118.6951 Y93.5773 
G01 X-118.7273 Y93.5451 
G01 X-118.7693 Y93.5277 
G01 X-122.0307 Y93.5277 
G01 X-122.0727 Y93.5451 
G01 X-122.1049 Y93.5773 
G01 X-122.1223 Y93.6193 
G01 X-122.1223 Y96.8807 
G01 X-122.1049 Y96.9227 
G01 X-122.0727 Y96.9549 
G01 X-122.0307 Y96.9723 
G01 X-118.7693 Y96.9723 
G01 X-118.7273 Y96.9549 
G01 X-118.6951 Y96.9227 
G01 X-118.6777 Y96.8807 
G00 Z2.5400 
G00 X-106.4777 Y96.8807 
G01 Z-0.1778 F2540.00 
G01 X-106.4777 Y93.6193 F3000.00 
G01 X-106.4951 Y93.5773 
G01 X-106.5273 Y93.5451 
G01 X-106.5693 Y93.5277 
G01 X-109.8307 Y93.5277 
G01 X-109.8727 Y93.5451 
G01 X-109.9049 Y93.5773 
G01 X-109.9223 Y93.6193 
G01 X-109.9223 Y96.8807 
G01 X-109.9049 Y96.9227 
G01 X-109.8727 Y96.9549 
G01 X-109.8307 Y96.9723 
G01 X-106.5693 Y96.9723 
G01 X-106.5273 Y96.9549 
G01 X-106.4951 Y96.9227 
G01 X-106.4777 Y96.8807 
G00 Z2.5400 
G00 X-86.9733 Y77.8317 
G01 Z-0.1778 F2540.00 
G01 X-88.5267 Y77.8317 F3000.00 
G01 X-88.5687 Y77.8491 
G01 X-88.6009 Y77.8813 
G01 X-88.6183 Y77.9233 
G01 X-88.6183 Y79.4767 
G01 X-88.6009 Y79.5187 
G01 X-88.5687 Y79.5509 
G01 X-88.5267 Y79.5683 
G01 X-86.9733 Y79.5683 
G01 X-86.9313 Y79.5509 
G01 X-86.8991 Y79.5187 
G01 X-86.8817 Y79.4767 
G01 X-86.8817 Y77.9233 
G01 X-86.8991 Y77.8813 
G01 X-86.9313 Y77.8491 
G01 X-86.9733 Y77.8317 
G00 Z2.5400 
G00 X-86.9733 Y72.8317 
G01 Z-0.1778 F2540.00 
G01 X-88.5267 Y72.8317 F3000.00 
G01 X-88.5687 Y72.8491 
G01 X-88.6009 Y72.8813 
G01 X-88.6183 Y72.9233 
G01 X-88.6183 Y74.4767 
G01 X-88.6009 Y74.5187 
G01 X-88.5687 Y74.5509 
G01 X-88.5267 Y74.5683 
G01 X-86.9733 Y74.5683 
G01 X-86.9313 Y74.5509 
G01 X-86.8991 Y74.5187 
G01 X-86.8817 Y74.4767 
G01 X-86.8817 Y72.9233 
G01 X-86.8991 Y72.8813 
G01 X-86.9313 Y72.8491 
G01 X-86.9733 Y72.8317 
G00 Z2.5400 
G00 X-101.4733 Y77.8317 
G01 Z-0.1778 F2540.00 
G01 X-103.0267 Y77.8317 F3000.00 
G01 X-103.0687 Y77.8491 
G01 X-103.1009 Y77.8813 
G01 X-103.1183 Y77.9233 
G01 X-103.1183 Y79.4767 
G01 X-103.1009 Y79.5187 
G01 X-103.0687 Y79.5509 
G01 X-103.0267 Y79.5683 
G01 X-101.4733 Y79.5683 
G01 X-101.4313 Y79.5509 
G01 X-101.3991 Y79.5187 
G01 X-101.3817 Y79.4767 
G01 X-101.3817 Y79.3326 
G01 X-88.6125 Y76.9908 
G01 X-88.6009 Y77.0187 
G01 X-88.5687 Y77.0509 
G01 X-88.5267 Y77.0683 
G01 X-86.9733 Y77.0683 
G01 X-86.9313 Y77.0509 
G01 X-86.8991 Y77.0187 
G01 X-86.8817 Y76.9767 
G01 X-86.8817 Y76.6451 
G01 X-53.7974 Y69.3187 
G01 X-53.7513 Y69.3495 
G01 X-53.5933 Y69.4149 
G01 X-53.4255 Y69.4483 
G01 X-53.2545 Y69.4483 
G01 X-53.0867 Y69.4149 
G01 X-52.9287 Y69.3495 
G01 X-52.7865 Y69.2545 
G01 X-52.7343 Y69.2023 
G01 X-44.1680 Y69.2023 
G01 X-42.8926 Y70.4778 
G01 X-42.7906 Y70.5459 
G01 X-42.6774 Y70.5928 
G01 X-42.5572 Y70.6167 
G01 X-41.2628 Y70.6167 
G01 X-41.1426 Y70.5928 
G01 X-41.0294 Y70.5459 
G01 X-40.9274 Y70.4778 
G01 X-39.6520 Y69.2023 
G01 X-34.8957 Y69.2023 
G01 X-34.8435 Y69.2545 
G01 X-34.7013 Y69.3495 
G01 X-34.5433 Y69.4149 
G01 X-34.3755 Y69.4483 
G01 X-34.2045 Y69.4483 
G01 X-34.0367 Y69.4149 
G01 X-33.8787 Y69.3495 
G01 X-33.7365 Y69.2545 
G01 X-33.6843 Y69.2023 
G01 X-25.1180 Y69.2023 
G01 X-23.9292 Y70.3911 
G01 X-23.8426 Y70.4778 
G01 X-23.7406 Y70.5459 
G01 X-23.6274 Y70.5928 
G01 X-23.5072 Y70.6167 
G01 X-22.2128 Y70.6167 
G01 X-22.0926 Y70.5928 
G01 X-21.9794 Y70.5459 
G01 X-21.8774 Y70.4778 
G01 X-21.7908 Y70.3911 
G01 X-20.6020 Y69.2023 
G01 X-15.8457 Y69.2023 
G01 X-15.7935 Y69.2545 
G01 X-15.6513 Y69.3495 
G01 X-15.4933 Y69.4149 
G01 X-15.3255 Y69.4483 
G01 X-15.1545 Y69.4483 
G01 X-14.9867 Y69.4149 
G01 X-14.8287 Y69.3495 
G01 X-14.6865 Y69.2545 
G01 X-14.5655 Y69.1335 
G01 X-14.4705 Y68.9913 
G01 X-14.4051 Y68.8333 
G01 X-14.3717 Y68.6655 
G01 X-14.3717 Y68.4945 
G01 X-14.4051 Y68.3267 
G01 X-14.4705 Y68.1687 
G01 X-14.5655 Y68.0265 
G01 X-14.6865 Y67.9055 
G01 X-14.8287 Y67.8105 
G01 X-14.9867 Y67.7451 
G01 X-15.1545 Y67.7117 
G01 X-15.3255 Y67.7117 
G01 X-15.4933 Y67.7451 
G01 X-15.6513 Y67.8105 
G01 X-15.7935 Y67.9055 
G01 X-15.8457 Y67.9577 
G01 X-20.9210 Y67.9577 
G01 X-21.0413 Y67.9816 
G01 X-21.1545 Y68.0285 
G01 X-21.2564 Y68.0966 
G01 X-21.3431 Y68.1833 
G01 X-22.0477 Y68.8879 
G01 X-22.0251 Y68.8333 
G01 X-21.9917 Y68.6655 
G01 X-21.9917 Y68.4945 
G01 X-22.0251 Y68.3267 
G01 X-22.0905 Y68.1687 
G01 X-22.1855 Y68.0265 
G01 X-22.3065 Y67.9055 
G01 X-22.4487 Y67.8105 
G01 X-22.6067 Y67.7451 
G01 X-22.7745 Y67.7117 
G01 X-22.9455 Y67.7117 
G01 X-23.1133 Y67.7451 
G01 X-23.2713 Y67.8105 
G01 X-23.4135 Y67.9055 
G01 X-23.5344 Y68.0265 
G01 X-23.6295 Y68.1687 
G01 X-23.6949 Y68.3267 
G01 X-23.7283 Y68.4945 
G01 X-23.7283 Y68.6655 
G01 X-23.6949 Y68.8333 
G01 X-23.6723 Y68.8879 
G01 X-24.3769 Y68.1833 
G01 X-24.4636 Y68.0966 
G01 X-24.5655 Y68.0285 
G01 X-24.6787 Y67.9816 
G01 X-24.7990 Y67.9577 
G01 X-33.6843 Y67.9577 
G01 X-33.7365 Y67.9055 
G01 X-33.8787 Y67.8105 
G01 X-34.0367 Y67.7451 
G01 X-34.2045 Y67.7117 
G01 X-34.3755 Y67.7117 
G01 X-34.5433 Y67.7451 
G01 X-34.7013 Y67.8105 
G01 X-34.8435 Y67.9055 
G01 X-34.8957 Y67.9577 
G01 X-39.9710 Y67.9577 
G01 X-40.0913 Y67.9816 
G01 X-40.2045 Y68.0285 
G01 X-40.3064 Y68.0966 
G01 X-41.0977 Y68.8879 
G01 X-41.0751 Y68.8333 
G01 X-41.0417 Y68.6655 
G01 X-41.0417 Y68.4945 
G01 X-41.0751 Y68.3267 
G01 X-41.1405 Y68.1687 
G01 X-41.2355 Y68.0265 
G01 X-41.3565 Y67.9055 
G01 X-41.4987 Y67.8105 
G01 X-41.6567 Y67.7451 
G01 X-41.8245 Y67.7117 
G01 X-41.9955 Y67.7117 
G01 X-42.1633 Y67.7451 
G01 X-42.3213 Y67.8105 
G01 X-42.4635 Y67.9055 
G01 X-42.5845 Y68.0265 
G01 X-42.6795 Y68.1687 
G01 X-42.7449 Y68.3267 
G01 X-42.7783 Y68.4945 
G01 X-42.7783 Y68.6655 
G01 X-42.7449 Y68.8333 
G01 X-42.7223 Y68.8879 
G01 X-43.5136 Y68.0966 
G01 X-43.6155 Y68.0285 
G01 X-43.7287 Y67.9816 
G01 X-43.8490 Y67.9577 
G01 X-52.7343 Y67.9577 
G01 X-52.7865 Y67.9055 
G01 X-52.9287 Y67.8105 
G01 X-53.0867 Y67.7451 
G01 X-53.2545 Y67.7117 
G01 X-53.4255 Y67.7117 
G01 X-53.5933 Y67.7451 
G01 X-53.7513 Y67.8105 
G01 X-53.8935 Y67.9055 
G01 X-54.0145 Y68.0265 
G01 X-54.0658 Y68.1034 
G01 X-86.9049 Y75.3755 
G01 X-86.9313 Y75.3491 
G01 X-86.9733 Y75.3317 
G01 X-88.5267 Y75.3317 
G01 X-88.5687 Y75.3491 
G01 X-88.6009 Y75.3813 
G01 X-88.6183 Y75.4233 
G01 X-88.6183 Y75.7266 
G01 X-101.3817 Y78.0673 
G01 X-101.3817 Y77.9233 
G01 X-101.3991 Y77.8813 
G01 X-101.4313 Y77.8491 
G01 X-101.4733 Y77.8317 
G00 Z2.5400 
G00 X-101.4733 Y72.8317 
G01 Z-0.1778 F2540.00 
G01 X-103.0267 Y72.8317 F3000.00 
G01 X-103.0687 Y72.8491 
G01 X-103.1009 Y72.8813 
G01 X-103.1183 Y72.9233 
G01 X-103.1183 Y74.4767 
G01 X-103.1009 Y74.5187 
G01 X-103.0687 Y74.5509 
G01 X-103.0267 Y74.5683 
G01 X-101.4733 Y74.5683 
G01 X-101.4313 Y74.5509 
G01 X-101.3991 Y74.5187 
G01 X-101.3817 Y74.4767 
G01 X-101.3817 Y72.9233 
G01 X-101.3991 Y72.8813 
G01 X-101.4313 Y72.8491 
G01 X-101.4733 Y72.8317 
G00 Z2.5400 
G00 X-93.6193 Y80.5777 
G01 Z-0.1778 F2540.00 
G01 X-96.8807 Y80.5777 F3000.00 
G01 X-96.9227 Y80.5951 
G01 X-96.9549 Y80.6273 
G01 X-96.9723 Y80.6693 
G01 X-96.9723 Y83.9307 
G01 X-96.9549 Y83.9727 
G01 X-96.9227 Y84.0049 
G01 X-96.8807 Y84.0223 
G01 X-93.6193 Y84.0223 
G01 X-93.5773 Y84.0049 
G01 X-93.5451 Y83.9727 
G01 X-93.5277 Y83.9307 
G01 X-93.5277 Y80.6693 
G01 X-93.5451 Y80.6273 
G01 X-93.5773 Y80.5951 
G01 X-93.6193 Y80.5777 
G00 Z2.5400 
G00 X-93.6193 Y68.3777 
G01 Z-0.1778 F2540.00 
G01 X-96.8807 Y68.3777 F3000.00 
G01 X-96.9227 Y68.3951 
G01 X-96.9549 Y68.4273 
G01 X-96.9723 Y68.4693 
G01 X-96.9723 Y71.7307 
G01 X-96.9549 Y71.7727 
G01 X-96.9227 Y71.8049 
G01 X-96.8807 Y71.8223 
G01 X-93.6193 Y71.8223 
G01 X-93.5773 Y71.8049 
G01 X-93.5451 Y71.7727 
G01 X-93.5277 Y71.7307 
G01 X-93.5277 Y68.4693 
G01 X-93.5451 Y68.4273 
G01 X-93.5773 Y68.3951 
G01 X-93.6193 Y68.3777 
G00 Z2.5400 
G00 X-141.6267 Y74.5683 
G01 Z-0.1778 F2540.00 
G01 X-140.0733 Y74.5683 F3000.00 
G01 X-140.0313 Y74.5509 
G01 X-139.9991 Y74.5187 
G01 X-139.9817 Y74.4767 
G01 X-139.9817 Y72.9233 
G01 X-139.9991 Y72.8813 
G01 X-140.0313 Y72.8491 
G01 X-140.0733 Y72.8317 
G01 X-141.6267 Y72.8317 
G01 X-141.6687 Y72.8491 
G01 X-141.7009 Y72.8813 
G01 X-141.7183 Y72.9233 
G01 X-141.7183 Y74.4767 
G01 X-141.7009 Y74.5187 
G01 X-141.6687 Y74.5509 
G01 X-141.6267 Y74.5683 
G00 Z2.5400 
G00 X-141.6267 Y79.5683 
G01 Z-0.1778 F2540.00 
G01 X-140.0733 Y79.5683 F3000.00 
G01 X-140.0313 Y79.5509 
G01 X-139.9991 Y79.5187 
G01 X-139.9817 Y79.4767 
G01 X-139.9817 Y77.9233 
G01 X-139.9991 Y77.8813 
G01 X-140.0313 Y77.8491 
G01 X-140.0733 Y77.8317 
G01 X-141.6267 Y77.8317 
G01 X-141.6687 Y77.8491 
G01 X-141.7009 Y77.8813 
G01 X-141.7183 Y77.9233 
G01 X-141.7183 Y79.4767 
G01 X-141.7009 Y79.5187 
G01 X-141.6687 Y79.5509 
G01 X-141.6267 Y79.5683 
G00 Z2.5400 
G00 X-127.1267 Y79.5683 
G01 Z-0.1778 F2540.00 
G01 X-125.5733 Y79.5683 F3000.00 
G01 X-125.5313 Y79.5509 
G01 X-125.4991 Y79.5187 
G01 X-125.4817 Y79.4767 
G01 X-125.4817 Y77.9233 
G01 X-125.4991 Y77.8813 
G01 X-125.5313 Y77.8491 
G01 X-125.5733 Y77.8317 
G01 X-127.1267 Y77.8317 
G01 X-127.1687 Y77.8491 
G01 X-127.2009 Y77.8813 
G01 X-127.2183 Y77.9233 
G01 X-127.2183 Y79.4767 
G01 X-127.2009 Y79.5187 
G01 X-127.1687 Y79.5509 
G01 X-127.1267 Y79.5683 
G00 Z2.5400 
G00 X-134.9807 Y71.8223 
G01 Z-0.1778 F2540.00 
G01 X-131.7193 Y71.8223 F3000.00 
G01 X-131.6773 Y71.8049 
G01 X-131.6451 Y71.7727 
G01 X-131.6277 Y71.7307 
G01 X-131.6277 Y68.4693 
G01 X-131.6451 Y68.4273 
G01 X-131.6773 Y68.3951 
G01 X-131.7193 Y68.3777 
G01 X-134.9807 Y68.3777 
G01 X-135.0227 Y68.3951 
G01 X-135.0549 Y68.4273 
G01 X-135.0723 Y68.4693 
G01 X-135.0723 Y71.7307 
G01 X-135.0549 Y71.7727 
G01 X-135.0227 Y71.8049 
G01 X-134.9807 Y71.8223 
G00 Z2.5400 
G00 X-134.9807 Y84.0223 
G01 Z-0.1778 F2540.00 
G01 X-131.7193 Y84.0223 F3000.00 
G01 X-131.6773 Y84.0049 
G01 X-131.6451 Y83.9727 
G01 X-131.6277 Y83.9307 
G01 X-131.6277 Y80.6693 
G01 X-131.6451 Y80.6273 
G01 X-131.6773 Y80.5951 
G01 X-131.7193 Y80.5777 
G01 X-134.9807 Y80.5777 
G01 X-135.0227 Y80.5951 
G01 X-135.0549 Y80.6273 
G01 X-135.0723 Y80.6693 
G01 X-135.0723 Y83.9307 
G01 X-135.0549 Y83.9727 
G01 X-135.0227 Y84.0049 
G01 X-134.9807 Y84.0223 
G00 Z2.5400 
G00 X-112.6683 Y50.4267 
G01 Z-0.1778 F2540.00 
G01 X-112.6509 Y50.4687 F3000.00 
G01 X-112.6187 Y50.5009 
G01 X-112.5767 Y50.5183 
G01 X-111.0233 Y50.5183 
G01 X-110.9813 Y50.5009 
G01 X-110.9491 Y50.4687 
G01 X-110.9317 Y50.4267 
G01 X-110.9317 Y48.9546 
G01 X-110.9089 Y48.9699 
G01 X-110.8825 Y48.9911 
G01 X-110.8580 Y49.0039 
G01 X-110.8351 Y49.0192 
G01 X-110.8038 Y49.0321 
G01 X-110.7738 Y49.0478 
G01 X-110.7473 Y49.0556 
G01 X-110.7219 Y49.0661 
G01 X-110.6886 Y49.0727 
G01 X-110.6561 Y49.0822 
G01 X-110.6287 Y49.0846 
G01 X-110.6016 Y49.0900 
G01 X-110.5677 Y49.0900 
G01 X-110.5340 Y49.0930 
G01 X-110.5066 Y49.0900 
G01 X-110.4791 Y49.0900 
G01 X-110.4458 Y49.0834 
G01 X-110.4121 Y49.0797 
G01 X-110.3859 Y49.0715 
G01 X-110.3588 Y49.0661 
G01 X-110.3275 Y49.0531 
G01 X-58.6027 Y32.7873 
G01 X-58.5757 Y32.7819 
G01 X-58.5444 Y32.7690 
G01 X-58.5121 Y32.7588 
G01 X-58.4879 Y32.7456 
G01 X-58.4625 Y32.7350 
G01 X-58.4343 Y32.7162 
G01 X-58.4046 Y32.6999 
G01 X-58.3835 Y32.6822 
G01 X-58.3606 Y32.6669 
G01 X-58.3519 Y32.6583 
G01 X-54.8347 Y32.6583 
G01 X-54.7145 Y32.6344 
G01 X-54.6012 Y32.5875 
G01 X-54.4993 Y32.5194 
G01 X-53.3282 Y31.3483 
G01 X-53.2545 Y31.3483 
G01 X-53.0867 Y31.3149 
G01 X-52.9287 Y31.2495 
G01 X-52.7865 Y31.1545 
G01 X-52.7343 Y31.1023 
G01 X-44.1680 Y31.1023 
G01 X-42.9792 Y32.2911 
G01 X-42.8926 Y32.3778 
G01 X-42.7906 Y32.4459 
G01 X-42.6774 Y32.4928 
G01 X-42.5572 Y32.5167 
G01 X-41.2628 Y32.5167 
G01 X-41.1426 Y32.4928 
G01 X-41.0294 Y32.4459 
G01 X-40.9274 Y32.3778 
G01 X-39.6520 Y31.1023 
G01 X-34.8957 Y31.1023 
G01 X-34.8435 Y31.1545 
G01 X-34.7013 Y31.2495 
G01 X-34.5433 Y31.3149 
G01 X-34.3755 Y31.3483 
G01 X-34.2045 Y31.3483 
G01 X-34.0367 Y31.3149 
G01 X-33.8787 Y31.2495 
G01 X-33.7365 Y31.1545 
G01 X-33.6843 Y31.1023 
G01 X-25.1180 Y31.1023 
G01 X-23.8426 Y32.3778 
G01 X-23.7406 Y32.4459 
G01 X-23.6274 Y32.4928 
G01 X-23.5072 Y32.5167 
G01 X-22.2128 Y32.5167 
G01 X-22.0926 Y32.4928 
G01 X-21.9794 Y32.4459 
G01 X-21.8774 Y32.3778 
G01 X-20.6020 Y31.1023 
G01 X-15.8457 Y31.1023 
G01 X-15.7935 Y31.1545 
G01 X-15.6513 Y31.2495 
G01 X-15.4933 Y31.3149 
G01 X-15.3255 Y31.3483 
G01 X-15.1545 Y31.3483 
G01 X-14.9867 Y31.3149 
G01 X-14.8287 Y31.2495 
G01 X-14.6865 Y31.1545 
G01 X-14.5655 Y31.0335 
G01 X-14.4705 Y30.8913 
G01 X-14.4051 Y30.7333 
G01 X-14.3717 Y30.5655 
G01 X-14.3717 Y30.3945 
G01 X-14.4051 Y30.2267 
G01 X-14.4705 Y30.0687 
G01 X-14.5655 Y29.9265 
G01 X-14.6865 Y29.8055 
G01 X-14.8287 Y29.7105 
G01 X-14.9867 Y29.6451 
G01 X-15.1545 Y29.6117 
G01 X-15.3255 Y29.6117 
G01 X-15.4933 Y29.6451 
G01 X-15.6513 Y29.7105 
G01 X-15.7935 Y29.8055 
G01 X-15.8457 Y29.8577 
G01 X-20.9210 Y29.8577 
G01 X-21.0413 Y29.8816 
G01 X-21.1545 Y29.9285 
G01 X-21.2564 Y29.9966 
G01 X-22.0477 Y30.7879 
G01 X-22.0251 Y30.7333 
G01 X-21.9917 Y30.5655 
G01 X-21.9917 Y30.3945 
G01 X-22.0251 Y30.2267 
G01 X-22.0905 Y30.0687 
G01 X-22.1855 Y29.9265 
G01 X-22.3065 Y29.8055 
G01 X-22.4487 Y29.7105 
G01 X-22.6067 Y29.6451 
G01 X-22.7745 Y29.6117 
G01 X-22.9455 Y29.6117 
G01 X-23.1133 Y29.6451 
G01 X-23.2713 Y29.7105 
G01 X-23.4135 Y29.8055 
G01 X-23.5344 Y29.9265 
G01 X-23.6295 Y30.0687 
G01 X-23.6949 Y30.2267 
G01 X-23.7283 Y30.3945 
G01 X-23.7283 Y30.5655 
G01 X-23.6949 Y30.7333 
G01 X-23.6723 Y30.7879 
G01 X-24.4636 Y29.9966 
G01 X-24.5655 Y29.9285 
G01 X-24.6787 Y29.8816 
G01 X-24.7990 Y29.8577 
G01 X-33.6843 Y29.8577 
G01 X-33.7365 Y29.8055 
G01 X-33.8787 Y29.7105 
G01 X-34.0367 Y29.6451 
G01 X-34.2045 Y29.6117 
G01 X-34.3755 Y29.6117 
G01 X-34.5433 Y29.6451 
G01 X-34.7013 Y29.7105 
G01 X-34.8435 Y29.8055 
G01 X-34.8957 Y29.8577 
G01 X-39.9710 Y29.8577 
G01 X-40.0913 Y29.8816 
G01 X-40.2045 Y29.9285 
G01 X-40.3064 Y29.9966 
G01 X-41.0977 Y30.7879 
G01 X-41.0751 Y30.7333 
G01 X-41.0417 Y30.5655 
G01 X-41.0417 Y30.3945 
G01 X-41.0751 Y30.2267 
G01 X-41.1405 Y30.0687 
G01 X-41.2355 Y29.9265 
G01 X-41.3565 Y29.8055 
G01 X-41.4987 Y29.7105 
G01 X-41.6567 Y29.6451 
G01 X-41.8245 Y29.6117 
G01 X-41.9955 Y29.6117 
G01 X-42.1633 Y29.6451 
G01 X-42.3213 Y29.7105 
G01 X-42.4635 Y29.8055 
G01 X-42.5845 Y29.9265 
G01 X-42.6795 Y30.0687 
G01 X-42.7449 Y30.2267 
G01 X-42.7783 Y30.3945 
G01 X-42.7783 Y30.5655 
G01 X-42.7449 Y30.7333 
G01 X-42.7223 Y30.7879 
G01 X-43.4269 Y30.0833 
G01 X-43.5136 Y29.9966 
G01 X-43.6155 Y29.9285 
G01 X-43.7287 Y29.8816 
G01 X-43.8490 Y29.8577 
G01 X-52.7343 Y29.8577 
G01 X-52.7865 Y29.8055 
G01 X-52.9287 Y29.7105 
G01 X-53.0867 Y29.6451 
G01 X-53.2545 Y29.6117 
G01 X-53.4255 Y29.6117 
G01 X-53.5933 Y29.6451 
G01 X-53.7513 Y29.7105 
G01 X-53.8935 Y29.8055 
G01 X-54.0145 Y29.9265 
G01 X-54.1095 Y30.0687 
G01 X-54.1749 Y30.2267 
G01 X-54.2083 Y30.3945 
G01 X-54.2083 Y30.4682 
G01 X-55.1538 Y31.4137 
G01 X-58.6710 Y31.4137 
G01 X-58.7912 Y31.4376 
G01 X-58.9045 Y31.4845 
G01 X-59.0064 Y31.5526 
G01 X-59.0894 Y31.6357 
G01 X-110.3671 Y47.7609 
G01 X-110.3758 Y47.7522 
G01 X-110.4777 Y47.6841 
G01 X-110.5909 Y47.6372 
G01 X-110.7112 Y47.6133 
G01 X-112.8888 Y47.6133 
G01 X-113.0091 Y47.6372 
G01 X-113.1223 Y47.6841 
G01 X-113.2242 Y47.7522 
G01 X-114.2537 Y48.7817 
G01 X-115.0767 Y48.7817 
G01 X-115.1187 Y48.7991 
G01 X-115.1509 Y48.8313 
G01 X-115.1683 Y48.8733 
G01 X-115.1683 Y50.4267 
G01 X-115.1509 Y50.4687 
G01 X-115.1187 Y50.5009 
G01 X-115.0767 Y50.5183 
G01 X-114.7818 Y50.5183 
G01 X-112.5809 Y63.2834 
G01 X-112.6187 Y63.2991 
G01 X-112.6509 Y63.3313 
G01 X-112.6683 Y63.3733 
G01 X-112.6683 Y64.9267 
G01 X-112.6509 Y64.9687 
G01 X-112.6187 Y65.0009 
G01 X-112.5767 Y65.0183 
G01 X-111.0233 Y65.0183 
G01 X-110.9813 Y65.0009 
G01 X-110.9491 Y64.9687 
G01 X-110.9317 Y64.9267 
G01 X-110.9317 Y63.3733 
G01 X-110.9491 Y63.3313 
G01 X-110.9813 Y63.2991 
G01 X-111.0233 Y63.2817 
G01 X-111.3182 Y63.2817 
G01 X-113.5191 Y50.5166 
G01 X-113.4813 Y50.5009 
G01 X-113.4491 Y50.4687 
G01 X-113.4317 Y50.4267 
G01 X-113.4317 Y49.7198 
G01 X-112.6683 Y48.9564 
G01 X-112.6683 Y50.4267 
G00 Z2.5400 
G00 X-117.6683 Y48.8733 
G01 Z-0.1778 F2540.00 
G01 X-117.6683 Y50.4267 F3000.00 
G01 X-117.6509 Y50.4687 
G01 X-117.6187 Y50.5009 
G01 X-117.5767 Y50.5183 
G01 X-116.0233 Y50.5183 
G01 X-115.9813 Y50.5009 
G01 X-115.9491 Y50.4687 
G01 X-115.9317 Y50.4267 
G01 X-115.9317 Y48.8733 
G01 X-115.9491 Y48.8313 
G01 X-115.9813 Y48.7991 
G01 X-116.0233 Y48.7817 
G01 X-117.5767 Y48.7817 
G01 X-117.6187 Y48.7991 
G01 X-117.6509 Y48.8313 
G01 X-117.6683 Y48.8733 
G00 Z2.5400 
G00 X-117.6683 Y63.3733 
G01 Z-0.1778 F2540.00 
G01 X-117.6683 Y64.9267 F3000.00 
G01 X-117.6509 Y64.9687 
G01 X-117.6187 Y65.0009 
G01 X-117.5767 Y65.0183 
G01 X-116.0233 Y65.0183 
G01 X-115.9813 Y65.0009 
G01 X-115.9491 Y64.9687 
G01 X-115.9317 Y64.9267 
G01 X-115.9317 Y63.3733 
G01 X-115.9491 Y63.3313 
G01 X-115.9813 Y63.2991 
G01 X-116.0233 Y63.2817 
G01 X-117.5767 Y63.2817 
G01 X-117.6187 Y63.2991 
G01 X-117.6509 Y63.3313 
G01 X-117.6683 Y63.3733 
G00 Z2.5400 
G00 X-109.9223 Y55.5193 
G01 Z-0.1778 F2540.00 
G01 X-109.9223 Y58.7807 F3000.00 
G01 X-109.9049 Y58.8227 
G01 X-109.8727 Y58.8549 
G01 X-109.8307 Y58.8723 
G01 X-106.5693 Y58.8723 
G01 X-106.5273 Y58.8549 
G01 X-106.4951 Y58.8227 
G01 X-106.4777 Y58.7807 
G01 X-106.4777 Y55.5193 
G01 X-106.4951 Y55.4773 
G01 X-106.5273 Y55.4451 
G01 X-106.5693 Y55.4277 
G01 X-109.8307 Y55.4277 
G01 X-109.8727 Y55.4451 
G01 X-109.9049 Y55.4773 
G01 X-109.9223 Y55.5193 
G00 Z2.5400 
G00 X-122.1223 Y55.5193 
G01 Z-0.1778 F2540.00 
G01 X-122.1223 Y58.7807 F3000.00 
G01 X-122.1049 Y58.8227 
G01 X-122.0727 Y58.8549 
G01 X-122.0307 Y58.8723 
G01 X-118.7693 Y58.8723 
G01 X-118.7273 Y58.8549 
G01 X-118.6951 Y58.8227 
G01 X-118.6777 Y58.7807 
G01 X-118.6777 Y55.5193 
G01 X-118.6951 Y55.4773 
G01 X-118.7273 Y55.4451 
G01 X-118.7693 Y55.4277 
G01 X-122.0307 Y55.4277 
G01 X-122.0727 Y55.4451 
G01 X-122.1049 Y55.4773 
G01 X-122.1223 Y55.5193 
G00 Z2.5400 
G00 X-16.4793 Y76.1025 
G01 Z-0.1778 F2540.00 
G01 X-16.4793 Y76.2975 F3000.00 
G01 X-16.4488 Y76.4902 
G01 X-16.3885 Y76.6757 
G01 X-16.2999 Y76.8495 
G01 X-16.1853 Y77.0073 
G01 X-16.0473 Y77.1453 
G01 X-15.8895 Y77.2599 
G01 X-15.7157 Y77.3485 
G01 X-15.5302 Y77.4088 
G01 X-15.3375 Y77.4393 
G01 X-15.1425 Y77.4393 
G01 X-14.9498 Y77.4088 
G01 X-14.7643 Y77.3485 
G01 X-14.5905 Y77.2599 
G01 X-14.4327 Y77.1453 
G01 X-14.2947 Y77.0073 
G01 X-14.1801 Y76.8495 
G01 X-14.0915 Y76.6757 
G01 X-14.0312 Y76.4902 
G01 X-14.0007 Y76.2975 
G01 X-14.0007 Y76.1025 
G01 X-14.0312 Y75.9098 
G01 X-14.0915 Y75.7243 
G01 X-14.1801 Y75.5505 
G01 X-14.2947 Y75.3927 
G01 X-14.4327 Y75.2547 
G01 X-14.5905 Y75.1401 
G01 X-14.7643 Y75.0515 
G01 X-14.9498 Y74.9912 
G01 X-15.1425 Y74.9607 
G01 X-15.3375 Y74.9607 
G01 X-15.5302 Y74.9912 
G01 X-15.7157 Y75.0515 
G01 X-15.8895 Y75.1401 
G01 X-16.0473 Y75.2547 
G01 X-16.1853 Y75.3927 
G01 X-16.2999 Y75.5505 
G01 X-16.3885 Y75.7243 
G01 X-16.4488 Y75.9098 
G01 X-16.4793 Y76.1025 
G00 Z2.5400 
G00 X-22.8293 Y78.6425 
G01 Z-0.1778 F2540.00 
G01 X-22.8293 Y78.8375 F3000.00 
G01 X-22.7988 Y79.0302 
G01 X-22.7385 Y79.2157 
G01 X-22.6499 Y79.3895 
G01 X-22.5353 Y79.5473 
G01 X-22.3973 Y79.6853 
G01 X-22.2395 Y79.7999 
G01 X-22.0657 Y79.8885 
G01 X-21.8802 Y79.9488 
G01 X-21.6875 Y79.9793 
G01 X-21.4925 Y79.9793 
G01 X-21.2998 Y79.9488 
G01 X-21.1143 Y79.8885 
G01 X-20.9405 Y79.7999 
G01 X-20.7827 Y79.6853 
G01 X-20.6447 Y79.5473 
G01 X-20.5301 Y79.3895 
G01 X-20.4415 Y79.2157 
G01 X-20.3812 Y79.0302 
G01 X-20.3507 Y78.8375 
G01 X-20.3507 Y78.6425 
G01 X-20.3812 Y78.4498 
G01 X-20.4415 Y78.2643 
G01 X-20.5301 Y78.0905 
G01 X-20.6447 Y77.9327 
G01 X-20.7827 Y77.7947 
G01 X-20.9405 Y77.6801 
G01 X-21.1143 Y77.5915 
G01 X-21.2998 Y77.5312 
G01 X-21.4925 Y77.5007 
G01 X-21.6875 Y77.5007 
G01 X-21.8802 Y77.5312 
G01 X-22.0657 Y77.5915 
G01 X-22.2395 Y77.6801 
G01 X-22.3973 Y77.7947 
G01 X-22.5353 Y77.9327 
G01 X-22.6499 Y78.0905 
G01 X-22.7385 Y78.2643 
G01 X-22.7988 Y78.4498 
G01 X-22.8293 Y78.6425 
G00 Z2.5400 
G00 X-35.5293 Y76.1025 
G01 Z-0.1778 F2540.00 
G01 X-35.5293 Y76.2975 F3000.00 
G01 X-35.4988 Y76.4902 
G01 X-35.4385 Y76.6757 
G01 X-35.3499 Y76.8495 
G01 X-35.2353 Y77.0073 
G01 X-35.0973 Y77.1453 
G01 X-34.9395 Y77.2599 
G01 X-34.7657 Y77.3485 
G01 X-34.5802 Y77.4088 
G01 X-34.3875 Y77.4393 
G01 X-34.1925 Y77.4393 
G01 X-33.9998 Y77.4088 
G01 X-33.8143 Y77.3485 
G01 X-33.6405 Y77.2599 
G01 X-33.4826 Y77.1453 
G01 X-33.3447 Y77.0073 
G01 X-33.2301 Y76.8495 
G01 X-33.1415 Y76.6757 
G01 X-33.0812 Y76.4902 
G01 X-33.0507 Y76.2975 
G01 X-33.0507 Y76.1025 
G01 X-33.0812 Y75.9098 
G01 X-33.1415 Y75.7243 
G01 X-33.2301 Y75.5505 
G01 X-33.3447 Y75.3927 
G01 X-33.4826 Y75.2547 
G01 X-33.6405 Y75.1401 
G01 X-33.8143 Y75.0515 
G01 X-33.9998 Y74.9912 
G01 X-34.1925 Y74.9607 
G01 X-34.3875 Y74.9607 
G01 X-34.5802 Y74.9912 
G01 X-34.7657 Y75.0515 
G01 X-34.9395 Y75.1401 
G01 X-35.0973 Y75.2547 
G01 X-35.2353 Y75.3927 
G01 X-35.3499 Y75.5505 
G01 X-35.4385 Y75.7243 
G01 X-35.4988 Y75.9098 
G01 X-35.5293 Y76.1025 
G00 Z2.5400 
G00 X-41.8793 Y78.6425 
G01 Z-0.1778 F2540.00 
G01 X-41.8793 Y78.8375 F3000.00 
G01 X-41.8488 Y79.0302 
G01 X-41.7885 Y79.2157 
G01 X-41.6999 Y79.3895 
G01 X-41.5853 Y79.5473 
G01 X-41.4473 Y79.6853 
G01 X-41.2895 Y79.7999 
G01 X-41.1157 Y79.8885 
G01 X-40.9302 Y79.9488 
G01 X-40.7375 Y79.9793 
G01 X-40.5425 Y79.9793 
G01 X-40.3498 Y79.9488 
G01 X-40.1643 Y79.8885 
G01 X-39.9905 Y79.7999 
G01 X-39.8327 Y79.6853 
G01 X-39.6947 Y79.5473 
G01 X-39.5801 Y79.3895 
G01 X-39.4915 Y79.2157 
G01 X-39.4312 Y79.0302 
G01 X-39.4007 Y78.8375 
G01 X-39.4007 Y78.6425 
G01 X-39.4312 Y78.4498 
G01 X-39.4915 Y78.2643 
G01 X-39.5801 Y78.0905 
G01 X-39.6947 Y77.9327 
G01 X-39.8327 Y77.7947 
G01 X-39.9905 Y77.6801 
G01 X-40.1643 Y77.5915 
G01 X-40.3498 Y77.5312 
G01 X-40.5425 Y77.5007 
G01 X-40.7375 Y77.5007 
G01 X-40.9302 Y77.5312 
G01 X-41.1157 Y77.5915 
G01 X-41.2895 Y77.6801 
G01 X-41.4473 Y77.7947 
G01 X-41.5853 Y77.9327 
G01 X-41.6999 Y78.0905 
G01 X-41.7885 Y78.2643 
G01 X-41.8488 Y78.4498 
G01 X-41.8793 Y78.6425 
G00 Z2.5400 
G00 X-112.5367 Y13.5683 
G01 Z-0.1778 F2540.00 
G01 X-110.9833 Y13.5683 F3000.00 
G01 X-110.9413 Y13.5509 
G01 X-110.9091 Y13.5187 
G01 X-110.8917 Y13.4767 
G01 X-110.8917 Y11.9233 
G01 X-110.9091 Y11.8813 
G01 X-110.9413 Y11.8491 
G01 X-110.9833 Y11.8317 
G01 X-112.5367 Y11.8317 
G01 X-112.5787 Y11.8491 
G01 X-112.6109 Y11.8813 
G01 X-112.6283 Y11.9233 
G01 X-112.6283 Y13.4767 
G01 X-112.6109 Y13.5187 
G01 X-112.5787 Y13.5509 
G01 X-112.5367 Y13.5683 
G00 Z2.5400 
G00 X-109.9967 Y13.5683 
G01 Z-0.1778 F2540.00 
G01 X-108.4433 Y13.5683 F3000.00 
G01 X-108.4013 Y13.5509 
G01 X-108.3691 Y13.5187 
G01 X-108.3517 Y13.4767 
G01 X-108.3517 Y11.9233 
G01 X-108.3691 Y11.8813 
G01 X-108.4013 Y11.8491 
G01 X-108.4433 Y11.8317 
G01 X-109.9967 Y11.8317 
G01 X-110.0387 Y11.8491 
G01 X-110.0709 Y11.8813 
G01 X-110.0883 Y11.9233 
G01 X-110.0883 Y13.4767 
G01 X-110.0709 Y13.5187 
G01 X-110.0387 Y13.5509 
G01 X-109.9967 Y13.5683 
G00 Z2.5400 
G00 X-107.4567 Y13.5683 
G01 Z-0.1778 F2540.00 
G01 X-105.9033 Y13.5683 F3000.00 
G01 X-105.8613 Y13.5509 
G01 X-105.8291 Y13.5187 
G01 X-105.8117 Y13.4767 
G01 X-105.8117 Y11.9233 
G01 X-105.8291 Y11.8813 
G01 X-105.8613 Y11.8491 
G01 X-105.9033 Y11.8317 
G01 X-107.4567 Y11.8317 
G01 X-107.4987 Y11.8491 
G01 X-107.5309 Y11.8813 
G01 X-107.5483 Y11.9233 
G01 X-107.5483 Y13.4767 
G01 X-107.5309 Y13.5187 
G01 X-107.4987 Y13.5509 
G01 X-107.4567 Y13.5683 
G00 Z2.5400 
G00 X-104.9167 Y13.5683 
G01 Z-0.1778 F2540.00 
G01 X-103.3633 Y13.5683 F3000.00 
G01 X-103.3213 Y13.5509 
G01 X-103.2891 Y13.5187 
G01 X-103.2717 Y13.4767 
G01 X-103.2717 Y11.9233 
G01 X-103.2891 Y11.8813 
G01 X-103.3213 Y11.8491 
G01 X-103.3633 Y11.8317 
G01 X-104.9167 Y11.8317 
G01 X-104.9587 Y11.8491 
G01 X-104.9909 Y11.8813 
G01 X-105.0083 Y11.9233 
G01 X-105.0083 Y13.4767 
G01 X-104.9909 Y13.5187 
G01 X-104.9587 Y13.5509 
G01 X-104.9167 Y13.5683 
G00 Z2.5400 
G00 X-102.3767 Y13.5683 
G01 Z-0.1778 F2540.00 
G01 X-100.8233 Y13.5683 F3000.00 
G01 X-100.7813 Y13.5509 
G01 X-100.7491 Y13.5187 
G01 X-100.7317 Y13.4767 
G01 X-100.7317 Y11.9233 
G01 X-100.7491 Y11.8813 
G01 X-100.7813 Y11.8491 
G01 X-100.8233 Y11.8317 
G01 X-102.3767 Y11.8317 
G01 X-102.4187 Y11.8491 
G01 X-102.4509 Y11.8813 
G01 X-102.4683 Y11.9233 
G01 X-102.4683 Y13.4767 
G01 X-102.4509 Y13.5187 
G01 X-102.4187 Y13.5509 
G01 X-102.3767 Y13.5683 
G00 Z2.5400 
G00 X-99.8367 Y13.5683 
G01 Z-0.1778 F2540.00 
G01 X-98.2833 Y13.5683 F3000.00 
G01 X-98.2413 Y13.5509 
G01 X-98.2091 Y13.5187 
G01 X-98.1917 Y13.4767 
G01 X-98.1917 Y11.9233 
G01 X-98.2091 Y11.8813 
G01 X-98.2413 Y11.8491 
G01 X-98.2833 Y11.8317 
G01 X-99.8367 Y11.8317 
G01 X-99.8787 Y11.8491 
G01 X-99.9109 Y11.8813 
G01 X-99.9283 Y11.9233 
G01 X-99.9283 Y13.4767 
G01 X-99.9109 Y13.5187 
G01 X-99.8787 Y13.5509 
G01 X-99.8367 Y13.5683 
G00 Z2.5400 
G00 X-97.2967 Y13.5683 
G01 Z-0.1778 F2540.00 
G01 X-95.7433 Y13.5683 F3000.00 
G01 X-95.7013 Y13.5509 
G01 X-95.6691 Y13.5187 
G01 X-95.6517 Y13.4767 
G01 X-95.6517 Y11.9233 
G01 X-95.6691 Y11.8813 
G01 X-95.7013 Y11.8491 
G01 X-95.7433 Y11.8317 
G01 X-97.2967 Y11.8317 
G01 X-97.3387 Y11.8491 
G01 X-97.3709 Y11.8813 
G01 X-97.3883 Y11.9233 
G01 X-97.3883 Y13.4767 
G01 X-97.3709 Y13.5187 
G01 X-97.3387 Y13.5509 
G01 X-97.2967 Y13.5683 
G00 Z2.5400 
G00 X-94.7567 Y13.5683 
G01 Z-0.1778 F2540.00 
G01 X-93.2033 Y13.5683 F3000.00 
G01 X-93.1613 Y13.5509 
G01 X-93.1291 Y13.5187 
G01 X-93.1117 Y13.4767 
G01 X-93.1117 Y11.9233 
G01 X-93.1291 Y11.8813 
G01 X-93.1613 Y11.8491 
G01 X-93.2033 Y11.8317 
G01 X-94.7567 Y11.8317 
G01 X-94.7987 Y11.8491 
G01 X-94.8309 Y11.8813 
G01 X-94.8483 Y11.9233 
G01 X-94.8483 Y13.4767 
G01 X-94.8309 Y13.5187 
G01 X-94.7987 Y13.5509 
G01 X-94.7567 Y13.5683 
G00 Z2.5400 
G00 X-92.2167 Y13.5683 
G01 Z-0.1778 F2540.00 
G01 X-90.6633 Y13.5683 F3000.00 
G01 X-90.6213 Y13.5509 
G01 X-90.5891 Y13.5187 
G01 X-90.5717 Y13.4767 
G01 X-90.5717 Y11.9233 
G01 X-90.5891 Y11.8813 
G01 X-90.6213 Y11.8491 
G01 X-90.6633 Y11.8317 
G01 X-92.2167 Y11.8317 
G01 X-92.2587 Y11.8491 
G01 X-92.2909 Y11.8813 
G01 X-92.3083 Y11.9233 
G01 X-92.3083 Y13.4767 
G01 X-92.2909 Y13.5187 
G01 X-92.2587 Y13.5509 
G01 X-92.2167 Y13.5683 
G00 Z2.5400 
G00 X-89.6767 Y13.5683 
G01 Z-0.1778 F2540.00 
G01 X-88.1233 Y13.5683 F3000.00 
G01 X-88.0813 Y13.5509 
G01 X-88.0491 Y13.5187 
G01 X-88.0317 Y13.4767 
G01 X-88.0317 Y11.9233 
G01 X-88.0491 Y11.8813 
G01 X-88.0813 Y11.8491 
G01 X-88.1233 Y11.8317 
G01 X-89.6767 Y11.8317 
G01 X-89.7187 Y11.8491 
G01 X-89.7509 Y11.8813 
G01 X-89.7683 Y11.9233 
G01 X-89.7683 Y13.4767 
G01 X-89.7509 Y13.5187 
G01 X-89.7187 Y13.5509 
G01 X-89.6767 Y13.5683 
G00 Z2.5400 
G00 X-115.0767 Y13.5683 
G01 Z-0.1778 F2540.00 
G01 X-113.5233 Y13.5683 F3000.00 
G01 X-113.4813 Y13.5509 
G01 X-113.4491 Y13.5187 
G01 X-113.4317 Y13.4767 
G01 X-113.4317 Y11.9233 
G01 X-113.4491 Y11.8813 
G01 X-113.4813 Y11.8491 
G01 X-113.5233 Y11.8317 
G01 X-115.0767 Y11.8317 
G01 X-115.1187 Y11.8491 
G01 X-115.1509 Y11.8813 
G01 X-115.1683 Y11.9233 
G01 X-115.1683 Y13.4767 
G01 X-115.1509 Y13.5187 
G01 X-115.1187 Y13.5509 
G01 X-115.0767 Y13.5683 
G00 Z2.5400 
G00 X-117.6167 Y13.5683 
G01 Z-0.1778 F2540.00 
G01 X-116.0633 Y13.5683 F3000.00 
G01 X-116.0213 Y13.5509 
G01 X-115.9891 Y13.5187 
G01 X-115.9717 Y13.4767 
G01 X-115.9717 Y11.9233 
G01 X-115.9891 Y11.8813 
G01 X-116.0213 Y11.8491 
G01 X-116.0633 Y11.8317 
G01 X-117.6167 Y11.8317 
G01 X-117.6587 Y11.8491 
G01 X-117.6909 Y11.8813 
G01 X-117.7083 Y11.9233 
G01 X-117.7083 Y13.4767 
G01 X-117.6909 Y13.5187 
G01 X-117.6587 Y13.5509 
G01 X-117.6167 Y13.5683 
G00 Z2.5400 
G00 X-120.1567 Y13.5683 
G01 Z-0.1778 F2540.00 
G01 X-118.6033 Y13.5683 F3000.00 
G01 X-118.5613 Y13.5509 
G01 X-118.5291 Y13.5187 
G01 X-118.5117 Y13.4767 
G01 X-118.5117 Y11.9233 
G01 X-118.5291 Y11.8813 
G01 X-118.5613 Y11.8491 
G01 X-118.6033 Y11.8317 
G01 X-120.1567 Y11.8317 
G01 X-120.1987 Y11.8491 
G01 X-120.2309 Y11.8813 
G01 X-120.2483 Y11.9233 
G01 X-120.2483 Y13.4767 
G01 X-120.2309 Y13.5187 
G01 X-120.1987 Y13.5509 
G01 X-120.1567 Y13.5683 
G00 Z2.5400 
G00 X-89.6767 Y36.4283 
G01 Z-0.1778 F2540.00 
G01 X-88.1233 Y36.4283 F3000.00 
G01 X-88.0813 Y36.4109 
G01 X-88.0491 Y36.3787 
G01 X-88.0317 Y36.3367 
G01 X-88.0317 Y34.7833 
G01 X-88.0491 Y34.7413 
G01 X-88.0813 Y34.7091 
G01 X-88.1233 Y34.6917 
G01 X-89.6767 Y34.6917 
G01 X-89.7187 Y34.7091 
G01 X-89.7509 Y34.7413 
G01 X-89.7683 Y34.7833 
G01 X-89.7683 Y36.3367 
G01 X-89.7509 Y36.3787 
G01 X-89.7187 Y36.4109 
G01 X-89.6767 Y36.4283 
G00 Z2.5400 
G00 X-120.1567 Y36.4283 
G01 Z-0.1778 F2540.00 
G01 X-118.6033 Y36.4283 F3000.00 
G01 X-118.5613 Y36.4109 
G01 X-118.5291 Y36.3787 
G01 X-118.5117 Y36.3367 
G01 X-118.5117 Y34.7833 
G01 X-118.5291 Y34.7413 
G01 X-118.5613 Y34.7091 
G01 X-118.6033 Y34.6917 
G01 X-120.1567 Y34.6917 
G01 X-120.1987 Y34.7091 
G01 X-120.2309 Y34.7413 
G01 X-120.2483 Y34.7833 
G01 X-120.2483 Y36.3367 
G01 X-120.2309 Y36.3787 
G01 X-120.1987 Y36.4109 
G01 X-120.1567 Y36.4283 
G00 Z2.5400 
G00 X-117.6167 Y36.4283 
G01 Z-0.1778 F2540.00 
G01 X-116.0633 Y36.4283 F3000.00 
G01 X-116.0213 Y36.4109 
G01 X-115.9891 Y36.3787 
G01 X-115.9717 Y36.3367 
G01 X-115.9717 Y34.7833 
G01 X-115.9891 Y34.7413 
G01 X-116.0213 Y34.7091 
G01 X-116.0633 Y34.6917 
G01 X-117.6167 Y34.6917 
G01 X-117.6587 Y34.7091 
G01 X-117.6909 Y34.7413 
G01 X-117.7083 Y34.7833 
G01 X-117.7083 Y36.3367 
G01 X-117.6909 Y36.3787 
G01 X-117.6587 Y36.4109 
G01 X-117.6167 Y36.4283 
G00 Z2.5400 
G00 X-115.0767 Y36.4283 
G01 Z-0.1778 F2540.00 
G01 X-113.5233 Y36.4283 F3000.00 
G01 X-113.4813 Y36.4109 
G01 X-113.4491 Y36.3787 
G01 X-113.4317 Y36.3367 
G01 X-113.4317 Y34.7833 
G01 X-113.4491 Y34.7413 
G01 X-113.4813 Y34.7091 
G01 X-113.5233 Y34.6917 
G01 X-115.0767 Y34.6917 
G01 X-115.1187 Y34.7091 
G01 X-115.1509 Y34.7413 
G01 X-115.1683 Y34.7833 
G01 X-115.1683 Y36.3367 
G01 X-115.1509 Y36.3787 
G01 X-115.1187 Y36.4109 
G01 X-115.0767 Y36.4283 
G00 Z2.5400 
G00 X-112.5367 Y36.4283 
G01 Z-0.1778 F2540.00 
G01 X-110.9833 Y36.4283 F3000.00 
G01 X-110.9413 Y36.4109 
G01 X-110.9091 Y36.3787 
G01 X-110.8917 Y36.3367 
G01 X-110.8917 Y34.7833 
G01 X-110.9091 Y34.7413 
G01 X-110.9413 Y34.7091 
G01 X-110.9833 Y34.6917 
G01 X-112.5367 Y34.6917 
G01 X-112.5787 Y34.7091 
G01 X-112.6109 Y34.7413 
G01 X-112.6283 Y34.7833 
G01 X-112.6283 Y36.3367 
G01 X-112.6109 Y36.3787 
G01 X-112.5787 Y36.4109 
G01 X-112.5367 Y36.4283 
G00 Z2.5400 
G00 X-109.9967 Y36.4283 
G01 Z-0.1778 F2540.00 
G01 X-108.4433 Y36.4283 F3000.00 
G01 X-108.4013 Y36.4109 
G01 X-108.3691 Y36.3787 
G01 X-108.3517 Y36.3367 
G01 X-108.3517 Y34.7833 
G01 X-108.3691 Y34.7413 
G01 X-108.4013 Y34.7091 
G01 X-108.4433 Y34.6917 
G01 X-109.9967 Y34.6917 
G01 X-110.0387 Y34.7091 
G01 X-110.0709 Y34.7413 
G01 X-110.0883 Y34.7833 
G01 X-110.0883 Y36.3367 
G01 X-110.0709 Y36.3787 
G01 X-110.0387 Y36.4109 
G01 X-109.9967 Y36.4283 
G00 Z2.5400 
G00 X-107.4567 Y36.4283 
G01 Z-0.1778 F2540.00 
G01 X-105.9033 Y36.4283 F3000.00 
G01 X-105.8613 Y36.4109 
G01 X-105.8291 Y36.3787 
G01 X-105.8117 Y36.3367 
G01 X-105.8117 Y34.7833 
G01 X-105.8291 Y34.7413 
G01 X-105.8613 Y34.7091 
G01 X-105.9033 Y34.6917 
G01 X-107.4567 Y34.6917 
G01 X-107.4987 Y34.7091 
G01 X-107.5309 Y34.7413 
G01 X-107.5483 Y34.7833 
G01 X-107.5483 Y36.3367 
G01 X-107.5309 Y36.3787 
G01 X-107.4987 Y36.4109 
G01 X-107.4567 Y36.4283 
G00 Z2.5400 
G00 X-104.9167 Y36.4283 
G01 Z-0.1778 F2540.00 
G01 X-103.3633 Y36.4283 F3000.00 
G01 X-103.3213 Y36.4109 
G01 X-103.2891 Y36.3787 
G01 X-103.2717 Y36.3367 
G01 X-103.2717 Y34.7833 
G01 X-103.2891 Y34.7413 
G01 X-103.3213 Y34.7091 
G01 X-103.3633 Y34.6917 
G01 X-104.9167 Y34.6917 
G01 X-104.9587 Y34.7091 
G01 X-104.9909 Y34.7413 
G01 X-105.0083 Y34.7833 
G01 X-105.0083 Y36.3367 
G01 X-104.9909 Y36.3787 
G01 X-104.9587 Y36.4109 
G01 X-104.9167 Y36.4283 
G00 Z2.5400 
G00 X-102.3767 Y36.4283 
G01 Z-0.1778 F2540.00 
G01 X-100.8233 Y36.4283 F3000.00 
G01 X-100.7813 Y36.4109 
G01 X-100.7491 Y36.3787 
G01 X-100.7317 Y36.3367 
G01 X-100.7317 Y34.7833 
G01 X-100.7491 Y34.7413 
G01 X-100.7813 Y34.7091 
G01 X-100.8233 Y34.6917 
G01 X-102.3767 Y34.6917 
G01 X-102.4187 Y34.7091 
G01 X-102.4509 Y34.7413 
G01 X-102.4683 Y34.7833 
G01 X-102.4683 Y36.3367 
G01 X-102.4509 Y36.3787 
G01 X-102.4187 Y36.4109 
G01 X-102.3767 Y36.4283 
G00 Z2.5400 
G00 X-99.8367 Y36.4283 
G01 Z-0.1778 F2540.00 
G01 X-98.2833 Y36.4283 F3000.00 
G01 X-98.2413 Y36.4109 
G01 X-98.2091 Y36.3787 
G01 X-98.1917 Y36.3367 
G01 X-98.1917 Y34.7833 
G01 X-98.2091 Y34.7413 
G01 X-98.2413 Y34.7091 
G01 X-98.2833 Y34.6917 
G01 X-99.8367 Y34.6917 
G01 X-99.8787 Y34.7091 
G01 X-99.9109 Y34.7413 
G01 X-99.9283 Y34.7833 
G01 X-99.9283 Y36.3367 
G01 X-99.9109 Y36.3787 
G01 X-99.8787 Y36.4109 
G01 X-99.8367 Y36.4283 
G00 Z2.5400 
G00 X-97.2967 Y36.4283 
G01 Z-0.1778 F2540.00 
G01 X-95.7433 Y36.4283 F3000.00 
G01 X-95.7013 Y36.4109 
G01 X-95.6691 Y36.3787 
G01 X-95.6517 Y36.3367 
G01 X-95.6517 Y34.7833 
G01 X-95.6691 Y34.7413 
G01 X-95.7013 Y34.7091 
G01 X-95.7433 Y34.6917 
G01 X-97.2967 Y34.6917 
G01 X-97.3387 Y34.7091 
G01 X-97.3709 Y34.7413 
G01 X-97.3883 Y34.7833 
G01 X-97.3883 Y36.3367 
G01 X-97.3709 Y36.3787 
G01 X-97.3387 Y36.4109 
G01 X-97.2967 Y36.4283 
G00 Z2.5400 
G00 X-94.7567 Y36.4283 
G01 Z-0.1778 F2540.00 
G01 X-93.2033 Y36.4283 F3000.00 
G01 X-93.1613 Y36.4109 
G01 X-93.1291 Y36.3787 
G01 X-93.1117 Y36.3367 
G01 X-93.1117 Y34.7833 
G01 X-93.1291 Y34.7413 
G01 X-93.1613 Y34.7091 
G01 X-93.2033 Y34.6917 
G01 X-94.7567 Y34.6917 
G01 X-94.7987 Y34.7091 
G01 X-94.8309 Y34.7413 
G01 X-94.8483 Y34.7833 
G01 X-94.8483 Y36.3367 
G01 X-94.8309 Y36.3787 
G01 X-94.7987 Y36.4109 
G01 X-94.7567 Y36.4283 
G00 Z2.5400 
G00 X-92.2167 Y36.4283 
G01 Z-0.1778 F2540.00 
G01 X-90.6633 Y36.4283 F3000.00 
G01 X-90.6213 Y36.4109 
G01 X-90.5891 Y36.3787 
G01 X-90.5717 Y36.3367 
G01 X-90.5717 Y34.7833 
G01 X-90.5891 Y34.7413 
G01 X-90.6213 Y34.7091 
G01 X-90.6633 Y34.6917 
G01 X-92.2167 Y34.6917 
G01 X-92.2587 Y34.7091 
G01 X-92.2909 Y34.7413 
G01 X-92.3083 Y34.7833 
G01 X-92.3083 Y36.3367 
G01 X-92.2909 Y36.3787 
G01 X-92.2587 Y36.4109 
G01 X-92.2167 Y36.4283 
G00 Z2.5400 
G00 X-112.9665 Y85.7250 
G01 Z-0.1778 F2540.00 
G01 X-112.9665 Y85.9150 F3000.00 
G01 X-112.9368 Y86.1025 
G01 X-112.8781 Y86.2831 
G01 X-112.7919 Y86.4523 
G01 X-112.6803 Y86.6060 
G01 X-112.5460 Y86.7403 
G01 X-112.3923 Y86.8519 
G01 X-112.2231 Y86.9381 
G01 X-112.0425 Y86.9968 
G01 X-111.8550 Y87.0265 
G01 X-111.6650 Y87.0265 
G01 X-111.4775 Y86.9968 
G01 X-111.2969 Y86.9381 
G01 X-111.1277 Y86.8519 
G01 X-110.9740 Y86.7403 
G01 X-110.8397 Y86.6060 
G01 X-110.7281 Y86.4523 
G01 X-110.6419 Y86.2831 
G01 X-110.5832 Y86.1025 
G01 X-110.5535 Y85.9150 
G01 X-110.5535 Y85.7250 
G01 X-110.5832 Y85.5375 
G01 X-110.6419 Y85.3569 
G01 X-110.7281 Y85.1877 
G01 X-110.8397 Y85.0340 
G01 X-110.9740 Y84.8997 
G01 X-111.1277 Y84.7881 
G01 X-111.2969 Y84.7019 
G01 X-111.4775 Y84.6432 
G01 X-111.6650 Y84.6135 
G01 X-111.8550 Y84.6135 
G01 X-112.0425 Y84.6432 
G01 X-112.2231 Y84.7019 
G01 X-112.3923 Y84.7881 
G01 X-112.5460 Y84.8997 
G01 X-112.6803 Y85.0340 
G01 X-112.7919 Y85.1877 
G01 X-112.8781 Y85.3569 
G01 X-112.9368 Y85.5375 
G01 X-112.9665 Y85.7250 
G00 Z2.5400 
G00 X-112.9665 Y75.5650 
G01 Z-0.1778 F2540.00 
G01 X-112.9665 Y75.7550 F3000.00 
G01 X-112.9368 Y75.9425 
G01 X-112.8781 Y76.1231 
G01 X-112.7919 Y76.2923 
G01 X-112.6803 Y76.4460 
G01 X-112.5460 Y76.5803 
G01 X-112.3923 Y76.6919 
G01 X-112.2231 Y76.7781 
G01 X-112.0425 Y76.8368 
G01 X-111.8550 Y76.8665 
G01 X-111.6650 Y76.8665 
G01 X-111.4775 Y76.8368 
G01 X-111.2969 Y76.7781 
G01 X-111.1277 Y76.6919 
G01 X-110.9740 Y76.5803 
G01 X-110.8397 Y76.4460 
G01 X-110.7281 Y76.2923 
G01 X-110.6419 Y76.1231 
G01 X-110.5832 Y75.9425 
G01 X-110.5535 Y75.7550 
G01 X-110.5535 Y75.5650 
G01 X-110.5832 Y75.3775 
G01 X-110.6419 Y75.1969 
G01 X-110.7281 Y75.0277 
G01 X-110.8397 Y74.8740 
G01 X-110.9740 Y74.7397 
G01 X-111.1277 Y74.6281 
G01 X-111.2969 Y74.5419 
G01 X-111.4775 Y74.4832 
G01 X-111.6650 Y74.4535 
G01 X-111.8550 Y74.4535 
G01 X-112.0425 Y74.4832 
G01 X-112.2231 Y74.5419 
G01 X-112.3923 Y74.6281 
G01 X-112.5460 Y74.7397 
G01 X-112.6803 Y74.8740 
G01 X-112.7919 Y75.0277 
G01 X-112.8781 Y75.1969 
G01 X-112.9368 Y75.3775 
G01 X-112.9665 Y75.5650 
G00 Z2.5400 
G00 X-118.0465 Y66.4050 
G01 Z-0.1778 F2540.00 
G01 X-118.0465 Y66.5950 F3000.00 
G01 X-118.0168 Y66.7825 
G01 X-117.9581 Y66.9631 
G01 X-117.8719 Y67.1323 
G01 X-117.7603 Y67.2860 
G01 X-117.6260 Y67.4203 
G01 X-117.4723 Y67.5319 
G01 X-117.3031 Y67.6181 
G01 X-117.1225 Y67.6768 
G01 X-116.9350 Y67.7065 
G01 X-116.7450 Y67.7065 
G01 X-116.5575 Y67.6768 
G01 X-116.3769 Y67.6181 
G01 X-116.2077 Y67.5319 
G01 X-116.0540 Y67.4203 
G01 X-115.9197 Y67.2860 
G01 X-115.8081 Y67.1323 
G01 X-115.7219 Y66.9631 
G01 X-115.6632 Y66.7825 
G01 X-115.6335 Y66.5950 
G01 X-115.6335 Y66.4050 
G01 X-115.6632 Y66.2175 
G01 X-115.7219 Y66.0369 
G01 X-115.8081 Y65.8677 
G01 X-115.9197 Y65.7140 
G01 X-116.0540 Y65.5797 
G01 X-116.2077 Y65.4681 
G01 X-116.3769 Y65.3819 
G01 X-116.5575 Y65.3232 
G01 X-116.7450 Y65.2935 
G01 X-116.9350 Y65.2935 
G01 X-117.1225 Y65.3232 
G01 X-117.3031 Y65.3819 
G01 X-117.4723 Y65.4681 
G01 X-117.6260 Y65.5797 
