(.../pcb-gcode-3_6_0_4/pcb-gcode.ulp)
(Copyright 2005 - 2012 by John Johnson)
(See readme.txt for licensing terms.)
(This file generated from the board:)
(.../projects/midi_pad/untitled.brd)
(Current profile is .../pcb-gcode-3_6_0_4/profiles/generic.pp  )
(This file generated 22.08.22 20:18)
(Settings from pcb-machine.h)
(  Tool Size)
(1.0000 )
(Z Axis Settings)
(  High     Up        Down     Drill)
(12.0000 	10.0000 	2.0000 	1.0000 )
(spindle on time = 3.0000)
(milling depth = 1.0000)
(text depth = 1.0000)
(tool change at 12.7000 15.2400 25.4000 )
(feed rate xy = F3000.00 )
(feed rate z  = F9000.00 )
(Settings from pcb-defaults.h)
(isolate min = 0.0254)
(isolate max = 0.1270)
(isolate step = 0.0635)
(Generated top outlines, top drill, )
(Unit of measure: mm)
(Metric Mode)
G21
(Absolute Coordinates)
G90
G00 X0.0000 Y0.0000 
M03
G04 P3.000000
G00 Z10.0000 
G00 X-1.2700 Y6.3500 
G01 Z1.0000 F9000.00 
G01 X-1.2700 Y1.2700 F3000.00 
G01 X-6.3500 Y1.2700 
G01 X-6.3500 Y2.5400 
G01 X-2.5400 Y2.5400 
G01 X-2.5400 Y6.3500 
G01 X-1.2700 Y6.3500 
G00 Z10.0000 
G00 X-3.8100 Y5.0800 
G01 Z1.0000 F9000.00 
G01 X-3.8100 Y3.8100 F3000.00 
G01 X-5.0800 Y3.8100 
G01 X-5.0800 Y5.0800 
G01 X-3.8100 Y5.0800 
G00 Z12.0000 
M05
M02
