(.../pcb-gcode-3_6_0_4/pcb-gcode.ulp)
(Copyright 2005 - 2012 by John Johnson)
(See readme.txt for licensing terms.)
(This file generated from the board:)
(.../projects/midi_pad/untitled.brd)
(Current profile is .../pcb-gcode-3_6_0_4/profiles/generic.pp  )
(This file generated 22.08.22 20:18)
(Settings from pcb-machine.h)
(  Tool Size)
(0.1778 )
(Z Axis Settings)
(  High     Up        Down     Drill)
(12.0000 	10.0000 	2.0000 	1.0000 )
(spindle on time = 3.0000)
(milling depth = 1.0000)
(text depth = 1.0000)
(tool change at 12.7000 15.2400 25.4000 )
(feed rate xy = F3000.00 )
(feed rate z  = F9000.00 )
(Settings from pcb-defaults.h)
(isolate min = 0.0254)
(isolate max = 0.1270)
(isolate step = 0.0635)
(Generated top outlines, top drill, )
(Unit of measure: mm)
(Metric Mode)
G21
(Absolute Coordinates)
G90
G00 X0.0000 Y0.0000 
M03
G04 P3.000000
G00 Z10.0000 
G00 X7.7343 Y2.5173 
G01 Z2.0000 F9000.00 
G01 X7.7343 Y3.8327 F3000.00 
G01 X7.7169 Y3.8747 
G01 X7.6847 Y3.9069 
G01 X7.6427 Y3.9243 
G01 X6.3273 Y3.9243 
G01 X6.2853 Y3.9069 
G01 X6.2531 Y3.8747 
G01 X6.2357 Y3.8327 
G01 X6.2357 Y2.5173 
G01 X6.2531 Y2.4753 
G01 X6.2853 Y2.4431 
G01 X6.3273 Y2.4257 
G01 X7.6427 Y2.4257 
G01 X7.6847 Y2.4431 
G01 X7.7169 Y2.4753 
G01 X7.7343 Y2.5173 
G00 Z10.0000 
G00 X6.4643 Y5.0573 
G01 Z2.0000 F9000.00 
G01 X6.4643 Y6.3727 F3000.00 
G01 X6.4469 Y6.4147 
G01 X6.4147 Y6.4469 
G01 X6.3727 Y6.4643 
G01 X5.0573 Y6.4643 
G01 X5.0153 Y6.4469 
G01 X4.9831 Y6.4147 
G01 X4.9657 Y6.3727 
G01 X4.9657 Y5.0573 
G01 X4.9831 Y5.0153 
G01 X5.0153 Y4.9831 
G01 X5.0573 Y4.9657 
G01 X6.3727 Y4.9657 
G01 X6.4147 Y4.9831 
G01 X6.4469 Y5.0153 
G01 X6.4643 Y5.0573 
G00 Z10.0000 
G00 X3.9243 Y6.3273 
G01 Z2.0000 F9000.00 
G01 X3.9243 Y7.6427 F3000.00 
G01 X3.9069 Y7.6847 
G01 X3.8747 Y7.7169 
G01 X3.8327 Y7.7343 
G01 X2.5173 Y7.7343 
G01 X2.4753 Y7.7169 
G01 X2.4431 Y7.6847 
G01 X2.4257 Y7.6427 
G01 X2.4257 Y6.3273 
G01 X2.4431 Y6.2853 
G01 X2.4753 Y6.2531 
G01 X2.5173 Y6.2357 
G01 X3.8327 Y6.2357 
G01 X3.8747 Y6.2531 
G01 X3.9069 Y6.2853 
G01 X3.9243 Y6.3273 
G00 Z10.0000 
G00 X7.7978 Y2.5046 
G01 Z2.0000 F9000.00 
G01 X7.7978 Y3.8454 F3000.00 
G01 X7.7707 Y3.9107 
G01 X7.7207 Y3.9607 
G01 X7.6554 Y3.9878 
G01 X6.3146 Y3.9878 
G01 X6.2493 Y3.9607 
G01 X6.1993 Y3.9107 
G01 X6.1722 Y3.8454 
G01 X6.1722 Y2.5046 
G01 X6.1993 Y2.4393 
G01 X6.2493 Y2.3893 
G01 X6.3146 Y2.3622 
G01 X7.6554 Y2.3622 
G01 X7.7207 Y2.3893 
G01 X7.7707 Y2.4393 
G01 X7.7978 Y2.5046 
G00 Z10.0000 
G00 X6.5278 Y5.0446 
G01 Z2.0000 F9000.00 
G01 X6.5278 Y6.3854 F3000.00 
G01 X6.5007 Y6.4507 
G01 X6.4507 Y6.5007 
G01 X6.3854 Y6.5278 
G01 X5.0446 Y6.5278 
G01 X4.9793 Y6.5007 
G01 X4.9293 Y6.4507 
G01 X4.9022 Y6.3854 
G01 X4.9022 Y5.0446 
G01 X4.9293 Y4.9793 
G01 X4.9793 Y4.9293 
G01 X5.0446 Y4.9022 
G01 X6.3854 Y4.9022 
G01 X6.4507 Y4.9293 
G01 X6.5007 Y4.9793 
G01 X6.5278 Y5.0446 
G00 Z10.0000 
G00 X3.9878 Y6.3146 
G01 Z2.0000 F9000.00 
G01 X3.9878 Y7.6554 F3000.00 
G01 X3.9607 Y7.7207 
G01 X3.9107 Y7.7707 
G01 X3.8454 Y7.7978 
G01 X2.5046 Y7.7978 
G01 X2.4393 Y7.7707 
G01 X2.3893 Y7.7207 
G01 X2.3622 Y7.6554 
G01 X2.3622 Y6.3146 
G01 X2.3893 Y6.2493 
G01 X2.4393 Y6.1993 
G01 X2.5046 Y6.1722 
G01 X3.8454 Y6.1722 
G01 X3.9107 Y6.1993 
G01 X3.9607 Y6.2493 
G01 X3.9878 Y6.3146 
G00 Z10.0000 
G00 X7.8613 Y2.4920 
G01 Z2.0000 F9000.00 
G01 X7.8613 Y3.8580 F3000.00 
G01 X7.8246 Y3.9467 
G01 X7.7567 Y4.0146 
G01 X7.6680 Y4.0513 
G01 X6.3020 Y4.0513 
G01 X6.2133 Y4.0146 
G01 X6.1454 Y3.9467 
G01 X6.1087 Y3.8580 
G01 X6.1087 Y2.4920 
G01 X6.1454 Y2.4033 
G01 X6.2133 Y2.3354 
G01 X6.3020 Y2.2987 
G01 X7.6680 Y2.2987 
G01 X7.7567 Y2.3354 
G01 X7.8246 Y2.4033 
G01 X7.8613 Y2.4920 
G00 Z10.0000 
G00 X6.5913 Y5.0320 
G01 Z2.0000 F9000.00 
G01 X6.5913 Y6.3980 F3000.00 
G01 X6.5546 Y6.4867 
G01 X6.4867 Y6.5546 
G01 X6.3980 Y6.5913 
G01 X5.0320 Y6.5913 
G01 X4.9433 Y6.5546 
G01 X4.8754 Y6.4867 
G01 X4.8387 Y6.3980 
G01 X4.8387 Y5.0320 
G01 X4.8754 Y4.9433 
G01 X4.9433 Y4.8754 
G01 X5.0320 Y4.8387 
G01 X6.3980 Y4.8387 
G01 X6.4867 Y4.8754 
G01 X6.5546 Y4.9433 
G01 X6.5913 Y5.0320 
G00 Z10.0000 
G00 X4.0513 Y6.3020 
G01 Z2.0000 F9000.00 
G01 X4.0513 Y7.6680 F3000.00 
G01 X4.0146 Y7.7567 
G01 X3.9467 Y7.8246 
G01 X3.8580 Y7.8613 
G01 X2.4920 Y7.8613 
G01 X2.4033 Y7.8246 
G01 X2.3354 Y7.7567 
G01 X2.2987 Y7.6680 
G01 X2.2987 Y6.3020 
G01 X2.3354 Y6.2133 
G01 X2.4033 Y6.1454 
G01 X2.4920 Y6.1087 
G01 X3.8580 Y6.1087 
G01 X3.9467 Y6.1454 
G01 X4.0146 Y6.2133 
G01 X4.0513 Y6.3020 
G00 Z10.0000 
G00 Z12.0000 
M05
M02
